(G-CODE GENERATED BY FLATCAM v8.994 - www.flatcam.org - Version Date: 2020/11/7)

(Name: dc_ph2_converter-Edge_Cuts.gbr_cutout_cnc)
(Type: G-code from Geometry)
(Units: MM)

(Created on Thursday, 19 January 2023 at 16:30)

(This preprocessor is the default preprocessor used by FlatCAM.)
(It is made to work with MACH3 compatible motion controllers.)

(TOOL DIAMETER: 0.7 mm)
(Feedrate_XY: 30.0 mm/min)
(Feedrate_Z: 15.0 mm/min)
(Feedrate rapids 1500.0 mm/min)

(Z_Cut: -1.94 mm)
(DepthPerCut: 0.485 mm <=>4 passes)
(Z_Move: 1.0 mm)
(Z Start: None mm)
(Z End: 15.0 mm)
(X,Y End: 0.0000, 0.0000 mm)
(Steps per circle: 64)
(Preprocessor Geometry: default)

(X range:    2.8750 ...   27.5000  mm)
(Y range:    2.9650 ...   21.8750  mm)

(Spindle Speed: 1000.0 RPM)
G21
G90
G94

G01 F30.00

M5
G00 Z15.0000
G00 X0.0000 Y0.0000
T1
M6    
(MSG, Change to Tool Dia = 0.7000)
M0
G00 Z15.0000

M03 S1000.0
G01 F30.00
G00 X5.2750 Y4.1675
G01 F15.00
G01 Z-0.4850
G01 F30.00
G01 X5.2745 Y4.1454
G01 X5.2707 Y4.0670
G01 X5.2694 Y4.0498
G01 X5.2668 Y4.0279
G01 X5.2553 Y3.9502
G01 X5.2524 Y3.9333
G01 X5.2477 Y3.9117
G01 X5.2286 Y3.8356
G01 X5.2240 Y3.8190
G01 X5.2172 Y3.7980
G01 X5.1907 Y3.7241
G01 X5.1846 Y3.7081
G01 X5.1757 Y3.6878
G01 X5.1422 Y3.6168
G01 X5.1344 Y3.6015
G01 X5.1236 Y3.5822
G01 X5.0833 Y3.5149
G01 X5.0741 Y3.5004
G01 X5.0615 Y3.4822
G01 X5.0147 Y3.4192
G01 X5.0041 Y3.4056
G01 X4.9898 Y3.3888
G01 X4.9371 Y3.3307
G01 X4.9252 Y3.3182
G01 X4.9093 Y3.3029
G01 X4.8512 Y3.2502
G01 X4.8381 Y3.2390
G01 X4.8208 Y3.2253
G01 X4.7578 Y3.1785
G01 X4.7437 Y3.1686
G01 X4.7251 Y3.1567
G01 X4.6578 Y3.1164
G01 X4.6428 Y3.1079
G01 X4.6232 Y3.0978
G01 X4.5522 Y3.0643
G01 X4.5365 Y3.0573
G01 X4.5159 Y3.0493
G01 X4.4420 Y3.0228
G01 X4.4257 Y3.0174
G01 X4.4044 Y3.0114
G01 X4.3283 Y2.9923
G01 X4.3115 Y2.9886
G01 X4.2898 Y2.9847
G01 X4.2121 Y2.9732
G01 X4.1951 Y2.9711
G01 X4.1730 Y2.9693
G01 X4.0946 Y2.9655
G01 X4.0775 Y2.9650
G01 X4.0554 Y2.9655
G01 X3.9770 Y2.9693
G01 X3.9598 Y2.9706
G01 X3.9379 Y2.9732
G01 X3.8602 Y2.9847
G01 X3.8433 Y2.9876
G01 X3.8217 Y2.9923
G01 X3.7456 Y3.0114
G01 X3.7290 Y3.0160
G01 X3.7080 Y3.0228
G01 X3.6341 Y3.0493
G01 X3.6181 Y3.0554
G01 X3.5978 Y3.0643
G01 X3.5268 Y3.0978
G01 X3.5115 Y3.1056
G01 X3.4922 Y3.1164
G01 X3.4249 Y3.1567
G01 X3.4104 Y3.1659
G01 X3.3922 Y3.1785
G01 X3.3292 Y3.2253
G01 X3.3156 Y3.2359
G01 X3.2988 Y3.2502
G01 X3.2407 Y3.3029
G01 X3.2282 Y3.3148
G01 X3.2129 Y3.3307
G01 X3.1602 Y3.3888
G01 X3.1490 Y3.4019
G01 X3.1353 Y3.4192
G01 X3.0885 Y3.4822
G01 X3.0786 Y3.4963
G01 X3.0667 Y3.5149
G01 X3.0264 Y3.5822
G01 X3.0179 Y3.5972
G01 X3.0078 Y3.6168
G01 X2.9743 Y3.6878
G01 X2.9673 Y3.7035
G01 X2.9593 Y3.7241
G01 X2.9328 Y3.7980
G01 X2.9274 Y3.8143
G01 X2.9214 Y3.8356
G01 X2.9023 Y3.9117
G01 X2.8986 Y3.9285
G01 X2.8947 Y3.9502
G01 X2.8832 Y4.0279
G01 X2.8811 Y4.0449
G01 X2.8793 Y4.0670
G01 X2.8755 Y4.1454
G01 X2.8750 Y4.1625
G01 X2.8755 Y4.1846
G01 X2.8793 Y4.2630
G01 X2.8806 Y4.2802
G01 X2.8832 Y4.3021
G01 X2.8947 Y4.3798
G01 X2.8976 Y4.3967
G01 X2.9023 Y4.4183
G01 X2.9214 Y4.4944
G01 X2.9260 Y4.5110
G01 X2.9328 Y4.5320
G01 X2.9593 Y4.6059
G01 X2.9654 Y4.6219
G01 X2.9743 Y4.6422
G01 X3.0078 Y4.7132
G01 X3.0156 Y4.7285
G01 X3.0264 Y4.7478
G01 X3.0667 Y4.8151
G01 X3.0759 Y4.8296
G01 X3.0885 Y4.8478
G01 X3.1353 Y4.9108
G01 X3.1459 Y4.9244
G01 X3.1602 Y4.9412
G01 X3.2129 Y4.9993
G01 X3.2248 Y5.0118
G01 X3.2407 Y5.0271
G01 X3.2988 Y5.0798
G01 X3.3119 Y5.0910
G01 X3.3292 Y5.1047
G01 X3.3922 Y5.1515
G01 X3.4063 Y5.1614
G01 X3.4249 Y5.1733
G01 X3.4922 Y5.2136
G01 X3.5072 Y5.2221
G01 X3.5268 Y5.2322
G01 X3.5978 Y5.2657
G01 X3.6135 Y5.2727
G01 X3.6341 Y5.2807
G01 X3.7080 Y5.3072
G01 X3.7243 Y5.3126
G01 X3.7456 Y5.3186
G01 X3.8217 Y5.3377
G01 X3.8385 Y5.3414
G01 X3.8602 Y5.3453
G01 X3.9379 Y5.3568
G01 X3.9549 Y5.3589
G01 X3.9770 Y5.3607
G01 X4.0554 Y5.3645
G01 X4.0725 Y5.3650
G01 X4.0946 Y5.3645
G01 X4.1730 Y5.3607
G01 X4.1902 Y5.3594
G01 X4.2121 Y5.3568
G01 X4.2898 Y5.3453
G01 X4.3067 Y5.3424
G01 X4.3283 Y5.3377
G01 X4.4044 Y5.3186
G01 X4.4210 Y5.3140
G01 X4.4420 Y5.3072
G01 X4.5159 Y5.2807
G01 X4.5319 Y5.2746
G01 X4.5522 Y5.2657
G01 X4.6232 Y5.2322
G01 X4.6385 Y5.2244
G01 X4.6578 Y5.2136
G01 X4.7251 Y5.1733
G01 X4.7396 Y5.1641
G01 X4.7578 Y5.1515
G01 X4.8208 Y5.1047
G01 X4.8344 Y5.0941
G01 X4.8512 Y5.0798
G01 X4.9093 Y5.0271
G01 X4.9218 Y5.0152
G01 X4.9371 Y4.9993
G01 X4.9898 Y4.9412
G01 X5.0010 Y4.9281
G01 X5.0147 Y4.9108
G01 X5.0615 Y4.8478
G01 X5.0714 Y4.8337
G01 X5.0833 Y4.8151
G01 X5.1236 Y4.7478
G01 X5.1321 Y4.7328
G01 X5.1422 Y4.7132
G01 X5.1757 Y4.6422
G01 X5.1827 Y4.6265
G01 X5.1907 Y4.6059
G01 X5.2172 Y4.5320
G01 X5.2226 Y4.5157
G01 X5.2286 Y4.4944
G01 X5.2477 Y4.4183
G01 X5.2514 Y4.4015
G01 X5.2553 Y4.3798
G01 X5.2668 Y4.3021
G01 X5.2689 Y4.2851
G01 X5.2707 Y4.2630
G01 X5.2745 Y4.1846
G01 X5.2750 Y4.1675
G00 X5.2750 Y4.1675
G01 F15.00
G01 Z-0.9700
G01 F30.00
G01 X5.2745 Y4.1846
G01 X5.2707 Y4.2630
G01 X5.2689 Y4.2851
G01 X5.2668 Y4.3021
G01 X5.2553 Y4.3798
G01 X5.2514 Y4.4015
G01 X5.2477 Y4.4183
G01 X5.2286 Y4.4944
G01 X5.2226 Y4.5157
G01 X5.2172 Y4.5320
G01 X5.1907 Y4.6059
G01 X5.1827 Y4.6265
G01 X5.1757 Y4.6422
G01 X5.1422 Y4.7132
G01 X5.1321 Y4.7328
G01 X5.1236 Y4.7478
G01 X5.0833 Y4.8151
G01 X5.0714 Y4.8337
G01 X5.0615 Y4.8478
G01 X5.0147 Y4.9108
G01 X5.0010 Y4.9281
G01 X4.9898 Y4.9412
G01 X4.9371 Y4.9993
G01 X4.9218 Y5.0152
G01 X4.9093 Y5.0271
G01 X4.8512 Y5.0798
G01 X4.8344 Y5.0941
G01 X4.8208 Y5.1047
G01 X4.7578 Y5.1515
G01 X4.7396 Y5.1641
G01 X4.7251 Y5.1733
G01 X4.6578 Y5.2136
G01 X4.6385 Y5.2244
G01 X4.6232 Y5.2322
G01 X4.5522 Y5.2657
G01 X4.5319 Y5.2746
G01 X4.5159 Y5.2807
G01 X4.4420 Y5.3072
G01 X4.4210 Y5.3140
G01 X4.4044 Y5.3186
G01 X4.3283 Y5.3377
G01 X4.3067 Y5.3424
G01 X4.2898 Y5.3453
G01 X4.2121 Y5.3568
G01 X4.1902 Y5.3594
G01 X4.1730 Y5.3607
G01 X4.0946 Y5.3645
G01 X4.0725 Y5.3650
G01 X4.0554 Y5.3645
G01 X3.9770 Y5.3607
G01 X3.9549 Y5.3589
G01 X3.9379 Y5.3568
G01 X3.8602 Y5.3453
G01 X3.8385 Y5.3414
G01 X3.8217 Y5.3377
G01 X3.7456 Y5.3186
G01 X3.7243 Y5.3126
G01 X3.7080 Y5.3072
G01 X3.6341 Y5.2807
G01 X3.6135 Y5.2727
G01 X3.5978 Y5.2657
G01 X3.5268 Y5.2322
G01 X3.5072 Y5.2221
G01 X3.4922 Y5.2136
G01 X3.4249 Y5.1733
G01 X3.4063 Y5.1614
G01 X3.3922 Y5.1515
G01 X3.3292 Y5.1047
G01 X3.3119 Y5.0910
G01 X3.2988 Y5.0798
G01 X3.2407 Y5.0271
G01 X3.2248 Y5.0118
G01 X3.2129 Y4.9993
G01 X3.1602 Y4.9412
G01 X3.1459 Y4.9244
G01 X3.1353 Y4.9108
G01 X3.0885 Y4.8478
G01 X3.0759 Y4.8296
G01 X3.0667 Y4.8151
G01 X3.0264 Y4.7478
G01 X3.0156 Y4.7285
G01 X3.0078 Y4.7132
G01 X2.9743 Y4.6422
G01 X2.9654 Y4.6219
G01 X2.9593 Y4.6059
G01 X2.9328 Y4.5320
G01 X2.9260 Y4.5110
G01 X2.9214 Y4.4944
G01 X2.9023 Y4.4183
G01 X2.8976 Y4.3967
G01 X2.8947 Y4.3798
G01 X2.8832 Y4.3021
G01 X2.8806 Y4.2802
G01 X2.8793 Y4.2630
G01 X2.8755 Y4.1846
G01 X2.8750 Y4.1625
G01 X2.8755 Y4.1454
G01 X2.8793 Y4.0670
G01 X2.8811 Y4.0449
G01 X2.8832 Y4.0279
G01 X2.8947 Y3.9502
G01 X2.8986 Y3.9285
G01 X2.9023 Y3.9117
G01 X2.9214 Y3.8356
G01 X2.9274 Y3.8143
G01 X2.9328 Y3.7980
G01 X2.9593 Y3.7241
G01 X2.9673 Y3.7035
G01 X2.9743 Y3.6878
G01 X3.0078 Y3.6168
G01 X3.0179 Y3.5972
G01 X3.0264 Y3.5822
G01 X3.0667 Y3.5149
G01 X3.0786 Y3.4963
G01 X3.0885 Y3.4822
G01 X3.1353 Y3.4192
G01 X3.1490 Y3.4019
G01 X3.1602 Y3.3888
G01 X3.2129 Y3.3307
G01 X3.2282 Y3.3148
G01 X3.2407 Y3.3029
G01 X3.2988 Y3.2502
G01 X3.3156 Y3.2359
G01 X3.3292 Y3.2253
G01 X3.3922 Y3.1785
G01 X3.4104 Y3.1659
G01 X3.4249 Y3.1567
G01 X3.4922 Y3.1164
G01 X3.5115 Y3.1056
G01 X3.5268 Y3.0978
G01 X3.5978 Y3.0643
G01 X3.6181 Y3.0554
G01 X3.6341 Y3.0493
G01 X3.7080 Y3.0228
G01 X3.7290 Y3.0160
G01 X3.7456 Y3.0114
G01 X3.8217 Y2.9923
G01 X3.8433 Y2.9876
G01 X3.8602 Y2.9847
G01 X3.9379 Y2.9732
G01 X3.9598 Y2.9706
G01 X3.9770 Y2.9693
G01 X4.0554 Y2.9655
G01 X4.0775 Y2.9650
G01 X4.0946 Y2.9655
G01 X4.1730 Y2.9693
G01 X4.1951 Y2.9711
G01 X4.2121 Y2.9732
G01 X4.2898 Y2.9847
G01 X4.3115 Y2.9886
G01 X4.3283 Y2.9923
G01 X4.4044 Y3.0114
G01 X4.4257 Y3.0174
G01 X4.4420 Y3.0228
G01 X4.5159 Y3.0493
G01 X4.5365 Y3.0573
G01 X4.5522 Y3.0643
G01 X4.6232 Y3.0978
G01 X4.6428 Y3.1079
G01 X4.6578 Y3.1164
G01 X4.7251 Y3.1567
G01 X4.7437 Y3.1686
G01 X4.7578 Y3.1785
G01 X4.8208 Y3.2253
G01 X4.8381 Y3.2390
G01 X4.8512 Y3.2502
G01 X4.9093 Y3.3029
G01 X4.9252 Y3.3182
G01 X4.9371 Y3.3307
G01 X4.9898 Y3.3888
G01 X5.0041 Y3.4056
G01 X5.0147 Y3.4192
G01 X5.0615 Y3.4822
G01 X5.0741 Y3.5004
G01 X5.0833 Y3.5149
G01 X5.1236 Y3.5822
G01 X5.1344 Y3.6015
G01 X5.1422 Y3.6168
G01 X5.1757 Y3.6878
G01 X5.1846 Y3.7081
G01 X5.1907 Y3.7241
G01 X5.2172 Y3.7980
G01 X5.2240 Y3.8190
G01 X5.2286 Y3.8356
G01 X5.2477 Y3.9117
G01 X5.2524 Y3.9333
G01 X5.2553 Y3.9502
G01 X5.2668 Y4.0279
G01 X5.2694 Y4.0498
G01 X5.2707 Y4.0670
G01 X5.2745 Y4.1454
G01 X5.2750 Y4.1675
G00 X5.2750 Y4.1675
G01 F15.00
G01 Z-1.4550
G01 F30.00
G01 X5.2745 Y4.1454
G01 X5.2707 Y4.0670
G01 X5.2694 Y4.0498
G01 X5.2668 Y4.0279
G01 X5.2553 Y3.9502
G01 X5.2524 Y3.9333
G01 X5.2477 Y3.9117
G01 X5.2286 Y3.8356
G01 X5.2240 Y3.8190
G01 X5.2172 Y3.7980
G01 X5.1907 Y3.7241
G01 X5.1846 Y3.7081
G01 X5.1757 Y3.6878
G01 X5.1422 Y3.6168
G01 X5.1344 Y3.6015
G01 X5.1236 Y3.5822
G01 X5.0833 Y3.5149
G01 X5.0741 Y3.5004
G01 X5.0615 Y3.4822
G01 X5.0147 Y3.4192
G01 X5.0041 Y3.4056
G01 X4.9898 Y3.3888
G01 X4.9371 Y3.3307
G01 X4.9252 Y3.3182
G01 X4.9093 Y3.3029
G01 X4.8512 Y3.2502
G01 X4.8381 Y3.2390
G01 X4.8208 Y3.2253
G01 X4.7578 Y3.1785
G01 X4.7437 Y3.1686
G01 X4.7251 Y3.1567
G01 X4.6578 Y3.1164
G01 X4.6428 Y3.1079
G01 X4.6232 Y3.0978
G01 X4.5522 Y3.0643
G01 X4.5365 Y3.0573
G01 X4.5159 Y3.0493
G01 X4.4420 Y3.0228
G01 X4.4257 Y3.0174
G01 X4.4044 Y3.0114
G01 X4.3283 Y2.9923
G01 X4.3115 Y2.9886
G01 X4.2898 Y2.9847
G01 X4.2121 Y2.9732
G01 X4.1951 Y2.9711
G01 X4.1730 Y2.9693
G01 X4.0946 Y2.9655
G01 X4.0775 Y2.9650
G01 X4.0554 Y2.9655
G01 X3.9770 Y2.9693
G01 X3.9598 Y2.9706
G01 X3.9379 Y2.9732
G01 X3.8602 Y2.9847
G01 X3.8433 Y2.9876
G01 X3.8217 Y2.9923
G01 X3.7456 Y3.0114
G01 X3.7290 Y3.0160
G01 X3.7080 Y3.0228
G01 X3.6341 Y3.0493
G01 X3.6181 Y3.0554
G01 X3.5978 Y3.0643
G01 X3.5268 Y3.0978
G01 X3.5115 Y3.1056
G01 X3.4922 Y3.1164
G01 X3.4249 Y3.1567
G01 X3.4104 Y3.1659
G01 X3.3922 Y3.1785
G01 X3.3292 Y3.2253
G01 X3.3156 Y3.2359
G01 X3.2988 Y3.2502
G01 X3.2407 Y3.3029
G01 X3.2282 Y3.3148
G01 X3.2129 Y3.3307
G01 X3.1602 Y3.3888
G01 X3.1490 Y3.4019
G01 X3.1353 Y3.4192
G01 X3.0885 Y3.4822
G01 X3.0786 Y3.4963
G01 X3.0667 Y3.5149
G01 X3.0264 Y3.5822
G01 X3.0179 Y3.5972
G01 X3.0078 Y3.6168
G01 X2.9743 Y3.6878
G01 X2.9673 Y3.7035
G01 X2.9593 Y3.7241
G01 X2.9328 Y3.7980
G01 X2.9274 Y3.8143
G01 X2.9214 Y3.8356
G01 X2.9023 Y3.9117
G01 X2.8986 Y3.9285
G01 X2.8947 Y3.9502
G01 X2.8832 Y4.0279
G01 X2.8811 Y4.0449
G01 X2.8793 Y4.0670
G01 X2.8755 Y4.1454
G01 X2.8750 Y4.1625
G01 X2.8755 Y4.1846
G01 X2.8793 Y4.2630
G01 X2.8806 Y4.2802
G01 X2.8832 Y4.3021
G01 X2.8947 Y4.3798
G01 X2.8976 Y4.3967
G01 X2.9023 Y4.4183
G01 X2.9214 Y4.4944
G01 X2.9260 Y4.5110
G01 X2.9328 Y4.5320
G01 X2.9593 Y4.6059
G01 X2.9654 Y4.6219
G01 X2.9743 Y4.6422
G01 X3.0078 Y4.7132
G01 X3.0156 Y4.7285
G01 X3.0264 Y4.7478
G01 X3.0667 Y4.8151
G01 X3.0759 Y4.8296
G01 X3.0885 Y4.8478
G01 X3.1353 Y4.9108
G01 X3.1459 Y4.9244
G01 X3.1602 Y4.9412
G01 X3.2129 Y4.9993
G01 X3.2248 Y5.0118
G01 X3.2407 Y5.0271
G01 X3.2988 Y5.0798
G01 X3.3119 Y5.0910
G01 X3.3292 Y5.1047
G01 X3.3922 Y5.1515
G01 X3.4063 Y5.1614
G01 X3.4249 Y5.1733
G01 X3.4922 Y5.2136
G01 X3.5072 Y5.2221
G01 X3.5268 Y5.2322
G01 X3.5978 Y5.2657
G01 X3.6135 Y5.2727
G01 X3.6341 Y5.2807
G01 X3.7080 Y5.3072
G01 X3.7243 Y5.3126
G01 X3.7456 Y5.3186
G01 X3.8217 Y5.3377
G01 X3.8385 Y5.3414
G01 X3.8602 Y5.3453
G01 X3.9379 Y5.3568
G01 X3.9549 Y5.3589
G01 X3.9770 Y5.3607
G01 X4.0554 Y5.3645
G01 X4.0725 Y5.3650
G01 X4.0946 Y5.3645
G01 X4.1730 Y5.3607
G01 X4.1902 Y5.3594
G01 X4.2121 Y5.3568
G01 X4.2898 Y5.3453
G01 X4.3067 Y5.3424
G01 X4.3283 Y5.3377
G01 X4.4044 Y5.3186
G01 X4.4210 Y5.3140
G01 X4.4420 Y5.3072
G01 X4.5159 Y5.2807
G01 X4.5319 Y5.2746
G01 X4.5522 Y5.2657
G01 X4.6232 Y5.2322
G01 X4.6385 Y5.2244
G01 X4.6578 Y5.2136
G01 X4.7251 Y5.1733
G01 X4.7396 Y5.1641
G01 X4.7578 Y5.1515
G01 X4.8208 Y5.1047
G01 X4.8344 Y5.0941
G01 X4.8512 Y5.0798
G01 X4.9093 Y5.0271
G01 X4.9218 Y5.0152
G01 X4.9371 Y4.9993
G01 X4.9898 Y4.9412
G01 X5.0010 Y4.9281
G01 X5.0147 Y4.9108
G01 X5.0615 Y4.8478
G01 X5.0714 Y4.8337
G01 X5.0833 Y4.8151
G01 X5.1236 Y4.7478
G01 X5.1321 Y4.7328
G01 X5.1422 Y4.7132
G01 X5.1757 Y4.6422
G01 X5.1827 Y4.6265
G01 X5.1907 Y4.6059
G01 X5.2172 Y4.5320
G01 X5.2226 Y4.5157
G01 X5.2286 Y4.4944
G01 X5.2477 Y4.4183
G01 X5.2514 Y4.4015
G01 X5.2553 Y4.3798
G01 X5.2668 Y4.3021
G01 X5.2689 Y4.2851
G01 X5.2707 Y4.2630
G01 X5.2745 Y4.1846
G01 X5.2750 Y4.1675
G00 X5.2750 Y4.1675
G01 F15.00
G01 Z-1.9400
G01 F30.00
G01 X5.2745 Y4.1846
G01 X5.2707 Y4.2630
G01 X5.2689 Y4.2851
G01 X5.2668 Y4.3021
G01 X5.2553 Y4.3798
G01 X5.2514 Y4.4015
G01 X5.2477 Y4.4183
G01 X5.2286 Y4.4944
G01 X5.2226 Y4.5157
G01 X5.2172 Y4.5320
G01 X5.1907 Y4.6059
G01 X5.1827 Y4.6265
G01 X5.1757 Y4.6422
G01 X5.1422 Y4.7132
G01 X5.1321 Y4.7328
G01 X5.1236 Y4.7478
G01 X5.0833 Y4.8151
G01 X5.0714 Y4.8337
G01 X5.0615 Y4.8478
G01 X5.0147 Y4.9108
G01 X5.0010 Y4.9281
G01 X4.9898 Y4.9412
G01 X4.9371 Y4.9993
G01 X4.9218 Y5.0152
G01 X4.9093 Y5.0271
G01 X4.8512 Y5.0798
G01 X4.8344 Y5.0941
G01 X4.8208 Y5.1047
G01 X4.7578 Y5.1515
G01 X4.7396 Y5.1641
G01 X4.7251 Y5.1733
G01 X4.6578 Y5.2136
G01 X4.6385 Y5.2244
G01 X4.6232 Y5.2322
G01 X4.5522 Y5.2657
G01 X4.5319 Y5.2746
G01 X4.5159 Y5.2807
G01 X4.4420 Y5.3072
G01 X4.4210 Y5.3140
G01 X4.4044 Y5.3186
G01 X4.3283 Y5.3377
G01 X4.3067 Y5.3424
G01 X4.2898 Y5.3453
G01 X4.2121 Y5.3568
G01 X4.1902 Y5.3594
G01 X4.1730 Y5.3607
G01 X4.0946 Y5.3645
G01 X4.0725 Y5.3650
G01 X4.0554 Y5.3645
G01 X3.9770 Y5.3607
G01 X3.9549 Y5.3589
G01 X3.9379 Y5.3568
G01 X3.8602 Y5.3453
G01 X3.8385 Y5.3414
G01 X3.8217 Y5.3377
G01 X3.7456 Y5.3186
G01 X3.7243 Y5.3126
G01 X3.7080 Y5.3072
G01 X3.6341 Y5.2807
G01 X3.6135 Y5.2727
G01 X3.5978 Y5.2657
G01 X3.5268 Y5.2322
G01 X3.5072 Y5.2221
G01 X3.4922 Y5.2136
G01 X3.4249 Y5.1733
G01 X3.4063 Y5.1614
G01 X3.3922 Y5.1515
G01 X3.3292 Y5.1047
G01 X3.3119 Y5.0910
G01 X3.2988 Y5.0798
G01 X3.2407 Y5.0271
G01 X3.2248 Y5.0118
G01 X3.2129 Y4.9993
G01 X3.1602 Y4.9412
G01 X3.1459 Y4.9244
G01 X3.1353 Y4.9108
G01 X3.0885 Y4.8478
G01 X3.0759 Y4.8296
G01 X3.0667 Y4.8151
G01 X3.0264 Y4.7478
G01 X3.0156 Y4.7285
G01 X3.0078 Y4.7132
G01 X2.9743 Y4.6422
G01 X2.9654 Y4.6219
G01 X2.9593 Y4.6059
G01 X2.9328 Y4.5320
G01 X2.9260 Y4.5110
G01 X2.9214 Y4.4944
G01 X2.9023 Y4.4183
G01 X2.8976 Y4.3967
G01 X2.8947 Y4.3798
G01 X2.8832 Y4.3021
G01 X2.8806 Y4.2802
G01 X2.8793 Y4.2630
G01 X2.8755 Y4.1846
G01 X2.8750 Y4.1625
G01 X2.8755 Y4.1454
G01 X2.8793 Y4.0670
G01 X2.8811 Y4.0449
G01 X2.8832 Y4.0279
G01 X2.8947 Y3.9502
G01 X2.8986 Y3.9285
G01 X2.9023 Y3.9117
G01 X2.9214 Y3.8356
G01 X2.9274 Y3.8143
G01 X2.9328 Y3.7980
G01 X2.9593 Y3.7241
G01 X2.9673 Y3.7035
G01 X2.9743 Y3.6878
G01 X3.0078 Y3.6168
G01 X3.0179 Y3.5972
G01 X3.0264 Y3.5822
G01 X3.0667 Y3.5149
G01 X3.0786 Y3.4963
G01 X3.0885 Y3.4822
G01 X3.1353 Y3.4192
G01 X3.1490 Y3.4019
G01 X3.1602 Y3.3888
G01 X3.2129 Y3.3307
G01 X3.2282 Y3.3148
G01 X3.2407 Y3.3029
G01 X3.2988 Y3.2502
G01 X3.3156 Y3.2359
G01 X3.3292 Y3.2253
G01 X3.3922 Y3.1785
G01 X3.4104 Y3.1659
G01 X3.4249 Y3.1567
G01 X3.4922 Y3.1164
G01 X3.5115 Y3.1056
G01 X3.5268 Y3.0978
G01 X3.5978 Y3.0643
G01 X3.6181 Y3.0554
G01 X3.6341 Y3.0493
G01 X3.7080 Y3.0228
G01 X3.7290 Y3.0160
G01 X3.7456 Y3.0114
G01 X3.8217 Y2.9923
G01 X3.8433 Y2.9876
G01 X3.8602 Y2.9847
G01 X3.9379 Y2.9732
G01 X3.9598 Y2.9706
G01 X3.9770 Y2.9693
G01 X4.0554 Y2.9655
G01 X4.0775 Y2.9650
G01 X4.0946 Y2.9655
G01 X4.1730 Y2.9693
G01 X4.1951 Y2.9711
G01 X4.2121 Y2.9732
G01 X4.2898 Y2.9847
G01 X4.3115 Y2.9886
G01 X4.3283 Y2.9923
G01 X4.4044 Y3.0114
G01 X4.4257 Y3.0174
G01 X4.4420 Y3.0228
G01 X4.5159 Y3.0493
G01 X4.5365 Y3.0573
G01 X4.5522 Y3.0643
G01 X4.6232 Y3.0978
G01 X4.6428 Y3.1079
G01 X4.6578 Y3.1164
G01 X4.7251 Y3.1567
G01 X4.7437 Y3.1686
G01 X4.7578 Y3.1785
G01 X4.8208 Y3.2253
G01 X4.8381 Y3.2390
G01 X4.8512 Y3.2502
G01 X4.9093 Y3.3029
G01 X4.9252 Y3.3182
G01 X4.9371 Y3.3307
G01 X4.9898 Y3.3888
G01 X5.0041 Y3.4056
G01 X5.0147 Y3.4192
G01 X5.0615 Y3.4822
G01 X5.0741 Y3.5004
G01 X5.0833 Y3.5149
G01 X5.1236 Y3.5822
G01 X5.1344 Y3.6015
G01 X5.1422 Y3.6168
G01 X5.1757 Y3.6878
G01 X5.1846 Y3.7081
G01 X5.1907 Y3.7241
G01 X5.2172 Y3.7980
G01 X5.2240 Y3.8190
G01 X5.2286 Y3.8356
G01 X5.2477 Y3.9117
G01 X5.2524 Y3.9333
G01 X5.2553 Y3.9502
G01 X5.2668 Y4.0279
G01 X5.2694 Y4.0498
G01 X5.2707 Y4.0670
G01 X5.2745 Y4.1454
G01 X5.2750 Y4.1675
G00 Z1.0000
G00 X5.2750 Y20.6775
G01 F15.00
G01 Z-0.4850
G01 F30.00
G01 X5.2745 Y20.6554
G01 X5.2707 Y20.5770
G01 X5.2694 Y20.5598
G01 X5.2668 Y20.5379
G01 X5.2553 Y20.4602
G01 X5.2524 Y20.4433
G01 X5.2477 Y20.4217
G01 X5.2286 Y20.3456
G01 X5.2240 Y20.3290
G01 X5.2172 Y20.3080
G01 X5.1907 Y20.2341
G01 X5.1846 Y20.2181
G01 X5.1757 Y20.1978
G01 X5.1422 Y20.1268
G01 X5.1344 Y20.1115
G01 X5.1236 Y20.0922
G01 X5.0833 Y20.0249
G01 X5.0741 Y20.0104
G01 X5.0615 Y19.9922
G01 X5.0147 Y19.9292
G01 X5.0041 Y19.9156
G01 X4.9898 Y19.8988
G01 X4.9371 Y19.8407
G01 X4.9252 Y19.8282
G01 X4.9093 Y19.8129
G01 X4.8512 Y19.7602
G01 X4.8381 Y19.7490
G01 X4.8208 Y19.7353
G01 X4.7578 Y19.6885
G01 X4.7437 Y19.6786
G01 X4.7251 Y19.6667
G01 X4.6578 Y19.6264
G01 X4.6428 Y19.6179
G01 X4.6232 Y19.6078
G01 X4.5522 Y19.5743
G01 X4.5365 Y19.5673
G01 X4.5159 Y19.5593
G01 X4.4420 Y19.5328
G01 X4.4257 Y19.5274
G01 X4.4044 Y19.5214
G01 X4.3283 Y19.5023
G01 X4.3115 Y19.4986
G01 X4.2898 Y19.4947
G01 X4.2121 Y19.4832
G01 X4.1951 Y19.4811
G01 X4.1730 Y19.4793
G01 X4.0946 Y19.4755
G01 X4.0775 Y19.4750
G01 X4.0554 Y19.4755
G01 X3.9770 Y19.4793
G01 X3.9598 Y19.4806
G01 X3.9379 Y19.4832
G01 X3.8602 Y19.4947
G01 X3.8433 Y19.4976
G01 X3.8217 Y19.5023
G01 X3.7456 Y19.5214
G01 X3.7290 Y19.5260
G01 X3.7080 Y19.5328
G01 X3.6341 Y19.5593
G01 X3.6181 Y19.5654
G01 X3.5978 Y19.5743
G01 X3.5268 Y19.6078
G01 X3.5115 Y19.6156
G01 X3.4922 Y19.6264
G01 X3.4249 Y19.6667
G01 X3.4104 Y19.6759
G01 X3.3922 Y19.6885
G01 X3.3292 Y19.7353
G01 X3.3156 Y19.7459
G01 X3.2988 Y19.7602
G01 X3.2407 Y19.8129
G01 X3.2282 Y19.8248
G01 X3.2129 Y19.8407
G01 X3.1602 Y19.8988
G01 X3.1490 Y19.9119
G01 X3.1353 Y19.9292
G01 X3.0885 Y19.9922
G01 X3.0786 Y20.0063
G01 X3.0667 Y20.0249
G01 X3.0264 Y20.0922
G01 X3.0179 Y20.1072
G01 X3.0078 Y20.1268
G01 X2.9743 Y20.1978
G01 X2.9673 Y20.2135
G01 X2.9593 Y20.2341
G01 X2.9328 Y20.3080
G01 X2.9274 Y20.3243
G01 X2.9214 Y20.3456
G01 X2.9023 Y20.4217
G01 X2.8986 Y20.4385
G01 X2.8947 Y20.4602
G01 X2.8832 Y20.5379
G01 X2.8811 Y20.5549
G01 X2.8793 Y20.5770
G01 X2.8755 Y20.6554
G01 X2.8750 Y20.6725
G01 X2.8755 Y20.6946
G01 X2.8793 Y20.7730
G01 X2.8806 Y20.7902
G01 X2.8832 Y20.8121
G01 X2.8947 Y20.8898
G01 X2.8976 Y20.9067
G01 X2.9023 Y20.9283
G01 X2.9214 Y21.0044
G01 X2.9260 Y21.0210
G01 X2.9328 Y21.0420
G01 X2.9593 Y21.1159
G01 X2.9654 Y21.1319
G01 X2.9743 Y21.1522
G01 X3.0078 Y21.2232
G01 X3.0156 Y21.2385
G01 X3.0264 Y21.2578
G01 X3.0667 Y21.3251
G01 X3.0759 Y21.3396
G01 X3.0885 Y21.3578
G01 X3.1353 Y21.4208
G01 X3.1459 Y21.4344
G01 X3.1602 Y21.4512
G01 X3.2129 Y21.5093
G01 X3.2248 Y21.5218
G01 X3.2407 Y21.5371
G01 X3.2988 Y21.5898
G01 X3.3119 Y21.6010
G01 X3.3292 Y21.6147
G01 X3.3922 Y21.6615
G01 X3.4063 Y21.6714
G01 X3.4249 Y21.6833
G01 X3.4922 Y21.7236
G01 X3.5072 Y21.7321
G01 X3.5268 Y21.7422
G01 X3.5978 Y21.7757
G01 X3.6135 Y21.7827
G01 X3.6341 Y21.7907
G01 X3.7080 Y21.8172
G01 X3.7243 Y21.8226
G01 X3.7456 Y21.8286
G01 X3.8217 Y21.8477
G01 X3.8385 Y21.8514
G01 X3.8602 Y21.8553
G01 X3.9379 Y21.8668
G01 X3.9549 Y21.8689
G01 X3.9770 Y21.8707
G01 X4.0554 Y21.8745
G01 X4.0725 Y21.8750
G01 X4.0946 Y21.8745
G01 X4.1730 Y21.8707
G01 X4.1902 Y21.8694
G01 X4.2121 Y21.8668
G01 X4.2898 Y21.8553
G01 X4.3067 Y21.8524
G01 X4.3283 Y21.8477
G01 X4.4044 Y21.8286
G01 X4.4210 Y21.8240
G01 X4.4420 Y21.8172
G01 X4.5159 Y21.7907
G01 X4.5319 Y21.7846
G01 X4.5522 Y21.7757
G01 X4.6232 Y21.7422
G01 X4.6385 Y21.7344
G01 X4.6578 Y21.7236
G01 X4.7251 Y21.6833
G01 X4.7396 Y21.6741
G01 X4.7578 Y21.6615
G01 X4.8208 Y21.6147
G01 X4.8344 Y21.6041
G01 X4.8512 Y21.5898
G01 X4.9093 Y21.5371
G01 X4.9218 Y21.5252
G01 X4.9371 Y21.5093
G01 X4.9898 Y21.4512
G01 X5.0010 Y21.4381
G01 X5.0147 Y21.4208
G01 X5.0615 Y21.3578
G01 X5.0714 Y21.3437
G01 X5.0833 Y21.3251
G01 X5.1236 Y21.2578
G01 X5.1321 Y21.2428
G01 X5.1422 Y21.2232
G01 X5.1757 Y21.1522
G01 X5.1827 Y21.1365
G01 X5.1907 Y21.1159
G01 X5.2172 Y21.0420
G01 X5.2226 Y21.0257
G01 X5.2286 Y21.0044
G01 X5.2477 Y20.9283
G01 X5.2514 Y20.9115
G01 X5.2553 Y20.8898
G01 X5.2668 Y20.8121
G01 X5.2689 Y20.7951
G01 X5.2707 Y20.7730
G01 X5.2745 Y20.6946
G01 X5.2750 Y20.6775
G00 X5.2750 Y20.6775
G01 F15.00
G01 Z-0.9700
G01 F30.00
G01 X5.2745 Y20.6946
G01 X5.2707 Y20.7730
G01 X5.2689 Y20.7951
G01 X5.2668 Y20.8121
G01 X5.2553 Y20.8898
G01 X5.2514 Y20.9115
G01 X5.2477 Y20.9283
G01 X5.2286 Y21.0044
G01 X5.2226 Y21.0257
G01 X5.2172 Y21.0420
G01 X5.1907 Y21.1159
G01 X5.1827 Y21.1365
G01 X5.1757 Y21.1522
G01 X5.1422 Y21.2232
G01 X5.1321 Y21.2428
G01 X5.1236 Y21.2578
G01 X5.0833 Y21.3251
G01 X5.0714 Y21.3437
G01 X5.0615 Y21.3578
G01 X5.0147 Y21.4208
G01 X5.0010 Y21.4381
G01 X4.9898 Y21.4512
G01 X4.9371 Y21.5093
G01 X4.9218 Y21.5252
G01 X4.9093 Y21.5371
G01 X4.8512 Y21.5898
G01 X4.8344 Y21.6041
G01 X4.8208 Y21.6147
G01 X4.7578 Y21.6615
G01 X4.7396 Y21.6741
G01 X4.7251 Y21.6833
G01 X4.6578 Y21.7236
G01 X4.6385 Y21.7344
G01 X4.6232 Y21.7422
G01 X4.5522 Y21.7757
G01 X4.5319 Y21.7846
G01 X4.5159 Y21.7907
G01 X4.4420 Y21.8172
G01 X4.4210 Y21.8240
G01 X4.4044 Y21.8286
G01 X4.3283 Y21.8477
G01 X4.3067 Y21.8524
G01 X4.2898 Y21.8553
G01 X4.2121 Y21.8668
G01 X4.1902 Y21.8694
G01 X4.1730 Y21.8707
G01 X4.0946 Y21.8745
G01 X4.0725 Y21.8750
G01 X4.0554 Y21.8745
G01 X3.9770 Y21.8707
G01 X3.9549 Y21.8689
G01 X3.9379 Y21.8668
G01 X3.8602 Y21.8553
G01 X3.8385 Y21.8514
G01 X3.8217 Y21.8477
G01 X3.7456 Y21.8286
G01 X3.7243 Y21.8226
G01 X3.7080 Y21.8172
G01 X3.6341 Y21.7907
G01 X3.6135 Y21.7827
G01 X3.5978 Y21.7757
G01 X3.5268 Y21.7422
G01 X3.5072 Y21.7321
G01 X3.4922 Y21.7236
G01 X3.4249 Y21.6833
G01 X3.4063 Y21.6714
G01 X3.3922 Y21.6615
G01 X3.3292 Y21.6147
G01 X3.3119 Y21.6010
G01 X3.2988 Y21.5898
G01 X3.2407 Y21.5371
G01 X3.2248 Y21.5218
G01 X3.2129 Y21.5093
G01 X3.1602 Y21.4512
G01 X3.1459 Y21.4344
G01 X3.1353 Y21.4208
G01 X3.0885 Y21.3578
G01 X3.0759 Y21.3396
G01 X3.0667 Y21.3251
G01 X3.0264 Y21.2578
G01 X3.0156 Y21.2385
G01 X3.0078 Y21.2232
G01 X2.9743 Y21.1522
G01 X2.9654 Y21.1319
G01 X2.9593 Y21.1159
G01 X2.9328 Y21.0420
G01 X2.9260 Y21.0210
G01 X2.9214 Y21.0044
G01 X2.9023 Y20.9283
G01 X2.8976 Y20.9067
G01 X2.8947 Y20.8898
G01 X2.8832 Y20.8121
G01 X2.8806 Y20.7902
G01 X2.8793 Y20.7730
G01 X2.8755 Y20.6946
G01 X2.8750 Y20.6725
G01 X2.8755 Y20.6554
G01 X2.8793 Y20.5770
G01 X2.8811 Y20.5549
G01 X2.8832 Y20.5379
G01 X2.8947 Y20.4602
G01 X2.8986 Y20.4385
G01 X2.9023 Y20.4217
G01 X2.9214 Y20.3456
G01 X2.9274 Y20.3243
G01 X2.9328 Y20.3080
G01 X2.9593 Y20.2341
G01 X2.9673 Y20.2135
G01 X2.9743 Y20.1978
G01 X3.0078 Y20.1268
G01 X3.0179 Y20.1072
G01 X3.0264 Y20.0922
G01 X3.0667 Y20.0249
G01 X3.0786 Y20.0063
G01 X3.0885 Y19.9922
G01 X3.1353 Y19.9292
G01 X3.1490 Y19.9119
G01 X3.1602 Y19.8988
G01 X3.2129 Y19.8407
G01 X3.2282 Y19.8248
G01 X3.2407 Y19.8129
G01 X3.2988 Y19.7602
G01 X3.3156 Y19.7459
G01 X3.3292 Y19.7353
G01 X3.3922 Y19.6885
G01 X3.4104 Y19.6759
G01 X3.4249 Y19.6667
G01 X3.4922 Y19.6264
G01 X3.5115 Y19.6156
G01 X3.5268 Y19.6078
G01 X3.5978 Y19.5743
G01 X3.6181 Y19.5654
G01 X3.6341 Y19.5593
G01 X3.7080 Y19.5328
G01 X3.7290 Y19.5260
G01 X3.7456 Y19.5214
G01 X3.8217 Y19.5023
G01 X3.8433 Y19.4976
G01 X3.8602 Y19.4947
G01 X3.9379 Y19.4832
G01 X3.9598 Y19.4806
G01 X3.9770 Y19.4793
G01 X4.0554 Y19.4755
G01 X4.0775 Y19.4750
G01 X4.0946 Y19.4755
G01 X4.1730 Y19.4793
G01 X4.1951 Y19.4811
G01 X4.2121 Y19.4832
G01 X4.2898 Y19.4947
G01 X4.3115 Y19.4986
G01 X4.3283 Y19.5023
G01 X4.4044 Y19.5214
G01 X4.4257 Y19.5274
G01 X4.4420 Y19.5328
G01 X4.5159 Y19.5593
G01 X4.5365 Y19.5673
G01 X4.5522 Y19.5743
G01 X4.6232 Y19.6078
G01 X4.6428 Y19.6179
G01 X4.6578 Y19.6264
G01 X4.7251 Y19.6667
G01 X4.7437 Y19.6786
G01 X4.7578 Y19.6885
G01 X4.8208 Y19.7353
G01 X4.8381 Y19.7490
G01 X4.8512 Y19.7602
G01 X4.9093 Y19.8129
G01 X4.9252 Y19.8282
G01 X4.9371 Y19.8407
G01 X4.9898 Y19.8988
G01 X5.0041 Y19.9156
G01 X5.0147 Y19.9292
G01 X5.0615 Y19.9922
G01 X5.0741 Y20.0104
G01 X5.0833 Y20.0249
G01 X5.1236 Y20.0922
G01 X5.1344 Y20.1115
G01 X5.1422 Y20.1268
G01 X5.1757 Y20.1978
G01 X5.1846 Y20.2181
G01 X5.1907 Y20.2341
G01 X5.2172 Y20.3080
G01 X5.2240 Y20.3290
G01 X5.2286 Y20.3456
G01 X5.2477 Y20.4217
G01 X5.2524 Y20.4433
G01 X5.2553 Y20.4602
G01 X5.2668 Y20.5379
G01 X5.2694 Y20.5598
G01 X5.2707 Y20.5770
G01 X5.2745 Y20.6554
G01 X5.2750 Y20.6775
G00 X5.2750 Y20.6775
G01 F15.00
G01 Z-1.4550
G01 F30.00
G01 X5.2745 Y20.6554
G01 X5.2707 Y20.5770
G01 X5.2694 Y20.5598
G01 X5.2668 Y20.5379
G01 X5.2553 Y20.4602
G01 X5.2524 Y20.4433
G01 X5.2477 Y20.4217
G01 X5.2286 Y20.3456
G01 X5.2240 Y20.3290
G01 X5.2172 Y20.3080
G01 X5.1907 Y20.2341
G01 X5.1846 Y20.2181
G01 X5.1757 Y20.1978
G01 X5.1422 Y20.1268
G01 X5.1344 Y20.1115
G01 X5.1236 Y20.0922
G01 X5.0833 Y20.0249
G01 X5.0741 Y20.0104
G01 X5.0615 Y19.9922
G01 X5.0147 Y19.9292
G01 X5.0041 Y19.9156
G01 X4.9898 Y19.8988
G01 X4.9371 Y19.8407
G01 X4.9252 Y19.8282
G01 X4.9093 Y19.8129
G01 X4.8512 Y19.7602
G01 X4.8381 Y19.7490
G01 X4.8208 Y19.7353
G01 X4.7578 Y19.6885
G01 X4.7437 Y19.6786
G01 X4.7251 Y19.6667
G01 X4.6578 Y19.6264
G01 X4.6428 Y19.6179
G01 X4.6232 Y19.6078
G01 X4.5522 Y19.5743
G01 X4.5365 Y19.5673
G01 X4.5159 Y19.5593
G01 X4.4420 Y19.5328
G01 X4.4257 Y19.5274
G01 X4.4044 Y19.5214
G01 X4.3283 Y19.5023
G01 X4.3115 Y19.4986
G01 X4.2898 Y19.4947
G01 X4.2121 Y19.4832
G01 X4.1951 Y19.4811
G01 X4.1730 Y19.4793
G01 X4.0946 Y19.4755
G01 X4.0775 Y19.4750
G01 X4.0554 Y19.4755
G01 X3.9770 Y19.4793
G01 X3.9598 Y19.4806
G01 X3.9379 Y19.4832
G01 X3.8602 Y19.4947
G01 X3.8433 Y19.4976
G01 X3.8217 Y19.5023
G01 X3.7456 Y19.5214
G01 X3.7290 Y19.5260
G01 X3.7080 Y19.5328
G01 X3.6341 Y19.5593
G01 X3.6181 Y19.5654
G01 X3.5978 Y19.5743
G01 X3.5268 Y19.6078
G01 X3.5115 Y19.6156
G01 X3.4922 Y19.6264
G01 X3.4249 Y19.6667
G01 X3.4104 Y19.6759
G01 X3.3922 Y19.6885
G01 X3.3292 Y19.7353
G01 X3.3156 Y19.7459
G01 X3.2988 Y19.7602
G01 X3.2407 Y19.8129
G01 X3.2282 Y19.8248
G01 X3.2129 Y19.8407
G01 X3.1602 Y19.8988
G01 X3.1490 Y19.9119
G01 X3.1353 Y19.9292
G01 X3.0885 Y19.9922
G01 X3.0786 Y20.0063
G01 X3.0667 Y20.0249
G01 X3.0264 Y20.0922
G01 X3.0179 Y20.1072
G01 X3.0078 Y20.1268
G01 X2.9743 Y20.1978
G01 X2.9673 Y20.2135
G01 X2.9593 Y20.2341
G01 X2.9328 Y20.3080
G01 X2.9274 Y20.3243
G01 X2.9214 Y20.3456
G01 X2.9023 Y20.4217
G01 X2.8986 Y20.4385
G01 X2.8947 Y20.4602
G01 X2.8832 Y20.5379
G01 X2.8811 Y20.5549
G01 X2.8793 Y20.5770
G01 X2.8755 Y20.6554
G01 X2.8750 Y20.6725
G01 X2.8755 Y20.6946
G01 X2.8793 Y20.7730
G01 X2.8806 Y20.7902
G01 X2.8832 Y20.8121
G01 X2.8947 Y20.8898
G01 X2.8976 Y20.9067
G01 X2.9023 Y20.9283
G01 X2.9214 Y21.0044
G01 X2.9260 Y21.0210
G01 X2.9328 Y21.0420
G01 X2.9593 Y21.1159
G01 X2.9654 Y21.1319
G01 X2.9743 Y21.1522
G01 X3.0078 Y21.2232
G01 X3.0156 Y21.2385
G01 X3.0264 Y21.2578
G01 X3.0667 Y21.3251
G01 X3.0759 Y21.3396
G01 X3.0885 Y21.3578
G01 X3.1353 Y21.4208
G01 X3.1459 Y21.4344
G01 X3.1602 Y21.4512
G01 X3.2129 Y21.5093
G01 X3.2248 Y21.5218
G01 X3.2407 Y21.5371
G01 X3.2988 Y21.5898
G01 X3.3119 Y21.6010
G01 X3.3292 Y21.6147
G01 X3.3922 Y21.6615
G01 X3.4063 Y21.6714
G01 X3.4249 Y21.6833
G01 X3.4922 Y21.7236
G01 X3.5072 Y21.7321
G01 X3.5268 Y21.7422
G01 X3.5978 Y21.7757
G01 X3.6135 Y21.7827
G01 X3.6341 Y21.7907
G01 X3.7080 Y21.8172
G01 X3.7243 Y21.8226
G01 X3.7456 Y21.8286
G01 X3.8217 Y21.8477
G01 X3.8385 Y21.8514
G01 X3.8602 Y21.8553
G01 X3.9379 Y21.8668
G01 X3.9549 Y21.8689
G01 X3.9770 Y21.8707
G01 X4.0554 Y21.8745
G01 X4.0725 Y21.8750
G01 X4.0946 Y21.8745
G01 X4.1730 Y21.8707
G01 X4.1902 Y21.8694
G01 X4.2121 Y21.8668
G01 X4.2898 Y21.8553
G01 X4.3067 Y21.8524
G01 X4.3283 Y21.8477
G01 X4.4044 Y21.8286
G01 X4.4210 Y21.8240
G01 X4.4420 Y21.8172
G01 X4.5159 Y21.7907
G01 X4.5319 Y21.7846
G01 X4.5522 Y21.7757
G01 X4.6232 Y21.7422
G01 X4.6385 Y21.7344
G01 X4.6578 Y21.7236
G01 X4.7251 Y21.6833
G01 X4.7396 Y21.6741
G01 X4.7578 Y21.6615
G01 X4.8208 Y21.6147
G01 X4.8344 Y21.6041
G01 X4.8512 Y21.5898
G01 X4.9093 Y21.5371
G01 X4.9218 Y21.5252
G01 X4.9371 Y21.5093
G01 X4.9898 Y21.4512
G01 X5.0010 Y21.4381
G01 X5.0147 Y21.4208
G01 X5.0615 Y21.3578
G01 X5.0714 Y21.3437
G01 X5.0833 Y21.3251
G01 X5.1236 Y21.2578
G01 X5.1321 Y21.2428
G01 X5.1422 Y21.2232
G01 X5.1757 Y21.1522
G01 X5.1827 Y21.1365
G01 X5.1907 Y21.1159
G01 X5.2172 Y21.0420
G01 X5.2226 Y21.0257
G01 X5.2286 Y21.0044
G01 X5.2477 Y20.9283
G01 X5.2514 Y20.9115
G01 X5.2553 Y20.8898
G01 X5.2668 Y20.8121
G01 X5.2689 Y20.7951
G01 X5.2707 Y20.7730
G01 X5.2745 Y20.6946
G01 X5.2750 Y20.6775
G00 X5.2750 Y20.6775
G01 F15.00
G01 Z-1.9400
G01 F30.00
G01 X5.2745 Y20.6946
G01 X5.2707 Y20.7730
G01 X5.2689 Y20.7951
G01 X5.2668 Y20.8121
G01 X5.2553 Y20.8898
G01 X5.2514 Y20.9115
G01 X5.2477 Y20.9283
G01 X5.2286 Y21.0044
G01 X5.2226 Y21.0257
G01 X5.2172 Y21.0420
G01 X5.1907 Y21.1159
G01 X5.1827 Y21.1365
G01 X5.1757 Y21.1522
G01 X5.1422 Y21.2232
G01 X5.1321 Y21.2428
G01 X5.1236 Y21.2578
G01 X5.0833 Y21.3251
G01 X5.0714 Y21.3437
G01 X5.0615 Y21.3578
G01 X5.0147 Y21.4208
G01 X5.0010 Y21.4381
G01 X4.9898 Y21.4512
G01 X4.9371 Y21.5093
G01 X4.9218 Y21.5252
G01 X4.9093 Y21.5371
G01 X4.8512 Y21.5898
G01 X4.8344 Y21.6041
G01 X4.8208 Y21.6147
G01 X4.7578 Y21.6615
G01 X4.7396 Y21.6741
G01 X4.7251 Y21.6833
G01 X4.6578 Y21.7236
G01 X4.6385 Y21.7344
G01 X4.6232 Y21.7422
G01 X4.5522 Y21.7757
G01 X4.5319 Y21.7846
G01 X4.5159 Y21.7907
G01 X4.4420 Y21.8172
G01 X4.4210 Y21.8240
G01 X4.4044 Y21.8286
G01 X4.3283 Y21.8477
G01 X4.3067 Y21.8524
G01 X4.2898 Y21.8553
G01 X4.2121 Y21.8668
G01 X4.1902 Y21.8694
G01 X4.1730 Y21.8707
G01 X4.0946 Y21.8745
G01 X4.0725 Y21.8750
G01 X4.0554 Y21.8745
G01 X3.9770 Y21.8707
G01 X3.9549 Y21.8689
G01 X3.9379 Y21.8668
G01 X3.8602 Y21.8553
G01 X3.8385 Y21.8514
G01 X3.8217 Y21.8477
G01 X3.7456 Y21.8286
G01 X3.7243 Y21.8226
G01 X3.7080 Y21.8172
G01 X3.6341 Y21.7907
G01 X3.6135 Y21.7827
G01 X3.5978 Y21.7757
G01 X3.5268 Y21.7422
G01 X3.5072 Y21.7321
G01 X3.4922 Y21.7236
G01 X3.4249 Y21.6833
G01 X3.4063 Y21.6714
G01 X3.3922 Y21.6615
G01 X3.3292 Y21.6147
G01 X3.3119 Y21.6010
G01 X3.2988 Y21.5898
G01 X3.2407 Y21.5371
G01 X3.2248 Y21.5218
G01 X3.2129 Y21.5093
G01 X3.1602 Y21.4512
G01 X3.1459 Y21.4344
G01 X3.1353 Y21.4208
G01 X3.0885 Y21.3578
G01 X3.0759 Y21.3396
G01 X3.0667 Y21.3251
G01 X3.0264 Y21.2578
G01 X3.0156 Y21.2385
G01 X3.0078 Y21.2232
G01 X2.9743 Y21.1522
G01 X2.9654 Y21.1319
G01 X2.9593 Y21.1159
G01 X2.9328 Y21.0420
G01 X2.9260 Y21.0210
G01 X2.9214 Y21.0044
G01 X2.9023 Y20.9283
G01 X2.8976 Y20.9067
G01 X2.8947 Y20.8898
G01 X2.8832 Y20.8121
G01 X2.8806 Y20.7902
G01 X2.8793 Y20.7730
G01 X2.8755 Y20.6946
G01 X2.8750 Y20.6725
G01 X2.8755 Y20.6554
G01 X2.8793 Y20.5770
G01 X2.8811 Y20.5549
G01 X2.8832 Y20.5379
G01 X2.8947 Y20.4602
G01 X2.8986 Y20.4385
G01 X2.9023 Y20.4217
G01 X2.9214 Y20.3456
G01 X2.9274 Y20.3243
G01 X2.9328 Y20.3080
G01 X2.9593 Y20.2341
G01 X2.9673 Y20.2135
G01 X2.9743 Y20.1978
G01 X3.0078 Y20.1268
G01 X3.0179 Y20.1072
G01 X3.0264 Y20.0922
G01 X3.0667 Y20.0249
G01 X3.0786 Y20.0063
G01 X3.0885 Y19.9922
G01 X3.1353 Y19.9292
G01 X3.1490 Y19.9119
G01 X3.1602 Y19.8988
G01 X3.2129 Y19.8407
G01 X3.2282 Y19.8248
G01 X3.2407 Y19.8129
G01 X3.2988 Y19.7602
G01 X3.3156 Y19.7459
G01 X3.3292 Y19.7353
G01 X3.3922 Y19.6885
G01 X3.4104 Y19.6759
G01 X3.4249 Y19.6667
G01 X3.4922 Y19.6264
G01 X3.5115 Y19.6156
G01 X3.5268 Y19.6078
G01 X3.5978 Y19.5743
G01 X3.6181 Y19.5654
G01 X3.6341 Y19.5593
G01 X3.7080 Y19.5328
G01 X3.7290 Y19.5260
G01 X3.7456 Y19.5214
G01 X3.8217 Y19.5023
G01 X3.8433 Y19.4976
G01 X3.8602 Y19.4947
G01 X3.9379 Y19.4832
G01 X3.9598 Y19.4806
G01 X3.9770 Y19.4793
G01 X4.0554 Y19.4755
G01 X4.0775 Y19.4750
G01 X4.0946 Y19.4755
G01 X4.1730 Y19.4793
G01 X4.1951 Y19.4811
G01 X4.2121 Y19.4832
G01 X4.2898 Y19.4947
G01 X4.3115 Y19.4986
G01 X4.3283 Y19.5023
G01 X4.4044 Y19.5214
G01 X4.4257 Y19.5274
G01 X4.4420 Y19.5328
G01 X4.5159 Y19.5593
G01 X4.5365 Y19.5673
G01 X4.5522 Y19.5743
G01 X4.6232 Y19.6078
G01 X4.6428 Y19.6179
G01 X4.6578 Y19.6264
G01 X4.7251 Y19.6667
G01 X4.7437 Y19.6786
G01 X4.7578 Y19.6885
G01 X4.8208 Y19.7353
G01 X4.8381 Y19.7490
G01 X4.8512 Y19.7602
G01 X4.9093 Y19.8129
G01 X4.9252 Y19.8282
G01 X4.9371 Y19.8407
G01 X4.9898 Y19.8988
G01 X5.0041 Y19.9156
G01 X5.0147 Y19.9292
G01 X5.0615 Y19.9922
G01 X5.0741 Y20.0104
G01 X5.0833 Y20.0249
G01 X5.1236 Y20.0922
G01 X5.1344 Y20.1115
G01 X5.1422 Y20.1268
G01 X5.1757 Y20.1978
G01 X5.1846 Y20.2181
G01 X5.1907 Y20.2341
G01 X5.2172 Y20.3080
G01 X5.2240 Y20.3290
G01 X5.2286 Y20.3456
G01 X5.2477 Y20.4217
G01 X5.2524 Y20.4433
G01 X5.2553 Y20.4602
G01 X5.2668 Y20.5379
G01 X5.2694 Y20.5598
G01 X5.2707 Y20.5770
G01 X5.2745 Y20.6554
G01 X5.2750 Y20.6775
G00 Z1.0000
G00 X27.5000 Y20.6775
G01 F15.00
G01 Z-0.4850
G01 F30.00
G01 X27.4995 Y20.6554
G01 X27.4957 Y20.5770
G01 X27.4944 Y20.5598
G01 X27.4918 Y20.5379
G01 X27.4803 Y20.4602
G01 X27.4774 Y20.4433
G01 X27.4727 Y20.4217
G01 X27.4536 Y20.3456
G01 X27.4490 Y20.3290
G01 X27.4422 Y20.3080
G01 X27.4157 Y20.2341
G01 X27.4096 Y20.2181
G01 X27.4007 Y20.1978
G01 X27.3672 Y20.1268
G01 X27.3594 Y20.1115
G01 X27.3486 Y20.0922
G01 X27.3083 Y20.0249
G01 X27.2991 Y20.0104
G01 X27.2865 Y19.9922
G01 X27.2397 Y19.9292
G01 X27.2291 Y19.9156
G01 X27.2148 Y19.8988
G01 X27.1621 Y19.8407
G01 X27.1502 Y19.8282
G01 X27.1343 Y19.8129
G01 X27.0762 Y19.7602
G01 X27.0631 Y19.7490
G01 X27.0458 Y19.7353
G01 X26.9828 Y19.6885
G01 X26.9687 Y19.6786
G01 X26.9501 Y19.6667
G01 X26.8828 Y19.6264
G01 X26.8678 Y19.6179
G01 X26.8482 Y19.6078
G01 X26.7772 Y19.5743
G01 X26.7615 Y19.5673
G01 X26.7409 Y19.5593
G01 X26.6670 Y19.5328
G01 X26.6507 Y19.5274
G01 X26.6294 Y19.5214
G01 X26.5533 Y19.5023
G01 X26.5365 Y19.4986
G01 X26.5148 Y19.4947
G01 X26.4371 Y19.4832
G01 X26.4201 Y19.4811
G01 X26.3980 Y19.4793
G01 X26.3196 Y19.4755
G01 X26.3025 Y19.4750
G01 X26.2804 Y19.4755
G01 X26.2020 Y19.4793
G01 X26.1848 Y19.4806
G01 X26.1629 Y19.4832
G01 X26.0852 Y19.4947
G01 X26.0683 Y19.4976
G01 X26.0467 Y19.5023
G01 X25.9706 Y19.5214
G01 X25.9540 Y19.5260
G01 X25.9330 Y19.5328
G01 X25.8591 Y19.5593
G01 X25.8431 Y19.5654
G01 X25.8228 Y19.5743
G01 X25.7518 Y19.6078
G01 X25.7365 Y19.6156
G01 X25.7172 Y19.6264
G01 X25.6499 Y19.6667
G01 X25.6354 Y19.6759
G01 X25.6172 Y19.6885
G01 X25.5542 Y19.7353
G01 X25.5406 Y19.7459
G01 X25.5238 Y19.7602
G01 X25.4657 Y19.8129
G01 X25.4532 Y19.8248
G01 X25.4379 Y19.8407
G01 X25.3852 Y19.8988
G01 X25.3740 Y19.9119
G01 X25.3603 Y19.9292
G01 X25.3135 Y19.9922
G01 X25.3036 Y20.0063
G01 X25.2917 Y20.0249
G01 X25.2514 Y20.0922
G01 X25.2429 Y20.1072
G01 X25.2328 Y20.1268
G01 X25.1993 Y20.1978
G01 X25.1923 Y20.2135
G01 X25.1843 Y20.2341
G01 X25.1578 Y20.3080
G01 X25.1524 Y20.3243
G01 X25.1464 Y20.3456
G01 X25.1273 Y20.4217
G01 X25.1236 Y20.4385
G01 X25.1197 Y20.4602
G01 X25.1082 Y20.5379
G01 X25.1061 Y20.5549
G01 X25.1043 Y20.5770
G01 X25.1005 Y20.6554
G01 X25.1000 Y20.6725
G01 X25.1005 Y20.6946
G01 X25.1043 Y20.7730
G01 X25.1056 Y20.7902
G01 X25.1082 Y20.8121
G01 X25.1197 Y20.8898
G01 X25.1226 Y20.9067
G01 X25.1273 Y20.9283
G01 X25.1464 Y21.0044
G01 X25.1510 Y21.0210
G01 X25.1578 Y21.0420
G01 X25.1843 Y21.1159
G01 X25.1904 Y21.1319
G01 X25.1993 Y21.1522
G01 X25.2328 Y21.2232
G01 X25.2406 Y21.2385
G01 X25.2514 Y21.2578
G01 X25.2917 Y21.3251
G01 X25.3009 Y21.3396
G01 X25.3135 Y21.3578
G01 X25.3603 Y21.4208
G01 X25.3709 Y21.4344
G01 X25.3852 Y21.4512
G01 X25.4379 Y21.5093
G01 X25.4498 Y21.5218
G01 X25.4657 Y21.5371
G01 X25.5238 Y21.5898
G01 X25.5369 Y21.6010
G01 X25.5542 Y21.6147
G01 X25.6172 Y21.6615
G01 X25.6313 Y21.6714
G01 X25.6499 Y21.6833
G01 X25.7172 Y21.7236
G01 X25.7322 Y21.7321
G01 X25.7518 Y21.7422
G01 X25.8228 Y21.7757
G01 X25.8385 Y21.7827
G01 X25.8591 Y21.7907
G01 X25.9330 Y21.8172
G01 X25.9493 Y21.8226
G01 X25.9706 Y21.8286
G01 X26.0467 Y21.8477
G01 X26.0635 Y21.8514
G01 X26.0852 Y21.8553
G01 X26.1629 Y21.8668
G01 X26.1799 Y21.8689
G01 X26.2020 Y21.8707
G01 X26.2804 Y21.8745
G01 X26.2975 Y21.8750
G01 X26.3196 Y21.8745
G01 X26.3980 Y21.8707
G01 X26.4152 Y21.8694
G01 X26.4371 Y21.8668
G01 X26.5148 Y21.8553
G01 X26.5317 Y21.8524
G01 X26.5533 Y21.8477
G01 X26.6294 Y21.8286
G01 X26.6460 Y21.8240
G01 X26.6670 Y21.8172
G01 X26.7409 Y21.7907
G01 X26.7569 Y21.7846
G01 X26.7772 Y21.7757
G01 X26.8482 Y21.7422
G01 X26.8635 Y21.7344
G01 X26.8828 Y21.7236
G01 X26.9501 Y21.6833
G01 X26.9646 Y21.6741
G01 X26.9828 Y21.6615
G01 X27.0458 Y21.6147
G01 X27.0594 Y21.6041
G01 X27.0762 Y21.5898
G01 X27.1343 Y21.5371
G01 X27.1468 Y21.5252
G01 X27.1621 Y21.5093
G01 X27.2148 Y21.4512
G01 X27.2260 Y21.4381
G01 X27.2397 Y21.4208
G01 X27.2865 Y21.3578
G01 X27.2964 Y21.3437
G01 X27.3083 Y21.3251
G01 X27.3486 Y21.2578
G01 X27.3571 Y21.2428
G01 X27.3672 Y21.2232
G01 X27.4007 Y21.1522
G01 X27.4077 Y21.1365
G01 X27.4157 Y21.1159
G01 X27.4422 Y21.0420
G01 X27.4476 Y21.0257
G01 X27.4536 Y21.0044
G01 X27.4727 Y20.9283
G01 X27.4764 Y20.9115
G01 X27.4803 Y20.8898
G01 X27.4918 Y20.8121
G01 X27.4939 Y20.7951
G01 X27.4957 Y20.7730
G01 X27.4995 Y20.6946
G01 X27.5000 Y20.6775
G00 X27.5000 Y20.6775
G01 F15.00
G01 Z-0.9700
G01 F30.00
G01 X27.4995 Y20.6946
G01 X27.4957 Y20.7730
G01 X27.4939 Y20.7951
G01 X27.4918 Y20.8121
G01 X27.4803 Y20.8898
G01 X27.4764 Y20.9115
G01 X27.4727 Y20.9283
G01 X27.4536 Y21.0044
G01 X27.4476 Y21.0257
G01 X27.4422 Y21.0420
G01 X27.4157 Y21.1159
G01 X27.4077 Y21.1365
G01 X27.4007 Y21.1522
G01 X27.3672 Y21.2232
G01 X27.3571 Y21.2428
G01 X27.3486 Y21.2578
G01 X27.3083 Y21.3251
G01 X27.2964 Y21.3437
G01 X27.2865 Y21.3578
G01 X27.2397 Y21.4208
G01 X27.2260 Y21.4381
G01 X27.2148 Y21.4512
G01 X27.1621 Y21.5093
G01 X27.1468 Y21.5252
G01 X27.1343 Y21.5371
G01 X27.0762 Y21.5898
G01 X27.0594 Y21.6041
G01 X27.0458 Y21.6147
G01 X26.9828 Y21.6615
G01 X26.9646 Y21.6741
G01 X26.9501 Y21.6833
G01 X26.8828 Y21.7236
G01 X26.8635 Y21.7344
G01 X26.8482 Y21.7422
G01 X26.7772 Y21.7757
G01 X26.7569 Y21.7846
G01 X26.7409 Y21.7907
G01 X26.6670 Y21.8172
G01 X26.6460 Y21.8240
G01 X26.6294 Y21.8286
G01 X26.5533 Y21.8477
G01 X26.5317 Y21.8524
G01 X26.5148 Y21.8553
G01 X26.4371 Y21.8668
G01 X26.4152 Y21.8694
G01 X26.3980 Y21.8707
G01 X26.3196 Y21.8745
G01 X26.2975 Y21.8750
G01 X26.2804 Y21.8745
G01 X26.2020 Y21.8707
G01 X26.1799 Y21.8689
G01 X26.1629 Y21.8668
G01 X26.0852 Y21.8553
G01 X26.0635 Y21.8514
G01 X26.0467 Y21.8477
G01 X25.9706 Y21.8286
G01 X25.9493 Y21.8226
G01 X25.9330 Y21.8172
G01 X25.8591 Y21.7907
G01 X25.8385 Y21.7827
G01 X25.8228 Y21.7757
G01 X25.7518 Y21.7422
G01 X25.7322 Y21.7321
G01 X25.7172 Y21.7236
G01 X25.6499 Y21.6833
G01 X25.6313 Y21.6714
G01 X25.6172 Y21.6615
G01 X25.5542 Y21.6147
G01 X25.5369 Y21.6010
G01 X25.5238 Y21.5898
G01 X25.4657 Y21.5371
G01 X25.4498 Y21.5218
G01 X25.4379 Y21.5093
G01 X25.3852 Y21.4512
G01 X25.3709 Y21.4344
G01 X25.3603 Y21.4208
G01 X25.3135 Y21.3578
G01 X25.3009 Y21.3396
G01 X25.2917 Y21.3251
G01 X25.2514 Y21.2578
G01 X25.2406 Y21.2385
G01 X25.2328 Y21.2232
G01 X25.1993 Y21.1522
G01 X25.1904 Y21.1319
G01 X25.1843 Y21.1159
G01 X25.1578 Y21.0420
G01 X25.1510 Y21.0210
G01 X25.1464 Y21.0044
G01 X25.1273 Y20.9283
G01 X25.1226 Y20.9067
G01 X25.1197 Y20.8898
G01 X25.1082 Y20.8121
G01 X25.1056 Y20.7902
G01 X25.1043 Y20.7730
G01 X25.1005 Y20.6946
G01 X25.1000 Y20.6725
G01 X25.1005 Y20.6554
G01 X25.1043 Y20.5770
G01 X25.1061 Y20.5549
G01 X25.1082 Y20.5379
G01 X25.1197 Y20.4602
G01 X25.1236 Y20.4385
G01 X25.1273 Y20.4217
G01 X25.1464 Y20.3456
G01 X25.1524 Y20.3243
G01 X25.1578 Y20.3080
G01 X25.1843 Y20.2341
G01 X25.1923 Y20.2135
G01 X25.1993 Y20.1978
G01 X25.2328 Y20.1268
G01 X25.2429 Y20.1072
G01 X25.2514 Y20.0922
G01 X25.2917 Y20.0249
G01 X25.3036 Y20.0063
G01 X25.3135 Y19.9922
G01 X25.3603 Y19.9292
G01 X25.3740 Y19.9119
G01 X25.3852 Y19.8988
G01 X25.4379 Y19.8407
G01 X25.4532 Y19.8248
G01 X25.4657 Y19.8129
G01 X25.5238 Y19.7602
G01 X25.5406 Y19.7459
G01 X25.5542 Y19.7353
G01 X25.6172 Y19.6885
G01 X25.6354 Y19.6759
G01 X25.6499 Y19.6667
G01 X25.7172 Y19.6264
G01 X25.7365 Y19.6156
G01 X25.7518 Y19.6078
G01 X25.8228 Y19.5743
G01 X25.8431 Y19.5654
G01 X25.8591 Y19.5593
G01 X25.9330 Y19.5328
G01 X25.9540 Y19.5260
G01 X25.9706 Y19.5214
G01 X26.0467 Y19.5023
G01 X26.0683 Y19.4976
G01 X26.0852 Y19.4947
G01 X26.1629 Y19.4832
G01 X26.1848 Y19.4806
G01 X26.2020 Y19.4793
G01 X26.2804 Y19.4755
G01 X26.3025 Y19.4750
G01 X26.3196 Y19.4755
G01 X26.3980 Y19.4793
G01 X26.4201 Y19.4811
G01 X26.4371 Y19.4832
G01 X26.5148 Y19.4947
G01 X26.5365 Y19.4986
G01 X26.5533 Y19.5023
G01 X26.6294 Y19.5214
G01 X26.6507 Y19.5274
G01 X26.6670 Y19.5328
G01 X26.7409 Y19.5593
G01 X26.7615 Y19.5673
G01 X26.7772 Y19.5743
G01 X26.8482 Y19.6078
G01 X26.8678 Y19.6179
G01 X26.8828 Y19.6264
G01 X26.9501 Y19.6667
G01 X26.9687 Y19.6786
G01 X26.9828 Y19.6885
G01 X27.0458 Y19.7353
G01 X27.0631 Y19.7490
G01 X27.0762 Y19.7602
G01 X27.1343 Y19.8129
G01 X27.1502 Y19.8282
G01 X27.1621 Y19.8407
G01 X27.2148 Y19.8988
G01 X27.2291 Y19.9156
G01 X27.2397 Y19.9292
G01 X27.2865 Y19.9922
G01 X27.2991 Y20.0104
G01 X27.3083 Y20.0249
G01 X27.3486 Y20.0922
G01 X27.3594 Y20.1115
G01 X27.3672 Y20.1268
G01 X27.4007 Y20.1978
G01 X27.4096 Y20.2181
G01 X27.4157 Y20.2341
G01 X27.4422 Y20.3080
G01 X27.4490 Y20.3290
G01 X27.4536 Y20.3456
G01 X27.4727 Y20.4217
G01 X27.4774 Y20.4433
G01 X27.4803 Y20.4602
G01 X27.4918 Y20.5379
G01 X27.4944 Y20.5598
G01 X27.4957 Y20.5770
G01 X27.4995 Y20.6554
G01 X27.5000 Y20.6775
G00 X27.5000 Y20.6775
G01 F15.00
G01 Z-1.4550
G01 F30.00
G01 X27.4995 Y20.6554
G01 X27.4957 Y20.5770
G01 X27.4944 Y20.5598
G01 X27.4918 Y20.5379
G01 X27.4803 Y20.4602
G01 X27.4774 Y20.4433
G01 X27.4727 Y20.4217
G01 X27.4536 Y20.3456
G01 X27.4490 Y20.3290
G01 X27.4422 Y20.3080
G01 X27.4157 Y20.2341
G01 X27.4096 Y20.2181
G01 X27.4007 Y20.1978
G01 X27.3672 Y20.1268
G01 X27.3594 Y20.1115
G01 X27.3486 Y20.0922
G01 X27.3083 Y20.0249
G01 X27.2991 Y20.0104
G01 X27.2865 Y19.9922
G01 X27.2397 Y19.9292
G01 X27.2291 Y19.9156
G01 X27.2148 Y19.8988
G01 X27.1621 Y19.8407
G01 X27.1502 Y19.8282
G01 X27.1343 Y19.8129
G01 X27.0762 Y19.7602
G01 X27.0631 Y19.7490
G01 X27.0458 Y19.7353
G01 X26.9828 Y19.6885
G01 X26.9687 Y19.6786
G01 X26.9501 Y19.6667
G01 X26.8828 Y19.6264
G01 X26.8678 Y19.6179
G01 X26.8482 Y19.6078
G01 X26.7772 Y19.5743
G01 X26.7615 Y19.5673
G01 X26.7409 Y19.5593
G01 X26.6670 Y19.5328
G01 X26.6507 Y19.5274
G01 X26.6294 Y19.5214
G01 X26.5533 Y19.5023
G01 X26.5365 Y19.4986
G01 X26.5148 Y19.4947
G01 X26.4371 Y19.4832
G01 X26.4201 Y19.4811
G01 X26.3980 Y19.4793
G01 X26.3196 Y19.4755
G01 X26.3025 Y19.4750
G01 X26.2804 Y19.4755
G01 X26.2020 Y19.4793
G01 X26.1848 Y19.4806
G01 X26.1629 Y19.4832
G01 X26.0852 Y19.4947
G01 X26.0683 Y19.4976
G01 X26.0467 Y19.5023
G01 X25.9706 Y19.5214
G01 X25.9540 Y19.5260
G01 X25.9330 Y19.5328
G01 X25.8591 Y19.5593
G01 X25.8431 Y19.5654
G01 X25.8228 Y19.5743
G01 X25.7518 Y19.6078
G01 X25.7365 Y19.6156
G01 X25.7172 Y19.6264
G01 X25.6499 Y19.6667
G01 X25.6354 Y19.6759
G01 X25.6172 Y19.6885
G01 X25.5542 Y19.7353
G01 X25.5406 Y19.7459
G01 X25.5238 Y19.7602
G01 X25.4657 Y19.8129
G01 X25.4532 Y19.8248
G01 X25.4379 Y19.8407
G01 X25.3852 Y19.8988
G01 X25.3740 Y19.9119
G01 X25.3603 Y19.9292
G01 X25.3135 Y19.9922
G01 X25.3036 Y20.0063
G01 X25.2917 Y20.0249
G01 X25.2514 Y20.0922
G01 X25.2429 Y20.1072
G01 X25.2328 Y20.1268
G01 X25.1993 Y20.1978
G01 X25.1923 Y20.2135
G01 X25.1843 Y20.2341
G01 X25.1578 Y20.3080
G01 X25.1524 Y20.3243
G01 X25.1464 Y20.3456
G01 X25.1273 Y20.4217
G01 X25.1236 Y20.4385
G01 X25.1197 Y20.4602
G01 X25.1082 Y20.5379
G01 X25.1061 Y20.5549
G01 X25.1043 Y20.5770
G01 X25.1005 Y20.6554
G01 X25.1000 Y20.6725
G01 X25.1005 Y20.6946
G01 X25.1043 Y20.7730
G01 X25.1056 Y20.7902
G01 X25.1082 Y20.8121
G01 X25.1197 Y20.8898
G01 X25.1226 Y20.9067
G01 X25.1273 Y20.9283
G01 X25.1464 Y21.0044
G01 X25.1510 Y21.0210
G01 X25.1578 Y21.0420
G01 X25.1843 Y21.1159
G01 X25.1904 Y21.1319
G01 X25.1993 Y21.1522
G01 X25.2328 Y21.2232
G01 X25.2406 Y21.2385
G01 X25.2514 Y21.2578
G01 X25.2917 Y21.3251
G01 X25.3009 Y21.3396
G01 X25.3135 Y21.3578
G01 X25.3603 Y21.4208
G01 X25.3709 Y21.4344
G01 X25.3852 Y21.4512
G01 X25.4379 Y21.5093
G01 X25.4498 Y21.5218
G01 X25.4657 Y21.5371
G01 X25.5238 Y21.5898
G01 X25.5369 Y21.6010
G01 X25.5542 Y21.6147
G01 X25.6172 Y21.6615
G01 X25.6313 Y21.6714
G01 X25.6499 Y21.6833
G01 X25.7172 Y21.7236
G01 X25.7322 Y21.7321
G01 X25.7518 Y21.7422
G01 X25.8228 Y21.7757
G01 X25.8385 Y21.7827
G01 X25.8591 Y21.7907
G01 X25.9330 Y21.8172
G01 X25.9493 Y21.8226
G01 X25.9706 Y21.8286
G01 X26.0467 Y21.8477
G01 X26.0635 Y21.8514
G01 X26.0852 Y21.8553
G01 X26.1629 Y21.8668
G01 X26.1799 Y21.8689
G01 X26.2020 Y21.8707
G01 X26.2804 Y21.8745
G01 X26.2975 Y21.8750
G01 X26.3196 Y21.8745
G01 X26.3980 Y21.8707
G01 X26.4152 Y21.8694
G01 X26.4371 Y21.8668
G01 X26.5148 Y21.8553
G01 X26.5317 Y21.8524
G01 X26.5533 Y21.8477
G01 X26.6294 Y21.8286
G01 X26.6460 Y21.8240
G01 X26.6670 Y21.8172
G01 X26.7409 Y21.7907
G01 X26.7569 Y21.7846
G01 X26.7772 Y21.7757
G01 X26.8482 Y21.7422
G01 X26.8635 Y21.7344
G01 X26.8828 Y21.7236
G01 X26.9501 Y21.6833
G01 X26.9646 Y21.6741
G01 X26.9828 Y21.6615
G01 X27.0458 Y21.6147
G01 X27.0594 Y21.6041
G01 X27.0762 Y21.5898
G01 X27.1343 Y21.5371
G01 X27.1468 Y21.5252
G01 X27.1621 Y21.5093
G01 X27.2148 Y21.4512
G01 X27.2260 Y21.4381
G01 X27.2397 Y21.4208
G01 X27.2865 Y21.3578
G01 X27.2964 Y21.3437
G01 X27.3083 Y21.3251
G01 X27.3486 Y21.2578
G01 X27.3571 Y21.2428
G01 X27.3672 Y21.2232
G01 X27.4007 Y21.1522
G01 X27.4077 Y21.1365
G01 X27.4157 Y21.1159
G01 X27.4422 Y21.0420
G01 X27.4476 Y21.0257
G01 X27.4536 Y21.0044
G01 X27.4727 Y20.9283
G01 X27.4764 Y20.9115
G01 X27.4803 Y20.8898
G01 X27.4918 Y20.8121
G01 X27.4939 Y20.7951
G01 X27.4957 Y20.7730
G01 X27.4995 Y20.6946
G01 X27.5000 Y20.6775
G00 X27.5000 Y20.6775
G01 F15.00
G01 Z-1.9400
G01 F30.00
G01 X27.4995 Y20.6946
G01 X27.4957 Y20.7730
G01 X27.4939 Y20.7951
G01 X27.4918 Y20.8121
G01 X27.4803 Y20.8898
G01 X27.4764 Y20.9115
G01 X27.4727 Y20.9283
G01 X27.4536 Y21.0044
G01 X27.4476 Y21.0257
G01 X27.4422 Y21.0420
G01 X27.4157 Y21.1159
G01 X27.4077 Y21.1365
G01 X27.4007 Y21.1522
G01 X27.3672 Y21.2232
G01 X27.3571 Y21.2428
G01 X27.3486 Y21.2578
G01 X27.3083 Y21.3251
G01 X27.2964 Y21.3437
G01 X27.2865 Y21.3578
G01 X27.2397 Y21.4208
G01 X27.2260 Y21.4381
G01 X27.2148 Y21.4512
G01 X27.1621 Y21.5093
G01 X27.1468 Y21.5252
G01 X27.1343 Y21.5371
G01 X27.0762 Y21.5898
G01 X27.0594 Y21.6041
G01 X27.0458 Y21.6147
G01 X26.9828 Y21.6615
G01 X26.9646 Y21.6741
G01 X26.9501 Y21.6833
G01 X26.8828 Y21.7236
G01 X26.8635 Y21.7344
G01 X26.8482 Y21.7422
G01 X26.7772 Y21.7757
G01 X26.7569 Y21.7846
G01 X26.7409 Y21.7907
G01 X26.6670 Y21.8172
G01 X26.6460 Y21.8240
G01 X26.6294 Y21.8286
G01 X26.5533 Y21.8477
G01 X26.5317 Y21.8524
G01 X26.5148 Y21.8553
G01 X26.4371 Y21.8668
G01 X26.4152 Y21.8694
G01 X26.3980 Y21.8707
G01 X26.3196 Y21.8745
G01 X26.2975 Y21.8750
G01 X26.2804 Y21.8745
G01 X26.2020 Y21.8707
G01 X26.1799 Y21.8689
G01 X26.1629 Y21.8668
G01 X26.0852 Y21.8553
G01 X26.0635 Y21.8514
G01 X26.0467 Y21.8477
G01 X25.9706 Y21.8286
G01 X25.9493 Y21.8226
G01 X25.9330 Y21.8172
G01 X25.8591 Y21.7907
G01 X25.8385 Y21.7827
G01 X25.8228 Y21.7757
G01 X25.7518 Y21.7422
G01 X25.7322 Y21.7321
G01 X25.7172 Y21.7236
G01 X25.6499 Y21.6833
G01 X25.6313 Y21.6714
G01 X25.6172 Y21.6615
G01 X25.5542 Y21.6147
G01 X25.5369 Y21.6010
G01 X25.5238 Y21.5898
G01 X25.4657 Y21.5371
G01 X25.4498 Y21.5218
G01 X25.4379 Y21.5093
G01 X25.3852 Y21.4512
G01 X25.3709 Y21.4344
G01 X25.3603 Y21.4208
G01 X25.3135 Y21.3578
G01 X25.3009 Y21.3396
G01 X25.2917 Y21.3251
G01 X25.2514 Y21.2578
G01 X25.2406 Y21.2385
G01 X25.2328 Y21.2232
G01 X25.1993 Y21.1522
G01 X25.1904 Y21.1319
G01 X25.1843 Y21.1159
G01 X25.1578 Y21.0420
G01 X25.1510 Y21.0210
G01 X25.1464 Y21.0044
G01 X25.1273 Y20.9283
G01 X25.1226 Y20.9067
G01 X25.1197 Y20.8898
G01 X25.1082 Y20.8121
G01 X25.1056 Y20.7902
G01 X25.1043 Y20.7730
G01 X25.1005 Y20.6946
G01 X25.1000 Y20.6725
G01 X25.1005 Y20.6554
G01 X25.1043 Y20.5770
G01 X25.1061 Y20.5549
G01 X25.1082 Y20.5379
G01 X25.1197 Y20.4602
G01 X25.1236 Y20.4385
G01 X25.1273 Y20.4217
G01 X25.1464 Y20.3456
G01 X25.1524 Y20.3243
G01 X25.1578 Y20.3080
G01 X25.1843 Y20.2341
G01 X25.1923 Y20.2135
G01 X25.1993 Y20.1978
G01 X25.2328 Y20.1268
G01 X25.2429 Y20.1072
G01 X25.2514 Y20.0922
G01 X25.2917 Y20.0249
G01 X25.3036 Y20.0063
G01 X25.3135 Y19.9922
G01 X25.3603 Y19.9292
G01 X25.3740 Y19.9119
G01 X25.3852 Y19.8988
G01 X25.4379 Y19.8407
G01 X25.4532 Y19.8248
G01 X25.4657 Y19.8129
G01 X25.5238 Y19.7602
G01 X25.5406 Y19.7459
G01 X25.5542 Y19.7353
G01 X25.6172 Y19.6885
G01 X25.6354 Y19.6759
G01 X25.6499 Y19.6667
G01 X25.7172 Y19.6264
G01 X25.7365 Y19.6156
G01 X25.7518 Y19.6078
G01 X25.8228 Y19.5743
G01 X25.8431 Y19.5654
G01 X25.8591 Y19.5593
G01 X25.9330 Y19.5328
G01 X25.9540 Y19.5260
G01 X25.9706 Y19.5214
G01 X26.0467 Y19.5023
G01 X26.0683 Y19.4976
G01 X26.0852 Y19.4947
G01 X26.1629 Y19.4832
G01 X26.1848 Y19.4806
G01 X26.2020 Y19.4793
G01 X26.2804 Y19.4755
G01 X26.3025 Y19.4750
G01 X26.3196 Y19.4755
G01 X26.3980 Y19.4793
G01 X26.4201 Y19.4811
G01 X26.4371 Y19.4832
G01 X26.5148 Y19.4947
G01 X26.5365 Y19.4986
G01 X26.5533 Y19.5023
G01 X26.6294 Y19.5214
G01 X26.6507 Y19.5274
G01 X26.6670 Y19.5328
G01 X26.7409 Y19.5593
G01 X26.7615 Y19.5673
G01 X26.7772 Y19.5743
G01 X26.8482 Y19.6078
G01 X26.8678 Y19.6179
G01 X26.8828 Y19.6264
G01 X26.9501 Y19.6667
G01 X26.9687 Y19.6786
G01 X26.9828 Y19.6885
G01 X27.0458 Y19.7353
G01 X27.0631 Y19.7490
G01 X27.0762 Y19.7602
G01 X27.1343 Y19.8129
G01 X27.1502 Y19.8282
G01 X27.1621 Y19.8407
G01 X27.2148 Y19.8988
G01 X27.2291 Y19.9156
G01 X27.2397 Y19.9292
G01 X27.2865 Y19.9922
G01 X27.2991 Y20.0104
G01 X27.3083 Y20.0249
G01 X27.3486 Y20.0922
G01 X27.3594 Y20.1115
G01 X27.3672 Y20.1268
G01 X27.4007 Y20.1978
G01 X27.4096 Y20.2181
G01 X27.4157 Y20.2341
G01 X27.4422 Y20.3080
G01 X27.4490 Y20.3290
G01 X27.4536 Y20.3456
G01 X27.4727 Y20.4217
G01 X27.4774 Y20.4433
G01 X27.4803 Y20.4602
G01 X27.4918 Y20.5379
G01 X27.4944 Y20.5598
G01 X27.4957 Y20.5770
G01 X27.4995 Y20.6554
G01 X27.5000 Y20.6775
G00 Z1.0000
G00 X27.5000 Y4.1675
G01 F15.00
G01 Z-0.4850
G01 F30.00
G01 X27.4995 Y4.1454
G01 X27.4957 Y4.0670
G01 X27.4944 Y4.0498
G01 X27.4918 Y4.0279
G01 X27.4803 Y3.9502
G01 X27.4774 Y3.9333
G01 X27.4727 Y3.9117
G01 X27.4536 Y3.8356
G01 X27.4490 Y3.8190
G01 X27.4422 Y3.7980
G01 X27.4157 Y3.7241
G01 X27.4096 Y3.7081
G01 X27.4007 Y3.6878
G01 X27.3672 Y3.6168
G01 X27.3594 Y3.6015
G01 X27.3486 Y3.5822
G01 X27.3083 Y3.5149
G01 X27.2991 Y3.5004
G01 X27.2865 Y3.4822
G01 X27.2397 Y3.4192
G01 X27.2291 Y3.4056
G01 X27.2148 Y3.3888
G01 X27.1621 Y3.3307
G01 X27.1502 Y3.3182
G01 X27.1343 Y3.3029
G01 X27.0762 Y3.2502
G01 X27.0631 Y3.2390
G01 X27.0458 Y3.2253
G01 X26.9828 Y3.1785
G01 X26.9687 Y3.1686
G01 X26.9501 Y3.1567
G01 X26.8828 Y3.1164
G01 X26.8678 Y3.1079
G01 X26.8482 Y3.0978
G01 X26.7772 Y3.0643
G01 X26.7615 Y3.0573
G01 X26.7409 Y3.0493
G01 X26.6670 Y3.0228
G01 X26.6507 Y3.0174
G01 X26.6294 Y3.0114
G01 X26.5533 Y2.9923
G01 X26.5365 Y2.9886
G01 X26.5148 Y2.9847
G01 X26.4371 Y2.9732
G01 X26.4201 Y2.9711
G01 X26.3980 Y2.9693
G01 X26.3196 Y2.9655
G01 X26.3025 Y2.9650
G01 X26.2804 Y2.9655
G01 X26.2020 Y2.9693
G01 X26.1848 Y2.9706
G01 X26.1629 Y2.9732
G01 X26.0852 Y2.9847
G01 X26.0683 Y2.9876
G01 X26.0467 Y2.9923
G01 X25.9706 Y3.0114
G01 X25.9540 Y3.0160
G01 X25.9330 Y3.0228
G01 X25.8591 Y3.0493
G01 X25.8431 Y3.0554
G01 X25.8228 Y3.0643
G01 X25.7518 Y3.0978
G01 X25.7365 Y3.1056
G01 X25.7172 Y3.1164
G01 X25.6499 Y3.1567
G01 X25.6354 Y3.1659
G01 X25.6172 Y3.1785
G01 X25.5542 Y3.2253
G01 X25.5406 Y3.2359
G01 X25.5238 Y3.2502
G01 X25.4657 Y3.3029
G01 X25.4532 Y3.3148
G01 X25.4379 Y3.3307
G01 X25.3852 Y3.3888
G01 X25.3740 Y3.4019
G01 X25.3603 Y3.4192
G01 X25.3135 Y3.4822
G01 X25.3036 Y3.4963
G01 X25.2917 Y3.5149
G01 X25.2514 Y3.5822
G01 X25.2429 Y3.5972
G01 X25.2328 Y3.6168
G01 X25.1993 Y3.6878
G01 X25.1923 Y3.7035
G01 X25.1843 Y3.7241
G01 X25.1578 Y3.7980
G01 X25.1524 Y3.8143
G01 X25.1464 Y3.8356
G01 X25.1273 Y3.9117
G01 X25.1236 Y3.9285
G01 X25.1197 Y3.9502
G01 X25.1082 Y4.0279
G01 X25.1061 Y4.0449
G01 X25.1043 Y4.0670
G01 X25.1005 Y4.1454
G01 X25.1000 Y4.1625
G01 X25.1005 Y4.1846
G01 X25.1043 Y4.2630
G01 X25.1056 Y4.2802
G01 X25.1082 Y4.3021
G01 X25.1197 Y4.3798
G01 X25.1226 Y4.3967
G01 X25.1273 Y4.4183
G01 X25.1464 Y4.4944
G01 X25.1510 Y4.5110
G01 X25.1578 Y4.5320
G01 X25.1843 Y4.6059
G01 X25.1904 Y4.6219
G01 X25.1993 Y4.6422
G01 X25.2328 Y4.7132
G01 X25.2406 Y4.7285
G01 X25.2514 Y4.7478
G01 X25.2917 Y4.8151
G01 X25.3009 Y4.8296
G01 X25.3135 Y4.8478
G01 X25.3603 Y4.9108
G01 X25.3709 Y4.9244
G01 X25.3852 Y4.9412
G01 X25.4379 Y4.9993
G01 X25.4498 Y5.0118
G01 X25.4657 Y5.0271
G01 X25.5238 Y5.0798
G01 X25.5369 Y5.0910
G01 X25.5542 Y5.1047
G01 X25.6172 Y5.1515
G01 X25.6313 Y5.1614
G01 X25.6499 Y5.1733
G01 X25.7172 Y5.2136
G01 X25.7322 Y5.2221
G01 X25.7518 Y5.2322
G01 X25.8228 Y5.2657
G01 X25.8385 Y5.2727
G01 X25.8591 Y5.2807
G01 X25.9330 Y5.3072
G01 X25.9493 Y5.3126
G01 X25.9706 Y5.3186
G01 X26.0467 Y5.3377
G01 X26.0635 Y5.3414
G01 X26.0852 Y5.3453
G01 X26.1629 Y5.3568
G01 X26.1799 Y5.3589
G01 X26.2020 Y5.3607
G01 X26.2804 Y5.3645
G01 X26.2975 Y5.3650
G01 X26.3196 Y5.3645
G01 X26.3980 Y5.3607
G01 X26.4152 Y5.3594
G01 X26.4371 Y5.3568
G01 X26.5148 Y5.3453
G01 X26.5317 Y5.3424
G01 X26.5533 Y5.3377
G01 X26.6294 Y5.3186
G01 X26.6460 Y5.3140
G01 X26.6670 Y5.3072
G01 X26.7409 Y5.2807
G01 X26.7569 Y5.2746
G01 X26.7772 Y5.2657
G01 X26.8482 Y5.2322
G01 X26.8635 Y5.2244
G01 X26.8828 Y5.2136
G01 X26.9501 Y5.1733
G01 X26.9646 Y5.1641
G01 X26.9828 Y5.1515
G01 X27.0458 Y5.1047
G01 X27.0594 Y5.0941
G01 X27.0762 Y5.0798
G01 X27.1343 Y5.0271
G01 X27.1468 Y5.0152
G01 X27.1621 Y4.9993
G01 X27.2148 Y4.9412
G01 X27.2260 Y4.9281
G01 X27.2397 Y4.9108
G01 X27.2865 Y4.8478
G01 X27.2964 Y4.8337
G01 X27.3083 Y4.8151
G01 X27.3486 Y4.7478
G01 X27.3571 Y4.7328
G01 X27.3672 Y4.7132
G01 X27.4007 Y4.6422
G01 X27.4077 Y4.6265
G01 X27.4157 Y4.6059
G01 X27.4422 Y4.5320
G01 X27.4476 Y4.5157
G01 X27.4536 Y4.4944
G01 X27.4727 Y4.4183
G01 X27.4764 Y4.4015
G01 X27.4803 Y4.3798
G01 X27.4918 Y4.3021
G01 X27.4939 Y4.2851
G01 X27.4957 Y4.2630
G01 X27.4995 Y4.1846
G01 X27.5000 Y4.1675
G00 X27.5000 Y4.1675
G01 F15.00
G01 Z-0.9700
G01 F30.00
G01 X27.4995 Y4.1846
G01 X27.4957 Y4.2630
G01 X27.4939 Y4.2851
G01 X27.4918 Y4.3021
G01 X27.4803 Y4.3798
G01 X27.4764 Y4.4015
G01 X27.4727 Y4.4183
G01 X27.4536 Y4.4944
G01 X27.4476 Y4.5157
G01 X27.4422 Y4.5320
G01 X27.4157 Y4.6059
G01 X27.4077 Y4.6265
G01 X27.4007 Y4.6422
G01 X27.3672 Y4.7132
G01 X27.3571 Y4.7328
G01 X27.3486 Y4.7478
G01 X27.3083 Y4.8151
G01 X27.2964 Y4.8337
G01 X27.2865 Y4.8478
G01 X27.2397 Y4.9108
G01 X27.2260 Y4.9281
G01 X27.2148 Y4.9412
G01 X27.1621 Y4.9993
G01 X27.1468 Y5.0152
G01 X27.1343 Y5.0271
G01 X27.0762 Y5.0798
G01 X27.0594 Y5.0941
G01 X27.0458 Y5.1047
G01 X26.9828 Y5.1515
G01 X26.9646 Y5.1641
G01 X26.9501 Y5.1733
G01 X26.8828 Y5.2136
G01 X26.8635 Y5.2244
G01 X26.8482 Y5.2322
G01 X26.7772 Y5.2657
G01 X26.7569 Y5.2746
G01 X26.7409 Y5.2807
G01 X26.6670 Y5.3072
G01 X26.6460 Y5.3140
G01 X26.6294 Y5.3186
G01 X26.5533 Y5.3377
G01 X26.5317 Y5.3424
G01 X26.5148 Y5.3453
G01 X26.4371 Y5.3568
G01 X26.4152 Y5.3594
G01 X26.3980 Y5.3607
G01 X26.3196 Y5.3645
G01 X26.2975 Y5.3650
G01 X26.2804 Y5.3645
G01 X26.2020 Y5.3607
G01 X26.1799 Y5.3589
G01 X26.1629 Y5.3568
G01 X26.0852 Y5.3453
G01 X26.0635 Y5.3414
G01 X26.0467 Y5.3377
G01 X25.9706 Y5.3186
G01 X25.9493 Y5.3126
G01 X25.9330 Y5.3072
G01 X25.8591 Y5.2807
G01 X25.8385 Y5.2727
G01 X25.8228 Y5.2657
G01 X25.7518 Y5.2322
G01 X25.7322 Y5.2221
G01 X25.7172 Y5.2136
G01 X25.6499 Y5.1733
G01 X25.6313 Y5.1614
G01 X25.6172 Y5.1515
G01 X25.5542 Y5.1047
G01 X25.5369 Y5.0910
G01 X25.5238 Y5.0798
G01 X25.4657 Y5.0271
G01 X25.4498 Y5.0118
G01 X25.4379 Y4.9993
G01 X25.3852 Y4.9412
G01 X25.3709 Y4.9244
G01 X25.3603 Y4.9108
G01 X25.3135 Y4.8478
G01 X25.3009 Y4.8296
G01 X25.2917 Y4.8151
G01 X25.2514 Y4.7478
G01 X25.2406 Y4.7285
G01 X25.2328 Y4.7132
G01 X25.1993 Y4.6422
G01 X25.1904 Y4.6219
G01 X25.1843 Y4.6059
G01 X25.1578 Y4.5320
G01 X25.1510 Y4.5110
G01 X25.1464 Y4.4944
G01 X25.1273 Y4.4183
G01 X25.1226 Y4.3967
G01 X25.1197 Y4.3798
G01 X25.1082 Y4.3021
G01 X25.1056 Y4.2802
G01 X25.1043 Y4.2630
G01 X25.1005 Y4.1846
G01 X25.1000 Y4.1625
G01 X25.1005 Y4.1454
G01 X25.1043 Y4.0670
G01 X25.1061 Y4.0449
G01 X25.1082 Y4.0279
G01 X25.1197 Y3.9502
G01 X25.1236 Y3.9285
G01 X25.1273 Y3.9117
G01 X25.1464 Y3.8356
G01 X25.1524 Y3.8143
G01 X25.1578 Y3.7980
G01 X25.1843 Y3.7241
G01 X25.1923 Y3.7035
G01 X25.1993 Y3.6878
G01 X25.2328 Y3.6168
G01 X25.2429 Y3.5972
G01 X25.2514 Y3.5822
G01 X25.2917 Y3.5149
G01 X25.3036 Y3.4963
G01 X25.3135 Y3.4822
G01 X25.3603 Y3.4192
G01 X25.3740 Y3.4019
G01 X25.3852 Y3.3888
G01 X25.4379 Y3.3307
G01 X25.4532 Y3.3148
G01 X25.4657 Y3.3029
G01 X25.5238 Y3.2502
G01 X25.5406 Y3.2359
G01 X25.5542 Y3.2253
G01 X25.6172 Y3.1785
G01 X25.6354 Y3.1659
G01 X25.6499 Y3.1567
G01 X25.7172 Y3.1164
G01 X25.7365 Y3.1056
G01 X25.7518 Y3.0978
G01 X25.8228 Y3.0643
G01 X25.8431 Y3.0554
G01 X25.8591 Y3.0493
G01 X25.9330 Y3.0228
G01 X25.9540 Y3.0160
G01 X25.9706 Y3.0114
G01 X26.0467 Y2.9923
G01 X26.0683 Y2.9876
G01 X26.0852 Y2.9847
G01 X26.1629 Y2.9732
G01 X26.1848 Y2.9706
G01 X26.2020 Y2.9693
G01 X26.2804 Y2.9655
G01 X26.3025 Y2.9650
G01 X26.3196 Y2.9655
G01 X26.3980 Y2.9693
G01 X26.4201 Y2.9711
G01 X26.4371 Y2.9732
G01 X26.5148 Y2.9847
G01 X26.5365 Y2.9886
G01 X26.5533 Y2.9923
G01 X26.6294 Y3.0114
G01 X26.6507 Y3.0174
G01 X26.6670 Y3.0228
G01 X26.7409 Y3.0493
G01 X26.7615 Y3.0573
G01 X26.7772 Y3.0643
G01 X26.8482 Y3.0978
G01 X26.8678 Y3.1079
G01 X26.8828 Y3.1164
G01 X26.9501 Y3.1567
G01 X26.9687 Y3.1686
G01 X26.9828 Y3.1785
G01 X27.0458 Y3.2253
G01 X27.0631 Y3.2390
G01 X27.0762 Y3.2502
G01 X27.1343 Y3.3029
G01 X27.1502 Y3.3182
G01 X27.1621 Y3.3307
G01 X27.2148 Y3.3888
G01 X27.2291 Y3.4056
G01 X27.2397 Y3.4192
G01 X27.2865 Y3.4822
G01 X27.2991 Y3.5004
G01 X27.3083 Y3.5149
G01 X27.3486 Y3.5822
G01 X27.3594 Y3.6015
G01 X27.3672 Y3.6168
G01 X27.4007 Y3.6878
G01 X27.4096 Y3.7081
G01 X27.4157 Y3.7241
G01 X27.4422 Y3.7980
G01 X27.4490 Y3.8190
G01 X27.4536 Y3.8356
G01 X27.4727 Y3.9117
G01 X27.4774 Y3.9333
G01 X27.4803 Y3.9502
G01 X27.4918 Y4.0279
G01 X27.4944 Y4.0498
G01 X27.4957 Y4.0670
G01 X27.4995 Y4.1454
G01 X27.5000 Y4.1675
G00 X27.5000 Y4.1675
G01 F15.00
G01 Z-1.4550
G01 F30.00
G01 X27.4995 Y4.1454
G01 X27.4957 Y4.0670
G01 X27.4944 Y4.0498
G01 X27.4918 Y4.0279
G01 X27.4803 Y3.9502
G01 X27.4774 Y3.9333
G01 X27.4727 Y3.9117
G01 X27.4536 Y3.8356
G01 X27.4490 Y3.8190
G01 X27.4422 Y3.7980
G01 X27.4157 Y3.7241
G01 X27.4096 Y3.7081
G01 X27.4007 Y3.6878
G01 X27.3672 Y3.6168
G01 X27.3594 Y3.6015
G01 X27.3486 Y3.5822
G01 X27.3083 Y3.5149
G01 X27.2991 Y3.5004
G01 X27.2865 Y3.4822
G01 X27.2397 Y3.4192
G01 X27.2291 Y3.4056
G01 X27.2148 Y3.3888
G01 X27.1621 Y3.3307
G01 X27.1502 Y3.3182
G01 X27.1343 Y3.3029
G01 X27.0762 Y3.2502
G01 X27.0631 Y3.2390
G01 X27.0458 Y3.2253
G01 X26.9828 Y3.1785
G01 X26.9687 Y3.1686
G01 X26.9501 Y3.1567
G01 X26.8828 Y3.1164
G01 X26.8678 Y3.1079
G01 X26.8482 Y3.0978
G01 X26.7772 Y3.0643
G01 X26.7615 Y3.0573
G01 X26.7409 Y3.0493
G01 X26.6670 Y3.0228
G01 X26.6507 Y3.0174
G01 X26.6294 Y3.0114
G01 X26.5533 Y2.9923
G01 X26.5365 Y2.9886
G01 X26.5148 Y2.9847
G01 X26.4371 Y2.9732
G01 X26.4201 Y2.9711
G01 X26.3980 Y2.9693
G01 X26.3196 Y2.9655
G01 X26.3025 Y2.9650
G01 X26.2804 Y2.9655
G01 X26.2020 Y2.9693
G01 X26.1848 Y2.9706
G01 X26.1629 Y2.9732
G01 X26.0852 Y2.9847
G01 X26.0683 Y2.9876
G01 X26.0467 Y2.9923
G01 X25.9706 Y3.0114
G01 X25.9540 Y3.0160
G01 X25.9330 Y3.0228
G01 X25.8591 Y3.0493
G01 X25.8431 Y3.0554
G01 X25.8228 Y3.0643
G01 X25.7518 Y3.0978
G01 X25.7365 Y3.1056
G01 X25.7172 Y3.1164
G01 X25.6499 Y3.1567
G01 X25.6354 Y3.1659
G01 X25.6172 Y3.1785
G01 X25.5542 Y3.2253
G01 X25.5406 Y3.2359
G01 X25.5238 Y3.2502
G01 X25.4657 Y3.3029
G01 X25.4532 Y3.3148
G01 X25.4379 Y3.3307
G01 X25.3852 Y3.3888
G01 X25.3740 Y3.4019
G01 X25.3603 Y3.4192
G01 X25.3135 Y3.4822
G01 X25.3036 Y3.4963
G01 X25.2917 Y3.5149
G01 X25.2514 Y3.5822
G01 X25.2429 Y3.5972
G01 X25.2328 Y3.6168
G01 X25.1993 Y3.6878
G01 X25.1923 Y3.7035
G01 X25.1843 Y3.7241
G01 X25.1578 Y3.7980
G01 X25.1524 Y3.8143
G01 X25.1464 Y3.8356
G01 X25.1273 Y3.9117
G01 X25.1236 Y3.9285
G01 X25.1197 Y3.9502
G01 X25.1082 Y4.0279
G01 X25.1061 Y4.0449
G01 X25.1043 Y4.0670
G01 X25.1005 Y4.1454
G01 X25.1000 Y4.1625
G01 X25.1005 Y4.1846
G01 X25.1043 Y4.2630
G01 X25.1056 Y4.2802
G01 X25.1082 Y4.3021
G01 X25.1197 Y4.3798
G01 X25.1226 Y4.3967
G01 X25.1273 Y4.4183
G01 X25.1464 Y4.4944
G01 X25.1510 Y4.5110
G01 X25.1578 Y4.5320
G01 X25.1843 Y4.6059
G01 X25.1904 Y4.6219
G01 X25.1993 Y4.6422
G01 X25.2328 Y4.7132
G01 X25.2406 Y4.7285
G01 X25.2514 Y4.7478
G01 X25.2917 Y4.8151
G01 X25.3009 Y4.8296
G01 X25.3135 Y4.8478
G01 X25.3603 Y4.9108
G01 X25.3709 Y4.9244
G01 X25.3852 Y4.9412
G01 X25.4379 Y4.9993
G01 X25.4498 Y5.0118
G01 X25.4657 Y5.0271
G01 X25.5238 Y5.0798
G01 X25.5369 Y5.0910
G01 X25.5542 Y5.1047
G01 X25.6172 Y5.1515
G01 X25.6313 Y5.1614
G01 X25.6499 Y5.1733
G01 X25.7172 Y5.2136
G01 X25.7322 Y5.2221
G01 X25.7518 Y5.2322
G01 X25.8228 Y5.2657
G01 X25.8385 Y5.2727
G01 X25.8591 Y5.2807
G01 X25.9330 Y5.3072
G01 X25.9493 Y5.3126
G01 X25.9706 Y5.3186
G01 X26.0467 Y5.3377
G01 X26.0635 Y5.3414
G01 X26.0852 Y5.3453
G01 X26.1629 Y5.3568
G01 X26.1799 Y5.3589
G01 X26.2020 Y5.3607
G01 X26.2804 Y5.3645
G01 X26.2975 Y5.3650
G01 X26.3196 Y5.3645
G01 X26.3980 Y5.3607
G01 X26.4152 Y5.3594
G01 X26.4371 Y5.3568
G01 X26.5148 Y5.3453
G01 X26.5317 Y5.3424
G01 X26.5533 Y5.3377
G01 X26.6294 Y5.3186
G01 X26.6460 Y5.3140
G01 X26.6670 Y5.3072
G01 X26.7409 Y5.2807
G01 X26.7569 Y5.2746
G01 X26.7772 Y5.2657
G01 X26.8482 Y5.2322
G01 X26.8635 Y5.2244
G01 X26.8828 Y5.2136
G01 X26.9501 Y5.1733
G01 X26.9646 Y5.1641
G01 X26.9828 Y5.1515
G01 X27.0458 Y5.1047
G01 X27.0594 Y5.0941
G01 X27.0762 Y5.0798
G01 X27.1343 Y5.0271
G01 X27.1468 Y5.0152
G01 X27.1621 Y4.9993
G01 X27.2148 Y4.9412
G01 X27.2260 Y4.9281
G01 X27.2397 Y4.9108
G01 X27.2865 Y4.8478
G01 X27.2964 Y4.8337
G01 X27.3083 Y4.8151
G01 X27.3486 Y4.7478
G01 X27.3571 Y4.7328
G01 X27.3672 Y4.7132
G01 X27.4007 Y4.6422
G01 X27.4077 Y4.6265
G01 X27.4157 Y4.6059
G01 X27.4422 Y4.5320
G01 X27.4476 Y4.5157
G01 X27.4536 Y4.4944
G01 X27.4727 Y4.4183
G01 X27.4764 Y4.4015
G01 X27.4803 Y4.3798
G01 X27.4918 Y4.3021
G01 X27.4939 Y4.2851
G01 X27.4957 Y4.2630
G01 X27.4995 Y4.1846
G01 X27.5000 Y4.1675
G00 X27.5000 Y4.1675
G01 F15.00
G01 Z-1.9400
G01 F30.00
G01 X27.4995 Y4.1846
G01 X27.4957 Y4.2630
G01 X27.4939 Y4.2851
G01 X27.4918 Y4.3021
G01 X27.4803 Y4.3798
G01 X27.4764 Y4.4015
G01 X27.4727 Y4.4183
G01 X27.4536 Y4.4944
G01 X27.4476 Y4.5157
G01 X27.4422 Y4.5320
G01 X27.4157 Y4.6059
G01 X27.4077 Y4.6265
G01 X27.4007 Y4.6422
G01 X27.3672 Y4.7132
G01 X27.3571 Y4.7328
G01 X27.3486 Y4.7478
G01 X27.3083 Y4.8151
G01 X27.2964 Y4.8337
G01 X27.2865 Y4.8478
G01 X27.2397 Y4.9108
G01 X27.2260 Y4.9281
G01 X27.2148 Y4.9412
G01 X27.1621 Y4.9993
G01 X27.1468 Y5.0152
G01 X27.1343 Y5.0271
G01 X27.0762 Y5.0798
G01 X27.0594 Y5.0941
G01 X27.0458 Y5.1047
G01 X26.9828 Y5.1515
G01 X26.9646 Y5.1641
G01 X26.9501 Y5.1733
G01 X26.8828 Y5.2136
G01 X26.8635 Y5.2244
G01 X26.8482 Y5.2322
G01 X26.7772 Y5.2657
G01 X26.7569 Y5.2746
G01 X26.7409 Y5.2807
G01 X26.6670 Y5.3072
G01 X26.6460 Y5.3140
G01 X26.6294 Y5.3186
G01 X26.5533 Y5.3377
G01 X26.5317 Y5.3424
G01 X26.5148 Y5.3453
G01 X26.4371 Y5.3568
G01 X26.4152 Y5.3594
G01 X26.3980 Y5.3607
G01 X26.3196 Y5.3645
G01 X26.2975 Y5.3650
G01 X26.2804 Y5.3645
G01 X26.2020 Y5.3607
G01 X26.1799 Y5.3589
G01 X26.1629 Y5.3568
G01 X26.0852 Y5.3453
G01 X26.0635 Y5.3414
G01 X26.0467 Y5.3377
G01 X25.9706 Y5.3186
G01 X25.9493 Y5.3126
G01 X25.9330 Y5.3072
G01 X25.8591 Y5.2807
G01 X25.8385 Y5.2727
G01 X25.8228 Y5.2657
G01 X25.7518 Y5.2322
G01 X25.7322 Y5.2221
G01 X25.7172 Y5.2136
G01 X25.6499 Y5.1733
G01 X25.6313 Y5.1614
G01 X25.6172 Y5.1515
G01 X25.5542 Y5.1047
G01 X25.5369 Y5.0910
G01 X25.5238 Y5.0798
G01 X25.4657 Y5.0271
G01 X25.4498 Y5.0118
G01 X25.4379 Y4.9993
G01 X25.3852 Y4.9412
G01 X25.3709 Y4.9244
G01 X25.3603 Y4.9108
G01 X25.3135 Y4.8478
G01 X25.3009 Y4.8296
G01 X25.2917 Y4.8151
G01 X25.2514 Y4.7478
G01 X25.2406 Y4.7285
G01 X25.2328 Y4.7132
G01 X25.1993 Y4.6422
G01 X25.1904 Y4.6219
G01 X25.1843 Y4.6059
G01 X25.1578 Y4.5320
G01 X25.1510 Y4.5110
G01 X25.1464 Y4.4944
G01 X25.1273 Y4.4183
G01 X25.1226 Y4.3967
G01 X25.1197 Y4.3798
G01 X25.1082 Y4.3021
G01 X25.1056 Y4.2802
G01 X25.1043 Y4.2630
G01 X25.1005 Y4.1846
G01 X25.1000 Y4.1625
G01 X25.1005 Y4.1454
G01 X25.1043 Y4.0670
G01 X25.1061 Y4.0449
G01 X25.1082 Y4.0279
G01 X25.1197 Y3.9502
G01 X25.1236 Y3.9285
G01 X25.1273 Y3.9117
G01 X25.1464 Y3.8356
G01 X25.1524 Y3.8143
G01 X25.1578 Y3.7980
G01 X25.1843 Y3.7241
G01 X25.1923 Y3.7035
G01 X25.1993 Y3.6878
G01 X25.2328 Y3.6168
G01 X25.2429 Y3.5972
G01 X25.2514 Y3.5822
G01 X25.2917 Y3.5149
G01 X25.3036 Y3.4963
G01 X25.3135 Y3.4822
G01 X25.3603 Y3.4192
G01 X25.3740 Y3.4019
G01 X25.3852 Y3.3888
G01 X25.4379 Y3.3307
G01 X25.4532 Y3.3148
G01 X25.4657 Y3.3029
G01 X25.5238 Y3.2502
G01 X25.5406 Y3.2359
G01 X25.5542 Y3.2253
G01 X25.6172 Y3.1785
G01 X25.6354 Y3.1659
G01 X25.6499 Y3.1567
G01 X25.7172 Y3.1164
G01 X25.7365 Y3.1056
G01 X25.7518 Y3.0978
G01 X25.8228 Y3.0643
G01 X25.8431 Y3.0554
G01 X25.8591 Y3.0493
G01 X25.9330 Y3.0228
G01 X25.9540 Y3.0160
G01 X25.9706 Y3.0114
G01 X26.0467 Y2.9923
G01 X26.0683 Y2.9876
G01 X26.0852 Y2.9847
G01 X26.1629 Y2.9732
G01 X26.1848 Y2.9706
G01 X26.2020 Y2.9693
G01 X26.2804 Y2.9655
G01 X26.3025 Y2.9650
G01 X26.3196 Y2.9655
G01 X26.3980 Y2.9693
G01 X26.4201 Y2.9711
G01 X26.4371 Y2.9732
G01 X26.5148 Y2.9847
G01 X26.5365 Y2.9886
G01 X26.5533 Y2.9923
G01 X26.6294 Y3.0114
G01 X26.6507 Y3.0174
G01 X26.6670 Y3.0228
G01 X26.7409 Y3.0493
G01 X26.7615 Y3.0573
G01 X26.7772 Y3.0643
G01 X26.8482 Y3.0978
G01 X26.8678 Y3.1079
G01 X26.8828 Y3.1164
G01 X26.9501 Y3.1567
G01 X26.9687 Y3.1686
G01 X26.9828 Y3.1785
G01 X27.0458 Y3.2253
G01 X27.0631 Y3.2390
G01 X27.0762 Y3.2502
G01 X27.1343 Y3.3029
G01 X27.1502 Y3.3182
G01 X27.1621 Y3.3307
G01 X27.2148 Y3.3888
G01 X27.2291 Y3.4056
G01 X27.2397 Y3.4192
G01 X27.2865 Y3.4822
G01 X27.2991 Y3.5004
G01 X27.3083 Y3.5149
G01 X27.3486 Y3.5822
G01 X27.3594 Y3.6015
G01 X27.3672 Y3.6168
G01 X27.4007 Y3.6878
G01 X27.4096 Y3.7081
G01 X27.4157 Y3.7241
G01 X27.4422 Y3.7980
G01 X27.4490 Y3.8190
G01 X27.4536 Y3.8356
G01 X27.4727 Y3.9117
G01 X27.4774 Y3.9333
G01 X27.4803 Y3.9502
G01 X27.4918 Y4.0279
G01 X27.4944 Y4.0498
G01 X27.4957 Y4.0670
G01 X27.4995 Y4.1454
G01 X27.5000 Y4.1675
G00 Z1.0000
M05
G00 Z1.0000
G00 Z15.00
G00 X0.0 Y0.0


