(G-CODE GENERATED BY FLATCAM v8.994 - www.flatcam.org - Version Date: 2020/11/7)

(Name: dc_ph2_converter-Edge_Cuts.gbr_cutout_1_cnc)
(Type: G-code from Geometry)
(Units: MM)

(Created on Thursday, 19 January 2023 at 16:32)

(This preprocessor is the default preprocessor used by FlatCAM.)
(It is made to work with MACH3 compatible motion controllers.)

(TOOL DIAMETER: 0.7 mm)
(Feedrate_XY: 30.0 mm/min)
(Feedrate_Z: 15.0 mm/min)
(Feedrate rapids 1500.0 mm/min)

(Z_Cut: -1.94 mm)
(DepthPerCut: 0.485 mm <=>4 passes)
(Z_Move: 1.0 mm)
(Z Start: None mm)
(Z End: 15.0 mm)
(X,Y End: 0.0000, 0.0000 mm)
(Steps per circle: 64)
(Preprocessor Geometry: default)

(X range:    0.5000 ...   29.8750  mm)
(Y range:    0.5900 ...   24.2500  mm)

(Spindle Speed: 1000.0 RPM)
G21
G90
G94

G01 F30.00

M5
G00 Z15.0000
G00 X0.0000 Y0.0000
T1
M6    
(MSG, Change to Tool Dia = 0.7000)
M0
G00 Z15.0000

M03 S1000.0
G01 F30.00
G00 X0.5001 Y20.6797
G01 F15.00
G01 Z-0.4850
G01 F30.00
G01 X0.5004 Y20.6935
G01 X0.5139 Y20.9864
G01 X0.5155 Y21.0072
G01 X0.5174 Y21.0232
G01 X0.5579 Y21.3137
G01 X0.5613 Y21.3342
G01 X0.5647 Y21.3500
G01 X0.6318 Y21.6355
G01 X0.6371 Y21.6556
G01 X0.6419 Y21.6710
G01 X0.7351 Y21.9491
G01 X0.7423 Y21.9686
G01 X0.7485 Y21.9835
G01 X0.8669 Y22.2518
G01 X0.8758 Y22.2706
G01 X0.8834 Y22.2849
G01 X1.0261 Y22.5411
G01 X1.0367 Y22.5589
G01 X1.0455 Y22.5725
G01 X1.2113 Y22.8144
G01 X1.2235 Y22.8312
G01 X1.2335 Y22.8439
G01 X1.4209 Y23.0695
G01 X1.4346 Y23.0852
G01 X1.4458 Y23.0968
G01 X1.6532 Y23.3042
G01 X1.6648 Y23.3154
G01 X1.6805 Y23.3291
G01 X1.9061 Y23.5165
G01 X1.9188 Y23.5265
G01 X1.9356 Y23.5387
G01 X2.1775 Y23.7045
G01 X2.1911 Y23.7133
G01 X2.2089 Y23.7239
G01 X2.4651 Y23.8666
G01 X2.4794 Y23.8742
G01 X2.4982 Y23.8831
G01 X2.7665 Y24.0015
G01 X2.7814 Y24.0077
G01 X2.8009 Y24.0149
G01 X3.0790 Y24.1081
G01 X3.0944 Y24.1129
G01 X3.1145 Y24.1182
G01 X3.4000 Y24.1853
G01 X3.4158 Y24.1887
G01 X3.4363 Y24.1921
G01 X3.7268 Y24.2326
G01 X3.7428 Y24.2345
G01 X3.7636 Y24.2361
G01 X4.0565 Y24.2496
G01 X4.0750 Y24.2500
G01 X26.3086 Y24.2499
G01 X26.6308 Y24.2343
G01 X26.6480 Y24.2330
G01 X26.6699 Y24.2304
G01 X26.9781 Y24.1847
G01 X26.9950 Y24.1818
G01 X27.0166 Y24.1770
G01 X27.3189 Y24.1013
G01 X27.3401 Y24.0953
G01 X27.3564 Y24.0899
G01 X27.6498 Y23.9850
G01 X27.6658 Y23.9788
G01 X27.6861 Y23.9699
G01 X27.9677 Y23.8367
G01 X27.9831 Y23.8290
G01 X28.0023 Y23.8182
G01 X28.2696 Y23.6580
G01 X28.2841 Y23.6488
G01 X28.3022 Y23.6362
G01 X28.5525 Y23.4506
G01 X28.5698 Y23.4369
G01 X28.5828 Y23.4257
G01 X28.8137 Y23.2165
G01 X28.8261 Y23.2046
G01 X28.8415 Y23.1887
G01 X29.0507 Y22.9578
G01 X29.0619 Y22.9448
G01 X29.0756 Y22.9275
G01 X29.2612 Y22.6772
G01 X29.2711 Y22.6632
G01 X29.2830 Y22.6446
G01 X29.4432 Y22.3773
G01 X29.4517 Y22.3624
G01 X29.4617 Y22.3427
G01 X29.5949 Y22.0611
G01 X29.6038 Y22.0408
G01 X29.6100 Y22.0248
G01 X29.7149 Y21.7314
G01 X29.7203 Y21.7151
G01 X29.7263 Y21.6939
G01 X29.8020 Y21.3916
G01 X29.8058 Y21.3748
G01 X29.8097 Y21.3531
G01 X29.8554 Y21.0449
G01 X29.8575 Y21.0279
G01 X29.8593 Y21.0058
G01 X29.8745 Y20.6946
G01 X29.8750 Y20.6750
G01 X29.8749 Y4.1540
G01 X29.8593 Y3.8342
G01 X29.8580 Y3.8170
G01 X29.8554 Y3.7951
G01 X29.8097 Y3.4869
G01 X29.8068 Y3.4700
G01 X29.8020 Y3.4484
G01 X29.7263 Y3.1461
G01 X29.7203 Y3.1249
G01 X29.7149 Y3.1086
G01 X29.6100 Y2.8152
G01 X29.6038 Y2.7992
G01 X29.5949 Y2.7789
G01 X29.4617 Y2.4973
G01 X29.4540 Y2.4819
G01 X29.4432 Y2.4627
G01 X29.2830 Y2.1954
G01 X29.2738 Y2.1809
G01 X29.2612 Y2.1628
G01 X29.0756 Y1.9125
G01 X29.0619 Y1.8952
G01 X29.0507 Y1.8822
G01 X28.8415 Y1.6513
G01 X28.8296 Y1.6389
G01 X28.8137 Y1.6235
G01 X28.5828 Y1.4143
G01 X28.5698 Y1.4031
G01 X28.5525 Y1.3894
G01 X28.3022 Y1.2038
G01 X28.2882 Y1.1939
G01 X28.2696 Y1.1820
G01 X28.0023 Y1.0218
G01 X27.9874 Y1.0133
G01 X27.9677 Y1.0033
G01 X27.6861 Y0.8701
G01 X27.6658 Y0.8612
G01 X27.6498 Y0.8550
G01 X27.3564 Y0.7501
G01 X27.3401 Y0.7447
G01 X27.3189 Y0.7387
G01 X27.0166 Y0.6630
G01 X26.9998 Y0.6592
G01 X26.9781 Y0.6553
G01 X26.6699 Y0.6096
G01 X26.6529 Y0.6075
G01 X26.6308 Y0.6057
G01 X26.3110 Y0.5901
G01 X4.0640 Y0.5901
G01 X3.7442 Y0.6057
G01 X3.7270 Y0.6070
G01 X3.7051 Y0.6096
G01 X3.3969 Y0.6553
G01 X3.3800 Y0.6582
G01 X3.3584 Y0.6630
G01 X3.0561 Y0.7387
G01 X3.0349 Y0.7447
G01 X3.0186 Y0.7501
G01 X2.7252 Y0.8550
G01 X2.7092 Y0.8612
G01 X2.6889 Y0.8701
G01 X2.4073 Y1.0033
G01 X2.3919 Y1.0110
G01 X2.3727 Y1.0218
G01 X2.1054 Y1.1820
G01 X2.0909 Y1.1912
G01 X2.0728 Y1.2038
G01 X1.8225 Y1.3894
G01 X1.8052 Y1.4031
G01 X1.7922 Y1.4143
G01 X1.5613 Y1.6235
G01 X1.5489 Y1.6354
G01 X1.5335 Y1.6513
G01 X1.3243 Y1.8822
G01 X1.3131 Y1.8952
G01 X1.2994 Y1.9125
G01 X1.1138 Y2.1628
G01 X1.1039 Y2.1768
G01 X1.0920 Y2.1954
G01 X0.9318 Y2.4627
G01 X0.9233 Y2.4776
G01 X0.9133 Y2.4973
G01 X0.7801 Y2.7789
G01 X0.7731 Y2.7947
G01 X0.7650 Y2.8152
G01 X0.6601 Y3.1086
G01 X0.6547 Y3.1249
G01 X0.6487 Y3.1461
G01 X0.5730 Y3.4484
G01 X0.5692 Y3.4652
G01 X0.5653 Y3.4869
G01 X0.5196 Y3.7951
G01 X0.5170 Y3.8170
G01 X0.5157 Y3.8342
G01 X0.5005 Y4.1454
G01 X0.5000 Y4.1650
G01 X0.5001 Y20.6797
G00 X0.5001 Y20.6797
G01 F15.00
G01 Z-0.9700
G01 F30.00
G01 X0.5000 Y4.1650
G01 X0.5005 Y4.1454
G01 X0.5157 Y3.8342
G01 X0.5170 Y3.8170
G01 X0.5196 Y3.7951
G01 X0.5653 Y3.4869
G01 X0.5692 Y3.4652
G01 X0.5730 Y3.4484
G01 X0.6487 Y3.1461
G01 X0.6547 Y3.1249
G01 X0.6601 Y3.1086
G01 X0.7650 Y2.8152
G01 X0.7731 Y2.7947
G01 X0.7801 Y2.7789
G01 X0.9133 Y2.4973
G01 X0.9233 Y2.4776
G01 X0.9318 Y2.4627
G01 X1.0920 Y2.1954
G01 X1.1039 Y2.1768
G01 X1.1138 Y2.1628
G01 X1.2994 Y1.9125
G01 X1.3131 Y1.8952
G01 X1.3243 Y1.8822
G01 X1.5335 Y1.6513
G01 X1.5489 Y1.6354
G01 X1.5613 Y1.6235
G01 X1.7922 Y1.4143
G01 X1.8052 Y1.4031
G01 X1.8225 Y1.3894
G01 X2.0728 Y1.2038
G01 X2.0909 Y1.1912
G01 X2.1054 Y1.1820
G01 X2.3727 Y1.0218
G01 X2.3919 Y1.0110
G01 X2.4073 Y1.0033
G01 X2.6889 Y0.8701
G01 X2.7092 Y0.8612
G01 X2.7252 Y0.8550
G01 X3.0186 Y0.7501
G01 X3.0349 Y0.7447
G01 X3.0561 Y0.7387
G01 X3.3584 Y0.6630
G01 X3.3800 Y0.6582
G01 X3.3969 Y0.6553
G01 X3.7051 Y0.6096
G01 X3.7270 Y0.6070
G01 X3.7442 Y0.6057
G01 X4.0640 Y0.5901
G01 X26.3110 Y0.5901
G01 X26.6308 Y0.6057
G01 X26.6529 Y0.6075
G01 X26.6699 Y0.6096
G01 X26.9781 Y0.6553
G01 X26.9998 Y0.6592
G01 X27.0166 Y0.6630
G01 X27.3189 Y0.7387
G01 X27.3401 Y0.7447
G01 X27.3564 Y0.7501
G01 X27.6498 Y0.8550
G01 X27.6658 Y0.8612
G01 X27.6861 Y0.8701
G01 X27.9677 Y1.0033
G01 X27.9874 Y1.0133
G01 X28.0023 Y1.0218
G01 X28.2696 Y1.1820
G01 X28.2882 Y1.1939
G01 X28.3022 Y1.2038
G01 X28.5525 Y1.3894
G01 X28.5698 Y1.4031
G01 X28.5828 Y1.4143
G01 X28.8137 Y1.6235
G01 X28.8296 Y1.6389
G01 X28.8415 Y1.6513
G01 X29.0507 Y1.8822
G01 X29.0619 Y1.8952
G01 X29.0756 Y1.9125
G01 X29.2612 Y2.1628
G01 X29.2738 Y2.1809
G01 X29.2830 Y2.1954
G01 X29.4432 Y2.4627
G01 X29.4540 Y2.4819
G01 X29.4617 Y2.4973
G01 X29.5949 Y2.7789
G01 X29.6038 Y2.7992
G01 X29.6100 Y2.8152
G01 X29.7149 Y3.1086
G01 X29.7203 Y3.1249
G01 X29.7263 Y3.1461
G01 X29.8020 Y3.4484
G01 X29.8068 Y3.4700
G01 X29.8097 Y3.4869
G01 X29.8554 Y3.7951
G01 X29.8580 Y3.8170
G01 X29.8593 Y3.8342
G01 X29.8749 Y4.1540
G01 X29.8750 Y20.6750
G01 X29.8745 Y20.6946
G01 X29.8593 Y21.0058
G01 X29.8575 Y21.0279
G01 X29.8554 Y21.0449
G01 X29.8097 Y21.3531
G01 X29.8058 Y21.3748
G01 X29.8020 Y21.3916
G01 X29.7263 Y21.6939
G01 X29.7203 Y21.7151
G01 X29.7149 Y21.7314
G01 X29.6100 Y22.0248
G01 X29.6038 Y22.0408
G01 X29.5949 Y22.0611
G01 X29.4617 Y22.3427
G01 X29.4517 Y22.3624
G01 X29.4432 Y22.3773
G01 X29.2830 Y22.6446
G01 X29.2711 Y22.6632
G01 X29.2612 Y22.6772
G01 X29.0756 Y22.9275
G01 X29.0619 Y22.9448
G01 X29.0507 Y22.9578
G01 X28.8415 Y23.1887
G01 X28.8261 Y23.2046
G01 X28.8137 Y23.2165
G01 X28.5828 Y23.4257
G01 X28.5698 Y23.4369
G01 X28.5525 Y23.4506
G01 X28.3022 Y23.6362
G01 X28.2841 Y23.6488
G01 X28.2696 Y23.6580
G01 X28.0023 Y23.8182
G01 X27.9831 Y23.8290
G01 X27.9677 Y23.8367
G01 X27.6861 Y23.9699
G01 X27.6658 Y23.9788
G01 X27.6498 Y23.9850
G01 X27.3564 Y24.0899
G01 X27.3401 Y24.0953
G01 X27.3189 Y24.1013
G01 X27.0166 Y24.1770
G01 X26.9950 Y24.1818
G01 X26.9781 Y24.1847
G01 X26.6699 Y24.2304
G01 X26.6480 Y24.2330
G01 X26.6308 Y24.2343
G01 X26.3086 Y24.2499
G01 X4.0750 Y24.2500
G01 X4.0565 Y24.2496
G01 X3.7636 Y24.2361
G01 X3.7428 Y24.2345
G01 X3.7268 Y24.2326
G01 X3.4363 Y24.1921
G01 X3.4158 Y24.1887
G01 X3.4000 Y24.1853
G01 X3.1145 Y24.1182
G01 X3.0944 Y24.1129
G01 X3.0790 Y24.1081
G01 X2.8009 Y24.0149
G01 X2.7814 Y24.0077
G01 X2.7665 Y24.0015
G01 X2.4982 Y23.8831
G01 X2.4794 Y23.8742
G01 X2.4651 Y23.8666
G01 X2.2089 Y23.7239
G01 X2.1911 Y23.7133
G01 X2.1775 Y23.7045
G01 X1.9356 Y23.5387
G01 X1.9188 Y23.5265
G01 X1.9061 Y23.5165
G01 X1.6805 Y23.3291
G01 X1.6648 Y23.3154
G01 X1.6532 Y23.3042
G01 X1.4458 Y23.0968
G01 X1.4346 Y23.0852
G01 X1.4209 Y23.0695
G01 X1.2335 Y22.8439
G01 X1.2235 Y22.8312
G01 X1.2113 Y22.8144
G01 X1.0455 Y22.5725
G01 X1.0367 Y22.5589
G01 X1.0261 Y22.5411
G01 X0.8834 Y22.2849
G01 X0.8758 Y22.2706
G01 X0.8669 Y22.2518
G01 X0.7485 Y21.9835
G01 X0.7423 Y21.9686
G01 X0.7351 Y21.9491
G01 X0.6419 Y21.6710
G01 X0.6371 Y21.6556
G01 X0.6318 Y21.6355
G01 X0.5647 Y21.3500
G01 X0.5613 Y21.3342
G01 X0.5579 Y21.3137
G01 X0.5174 Y21.0232
G01 X0.5155 Y21.0072
G01 X0.5139 Y20.9864
G01 X0.5004 Y20.6935
G01 X0.5001 Y20.6797
G00 X0.5001 Y20.6797
G01 F15.00
G01 Z-1.4550
G01 F30.00
G01 X0.5004 Y20.6935
G01 X0.5139 Y20.9864
G01 X0.5155 Y21.0072
G01 X0.5174 Y21.0232
G01 X0.5579 Y21.3137
G01 X0.5613 Y21.3342
G01 X0.5647 Y21.3500
G01 X0.6318 Y21.6355
G01 X0.6371 Y21.6556
G01 X0.6419 Y21.6710
G01 X0.7351 Y21.9491
G01 X0.7423 Y21.9686
G01 X0.7485 Y21.9835
G01 X0.8669 Y22.2518
G01 X0.8758 Y22.2706
G01 X0.8834 Y22.2849
G01 X1.0261 Y22.5411
G01 X1.0367 Y22.5589
G01 X1.0455 Y22.5725
G01 X1.2113 Y22.8144
G01 X1.2235 Y22.8312
G01 X1.2335 Y22.8439
G01 X1.4209 Y23.0695
G01 X1.4346 Y23.0852
G01 X1.4458 Y23.0968
G01 X1.6532 Y23.3042
G01 X1.6648 Y23.3154
G01 X1.6805 Y23.3291
G01 X1.9061 Y23.5165
G01 X1.9188 Y23.5265
G01 X1.9356 Y23.5387
G01 X2.1775 Y23.7045
G01 X2.1911 Y23.7133
G01 X2.2089 Y23.7239
G01 X2.4651 Y23.8666
G01 X2.4794 Y23.8742
G01 X2.4982 Y23.8831
G01 X2.7665 Y24.0015
G01 X2.7814 Y24.0077
G01 X2.8009 Y24.0149
G01 X3.0790 Y24.1081
G01 X3.0944 Y24.1129
G01 X3.1145 Y24.1182
G01 X3.4000 Y24.1853
G01 X3.4158 Y24.1887
G01 X3.4363 Y24.1921
G01 X3.7268 Y24.2326
G01 X3.7428 Y24.2345
G01 X3.7636 Y24.2361
G01 X4.0565 Y24.2496
G01 X4.0750 Y24.2500
G01 X26.3086 Y24.2499
G01 X26.6308 Y24.2343
G01 X26.6480 Y24.2330
G01 X26.6699 Y24.2304
G01 X26.9781 Y24.1847
G01 X26.9950 Y24.1818
G01 X27.0166 Y24.1770
G01 X27.3189 Y24.1013
G01 X27.3401 Y24.0953
G01 X27.3564 Y24.0899
G01 X27.6498 Y23.9850
G01 X27.6658 Y23.9788
G01 X27.6861 Y23.9699
G01 X27.9677 Y23.8367
G01 X27.9831 Y23.8290
G01 X28.0023 Y23.8182
G01 X28.2696 Y23.6580
G01 X28.2841 Y23.6488
G01 X28.3022 Y23.6362
G01 X28.5525 Y23.4506
G01 X28.5698 Y23.4369
G01 X28.5828 Y23.4257
G01 X28.8137 Y23.2165
G01 X28.8261 Y23.2046
G01 X28.8415 Y23.1887
G01 X29.0507 Y22.9578
G01 X29.0619 Y22.9448
G01 X29.0756 Y22.9275
G01 X29.2612 Y22.6772
G01 X29.2711 Y22.6632
G01 X29.2830 Y22.6446
G01 X29.4432 Y22.3773
G01 X29.4517 Y22.3624
G01 X29.4617 Y22.3427
G01 X29.5949 Y22.0611
G01 X29.6038 Y22.0408
G01 X29.6100 Y22.0248
G01 X29.7149 Y21.7314
G01 X29.7203 Y21.7151
G01 X29.7263 Y21.6939
G01 X29.8020 Y21.3916
G01 X29.8058 Y21.3748
G01 X29.8097 Y21.3531
G01 X29.8554 Y21.0449
G01 X29.8575 Y21.0279
G01 X29.8593 Y21.0058
G01 X29.8745 Y20.6946
G01 X29.8750 Y20.6750
G01 X29.8749 Y4.1540
G01 X29.8593 Y3.8342
G01 X29.8580 Y3.8170
G01 X29.8554 Y3.7951
G01 X29.8097 Y3.4869
G01 X29.8068 Y3.4700
G01 X29.8020 Y3.4484
G01 X29.7263 Y3.1461
G01 X29.7203 Y3.1249
G01 X29.7149 Y3.1086
G01 X29.6100 Y2.8152
G01 X29.6038 Y2.7992
G01 X29.5949 Y2.7789
G01 X29.4617 Y2.4973
G01 X29.4540 Y2.4819
G01 X29.4432 Y2.4627
G01 X29.2830 Y2.1954
G01 X29.2738 Y2.1809
G01 X29.2612 Y2.1628
G01 X29.0756 Y1.9125
G01 X29.0619 Y1.8952
G01 X29.0507 Y1.8822
G01 X28.8415 Y1.6513
G01 X28.8296 Y1.6389
G01 X28.8137 Y1.6235
G01 X28.5828 Y1.4143
G01 X28.5698 Y1.4031
G01 X28.5525 Y1.3894
G01 X28.3022 Y1.2038
G01 X28.2882 Y1.1939
G01 X28.2696 Y1.1820
G01 X28.0023 Y1.0218
G01 X27.9874 Y1.0133
G01 X27.9677 Y1.0033
G01 X27.6861 Y0.8701
G01 X27.6658 Y0.8612
G01 X27.6498 Y0.8550
G01 X27.3564 Y0.7501
G01 X27.3401 Y0.7447
G01 X27.3189 Y0.7387
G01 X27.0166 Y0.6630
G01 X26.9998 Y0.6592
G01 X26.9781 Y0.6553
G01 X26.6699 Y0.6096
G01 X26.6529 Y0.6075
G01 X26.6308 Y0.6057
G01 X26.3110 Y0.5901
G01 X4.0640 Y0.5901
G01 X3.7442 Y0.6057
G01 X3.7270 Y0.6070
G01 X3.7051 Y0.6096
G01 X3.3969 Y0.6553
G01 X3.3800 Y0.6582
G01 X3.3584 Y0.6630
G01 X3.0561 Y0.7387
G01 X3.0349 Y0.7447
G01 X3.0186 Y0.7501
G01 X2.7252 Y0.8550
G01 X2.7092 Y0.8612
G01 X2.6889 Y0.8701
G01 X2.4073 Y1.0033
G01 X2.3919 Y1.0110
G01 X2.3727 Y1.0218
G01 X2.1054 Y1.1820
G01 X2.0909 Y1.1912
G01 X2.0728 Y1.2038
G01 X1.8225 Y1.3894
G01 X1.8052 Y1.4031
G01 X1.7922 Y1.4143
G01 X1.5613 Y1.6235
G01 X1.5489 Y1.6354
G01 X1.5335 Y1.6513
G01 X1.3243 Y1.8822
G01 X1.3131 Y1.8952
G01 X1.2994 Y1.9125
G01 X1.1138 Y2.1628
G01 X1.1039 Y2.1768
G01 X1.0920 Y2.1954
G01 X0.9318 Y2.4627
G01 X0.9233 Y2.4776
G01 X0.9133 Y2.4973
G01 X0.7801 Y2.7789
G01 X0.7731 Y2.7947
G01 X0.7650 Y2.8152
G01 X0.6601 Y3.1086
G01 X0.6547 Y3.1249
G01 X0.6487 Y3.1461
G01 X0.5730 Y3.4484
G01 X0.5692 Y3.4652
G01 X0.5653 Y3.4869
G01 X0.5196 Y3.7951
G01 X0.5170 Y3.8170
G01 X0.5157 Y3.8342
G01 X0.5005 Y4.1454
G01 X0.5000 Y4.1650
G01 X0.5001 Y20.6797
G00 X0.5001 Y20.6797
G01 F15.00
G01 Z-1.9400
G01 F30.00
G01 X0.5000 Y4.1650
G01 X0.5005 Y4.1454
G01 X0.5157 Y3.8342
G01 X0.5170 Y3.8170
G01 X0.5196 Y3.7951
G01 X0.5653 Y3.4869
G01 X0.5692 Y3.4652
G01 X0.5730 Y3.4484
G01 X0.6487 Y3.1461
G01 X0.6547 Y3.1249
G01 X0.6601 Y3.1086
G01 X0.7650 Y2.8152
G01 X0.7731 Y2.7947
G01 X0.7801 Y2.7789
G01 X0.9133 Y2.4973
G01 X0.9233 Y2.4776
G01 X0.9318 Y2.4627
G01 X1.0920 Y2.1954
G01 X1.1039 Y2.1768
G01 X1.1138 Y2.1628
G01 X1.2994 Y1.9125
G01 X1.3131 Y1.8952
G01 X1.3243 Y1.8822
G01 X1.5335 Y1.6513
G01 X1.5489 Y1.6354
G01 X1.5613 Y1.6235
G01 X1.7922 Y1.4143
G01 X1.8052 Y1.4031
G01 X1.8225 Y1.3894
G01 X2.0728 Y1.2038
G01 X2.0909 Y1.1912
G01 X2.1054 Y1.1820
G01 X2.3727 Y1.0218
G01 X2.3919 Y1.0110
G01 X2.4073 Y1.0033
G01 X2.6889 Y0.8701
G01 X2.7092 Y0.8612
G01 X2.7252 Y0.8550
G01 X3.0186 Y0.7501
G01 X3.0349 Y0.7447
G01 X3.0561 Y0.7387
G01 X3.3584 Y0.6630
G01 X3.3800 Y0.6582
G01 X3.3969 Y0.6553
G01 X3.7051 Y0.6096
G01 X3.7270 Y0.6070
G01 X3.7442 Y0.6057
G01 X4.0640 Y0.5901
G01 X26.3110 Y0.5901
G01 X26.6308 Y0.6057
G01 X26.6529 Y0.6075
G01 X26.6699 Y0.6096
G01 X26.9781 Y0.6553
G01 X26.9998 Y0.6592
G01 X27.0166 Y0.6630
G01 X27.3189 Y0.7387
G01 X27.3401 Y0.7447
G01 X27.3564 Y0.7501
G01 X27.6498 Y0.8550
G01 X27.6658 Y0.8612
G01 X27.6861 Y0.8701
G01 X27.9677 Y1.0033
G01 X27.9874 Y1.0133
G01 X28.0023 Y1.0218
G01 X28.2696 Y1.1820
G01 X28.2882 Y1.1939
G01 X28.3022 Y1.2038
G01 X28.5525 Y1.3894
G01 X28.5698 Y1.4031
G01 X28.5828 Y1.4143
G01 X28.8137 Y1.6235
G01 X28.8296 Y1.6389
G01 X28.8415 Y1.6513
G01 X29.0507 Y1.8822
G01 X29.0619 Y1.8952
G01 X29.0756 Y1.9125
G01 X29.2612 Y2.1628
G01 X29.2738 Y2.1809
G01 X29.2830 Y2.1954
G01 X29.4432 Y2.4627
G01 X29.4540 Y2.4819
G01 X29.4617 Y2.4973
G01 X29.5949 Y2.7789
G01 X29.6038 Y2.7992
G01 X29.6100 Y2.8152
G01 X29.7149 Y3.1086
G01 X29.7203 Y3.1249
G01 X29.7263 Y3.1461
G01 X29.8020 Y3.4484
G01 X29.8068 Y3.4700
G01 X29.8097 Y3.4869
G01 X29.8554 Y3.7951
G01 X29.8580 Y3.8170
G01 X29.8593 Y3.8342
G01 X29.8749 Y4.1540
G01 X29.8750 Y20.6750
G01 X29.8745 Y20.6946
G01 X29.8593 Y21.0058
G01 X29.8575 Y21.0279
G01 X29.8554 Y21.0449
G01 X29.8097 Y21.3531
G01 X29.8058 Y21.3748
G01 X29.8020 Y21.3916
G01 X29.7263 Y21.6939
G01 X29.7203 Y21.7151
G01 X29.7149 Y21.7314
G01 X29.6100 Y22.0248
G01 X29.6038 Y22.0408
G01 X29.5949 Y22.0611
G01 X29.4617 Y22.3427
G01 X29.4517 Y22.3624
G01 X29.4432 Y22.3773
G01 X29.2830 Y22.6446
G01 X29.2711 Y22.6632
G01 X29.2612 Y22.6772
G01 X29.0756 Y22.9275
G01 X29.0619 Y22.9448
G01 X29.0507 Y22.9578
G01 X28.8415 Y23.1887
G01 X28.8261 Y23.2046
G01 X28.8137 Y23.2165
G01 X28.5828 Y23.4257
G01 X28.5698 Y23.4369
G01 X28.5525 Y23.4506
G01 X28.3022 Y23.6362
G01 X28.2841 Y23.6488
G01 X28.2696 Y23.6580
G01 X28.0023 Y23.8182
G01 X27.9831 Y23.8290
G01 X27.9677 Y23.8367
G01 X27.6861 Y23.9699
G01 X27.6658 Y23.9788
G01 X27.6498 Y23.9850
G01 X27.3564 Y24.0899
G01 X27.3401 Y24.0953
G01 X27.3189 Y24.1013
G01 X27.0166 Y24.1770
G01 X26.9950 Y24.1818
G01 X26.9781 Y24.1847
G01 X26.6699 Y24.2304
G01 X26.6480 Y24.2330
G01 X26.6308 Y24.2343
G01 X26.3086 Y24.2499
G01 X4.0750 Y24.2500
G01 X4.0565 Y24.2496
G01 X3.7636 Y24.2361
G01 X3.7428 Y24.2345
G01 X3.7268 Y24.2326
G01 X3.4363 Y24.1921
G01 X3.4158 Y24.1887
G01 X3.4000 Y24.1853
G01 X3.1145 Y24.1182
G01 X3.0944 Y24.1129
G01 X3.0790 Y24.1081
G01 X2.8009 Y24.0149
G01 X2.7814 Y24.0077
G01 X2.7665 Y24.0015
G01 X2.4982 Y23.8831
G01 X2.4794 Y23.8742
G01 X2.4651 Y23.8666
G01 X2.2089 Y23.7239
G01 X2.1911 Y23.7133
G01 X2.1775 Y23.7045
G01 X1.9356 Y23.5387
G01 X1.9188 Y23.5265
G01 X1.9061 Y23.5165
G01 X1.6805 Y23.3291
G01 X1.6648 Y23.3154
G01 X1.6532 Y23.3042
G01 X1.4458 Y23.0968
G01 X1.4346 Y23.0852
G01 X1.4209 Y23.0695
G01 X1.2335 Y22.8439
G01 X1.2235 Y22.8312
G01 X1.2113 Y22.8144
G01 X1.0455 Y22.5725
G01 X1.0367 Y22.5589
G01 X1.0261 Y22.5411
G01 X0.8834 Y22.2849
G01 X0.8758 Y22.2706
G01 X0.8669 Y22.2518
G01 X0.7485 Y21.9835
G01 X0.7423 Y21.9686
G01 X0.7351 Y21.9491
G01 X0.6419 Y21.6710
G01 X0.6371 Y21.6556
G01 X0.6318 Y21.6355
G01 X0.5647 Y21.3500
G01 X0.5613 Y21.3342
G01 X0.5579 Y21.3137
G01 X0.5174 Y21.0232
G01 X0.5155 Y21.0072
G01 X0.5139 Y20.9864
G01 X0.5004 Y20.6935
G01 X0.5001 Y20.6797
G00 Z1.0000
M05
G00 Z1.0000
G00 Z15.00
G00 X0.0 Y0.0


