(G-CODE GENERATED BY FLATCAM v8.994 - www.flatcam.org - Version Date: 2020/11/7)

(Name: dc_ph2_converter-PTH-drl.gbr_inverted_iso_combined_cnc)
(Type: G-code from Geometry)
(Units: MM)

(Created on Tuesday, 17 January 2023 at 14:33)

(This preprocessor is the default preprocessor used by FlatCAM.)
(It is made to work with MACH3 compatible motion controllers.)

(TOOL DIAMETER: 0.6 mm)
(Feedrate_XY: 20.0 mm/min)
(Feedrate_Z: 15.0 mm/min)
(Feedrate rapids 1500.0 mm/min)

(Z_Cut: -1.94 mm)
(DepthPerCut: 0.485 mm <=>4 passes)
(Z_Move: 1.0 mm)
(Z Start: None mm)
(Z End: 15.0 mm)
(X,Y End: 0.0000, 0.0000 mm)
(Steps per circle: 64)
(Preprocessor Geometry: default)

(X range:    3.5600 ...   20.5196  mm)
(Y range:    8.5804 ...   15.7700  mm)

(Spindle Speed: 1000.0 RPM)
G21
G90
G94

G01 F20.00

M5
G00 Z15.0000
G00 X0.0000 Y0.0000
T1
M6    
(MSG, Change to Tool Dia = 0.6000)
M0
G00 Z15.0000

M03 S1000.0
G01 F20.00
G00 X3.7600 Y12.0696
G01 F15.00
G01 Z-0.4850
G01 F20.00
G01 X3.7796 Y12.0687
G01 X3.7989 Y12.0658
G01 X3.8180 Y12.0610
G01 X3.8364 Y12.0544
G01 X3.8541 Y12.0461
G01 X3.8709 Y12.0360
G01 X3.8866 Y12.0243
G01 X3.9012 Y12.0112
G01 X3.9143 Y11.9966
G01 X3.9260 Y11.9809
G01 X3.9361 Y11.9641
G01 X3.9444 Y11.9464
G01 X3.9510 Y11.9280
G01 X3.9558 Y11.9089
G01 X3.9587 Y11.8896
G01 X3.9600 Y11.8626
G01 X3.9600 Y9.6774
G01 X3.9587 Y9.6504
G01 X3.9558 Y9.6311
G01 X3.9510 Y9.6120
G01 X3.9444 Y9.5936
G01 X3.9361 Y9.5759
G01 X3.9260 Y9.5591
G01 X3.9143 Y9.5434
G01 X3.9012 Y9.5288
G01 X3.8866 Y9.5157
G01 X3.8709 Y9.5040
G01 X3.8541 Y9.4939
G01 X3.8364 Y9.4856
G01 X3.8180 Y9.4790
G01 X3.7989 Y9.4742
G01 X3.7796 Y9.4713
G01 X3.7600 Y9.4704
G01 X3.7404 Y9.4713
G01 X3.7211 Y9.4742
G01 X3.7020 Y9.4790
G01 X3.6836 Y9.4856
G01 X3.6659 Y9.4939
G01 X3.6491 Y9.5040
G01 X3.6334 Y9.5157
G01 X3.6188 Y9.5288
G01 X3.6057 Y9.5434
G01 X3.5940 Y9.5591
G01 X3.5839 Y9.5759
G01 X3.5756 Y9.5936
G01 X3.5690 Y9.6120
G01 X3.5642 Y9.6311
G01 X3.5613 Y9.6504
G01 X3.5600 Y9.6774
G01 X3.5600 Y11.8626
G01 X3.5613 Y11.8896
G01 X3.5642 Y11.9089
G01 X3.5690 Y11.9280
G01 X3.5756 Y11.9464
G01 X3.5839 Y11.9641
G01 X3.5940 Y11.9809
G01 X3.6057 Y11.9966
G01 X3.6188 Y12.0112
G01 X3.6334 Y12.0243
G01 X3.6491 Y12.0360
G01 X3.6659 Y12.0461
G01 X3.6836 Y12.0544
G01 X3.7020 Y12.0610
G01 X3.7211 Y12.0658
G01 X3.7404 Y12.0687
G01 X3.7600 Y12.0696
G00 X3.7600 Y12.0696
G01 F15.00
G01 Z-0.9700
G01 F20.00
G01 X3.7796 Y12.0687
G01 X3.7989 Y12.0658
G01 X3.8180 Y12.0610
G01 X3.8364 Y12.0544
G01 X3.8541 Y12.0461
G01 X3.8709 Y12.0360
G01 X3.8866 Y12.0243
G01 X3.9012 Y12.0112
G01 X3.9143 Y11.9966
G01 X3.9260 Y11.9809
G01 X3.9361 Y11.9641
G01 X3.9444 Y11.9464
G01 X3.9510 Y11.9280
G01 X3.9558 Y11.9089
G01 X3.9587 Y11.8896
G01 X3.9600 Y11.8626
G01 X3.9600 Y9.6774
G01 X3.9587 Y9.6504
G01 X3.9558 Y9.6311
G01 X3.9510 Y9.6120
G01 X3.9444 Y9.5936
G01 X3.9361 Y9.5759
G01 X3.9260 Y9.5591
G01 X3.9143 Y9.5434
G01 X3.9012 Y9.5288
G01 X3.8866 Y9.5157
G01 X3.8709 Y9.5040
G01 X3.8541 Y9.4939
G01 X3.8364 Y9.4856
G01 X3.8180 Y9.4790
G01 X3.7989 Y9.4742
G01 X3.7796 Y9.4713
G01 X3.7600 Y9.4704
G01 X3.7404 Y9.4713
G01 X3.7211 Y9.4742
G01 X3.7020 Y9.4790
G01 X3.6836 Y9.4856
G01 X3.6659 Y9.4939
G01 X3.6491 Y9.5040
G01 X3.6334 Y9.5157
G01 X3.6188 Y9.5288
G01 X3.6057 Y9.5434
G01 X3.5940 Y9.5591
G01 X3.5839 Y9.5759
G01 X3.5756 Y9.5936
G01 X3.5690 Y9.6120
G01 X3.5642 Y9.6311
G01 X3.5613 Y9.6504
G01 X3.5600 Y9.6774
G01 X3.5600 Y11.8626
G01 X3.5613 Y11.8896
G01 X3.5642 Y11.9089
G01 X3.5690 Y11.9280
G01 X3.5756 Y11.9464
G01 X3.5839 Y11.9641
G01 X3.5940 Y11.9809
G01 X3.6057 Y11.9966
G01 X3.6188 Y12.0112
G01 X3.6334 Y12.0243
G01 X3.6491 Y12.0360
G01 X3.6659 Y12.0461
G01 X3.6836 Y12.0544
G01 X3.7020 Y12.0610
G01 X3.7211 Y12.0658
G01 X3.7404 Y12.0687
G01 X3.7600 Y12.0696
G00 X3.7600 Y12.0696
G01 F15.00
G01 Z-1.4550
G01 F20.00
G01 X3.7796 Y12.0687
G01 X3.7989 Y12.0658
G01 X3.8180 Y12.0610
G01 X3.8364 Y12.0544
G01 X3.8541 Y12.0461
G01 X3.8709 Y12.0360
G01 X3.8866 Y12.0243
G01 X3.9012 Y12.0112
G01 X3.9143 Y11.9966
G01 X3.9260 Y11.9809
G01 X3.9361 Y11.9641
G01 X3.9444 Y11.9464
G01 X3.9510 Y11.9280
G01 X3.9558 Y11.9089
G01 X3.9587 Y11.8896
G01 X3.9600 Y11.8626
G01 X3.9600 Y9.6774
G01 X3.9587 Y9.6504
G01 X3.9558 Y9.6311
G01 X3.9510 Y9.6120
G01 X3.9444 Y9.5936
G01 X3.9361 Y9.5759
G01 X3.9260 Y9.5591
G01 X3.9143 Y9.5434
G01 X3.9012 Y9.5288
G01 X3.8866 Y9.5157
G01 X3.8709 Y9.5040
G01 X3.8541 Y9.4939
G01 X3.8364 Y9.4856
G01 X3.8180 Y9.4790
G01 X3.7989 Y9.4742
G01 X3.7796 Y9.4713
G01 X3.7600 Y9.4704
G01 X3.7404 Y9.4713
G01 X3.7211 Y9.4742
G01 X3.7020 Y9.4790
G01 X3.6836 Y9.4856
G01 X3.6659 Y9.4939
G01 X3.6491 Y9.5040
G01 X3.6334 Y9.5157
G01 X3.6188 Y9.5288
G01 X3.6057 Y9.5434
G01 X3.5940 Y9.5591
G01 X3.5839 Y9.5759
G01 X3.5756 Y9.5936
G01 X3.5690 Y9.6120
G01 X3.5642 Y9.6311
G01 X3.5613 Y9.6504
G01 X3.5600 Y9.6774
G01 X3.5600 Y11.8626
G01 X3.5613 Y11.8896
G01 X3.5642 Y11.9089
G01 X3.5690 Y11.9280
G01 X3.5756 Y11.9464
G01 X3.5839 Y11.9641
G01 X3.5940 Y11.9809
G01 X3.6057 Y11.9966
G01 X3.6188 Y12.0112
G01 X3.6334 Y12.0243
G01 X3.6491 Y12.0360
G01 X3.6659 Y12.0461
G01 X3.6836 Y12.0544
G01 X3.7020 Y12.0610
G01 X3.7211 Y12.0658
G01 X3.7404 Y12.0687
G01 X3.7600 Y12.0696
G00 X3.7600 Y12.0696
G01 F15.00
G01 Z-1.9400
G01 F20.00
G01 X3.7796 Y12.0687
G01 X3.7989 Y12.0658
G01 X3.8180 Y12.0610
G01 X3.8364 Y12.0544
G01 X3.8541 Y12.0461
G01 X3.8709 Y12.0360
G01 X3.8866 Y12.0243
G01 X3.9012 Y12.0112
G01 X3.9143 Y11.9966
G01 X3.9260 Y11.9809
G01 X3.9361 Y11.9641
G01 X3.9444 Y11.9464
G01 X3.9510 Y11.9280
G01 X3.9558 Y11.9089
G01 X3.9587 Y11.8896
G01 X3.9600 Y11.8626
G01 X3.9600 Y9.6774
G01 X3.9587 Y9.6504
G01 X3.9558 Y9.6311
G01 X3.9510 Y9.6120
G01 X3.9444 Y9.5936
G01 X3.9361 Y9.5759
G01 X3.9260 Y9.5591
G01 X3.9143 Y9.5434
G01 X3.9012 Y9.5288
G01 X3.8866 Y9.5157
G01 X3.8709 Y9.5040
G01 X3.8541 Y9.4939
G01 X3.8364 Y9.4856
G01 X3.8180 Y9.4790
G01 X3.7989 Y9.4742
G01 X3.7796 Y9.4713
G01 X3.7600 Y9.4704
G01 X3.7404 Y9.4713
G01 X3.7211 Y9.4742
G01 X3.7020 Y9.4790
G01 X3.6836 Y9.4856
G01 X3.6659 Y9.4939
G01 X3.6491 Y9.5040
G01 X3.6334 Y9.5157
G01 X3.6188 Y9.5288
G01 X3.6057 Y9.5434
G01 X3.5940 Y9.5591
G01 X3.5839 Y9.5759
G01 X3.5756 Y9.5936
G01 X3.5690 Y9.6120
G01 X3.5642 Y9.6311
G01 X3.5613 Y9.6504
G01 X3.5600 Y9.6774
G01 X3.5600 Y11.8626
G01 X3.5613 Y11.8896
G01 X3.5642 Y11.9089
G01 X3.5690 Y11.9280
G01 X3.5756 Y11.9464
G01 X3.5839 Y11.9641
G01 X3.5940 Y11.9809
G01 X3.6057 Y11.9966
G01 X3.6188 Y12.0112
G01 X3.6334 Y12.0243
G01 X3.6491 Y12.0360
G01 X3.6659 Y12.0461
G01 X3.6836 Y12.0544
G01 X3.7020 Y12.0610
G01 X3.7211 Y12.0658
G01 X3.7404 Y12.0687
G01 X3.7600 Y12.0696
G00 Z1.0000
G00 X6.0674 Y15.7700
G01 F15.00
G01 Z-0.4850
G01 F20.00
G01 X8.2526 Y15.7700
G01 X8.2796 Y15.7687
G01 X8.2989 Y15.7658
G01 X8.3180 Y15.7610
G01 X8.3364 Y15.7544
G01 X8.3541 Y15.7461
G01 X8.3709 Y15.7360
G01 X8.3866 Y15.7243
G01 X8.4012 Y15.7112
G01 X8.4143 Y15.6966
G01 X8.4260 Y15.6809
G01 X8.4361 Y15.6641
G01 X8.4444 Y15.6464
G01 X8.4510 Y15.6280
G01 X8.4558 Y15.6089
G01 X8.4587 Y15.5896
G01 X8.4596 Y15.5700
G01 X8.4587 Y15.5504
G01 X8.4558 Y15.5311
G01 X8.4510 Y15.5120
G01 X8.4444 Y15.4936
G01 X8.4361 Y15.4759
G01 X8.4260 Y15.4591
G01 X8.4143 Y15.4434
G01 X8.4012 Y15.4288
G01 X8.3866 Y15.4157
G01 X8.3709 Y15.4040
G01 X8.3541 Y15.3939
G01 X8.3364 Y15.3856
G01 X8.3180 Y15.3790
G01 X8.2989 Y15.3742
G01 X8.2796 Y15.3713
G01 X8.2526 Y15.3700
G01 X6.0674 Y15.3700
G01 X6.0404 Y15.3713
G01 X6.0211 Y15.3742
G01 X6.0020 Y15.3790
G01 X5.9836 Y15.3856
G01 X5.9659 Y15.3939
G01 X5.9491 Y15.4040
G01 X5.9334 Y15.4157
G01 X5.9188 Y15.4288
G01 X5.9057 Y15.4434
G01 X5.8940 Y15.4591
G01 X5.8839 Y15.4759
G01 X5.8756 Y15.4936
G01 X5.8690 Y15.5120
G01 X5.8642 Y15.5311
G01 X5.8613 Y15.5504
G01 X5.8604 Y15.5700
G01 X5.8613 Y15.5896
G01 X5.8642 Y15.6089
G01 X5.8690 Y15.6280
G01 X5.8756 Y15.6464
G01 X5.8839 Y15.6641
G01 X5.8940 Y15.6809
G01 X5.9057 Y15.6966
G01 X5.9188 Y15.7112
G01 X5.9334 Y15.7243
G01 X5.9491 Y15.7360
G01 X5.9659 Y15.7461
G01 X5.9836 Y15.7544
G01 X6.0020 Y15.7610
G01 X6.0211 Y15.7658
G01 X6.0404 Y15.7687
G01 X6.0674 Y15.7700
G00 X6.0674 Y15.7700
G01 F15.00
G01 Z-0.9700
G01 F20.00
G01 X8.2526 Y15.7700
G01 X8.2796 Y15.7687
G01 X8.2989 Y15.7658
G01 X8.3180 Y15.7610
G01 X8.3364 Y15.7544
G01 X8.3541 Y15.7461
G01 X8.3709 Y15.7360
G01 X8.3866 Y15.7243
G01 X8.4012 Y15.7112
G01 X8.4143 Y15.6966
G01 X8.4260 Y15.6809
G01 X8.4361 Y15.6641
G01 X8.4444 Y15.6464
G01 X8.4510 Y15.6280
G01 X8.4558 Y15.6089
G01 X8.4587 Y15.5896
G01 X8.4596 Y15.5700
G01 X8.4587 Y15.5504
G01 X8.4558 Y15.5311
G01 X8.4510 Y15.5120
G01 X8.4444 Y15.4936
G01 X8.4361 Y15.4759
G01 X8.4260 Y15.4591
G01 X8.4143 Y15.4434
G01 X8.4012 Y15.4288
G01 X8.3866 Y15.4157
G01 X8.3709 Y15.4040
G01 X8.3541 Y15.3939
G01 X8.3364 Y15.3856
G01 X8.3180 Y15.3790
G01 X8.2989 Y15.3742
G01 X8.2796 Y15.3713
G01 X8.2526 Y15.3700
G01 X6.0674 Y15.3700
G01 X6.0404 Y15.3713
G01 X6.0211 Y15.3742
G01 X6.0020 Y15.3790
G01 X5.9836 Y15.3856
G01 X5.9659 Y15.3939
G01 X5.9491 Y15.4040
G01 X5.9334 Y15.4157
G01 X5.9188 Y15.4288
G01 X5.9057 Y15.4434
G01 X5.8940 Y15.4591
G01 X5.8839 Y15.4759
G01 X5.8756 Y15.4936
G01 X5.8690 Y15.5120
G01 X5.8642 Y15.5311
G01 X5.8613 Y15.5504
G01 X5.8604 Y15.5700
G01 X5.8613 Y15.5896
G01 X5.8642 Y15.6089
G01 X5.8690 Y15.6280
G01 X5.8756 Y15.6464
G01 X5.8839 Y15.6641
G01 X5.8940 Y15.6809
G01 X5.9057 Y15.6966
G01 X5.9188 Y15.7112
G01 X5.9334 Y15.7243
G01 X5.9491 Y15.7360
G01 X5.9659 Y15.7461
G01 X5.9836 Y15.7544
G01 X6.0020 Y15.7610
G01 X6.0211 Y15.7658
G01 X6.0404 Y15.7687
G01 X6.0674 Y15.7700
G00 X6.0674 Y15.7700
G01 F15.00
G01 Z-1.4550
G01 F20.00
G01 X8.2526 Y15.7700
G01 X8.2796 Y15.7687
G01 X8.2989 Y15.7658
G01 X8.3180 Y15.7610
G01 X8.3364 Y15.7544
G01 X8.3541 Y15.7461
G01 X8.3709 Y15.7360
G01 X8.3866 Y15.7243
G01 X8.4012 Y15.7112
G01 X8.4143 Y15.6966
G01 X8.4260 Y15.6809
G01 X8.4361 Y15.6641
G01 X8.4444 Y15.6464
G01 X8.4510 Y15.6280
G01 X8.4558 Y15.6089
G01 X8.4587 Y15.5896
G01 X8.4596 Y15.5700
G01 X8.4587 Y15.5504
G01 X8.4558 Y15.5311
G01 X8.4510 Y15.5120
G01 X8.4444 Y15.4936
G01 X8.4361 Y15.4759
G01 X8.4260 Y15.4591
G01 X8.4143 Y15.4434
G01 X8.4012 Y15.4288
G01 X8.3866 Y15.4157
G01 X8.3709 Y15.4040
G01 X8.3541 Y15.3939
G01 X8.3364 Y15.3856
G01 X8.3180 Y15.3790
G01 X8.2989 Y15.3742
G01 X8.2796 Y15.3713
G01 X8.2526 Y15.3700
G01 X6.0674 Y15.3700
G01 X6.0404 Y15.3713
G01 X6.0211 Y15.3742
G01 X6.0020 Y15.3790
G01 X5.9836 Y15.3856
G01 X5.9659 Y15.3939
G01 X5.9491 Y15.4040
G01 X5.9334 Y15.4157
G01 X5.9188 Y15.4288
G01 X5.9057 Y15.4434
G01 X5.8940 Y15.4591
G01 X5.8839 Y15.4759
G01 X5.8756 Y15.4936
G01 X5.8690 Y15.5120
G01 X5.8642 Y15.5311
G01 X5.8613 Y15.5504
G01 X5.8604 Y15.5700
G01 X5.8613 Y15.5896
G01 X5.8642 Y15.6089
G01 X5.8690 Y15.6280
G01 X5.8756 Y15.6464
G01 X5.8839 Y15.6641
G01 X5.8940 Y15.6809
G01 X5.9057 Y15.6966
G01 X5.9188 Y15.7112
G01 X5.9334 Y15.7243
G01 X5.9491 Y15.7360
G01 X5.9659 Y15.7461
G01 X5.9836 Y15.7544
G01 X6.0020 Y15.7610
G01 X6.0211 Y15.7658
G01 X6.0404 Y15.7687
G01 X6.0674 Y15.7700
G00 X6.0674 Y15.7700
G01 F15.00
G01 Z-1.9400
G01 F20.00
G01 X8.2526 Y15.7700
G01 X8.2796 Y15.7687
G01 X8.2989 Y15.7658
G01 X8.3180 Y15.7610
G01 X8.3364 Y15.7544
G01 X8.3541 Y15.7461
G01 X8.3709 Y15.7360
G01 X8.3866 Y15.7243
G01 X8.4012 Y15.7112
G01 X8.4143 Y15.6966
G01 X8.4260 Y15.6809
G01 X8.4361 Y15.6641
G01 X8.4444 Y15.6464
G01 X8.4510 Y15.6280
G01 X8.4558 Y15.6089
G01 X8.4587 Y15.5896
G01 X8.4596 Y15.5700
G01 X8.4587 Y15.5504
G01 X8.4558 Y15.5311
G01 X8.4510 Y15.5120
G01 X8.4444 Y15.4936
G01 X8.4361 Y15.4759
G01 X8.4260 Y15.4591
G01 X8.4143 Y15.4434
G01 X8.4012 Y15.4288
G01 X8.3866 Y15.4157
G01 X8.3709 Y15.4040
G01 X8.3541 Y15.3939
G01 X8.3364 Y15.3856
G01 X8.3180 Y15.3790
G01 X8.2989 Y15.3742
G01 X8.2796 Y15.3713
G01 X8.2526 Y15.3700
G01 X6.0674 Y15.3700
G01 X6.0404 Y15.3713
G01 X6.0211 Y15.3742
G01 X6.0020 Y15.3790
G01 X5.9836 Y15.3856
G01 X5.9659 Y15.3939
G01 X5.9491 Y15.4040
G01 X5.9334 Y15.4157
G01 X5.9188 Y15.4288
G01 X5.9057 Y15.4434
G01 X5.8940 Y15.4591
G01 X5.8839 Y15.4759
G01 X5.8756 Y15.4936
G01 X5.8690 Y15.5120
G01 X5.8642 Y15.5311
G01 X5.8613 Y15.5504
G01 X5.8604 Y15.5700
G01 X5.8613 Y15.5896
G01 X5.8642 Y15.6089
G01 X5.8690 Y15.6280
G01 X5.8756 Y15.6464
G01 X5.8839 Y15.6641
G01 X5.8940 Y15.6809
G01 X5.9057 Y15.6966
G01 X5.9188 Y15.7112
G01 X5.9334 Y15.7243
G01 X5.9491 Y15.7360
G01 X5.9659 Y15.7461
G01 X5.9836 Y15.7544
G01 X6.0020 Y15.7610
G01 X6.0211 Y15.7658
G01 X6.0404 Y15.7687
G01 X6.0674 Y15.7700
G00 Z1.0000
G00 X10.0600 Y12.2696
G01 F15.00
G01 Z-0.4850
G01 F20.00
G01 X10.0796 Y12.2687
G01 X10.0989 Y12.2658
G01 X10.1180 Y12.2610
G01 X10.1364 Y12.2544
G01 X10.1541 Y12.2461
G01 X10.1709 Y12.2360
G01 X10.1866 Y12.2243
G01 X10.2012 Y12.2112
G01 X10.2143 Y12.1966
G01 X10.2260 Y12.1809
G01 X10.2361 Y12.1641
G01 X10.2444 Y12.1464
G01 X10.2510 Y12.1280
G01 X10.2558 Y12.1089
G01 X10.2587 Y12.0896
G01 X10.2600 Y12.0626
G01 X10.2600 Y9.4774
G01 X10.2587 Y9.4504
G01 X10.2558 Y9.4311
G01 X10.2510 Y9.4120
G01 X10.2444 Y9.3936
G01 X10.2361 Y9.3759
G01 X10.2260 Y9.3591
G01 X10.2143 Y9.3434
G01 X10.2012 Y9.3288
G01 X10.1866 Y9.3157
G01 X10.1709 Y9.3040
G01 X10.1541 Y9.2939
G01 X10.1364 Y9.2856
G01 X10.1180 Y9.2790
G01 X10.0989 Y9.2742
G01 X10.0796 Y9.2713
G01 X10.0600 Y9.2704
G01 X10.0404 Y9.2713
G01 X10.0211 Y9.2742
G01 X10.0020 Y9.2790
G01 X9.9836 Y9.2856
G01 X9.9659 Y9.2939
G01 X9.9491 Y9.3040
G01 X9.9334 Y9.3157
G01 X9.9188 Y9.3288
G01 X9.9057 Y9.3434
G01 X9.8940 Y9.3591
G01 X9.8839 Y9.3759
G01 X9.8756 Y9.3936
G01 X9.8690 Y9.4120
G01 X9.8642 Y9.4311
G01 X9.8613 Y9.4504
G01 X9.8600 Y9.4774
G01 X9.8600 Y12.0626
G01 X9.8613 Y12.0896
G01 X9.8642 Y12.1089
G01 X9.8690 Y12.1280
G01 X9.8756 Y12.1464
G01 X9.8839 Y12.1641
G01 X9.8940 Y12.1809
G01 X9.9057 Y12.1966
G01 X9.9188 Y12.2112
G01 X9.9334 Y12.2243
G01 X9.9491 Y12.2360
G01 X9.9659 Y12.2461
G01 X9.9836 Y12.2544
G01 X10.0020 Y12.2610
G01 X10.0211 Y12.2658
G01 X10.0404 Y12.2687
G01 X10.0600 Y12.2696
G00 X10.0600 Y12.2696
G01 F15.00
G01 Z-0.9700
G01 F20.00
G01 X10.0796 Y12.2687
G01 X10.0989 Y12.2658
G01 X10.1180 Y12.2610
G01 X10.1364 Y12.2544
G01 X10.1541 Y12.2461
G01 X10.1709 Y12.2360
G01 X10.1866 Y12.2243
G01 X10.2012 Y12.2112
G01 X10.2143 Y12.1966
G01 X10.2260 Y12.1809
G01 X10.2361 Y12.1641
G01 X10.2444 Y12.1464
G01 X10.2510 Y12.1280
G01 X10.2558 Y12.1089
G01 X10.2587 Y12.0896
G01 X10.2600 Y12.0626
G01 X10.2600 Y9.4774
G01 X10.2587 Y9.4504
G01 X10.2558 Y9.4311
G01 X10.2510 Y9.4120
G01 X10.2444 Y9.3936
G01 X10.2361 Y9.3759
G01 X10.2260 Y9.3591
G01 X10.2143 Y9.3434
G01 X10.2012 Y9.3288
G01 X10.1866 Y9.3157
G01 X10.1709 Y9.3040
G01 X10.1541 Y9.2939
G01 X10.1364 Y9.2856
G01 X10.1180 Y9.2790
G01 X10.0989 Y9.2742
G01 X10.0796 Y9.2713
G01 X10.0600 Y9.2704
G01 X10.0404 Y9.2713
G01 X10.0211 Y9.2742
G01 X10.0020 Y9.2790
G01 X9.9836 Y9.2856
G01 X9.9659 Y9.2939
G01 X9.9491 Y9.3040
G01 X9.9334 Y9.3157
G01 X9.9188 Y9.3288
G01 X9.9057 Y9.3434
G01 X9.8940 Y9.3591
G01 X9.8839 Y9.3759
G01 X9.8756 Y9.3936
G01 X9.8690 Y9.4120
G01 X9.8642 Y9.4311
G01 X9.8613 Y9.4504
G01 X9.8600 Y9.4774
G01 X9.8600 Y12.0626
G01 X9.8613 Y12.0896
G01 X9.8642 Y12.1089
G01 X9.8690 Y12.1280
G01 X9.8756 Y12.1464
G01 X9.8839 Y12.1641
G01 X9.8940 Y12.1809
G01 X9.9057 Y12.1966
G01 X9.9188 Y12.2112
G01 X9.9334 Y12.2243
G01 X9.9491 Y12.2360
G01 X9.9659 Y12.2461
G01 X9.9836 Y12.2544
G01 X10.0020 Y12.2610
G01 X10.0211 Y12.2658
G01 X10.0404 Y12.2687
G01 X10.0600 Y12.2696
G00 X10.0600 Y12.2696
G01 F15.00
G01 Z-1.4550
G01 F20.00
G01 X10.0796 Y12.2687
G01 X10.0989 Y12.2658
G01 X10.1180 Y12.2610
G01 X10.1364 Y12.2544
G01 X10.1541 Y12.2461
G01 X10.1709 Y12.2360
G01 X10.1866 Y12.2243
G01 X10.2012 Y12.2112
G01 X10.2143 Y12.1966
G01 X10.2260 Y12.1809
G01 X10.2361 Y12.1641
G01 X10.2444 Y12.1464
G01 X10.2510 Y12.1280
G01 X10.2558 Y12.1089
G01 X10.2587 Y12.0896
G01 X10.2600 Y12.0626
G01 X10.2600 Y9.4774
G01 X10.2587 Y9.4504
G01 X10.2558 Y9.4311
G01 X10.2510 Y9.4120
G01 X10.2444 Y9.3936
G01 X10.2361 Y9.3759
G01 X10.2260 Y9.3591
G01 X10.2143 Y9.3434
G01 X10.2012 Y9.3288
G01 X10.1866 Y9.3157
G01 X10.1709 Y9.3040
G01 X10.1541 Y9.2939
G01 X10.1364 Y9.2856
G01 X10.1180 Y9.2790
G01 X10.0989 Y9.2742
G01 X10.0796 Y9.2713
G01 X10.0600 Y9.2704
G01 X10.0404 Y9.2713
G01 X10.0211 Y9.2742
G01 X10.0020 Y9.2790
G01 X9.9836 Y9.2856
G01 X9.9659 Y9.2939
G01 X9.9491 Y9.3040
G01 X9.9334 Y9.3157
G01 X9.9188 Y9.3288
G01 X9.9057 Y9.3434
G01 X9.8940 Y9.3591
G01 X9.8839 Y9.3759
G01 X9.8756 Y9.3936
G01 X9.8690 Y9.4120
G01 X9.8642 Y9.4311
G01 X9.8613 Y9.4504
G01 X9.8600 Y9.4774
G01 X9.8600 Y12.0626
G01 X9.8613 Y12.0896
G01 X9.8642 Y12.1089
G01 X9.8690 Y12.1280
G01 X9.8756 Y12.1464
G01 X9.8839 Y12.1641
G01 X9.8940 Y12.1809
G01 X9.9057 Y12.1966
G01 X9.9188 Y12.2112
G01 X9.9334 Y12.2243
G01 X9.9491 Y12.2360
G01 X9.9659 Y12.2461
G01 X9.9836 Y12.2544
G01 X10.0020 Y12.2610
G01 X10.0211 Y12.2658
G01 X10.0404 Y12.2687
G01 X10.0600 Y12.2696
G00 X10.0600 Y12.2696
G01 F15.00
G01 Z-1.9400
G01 F20.00
G01 X10.0796 Y12.2687
G01 X10.0989 Y12.2658
G01 X10.1180 Y12.2610
G01 X10.1364 Y12.2544
G01 X10.1541 Y12.2461
G01 X10.1709 Y12.2360
G01 X10.1866 Y12.2243
G01 X10.2012 Y12.2112
G01 X10.2143 Y12.1966
G01 X10.2260 Y12.1809
G01 X10.2361 Y12.1641
G01 X10.2444 Y12.1464
G01 X10.2510 Y12.1280
G01 X10.2558 Y12.1089
G01 X10.2587 Y12.0896
G01 X10.2600 Y12.0626
G01 X10.2600 Y9.4774
G01 X10.2587 Y9.4504
G01 X10.2558 Y9.4311
G01 X10.2510 Y9.4120
G01 X10.2444 Y9.3936
G01 X10.2361 Y9.3759
G01 X10.2260 Y9.3591
G01 X10.2143 Y9.3434
G01 X10.2012 Y9.3288
G01 X10.1866 Y9.3157
G01 X10.1709 Y9.3040
G01 X10.1541 Y9.2939
G01 X10.1364 Y9.2856
G01 X10.1180 Y9.2790
G01 X10.0989 Y9.2742
G01 X10.0796 Y9.2713
G01 X10.0600 Y9.2704
G01 X10.0404 Y9.2713
G01 X10.0211 Y9.2742
G01 X10.0020 Y9.2790
G01 X9.9836 Y9.2856
G01 X9.9659 Y9.2939
G01 X9.9491 Y9.3040
G01 X9.9334 Y9.3157
G01 X9.9188 Y9.3288
G01 X9.9057 Y9.3434
G01 X9.8940 Y9.3591
G01 X9.8839 Y9.3759
G01 X9.8756 Y9.3936
G01 X9.8690 Y9.4120
G01 X9.8642 Y9.4311
G01 X9.8613 Y9.4504
G01 X9.8600 Y9.4774
G01 X9.8600 Y12.0626
G01 X9.8613 Y12.0896
G01 X9.8642 Y12.1089
G01 X9.8690 Y12.1280
G01 X9.8756 Y12.1464
G01 X9.8839 Y12.1641
G01 X9.8940 Y12.1809
G01 X9.9057 Y12.1966
G01 X9.9188 Y12.2112
G01 X9.9334 Y12.2243
G01 X9.9491 Y12.2360
G01 X9.9659 Y12.2461
G01 X9.9836 Y12.2544
G01 X10.0020 Y12.2610
G01 X10.0211 Y12.2658
G01 X10.0404 Y12.2687
G01 X10.0600 Y12.2696
G00 Z1.0000
G00 X20.5196 Y13.8800
G01 F15.00
G01 Z-0.4850
G01 F20.00
G01 X20.5182 Y13.8506
G01 X20.5139 Y13.8215
G01 X20.5067 Y13.7930
G01 X20.4968 Y13.7653
G01 X20.4843 Y13.7388
G01 X20.4691 Y13.7135
G01 X20.4516 Y13.6899
G01 X20.4319 Y13.6681
G01 X20.4101 Y13.6484
G01 X20.3865 Y13.6309
G01 X20.3612 Y13.6157
G01 X20.3347 Y13.6032
G01 X20.3070 Y13.5933
G01 X20.2785 Y13.5861
G01 X20.2494 Y13.5818
G01 X20.2200 Y13.5804
G01 X20.1906 Y13.5818
G01 X20.1615 Y13.5861
G01 X20.1330 Y13.5933
G01 X20.1053 Y13.6032
G01 X20.0788 Y13.6157
G01 X20.0535 Y13.6309
G01 X20.0299 Y13.6484
G01 X20.0081 Y13.6681
G01 X19.9884 Y13.6899
G01 X19.9709 Y13.7135
G01 X19.9557 Y13.7388
G01 X19.9432 Y13.7653
G01 X19.9333 Y13.7930
G01 X19.9261 Y13.8215
G01 X19.9218 Y13.8506
G01 X19.9204 Y13.8800
G01 X19.9218 Y13.9094
G01 X19.9261 Y13.9385
G01 X19.9333 Y13.9670
G01 X19.9432 Y13.9947
G01 X19.9557 Y14.0212
G01 X19.9709 Y14.0465
G01 X19.9884 Y14.0701
G01 X20.0081 Y14.0919
G01 X20.0299 Y14.1116
G01 X20.0535 Y14.1291
G01 X20.0788 Y14.1443
G01 X20.1053 Y14.1568
G01 X20.1330 Y14.1667
G01 X20.1615 Y14.1739
G01 X20.1906 Y14.1782
G01 X20.2200 Y14.1796
G01 X20.2494 Y14.1782
G01 X20.2785 Y14.1739
G01 X20.3070 Y14.1667
G01 X20.3347 Y14.1568
G01 X20.3612 Y14.1443
G01 X20.3865 Y14.1291
G01 X20.4101 Y14.1116
G01 X20.4319 Y14.0919
G01 X20.4516 Y14.0701
G01 X20.4691 Y14.0465
G01 X20.4843 Y14.0212
G01 X20.4968 Y13.9947
G01 X20.5067 Y13.9670
G01 X20.5139 Y13.9385
G01 X20.5182 Y13.9094
G01 X20.5196 Y13.8800
G00 X20.5196 Y13.8800
G01 F15.00
G01 Z-0.9700
G01 F20.00
G01 X20.5182 Y13.8506
G01 X20.5139 Y13.8215
G01 X20.5067 Y13.7930
G01 X20.4968 Y13.7653
G01 X20.4843 Y13.7388
G01 X20.4691 Y13.7135
G01 X20.4516 Y13.6899
G01 X20.4319 Y13.6681
G01 X20.4101 Y13.6484
G01 X20.3865 Y13.6309
G01 X20.3612 Y13.6157
G01 X20.3347 Y13.6032
G01 X20.3070 Y13.5933
G01 X20.2785 Y13.5861
G01 X20.2494 Y13.5818
G01 X20.2200 Y13.5804
G01 X20.1906 Y13.5818
G01 X20.1615 Y13.5861
G01 X20.1330 Y13.5933
G01 X20.1053 Y13.6032
G01 X20.0788 Y13.6157
G01 X20.0535 Y13.6309
G01 X20.0299 Y13.6484
G01 X20.0081 Y13.6681
G01 X19.9884 Y13.6899
G01 X19.9709 Y13.7135
G01 X19.9557 Y13.7388
G01 X19.9432 Y13.7653
G01 X19.9333 Y13.7930
G01 X19.9261 Y13.8215
G01 X19.9218 Y13.8506
G01 X19.9204 Y13.8800
G01 X19.9218 Y13.9094
G01 X19.9261 Y13.9385
G01 X19.9333 Y13.9670
G01 X19.9432 Y13.9947
G01 X19.9557 Y14.0212
G01 X19.9709 Y14.0465
G01 X19.9884 Y14.0701
G01 X20.0081 Y14.0919
G01 X20.0299 Y14.1116
G01 X20.0535 Y14.1291
G01 X20.0788 Y14.1443
G01 X20.1053 Y14.1568
G01 X20.1330 Y14.1667
G01 X20.1615 Y14.1739
G01 X20.1906 Y14.1782
G01 X20.2200 Y14.1796
G01 X20.2494 Y14.1782
G01 X20.2785 Y14.1739
G01 X20.3070 Y14.1667
G01 X20.3347 Y14.1568
G01 X20.3612 Y14.1443
G01 X20.3865 Y14.1291
G01 X20.4101 Y14.1116
G01 X20.4319 Y14.0919
G01 X20.4516 Y14.0701
G01 X20.4691 Y14.0465
G01 X20.4843 Y14.0212
G01 X20.4968 Y13.9947
G01 X20.5067 Y13.9670
G01 X20.5139 Y13.9385
G01 X20.5182 Y13.9094
G01 X20.5196 Y13.8800
G00 X20.5196 Y13.8800
G01 F15.00
G01 Z-1.4550
G01 F20.00
G01 X20.5182 Y13.8506
G01 X20.5139 Y13.8215
G01 X20.5067 Y13.7930
G01 X20.4968 Y13.7653
G01 X20.4843 Y13.7388
G01 X20.4691 Y13.7135
G01 X20.4516 Y13.6899
G01 X20.4319 Y13.6681
G01 X20.4101 Y13.6484
G01 X20.3865 Y13.6309
G01 X20.3612 Y13.6157
G01 X20.3347 Y13.6032
G01 X20.3070 Y13.5933
G01 X20.2785 Y13.5861
G01 X20.2494 Y13.5818
G01 X20.2200 Y13.5804
G01 X20.1906 Y13.5818
G01 X20.1615 Y13.5861
G01 X20.1330 Y13.5933
G01 X20.1053 Y13.6032
G01 X20.0788 Y13.6157
G01 X20.0535 Y13.6309
G01 X20.0299 Y13.6484
G01 X20.0081 Y13.6681
G01 X19.9884 Y13.6899
G01 X19.9709 Y13.7135
G01 X19.9557 Y13.7388
G01 X19.9432 Y13.7653
G01 X19.9333 Y13.7930
G01 X19.9261 Y13.8215
G01 X19.9218 Y13.8506
G01 X19.9204 Y13.8800
G01 X19.9218 Y13.9094
G01 X19.9261 Y13.9385
G01 X19.9333 Y13.9670
G01 X19.9432 Y13.9947
G01 X19.9557 Y14.0212
G01 X19.9709 Y14.0465
G01 X19.9884 Y14.0701
G01 X20.0081 Y14.0919
G01 X20.0299 Y14.1116
G01 X20.0535 Y14.1291
G01 X20.0788 Y14.1443
G01 X20.1053 Y14.1568
G01 X20.1330 Y14.1667
G01 X20.1615 Y14.1739
G01 X20.1906 Y14.1782
G01 X20.2200 Y14.1796
G01 X20.2494 Y14.1782
G01 X20.2785 Y14.1739
G01 X20.3070 Y14.1667
G01 X20.3347 Y14.1568
G01 X20.3612 Y14.1443
G01 X20.3865 Y14.1291
G01 X20.4101 Y14.1116
G01 X20.4319 Y14.0919
G01 X20.4516 Y14.0701
G01 X20.4691 Y14.0465
G01 X20.4843 Y14.0212
G01 X20.4968 Y13.9947
G01 X20.5067 Y13.9670
G01 X20.5139 Y13.9385
G01 X20.5182 Y13.9094
G01 X20.5196 Y13.8800
G00 X20.5196 Y13.8800
G01 F15.00
G01 Z-1.9400
G01 F20.00
G01 X20.5182 Y13.8506
G01 X20.5139 Y13.8215
G01 X20.5067 Y13.7930
G01 X20.4968 Y13.7653
G01 X20.4843 Y13.7388
G01 X20.4691 Y13.7135
G01 X20.4516 Y13.6899
G01 X20.4319 Y13.6681
G01 X20.4101 Y13.6484
G01 X20.3865 Y13.6309
G01 X20.3612 Y13.6157
G01 X20.3347 Y13.6032
G01 X20.3070 Y13.5933
G01 X20.2785 Y13.5861
G01 X20.2494 Y13.5818
G01 X20.2200 Y13.5804
G01 X20.1906 Y13.5818
G01 X20.1615 Y13.5861
G01 X20.1330 Y13.5933
G01 X20.1053 Y13.6032
G01 X20.0788 Y13.6157
G01 X20.0535 Y13.6309
G01 X20.0299 Y13.6484
G01 X20.0081 Y13.6681
G01 X19.9884 Y13.6899
G01 X19.9709 Y13.7135
G01 X19.9557 Y13.7388
G01 X19.9432 Y13.7653
G01 X19.9333 Y13.7930
G01 X19.9261 Y13.8215
G01 X19.9218 Y13.8506
G01 X19.9204 Y13.8800
G01 X19.9218 Y13.9094
G01 X19.9261 Y13.9385
G01 X19.9333 Y13.9670
G01 X19.9432 Y13.9947
G01 X19.9557 Y14.0212
G01 X19.9709 Y14.0465
G01 X19.9884 Y14.0701
G01 X20.0081 Y14.0919
G01 X20.0299 Y14.1116
G01 X20.0535 Y14.1291
G01 X20.0788 Y14.1443
G01 X20.1053 Y14.1568
G01 X20.1330 Y14.1667
G01 X20.1615 Y14.1739
G01 X20.1906 Y14.1782
G01 X20.2200 Y14.1796
G01 X20.2494 Y14.1782
G01 X20.2785 Y14.1739
G01 X20.3070 Y14.1667
G01 X20.3347 Y14.1568
G01 X20.3612 Y14.1443
G01 X20.3865 Y14.1291
G01 X20.4101 Y14.1116
G01 X20.4319 Y14.0919
G01 X20.4516 Y14.0701
G01 X20.4691 Y14.0465
G01 X20.4843 Y14.0212
G01 X20.4968 Y13.9947
G01 X20.5067 Y13.9670
G01 X20.5139 Y13.9385
G01 X20.5182 Y13.9094
G01 X20.5196 Y13.8800
G00 Z1.0000
G00 X20.5196 Y8.8800
G01 F15.00
G01 Z-0.4850
G01 F20.00
G01 X20.5182 Y8.8506
G01 X20.5139 Y8.8215
G01 X20.5067 Y8.7930
G01 X20.4968 Y8.7653
G01 X20.4843 Y8.7388
G01 X20.4691 Y8.7135
G01 X20.4516 Y8.6899
G01 X20.4319 Y8.6681
G01 X20.4101 Y8.6484
G01 X20.3865 Y8.6309
G01 X20.3612 Y8.6157
G01 X20.3347 Y8.6032
G01 X20.3070 Y8.5933
G01 X20.2785 Y8.5861
G01 X20.2494 Y8.5818
G01 X20.2200 Y8.5804
G01 X20.1906 Y8.5818
G01 X20.1615 Y8.5861
G01 X20.1330 Y8.5933
G01 X20.1053 Y8.6032
G01 X20.0788 Y8.6157
G01 X20.0535 Y8.6309
G01 X20.0299 Y8.6484
G01 X20.0081 Y8.6681
G01 X19.9884 Y8.6899
G01 X19.9709 Y8.7135
G01 X19.9557 Y8.7388
G01 X19.9432 Y8.7653
G01 X19.9333 Y8.7930
G01 X19.9261 Y8.8215
G01 X19.9218 Y8.8506
G01 X19.9204 Y8.8800
G01 X19.9218 Y8.9094
G01 X19.9261 Y8.9385
G01 X19.9333 Y8.9670
G01 X19.9432 Y8.9947
G01 X19.9557 Y9.0212
G01 X19.9709 Y9.0465
G01 X19.9884 Y9.0701
G01 X20.0081 Y9.0919
G01 X20.0299 Y9.1116
G01 X20.0535 Y9.1291
G01 X20.0788 Y9.1443
G01 X20.1053 Y9.1568
G01 X20.1330 Y9.1667
G01 X20.1615 Y9.1739
G01 X20.1906 Y9.1782
G01 X20.2200 Y9.1796
G01 X20.2494 Y9.1782
G01 X20.2785 Y9.1739
G01 X20.3070 Y9.1667
G01 X20.3347 Y9.1568
G01 X20.3612 Y9.1443
G01 X20.3865 Y9.1291
G01 X20.4101 Y9.1116
G01 X20.4319 Y9.0919
G01 X20.4516 Y9.0701
G01 X20.4691 Y9.0465
G01 X20.4843 Y9.0212
G01 X20.4968 Y8.9947
G01 X20.5067 Y8.9670
G01 X20.5139 Y8.9385
G01 X20.5182 Y8.9094
G01 X20.5196 Y8.8800
G00 X20.5196 Y8.8800
G01 F15.00
G01 Z-0.9700
G01 F20.00
G01 X20.5182 Y8.8506
G01 X20.5139 Y8.8215
G01 X20.5067 Y8.7930
G01 X20.4968 Y8.7653
G01 X20.4843 Y8.7388
G01 X20.4691 Y8.7135
G01 X20.4516 Y8.6899
G01 X20.4319 Y8.6681
G01 X20.4101 Y8.6484
G01 X20.3865 Y8.6309
G01 X20.3612 Y8.6157
G01 X20.3347 Y8.6032
G01 X20.3070 Y8.5933
G01 X20.2785 Y8.5861
G01 X20.2494 Y8.5818
G01 X20.2200 Y8.5804
G01 X20.1906 Y8.5818
G01 X20.1615 Y8.5861
G01 X20.1330 Y8.5933
G01 X20.1053 Y8.6032
G01 X20.0788 Y8.6157
G01 X20.0535 Y8.6309
G01 X20.0299 Y8.6484
G01 X20.0081 Y8.6681
G01 X19.9884 Y8.6899
G01 X19.9709 Y8.7135
G01 X19.9557 Y8.7388
G01 X19.9432 Y8.7653
G01 X19.9333 Y8.7930
G01 X19.9261 Y8.8215
G01 X19.9218 Y8.8506
G01 X19.9204 Y8.8800
G01 X19.9218 Y8.9094
G01 X19.9261 Y8.9385
G01 X19.9333 Y8.9670
G01 X19.9432 Y8.9947
G01 X19.9557 Y9.0212
G01 X19.9709 Y9.0465
G01 X19.9884 Y9.0701
G01 X20.0081 Y9.0919
G01 X20.0299 Y9.1116
G01 X20.0535 Y9.1291
G01 X20.0788 Y9.1443
G01 X20.1053 Y9.1568
G01 X20.1330 Y9.1667
G01 X20.1615 Y9.1739
G01 X20.1906 Y9.1782
G01 X20.2200 Y9.1796
G01 X20.2494 Y9.1782
G01 X20.2785 Y9.1739
G01 X20.3070 Y9.1667
G01 X20.3347 Y9.1568
G01 X20.3612 Y9.1443
G01 X20.3865 Y9.1291
G01 X20.4101 Y9.1116
G01 X20.4319 Y9.0919
G01 X20.4516 Y9.0701
G01 X20.4691 Y9.0465
G01 X20.4843 Y9.0212
G01 X20.4968 Y8.9947
G01 X20.5067 Y8.9670
G01 X20.5139 Y8.9385
G01 X20.5182 Y8.9094
G01 X20.5196 Y8.8800
G00 X20.5196 Y8.8800
G01 F15.00
G01 Z-1.4550
G01 F20.00
G01 X20.5182 Y8.8506
G01 X20.5139 Y8.8215
G01 X20.5067 Y8.7930
G01 X20.4968 Y8.7653
G01 X20.4843 Y8.7388
G01 X20.4691 Y8.7135
G01 X20.4516 Y8.6899
G01 X20.4319 Y8.6681
G01 X20.4101 Y8.6484
G01 X20.3865 Y8.6309
G01 X20.3612 Y8.6157
G01 X20.3347 Y8.6032
G01 X20.3070 Y8.5933
G01 X20.2785 Y8.5861
G01 X20.2494 Y8.5818
G01 X20.2200 Y8.5804
G01 X20.1906 Y8.5818
G01 X20.1615 Y8.5861
G01 X20.1330 Y8.5933
G01 X20.1053 Y8.6032
G01 X20.0788 Y8.6157
G01 X20.0535 Y8.6309
G01 X20.0299 Y8.6484
G01 X20.0081 Y8.6681
G01 X19.9884 Y8.6899
G01 X19.9709 Y8.7135
G01 X19.9557 Y8.7388
G01 X19.9432 Y8.7653
G01 X19.9333 Y8.7930
G01 X19.9261 Y8.8215
G01 X19.9218 Y8.8506
G01 X19.9204 Y8.8800
G01 X19.9218 Y8.9094
G01 X19.9261 Y8.9385
G01 X19.9333 Y8.9670
G01 X19.9432 Y8.9947
G01 X19.9557 Y9.0212
G01 X19.9709 Y9.0465
G01 X19.9884 Y9.0701
G01 X20.0081 Y9.0919
G01 X20.0299 Y9.1116
G01 X20.0535 Y9.1291
G01 X20.0788 Y9.1443
G01 X20.1053 Y9.1568
G01 X20.1330 Y9.1667
G01 X20.1615 Y9.1739
G01 X20.1906 Y9.1782
G01 X20.2200 Y9.1796
G01 X20.2494 Y9.1782
G01 X20.2785 Y9.1739
G01 X20.3070 Y9.1667
G01 X20.3347 Y9.1568
G01 X20.3612 Y9.1443
G01 X20.3865 Y9.1291
G01 X20.4101 Y9.1116
G01 X20.4319 Y9.0919
G01 X20.4516 Y9.0701
G01 X20.4691 Y9.0465
G01 X20.4843 Y9.0212
G01 X20.4968 Y8.9947
G01 X20.5067 Y8.9670
G01 X20.5139 Y8.9385
G01 X20.5182 Y8.9094
G01 X20.5196 Y8.8800
G00 X20.5196 Y8.8800
G01 F15.00
G01 Z-1.9400
G01 F20.00
G01 X20.5182 Y8.8506
G01 X20.5139 Y8.8215
G01 X20.5067 Y8.7930
G01 X20.4968 Y8.7653
G01 X20.4843 Y8.7388
G01 X20.4691 Y8.7135
G01 X20.4516 Y8.6899
G01 X20.4319 Y8.6681
G01 X20.4101 Y8.6484
G01 X20.3865 Y8.6309
G01 X20.3612 Y8.6157
G01 X20.3347 Y8.6032
G01 X20.3070 Y8.5933
G01 X20.2785 Y8.5861
G01 X20.2494 Y8.5818
G01 X20.2200 Y8.5804
G01 X20.1906 Y8.5818
G01 X20.1615 Y8.5861
G01 X20.1330 Y8.5933
G01 X20.1053 Y8.6032
G01 X20.0788 Y8.6157
G01 X20.0535 Y8.6309
G01 X20.0299 Y8.6484
G01 X20.0081 Y8.6681
G01 X19.9884 Y8.6899
G01 X19.9709 Y8.7135
G01 X19.9557 Y8.7388
G01 X19.9432 Y8.7653
G01 X19.9333 Y8.7930
G01 X19.9261 Y8.8215
G01 X19.9218 Y8.8506
G01 X19.9204 Y8.8800
G01 X19.9218 Y8.9094
G01 X19.9261 Y8.9385
G01 X19.9333 Y8.9670
G01 X19.9432 Y8.9947
G01 X19.9557 Y9.0212
G01 X19.9709 Y9.0465
G01 X19.9884 Y9.0701
G01 X20.0081 Y9.0919
G01 X20.0299 Y9.1116
G01 X20.0535 Y9.1291
G01 X20.0788 Y9.1443
G01 X20.1053 Y9.1568
G01 X20.1330 Y9.1667
G01 X20.1615 Y9.1739
G01 X20.1906 Y9.1782
G01 X20.2200 Y9.1796
G01 X20.2494 Y9.1782
G01 X20.2785 Y9.1739
G01 X20.3070 Y9.1667
G01 X20.3347 Y9.1568
G01 X20.3612 Y9.1443
G01 X20.3865 Y9.1291
G01 X20.4101 Y9.1116
G01 X20.4319 Y9.0919
G01 X20.4516 Y9.0701
G01 X20.4691 Y9.0465
G01 X20.4843 Y9.0212
G01 X20.4968 Y8.9947
G01 X20.5067 Y8.9670
G01 X20.5139 Y8.9385
G01 X20.5182 Y8.9094
G01 X20.5196 Y8.8800
G00 Z1.0000
M05
G00 Z1.0000
G00 Z15.00
G00 X0.0 Y0.0


