(G-CODE GENERATED BY FLATCAM v8.994 - www.flatcam.org - Version Date: 2020/11/7)

(Name: dc_ph2_converter.drl_edit_cnc)
(Type: G-code from Geometry)
(Units: MM)

(Created on Tuesday, 17 January 2023 at 14:13)

(This preprocessor is the default preprocessor used by FlatCAM.)
(It is made to work with MACH3 compatible motion controllers.)


(TOOLS DIAMETER: )
(Tool: 1 -> Dia: 0.8001)
(Tool: 2 -> Dia: 1.1989)

(FEEDRATE Z: )
(Tool: 1 -> Feedrate: 15.0)
(Tool: 2 -> Feedrate: 15.0)

(FEEDRATE RAPIDS: )
(Tool: 1 -> Feedrate Rapids: 3000.0)
(Tool: 2 -> Feedrate Rapids: 3000.0)

(Z_CUT: )
(Tool: 1 -> Z_Cut: -1.9)
(Tool: 2 -> Z_Cut: -1.9)

(Tools Offset: )
(Tool: 2 -> Offset Z: 0.0)
(Tool: 1 -> Offset Z: 0.0)

(Z_MOVE: )
(Tool: 1 -> Z_Move: 1.0)
(Tool: 2 -> Z_Move: 1.0)

(Z Toolchange: 15 mm)
(X,Y Toolchange: 0.0000, 0.0000 mm)
(Z Start: None mm)
(Z End: 15.0 mm)
(X,Y End: 0.0000, 0.0000 mm)
(Steps per circle: 64)
(Preprocessor Excellon: default)

(X range:   19.6205 ...   32.0500  mm)
(Y range:    8.2805 ...   14.4807  mm)

(Spindle Speed: 1000 RPM)
G21
G90
G94

G01 F15.00

M5
G00 Z15.0000
T1
G00 X0.0000 Y0.0000                
M6
(MSG, Change to Tool Dia = 0.8001 ||| Total drills for tool T1 = 4)
M0
G00 Z15.0000

G01 F15.00
M03 S1000
G00 X31.6500 Y10.4192
G01 Z-1.9000
G01 Z0
G00 Z1.0000
G00 X31.6500 Y10.4192
G01 Z-1.9000
G01 Z0
G00 Z1.0000
G00 X31.6500 Y12.4208
G01 Z-1.9000
G01 Z0
G00 Z1.0000
G00 X20.2200 Y13.8813
G01 Z-1.9000
G01 Z0
G00 Z1.0000
G00 X20.2200 Y8.8800
G01 Z-1.9000
G01 Z0
G00 Z1.0000
M05
G00 Z15.00
G00 X0.0 Y0.0


