(G-CODE GENERATED BY FLATCAM v8.994 - www.flatcam.org - Version Date: 2020/11/7)

(Name: dc_ph2_converter-PTH-drl.gbr_inverted_iso_combined_cnc)
(Type: G-code from Geometry)
(Units: MM)

(Created on Thursday, 19 January 2023 at 16:28)

(This preprocessor is the default preprocessor used by FlatCAM.)
(It is made to work with MACH3 compatible motion controllers.)

(TOOL DIAMETER: 0.7 mm)
(Feedrate_XY: 30.0 mm/min)
(Feedrate_Z: 15.0 mm/min)
(Feedrate rapids 1500.0 mm/min)

(Z_Cut: -1.94 mm)
(DepthPerCut: 0.485 mm <=>4 passes)
(Z_Move: 1.0 mm)
(Z Start: None mm)
(Z End: 15.0 mm)
(X,Y End: 0.0000, 0.0000 mm)
(Steps per circle: 64)
(Preprocessor Geometry: default)

(X range:    4.6100 ...   22.5396  mm)
(Y range:    7.2904 ...   17.5496  mm)

(Spindle Speed: 1000.0 RPM)
G21
G90
G94

G01 F30.00

M5
G00 Z15.0000
G00 X0.0000 Y0.0000
T1
M6    
(MSG, Change to Tool Dia = 0.7000)
M0
G00 Z15.0000

M03 S1000.0
G01 F30.00
G00 X4.7600 Y13.0196
G01 F15.00
G01 Z-0.4850
G01 F30.00
G01 X4.7747 Y13.0189
G01 X4.7892 Y13.0167
G01 X4.8034 Y13.0131
G01 X4.8172 Y13.0082
G01 X4.8305 Y13.0019
G01 X4.8431 Y12.9944
G01 X4.8549 Y12.9856
G01 X4.8658 Y12.9758
G01 X4.8756 Y12.9649
G01 X4.8844 Y12.9531
G01 X4.8919 Y12.9405
G01 X4.8982 Y12.9272
G01 X4.9031 Y12.9134
G01 X4.9067 Y12.8992
G01 X4.9089 Y12.8847
G01 X4.9100 Y12.8614
G01 X4.9100 Y10.6786
G01 X4.9089 Y10.6553
G01 X4.9067 Y10.6408
G01 X4.9031 Y10.6266
G01 X4.8982 Y10.6128
G01 X4.8919 Y10.5995
G01 X4.8844 Y10.5869
G01 X4.8756 Y10.5751
G01 X4.8658 Y10.5642
G01 X4.8549 Y10.5544
G01 X4.8431 Y10.5456
G01 X4.8305 Y10.5381
G01 X4.8172 Y10.5318
G01 X4.8034 Y10.5269
G01 X4.7892 Y10.5233
G01 X4.7747 Y10.5211
G01 X4.7600 Y10.5204
G01 X4.7453 Y10.5211
G01 X4.7308 Y10.5233
G01 X4.7166 Y10.5269
G01 X4.7028 Y10.5318
G01 X4.6895 Y10.5381
G01 X4.6769 Y10.5456
G01 X4.6651 Y10.5544
G01 X4.6542 Y10.5642
G01 X4.6444 Y10.5751
G01 X4.6356 Y10.5869
G01 X4.6281 Y10.5995
G01 X4.6218 Y10.6128
G01 X4.6169 Y10.6266
G01 X4.6133 Y10.6408
G01 X4.6111 Y10.6553
G01 X4.6100 Y10.6786
G01 X4.6100 Y12.8614
G01 X4.6111 Y12.8847
G01 X4.6133 Y12.8992
G01 X4.6169 Y12.9134
G01 X4.6218 Y12.9272
G01 X4.6281 Y12.9405
G01 X4.6356 Y12.9531
G01 X4.6444 Y12.9649
G01 X4.6542 Y12.9758
G01 X4.6651 Y12.9856
G01 X4.6769 Y12.9944
G01 X4.6895 Y13.0019
G01 X4.7028 Y13.0082
G01 X4.7166 Y13.0131
G01 X4.7308 Y13.0167
G01 X4.7453 Y13.0189
G01 X4.7600 Y13.0196
G00 X4.7600 Y13.0196
G01 F15.00
G01 Z-0.9700
G01 F30.00
G01 X4.7747 Y13.0189
G01 X4.7892 Y13.0167
G01 X4.8034 Y13.0131
G01 X4.8172 Y13.0082
G01 X4.8305 Y13.0019
G01 X4.8431 Y12.9944
G01 X4.8549 Y12.9856
G01 X4.8658 Y12.9758
G01 X4.8756 Y12.9649
G01 X4.8844 Y12.9531
G01 X4.8919 Y12.9405
G01 X4.8982 Y12.9272
G01 X4.9031 Y12.9134
G01 X4.9067 Y12.8992
G01 X4.9089 Y12.8847
G01 X4.9100 Y12.8614
G01 X4.9100 Y10.6786
G01 X4.9089 Y10.6553
G01 X4.9067 Y10.6408
G01 X4.9031 Y10.6266
G01 X4.8982 Y10.6128
G01 X4.8919 Y10.5995
G01 X4.8844 Y10.5869
G01 X4.8756 Y10.5751
G01 X4.8658 Y10.5642
G01 X4.8549 Y10.5544
G01 X4.8431 Y10.5456
G01 X4.8305 Y10.5381
G01 X4.8172 Y10.5318
G01 X4.8034 Y10.5269
G01 X4.7892 Y10.5233
G01 X4.7747 Y10.5211
G01 X4.7600 Y10.5204
G01 X4.7453 Y10.5211
G01 X4.7308 Y10.5233
G01 X4.7166 Y10.5269
G01 X4.7028 Y10.5318
G01 X4.6895 Y10.5381
G01 X4.6769 Y10.5456
G01 X4.6651 Y10.5544
G01 X4.6542 Y10.5642
G01 X4.6444 Y10.5751
G01 X4.6356 Y10.5869
G01 X4.6281 Y10.5995
G01 X4.6218 Y10.6128
G01 X4.6169 Y10.6266
G01 X4.6133 Y10.6408
G01 X4.6111 Y10.6553
G01 X4.6100 Y10.6786
G01 X4.6100 Y12.8614
G01 X4.6111 Y12.8847
G01 X4.6133 Y12.8992
G01 X4.6169 Y12.9134
G01 X4.6218 Y12.9272
G01 X4.6281 Y12.9405
G01 X4.6356 Y12.9531
G01 X4.6444 Y12.9649
G01 X4.6542 Y12.9758
G01 X4.6651 Y12.9856
G01 X4.6769 Y12.9944
G01 X4.6895 Y13.0019
G01 X4.7028 Y13.0082
G01 X4.7166 Y13.0131
G01 X4.7308 Y13.0167
G01 X4.7453 Y13.0189
G01 X4.7600 Y13.0196
G00 X4.7600 Y13.0196
G01 F15.00
G01 Z-1.4550
G01 F30.00
G01 X4.7747 Y13.0189
G01 X4.7892 Y13.0167
G01 X4.8034 Y13.0131
G01 X4.8172 Y13.0082
G01 X4.8305 Y13.0019
G01 X4.8431 Y12.9944
G01 X4.8549 Y12.9856
G01 X4.8658 Y12.9758
G01 X4.8756 Y12.9649
G01 X4.8844 Y12.9531
G01 X4.8919 Y12.9405
G01 X4.8982 Y12.9272
G01 X4.9031 Y12.9134
G01 X4.9067 Y12.8992
G01 X4.9089 Y12.8847
G01 X4.9100 Y12.8614
G01 X4.9100 Y10.6786
G01 X4.9089 Y10.6553
G01 X4.9067 Y10.6408
G01 X4.9031 Y10.6266
G01 X4.8982 Y10.6128
G01 X4.8919 Y10.5995
G01 X4.8844 Y10.5869
G01 X4.8756 Y10.5751
G01 X4.8658 Y10.5642
G01 X4.8549 Y10.5544
G01 X4.8431 Y10.5456
G01 X4.8305 Y10.5381
G01 X4.8172 Y10.5318
G01 X4.8034 Y10.5269
G01 X4.7892 Y10.5233
G01 X4.7747 Y10.5211
G01 X4.7600 Y10.5204
G01 X4.7453 Y10.5211
G01 X4.7308 Y10.5233
G01 X4.7166 Y10.5269
G01 X4.7028 Y10.5318
G01 X4.6895 Y10.5381
G01 X4.6769 Y10.5456
G01 X4.6651 Y10.5544
G01 X4.6542 Y10.5642
G01 X4.6444 Y10.5751
G01 X4.6356 Y10.5869
G01 X4.6281 Y10.5995
G01 X4.6218 Y10.6128
G01 X4.6169 Y10.6266
G01 X4.6133 Y10.6408
G01 X4.6111 Y10.6553
G01 X4.6100 Y10.6786
G01 X4.6100 Y12.8614
G01 X4.6111 Y12.8847
G01 X4.6133 Y12.8992
G01 X4.6169 Y12.9134
G01 X4.6218 Y12.9272
G01 X4.6281 Y12.9405
G01 X4.6356 Y12.9531
G01 X4.6444 Y12.9649
G01 X4.6542 Y12.9758
G01 X4.6651 Y12.9856
G01 X4.6769 Y12.9944
G01 X4.6895 Y13.0019
G01 X4.7028 Y13.0082
G01 X4.7166 Y13.0131
G01 X4.7308 Y13.0167
G01 X4.7453 Y13.0189
G01 X4.7600 Y13.0196
G00 X4.7600 Y13.0196
G01 F15.00
G01 Z-1.9400
G01 F30.00
G01 X4.7747 Y13.0189
G01 X4.7892 Y13.0167
G01 X4.8034 Y13.0131
G01 X4.8172 Y13.0082
G01 X4.8305 Y13.0019
G01 X4.8431 Y12.9944
G01 X4.8549 Y12.9856
G01 X4.8658 Y12.9758
G01 X4.8756 Y12.9649
G01 X4.8844 Y12.9531
G01 X4.8919 Y12.9405
G01 X4.8982 Y12.9272
G01 X4.9031 Y12.9134
G01 X4.9067 Y12.8992
G01 X4.9089 Y12.8847
G01 X4.9100 Y12.8614
G01 X4.9100 Y10.6786
G01 X4.9089 Y10.6553
G01 X4.9067 Y10.6408
G01 X4.9031 Y10.6266
G01 X4.8982 Y10.6128
G01 X4.8919 Y10.5995
G01 X4.8844 Y10.5869
G01 X4.8756 Y10.5751
G01 X4.8658 Y10.5642
G01 X4.8549 Y10.5544
G01 X4.8431 Y10.5456
G01 X4.8305 Y10.5381
G01 X4.8172 Y10.5318
G01 X4.8034 Y10.5269
G01 X4.7892 Y10.5233
G01 X4.7747 Y10.5211
G01 X4.7600 Y10.5204
G01 X4.7453 Y10.5211
G01 X4.7308 Y10.5233
G01 X4.7166 Y10.5269
G01 X4.7028 Y10.5318
G01 X4.6895 Y10.5381
G01 X4.6769 Y10.5456
G01 X4.6651 Y10.5544
G01 X4.6542 Y10.5642
G01 X4.6444 Y10.5751
G01 X4.6356 Y10.5869
G01 X4.6281 Y10.5995
G01 X4.6218 Y10.6128
G01 X4.6169 Y10.6266
G01 X4.6133 Y10.6408
G01 X4.6111 Y10.6553
G01 X4.6100 Y10.6786
G01 X4.6100 Y12.8614
G01 X4.6111 Y12.8847
G01 X4.6133 Y12.8992
G01 X4.6169 Y12.9134
G01 X4.6218 Y12.9272
G01 X4.6281 Y12.9405
G01 X4.6356 Y12.9531
G01 X4.6444 Y12.9649
G01 X4.6542 Y12.9758
G01 X4.6651 Y12.9856
G01 X4.6769 Y12.9944
G01 X4.6895 Y13.0019
G01 X4.7028 Y13.0082
G01 X4.7166 Y13.0131
G01 X4.7308 Y13.0167
G01 X4.7453 Y13.0189
G01 X4.7600 Y13.0196
G00 Z1.0000
G00 X7.0686 Y16.7200
G01 F15.00
G01 Z-0.4850
G01 F30.00
G01 X9.2514 Y16.7200
G01 X9.2747 Y16.7189
G01 X9.2892 Y16.7167
G01 X9.3034 Y16.7131
G01 X9.3172 Y16.7082
G01 X9.3305 Y16.7019
G01 X9.3431 Y16.6944
G01 X9.3549 Y16.6856
G01 X9.3658 Y16.6758
G01 X9.3756 Y16.6649
G01 X9.3844 Y16.6531
G01 X9.3919 Y16.6405
G01 X9.3982 Y16.6272
G01 X9.4031 Y16.6134
G01 X9.4067 Y16.5992
G01 X9.4089 Y16.5847
G01 X9.4096 Y16.5700
G01 X9.4089 Y16.5553
G01 X9.4067 Y16.5408
G01 X9.4031 Y16.5266
G01 X9.3982 Y16.5128
G01 X9.3919 Y16.4995
G01 X9.3844 Y16.4869
G01 X9.3756 Y16.4751
G01 X9.3658 Y16.4642
G01 X9.3549 Y16.4544
G01 X9.3431 Y16.4456
G01 X9.3305 Y16.4381
G01 X9.3172 Y16.4318
G01 X9.3034 Y16.4269
G01 X9.2892 Y16.4233
G01 X9.2747 Y16.4211
G01 X9.2514 Y16.4200
G01 X7.0686 Y16.4200
G01 X7.0453 Y16.4211
G01 X7.0308 Y16.4233
G01 X7.0166 Y16.4269
G01 X7.0028 Y16.4318
G01 X6.9895 Y16.4381
G01 X6.9769 Y16.4456
G01 X6.9651 Y16.4544
G01 X6.9542 Y16.4642
G01 X6.9444 Y16.4751
G01 X6.9356 Y16.4869
G01 X6.9281 Y16.4995
G01 X6.9218 Y16.5128
G01 X6.9169 Y16.5266
G01 X6.9133 Y16.5408
G01 X6.9111 Y16.5553
G01 X6.9104 Y16.5700
G01 X6.9111 Y16.5847
G01 X6.9133 Y16.5992
G01 X6.9169 Y16.6134
G01 X6.9218 Y16.6272
G01 X6.9281 Y16.6405
G01 X6.9356 Y16.6531
G01 X6.9444 Y16.6649
G01 X6.9542 Y16.6758
G01 X6.9651 Y16.6856
G01 X6.9769 Y16.6944
G01 X6.9895 Y16.7019
G01 X7.0028 Y16.7082
G01 X7.0166 Y16.7131
G01 X7.0308 Y16.7167
G01 X7.0453 Y16.7189
G01 X7.0686 Y16.7200
G00 X7.0686 Y16.7200
G01 F15.00
G01 Z-0.9700
G01 F30.00
G01 X9.2514 Y16.7200
G01 X9.2747 Y16.7189
G01 X9.2892 Y16.7167
G01 X9.3034 Y16.7131
G01 X9.3172 Y16.7082
G01 X9.3305 Y16.7019
G01 X9.3431 Y16.6944
G01 X9.3549 Y16.6856
G01 X9.3658 Y16.6758
G01 X9.3756 Y16.6649
G01 X9.3844 Y16.6531
G01 X9.3919 Y16.6405
G01 X9.3982 Y16.6272
G01 X9.4031 Y16.6134
G01 X9.4067 Y16.5992
G01 X9.4089 Y16.5847
G01 X9.4096 Y16.5700
G01 X9.4089 Y16.5553
G01 X9.4067 Y16.5408
G01 X9.4031 Y16.5266
G01 X9.3982 Y16.5128
G01 X9.3919 Y16.4995
G01 X9.3844 Y16.4869
G01 X9.3756 Y16.4751
G01 X9.3658 Y16.4642
G01 X9.3549 Y16.4544
G01 X9.3431 Y16.4456
G01 X9.3305 Y16.4381
G01 X9.3172 Y16.4318
G01 X9.3034 Y16.4269
G01 X9.2892 Y16.4233
G01 X9.2747 Y16.4211
G01 X9.2514 Y16.4200
G01 X7.0686 Y16.4200
G01 X7.0453 Y16.4211
G01 X7.0308 Y16.4233
G01 X7.0166 Y16.4269
G01 X7.0028 Y16.4318
G01 X6.9895 Y16.4381
G01 X6.9769 Y16.4456
G01 X6.9651 Y16.4544
G01 X6.9542 Y16.4642
G01 X6.9444 Y16.4751
G01 X6.9356 Y16.4869
G01 X6.9281 Y16.4995
G01 X6.9218 Y16.5128
G01 X6.9169 Y16.5266
G01 X6.9133 Y16.5408
G01 X6.9111 Y16.5553
G01 X6.9104 Y16.5700
G01 X6.9111 Y16.5847
G01 X6.9133 Y16.5992
G01 X6.9169 Y16.6134
G01 X6.9218 Y16.6272
G01 X6.9281 Y16.6405
G01 X6.9356 Y16.6531
G01 X6.9444 Y16.6649
G01 X6.9542 Y16.6758
G01 X6.9651 Y16.6856
G01 X6.9769 Y16.6944
G01 X6.9895 Y16.7019
G01 X7.0028 Y16.7082
G01 X7.0166 Y16.7131
G01 X7.0308 Y16.7167
G01 X7.0453 Y16.7189
G01 X7.0686 Y16.7200
G00 X7.0686 Y16.7200
G01 F15.00
G01 Z-1.4550
G01 F30.00
G01 X9.2514 Y16.7200
G01 X9.2747 Y16.7189
G01 X9.2892 Y16.7167
G01 X9.3034 Y16.7131
G01 X9.3172 Y16.7082
G01 X9.3305 Y16.7019
G01 X9.3431 Y16.6944
G01 X9.3549 Y16.6856
G01 X9.3658 Y16.6758
G01 X9.3756 Y16.6649
G01 X9.3844 Y16.6531
G01 X9.3919 Y16.6405
G01 X9.3982 Y16.6272
G01 X9.4031 Y16.6134
G01 X9.4067 Y16.5992
G01 X9.4089 Y16.5847
G01 X9.4096 Y16.5700
G01 X9.4089 Y16.5553
G01 X9.4067 Y16.5408
G01 X9.4031 Y16.5266
G01 X9.3982 Y16.5128
G01 X9.3919 Y16.4995
G01 X9.3844 Y16.4869
G01 X9.3756 Y16.4751
G01 X9.3658 Y16.4642
G01 X9.3549 Y16.4544
G01 X9.3431 Y16.4456
G01 X9.3305 Y16.4381
G01 X9.3172 Y16.4318
G01 X9.3034 Y16.4269
G01 X9.2892 Y16.4233
G01 X9.2747 Y16.4211
G01 X9.2514 Y16.4200
G01 X7.0686 Y16.4200
G01 X7.0453 Y16.4211
G01 X7.0308 Y16.4233
G01 X7.0166 Y16.4269
G01 X7.0028 Y16.4318
G01 X6.9895 Y16.4381
G01 X6.9769 Y16.4456
G01 X6.9651 Y16.4544
G01 X6.9542 Y16.4642
G01 X6.9444 Y16.4751
G01 X6.9356 Y16.4869
G01 X6.9281 Y16.4995
G01 X6.9218 Y16.5128
G01 X6.9169 Y16.5266
G01 X6.9133 Y16.5408
G01 X6.9111 Y16.5553
G01 X6.9104 Y16.5700
G01 X6.9111 Y16.5847
G01 X6.9133 Y16.5992
G01 X6.9169 Y16.6134
G01 X6.9218 Y16.6272
G01 X6.9281 Y16.6405
G01 X6.9356 Y16.6531
G01 X6.9444 Y16.6649
G01 X6.9542 Y16.6758
G01 X6.9651 Y16.6856
G01 X6.9769 Y16.6944
G01 X6.9895 Y16.7019
G01 X7.0028 Y16.7082
G01 X7.0166 Y16.7131
G01 X7.0308 Y16.7167
G01 X7.0453 Y16.7189
G01 X7.0686 Y16.7200
G00 X7.0686 Y16.7200
G01 F15.00
G01 Z-1.9400
G01 F30.00
G01 X9.2514 Y16.7200
G01 X9.2747 Y16.7189
G01 X9.2892 Y16.7167
G01 X9.3034 Y16.7131
G01 X9.3172 Y16.7082
G01 X9.3305 Y16.7019
G01 X9.3431 Y16.6944
G01 X9.3549 Y16.6856
G01 X9.3658 Y16.6758
G01 X9.3756 Y16.6649
G01 X9.3844 Y16.6531
G01 X9.3919 Y16.6405
G01 X9.3982 Y16.6272
G01 X9.4031 Y16.6134
G01 X9.4067 Y16.5992
G01 X9.4089 Y16.5847
G01 X9.4096 Y16.5700
G01 X9.4089 Y16.5553
G01 X9.4067 Y16.5408
G01 X9.4031 Y16.5266
G01 X9.3982 Y16.5128
G01 X9.3919 Y16.4995
G01 X9.3844 Y16.4869
G01 X9.3756 Y16.4751
G01 X9.3658 Y16.4642
G01 X9.3549 Y16.4544
G01 X9.3431 Y16.4456
G01 X9.3305 Y16.4381
G01 X9.3172 Y16.4318
G01 X9.3034 Y16.4269
G01 X9.2892 Y16.4233
G01 X9.2747 Y16.4211
G01 X9.2514 Y16.4200
G01 X7.0686 Y16.4200
G01 X7.0453 Y16.4211
G01 X7.0308 Y16.4233
G01 X7.0166 Y16.4269
G01 X7.0028 Y16.4318
G01 X6.9895 Y16.4381
G01 X6.9769 Y16.4456
G01 X6.9651 Y16.4544
G01 X6.9542 Y16.4642
G01 X6.9444 Y16.4751
G01 X6.9356 Y16.4869
G01 X6.9281 Y16.4995
G01 X6.9218 Y16.5128
G01 X6.9169 Y16.5266
G01 X6.9133 Y16.5408
G01 X6.9111 Y16.5553
G01 X6.9104 Y16.5700
G01 X6.9111 Y16.5847
G01 X6.9133 Y16.5992
G01 X6.9169 Y16.6134
G01 X6.9218 Y16.6272
G01 X6.9281 Y16.6405
G01 X6.9356 Y16.6531
G01 X6.9444 Y16.6649
G01 X6.9542 Y16.6758
G01 X6.9651 Y16.6856
G01 X6.9769 Y16.6944
G01 X6.9895 Y16.7019
G01 X7.0028 Y16.7082
G01 X7.0166 Y16.7131
G01 X7.0308 Y16.7167
G01 X7.0453 Y16.7189
G01 X7.0686 Y16.7200
G00 Z1.0000
G00 X11.0600 Y13.2196
G01 F15.00
G01 Z-0.4850
G01 F30.00
G01 X11.0747 Y13.2189
G01 X11.0892 Y13.2167
G01 X11.1034 Y13.2131
G01 X11.1172 Y13.2082
G01 X11.1305 Y13.2019
G01 X11.1431 Y13.1944
G01 X11.1549 Y13.1856
G01 X11.1658 Y13.1758
G01 X11.1756 Y13.1649
G01 X11.1844 Y13.1531
G01 X11.1919 Y13.1405
G01 X11.1982 Y13.1272
G01 X11.2031 Y13.1134
G01 X11.2067 Y13.0992
G01 X11.2089 Y13.0847
G01 X11.2100 Y13.0614
G01 X11.2100 Y10.4786
G01 X11.2089 Y10.4553
G01 X11.2067 Y10.4408
G01 X11.2031 Y10.4266
G01 X11.1982 Y10.4128
G01 X11.1919 Y10.3995
G01 X11.1844 Y10.3869
G01 X11.1756 Y10.3751
G01 X11.1658 Y10.3642
G01 X11.1549 Y10.3544
G01 X11.1431 Y10.3456
G01 X11.1305 Y10.3381
G01 X11.1172 Y10.3318
G01 X11.1034 Y10.3269
G01 X11.0892 Y10.3233
G01 X11.0747 Y10.3211
G01 X11.0600 Y10.3204
G01 X11.0453 Y10.3211
G01 X11.0308 Y10.3233
G01 X11.0166 Y10.3269
G01 X11.0028 Y10.3318
G01 X10.9895 Y10.3381
G01 X10.9769 Y10.3456
G01 X10.9651 Y10.3544
G01 X10.9542 Y10.3642
G01 X10.9444 Y10.3751
G01 X10.9356 Y10.3869
G01 X10.9281 Y10.3995
G01 X10.9218 Y10.4128
G01 X10.9169 Y10.4266
G01 X10.9133 Y10.4408
G01 X10.9111 Y10.4553
G01 X10.9100 Y10.4786
G01 X10.9100 Y13.0614
G01 X10.9111 Y13.0847
G01 X10.9133 Y13.0992
G01 X10.9169 Y13.1134
G01 X10.9218 Y13.1272
G01 X10.9281 Y13.1405
G01 X10.9356 Y13.1531
G01 X10.9444 Y13.1649
G01 X10.9542 Y13.1758
G01 X10.9651 Y13.1856
G01 X10.9769 Y13.1944
G01 X10.9895 Y13.2019
G01 X11.0028 Y13.2082
G01 X11.0166 Y13.2131
G01 X11.0308 Y13.2167
G01 X11.0453 Y13.2189
G01 X11.0600 Y13.2196
G00 X11.0600 Y13.2196
G01 F15.00
G01 Z-0.9700
G01 F30.00
G01 X11.0747 Y13.2189
G01 X11.0892 Y13.2167
G01 X11.1034 Y13.2131
G01 X11.1172 Y13.2082
G01 X11.1305 Y13.2019
G01 X11.1431 Y13.1944
G01 X11.1549 Y13.1856
G01 X11.1658 Y13.1758
G01 X11.1756 Y13.1649
G01 X11.1844 Y13.1531
G01 X11.1919 Y13.1405
G01 X11.1982 Y13.1272
G01 X11.2031 Y13.1134
G01 X11.2067 Y13.0992
G01 X11.2089 Y13.0847
G01 X11.2100 Y13.0614
G01 X11.2100 Y10.4786
G01 X11.2089 Y10.4553
G01 X11.2067 Y10.4408
G01 X11.2031 Y10.4266
G01 X11.1982 Y10.4128
G01 X11.1919 Y10.3995
G01 X11.1844 Y10.3869
G01 X11.1756 Y10.3751
G01 X11.1658 Y10.3642
G01 X11.1549 Y10.3544
G01 X11.1431 Y10.3456
G01 X11.1305 Y10.3381
G01 X11.1172 Y10.3318
G01 X11.1034 Y10.3269
G01 X11.0892 Y10.3233
G01 X11.0747 Y10.3211
G01 X11.0600 Y10.3204
G01 X11.0453 Y10.3211
G01 X11.0308 Y10.3233
G01 X11.0166 Y10.3269
G01 X11.0028 Y10.3318
G01 X10.9895 Y10.3381
G01 X10.9769 Y10.3456
G01 X10.9651 Y10.3544
G01 X10.9542 Y10.3642
G01 X10.9444 Y10.3751
G01 X10.9356 Y10.3869
G01 X10.9281 Y10.3995
G01 X10.9218 Y10.4128
G01 X10.9169 Y10.4266
G01 X10.9133 Y10.4408
G01 X10.9111 Y10.4553
G01 X10.9100 Y10.4786
G01 X10.9100 Y13.0614
G01 X10.9111 Y13.0847
G01 X10.9133 Y13.0992
G01 X10.9169 Y13.1134
G01 X10.9218 Y13.1272
G01 X10.9281 Y13.1405
G01 X10.9356 Y13.1531
G01 X10.9444 Y13.1649
G01 X10.9542 Y13.1758
G01 X10.9651 Y13.1856
G01 X10.9769 Y13.1944
G01 X10.9895 Y13.2019
G01 X11.0028 Y13.2082
G01 X11.0166 Y13.2131
G01 X11.0308 Y13.2167
G01 X11.0453 Y13.2189
G01 X11.0600 Y13.2196
G00 X11.0600 Y13.2196
G01 F15.00
G01 Z-1.4550
G01 F30.00
G01 X11.0747 Y13.2189
G01 X11.0892 Y13.2167
G01 X11.1034 Y13.2131
G01 X11.1172 Y13.2082
G01 X11.1305 Y13.2019
G01 X11.1431 Y13.1944
G01 X11.1549 Y13.1856
G01 X11.1658 Y13.1758
G01 X11.1756 Y13.1649
G01 X11.1844 Y13.1531
G01 X11.1919 Y13.1405
G01 X11.1982 Y13.1272
G01 X11.2031 Y13.1134
G01 X11.2067 Y13.0992
G01 X11.2089 Y13.0847
G01 X11.2100 Y13.0614
G01 X11.2100 Y10.4786
G01 X11.2089 Y10.4553
G01 X11.2067 Y10.4408
G01 X11.2031 Y10.4266
G01 X11.1982 Y10.4128
G01 X11.1919 Y10.3995
G01 X11.1844 Y10.3869
G01 X11.1756 Y10.3751
G01 X11.1658 Y10.3642
G01 X11.1549 Y10.3544
G01 X11.1431 Y10.3456
G01 X11.1305 Y10.3381
G01 X11.1172 Y10.3318
G01 X11.1034 Y10.3269
G01 X11.0892 Y10.3233
G01 X11.0747 Y10.3211
G01 X11.0600 Y10.3204
G01 X11.0453 Y10.3211
G01 X11.0308 Y10.3233
G01 X11.0166 Y10.3269
G01 X11.0028 Y10.3318
G01 X10.9895 Y10.3381
G01 X10.9769 Y10.3456
G01 X10.9651 Y10.3544
G01 X10.9542 Y10.3642
G01 X10.9444 Y10.3751
G01 X10.9356 Y10.3869
G01 X10.9281 Y10.3995
G01 X10.9218 Y10.4128
G01 X10.9169 Y10.4266
G01 X10.9133 Y10.4408
G01 X10.9111 Y10.4553
G01 X10.9100 Y10.4786
G01 X10.9100 Y13.0614
G01 X10.9111 Y13.0847
G01 X10.9133 Y13.0992
G01 X10.9169 Y13.1134
G01 X10.9218 Y13.1272
G01 X10.9281 Y13.1405
G01 X10.9356 Y13.1531
G01 X10.9444 Y13.1649
G01 X10.9542 Y13.1758
G01 X10.9651 Y13.1856
G01 X10.9769 Y13.1944
G01 X10.9895 Y13.2019
G01 X11.0028 Y13.2082
G01 X11.0166 Y13.2131
G01 X11.0308 Y13.2167
G01 X11.0453 Y13.2189
G01 X11.0600 Y13.2196
G00 X11.0600 Y13.2196
G01 F15.00
G01 Z-1.9400
G01 F30.00
G01 X11.0747 Y13.2189
G01 X11.0892 Y13.2167
G01 X11.1034 Y13.2131
G01 X11.1172 Y13.2082
G01 X11.1305 Y13.2019
G01 X11.1431 Y13.1944
G01 X11.1549 Y13.1856
G01 X11.1658 Y13.1758
G01 X11.1756 Y13.1649
G01 X11.1844 Y13.1531
G01 X11.1919 Y13.1405
G01 X11.1982 Y13.1272
G01 X11.2031 Y13.1134
G01 X11.2067 Y13.0992
G01 X11.2089 Y13.0847
G01 X11.2100 Y13.0614
G01 X11.2100 Y10.4786
G01 X11.2089 Y10.4553
G01 X11.2067 Y10.4408
G01 X11.2031 Y10.4266
G01 X11.1982 Y10.4128
G01 X11.1919 Y10.3995
G01 X11.1844 Y10.3869
G01 X11.1756 Y10.3751
G01 X11.1658 Y10.3642
G01 X11.1549 Y10.3544
G01 X11.1431 Y10.3456
G01 X11.1305 Y10.3381
G01 X11.1172 Y10.3318
G01 X11.1034 Y10.3269
G01 X11.0892 Y10.3233
G01 X11.0747 Y10.3211
G01 X11.0600 Y10.3204
G01 X11.0453 Y10.3211
G01 X11.0308 Y10.3233
G01 X11.0166 Y10.3269
G01 X11.0028 Y10.3318
G01 X10.9895 Y10.3381
G01 X10.9769 Y10.3456
G01 X10.9651 Y10.3544
G01 X10.9542 Y10.3642
G01 X10.9444 Y10.3751
G01 X10.9356 Y10.3869
G01 X10.9281 Y10.3995
G01 X10.9218 Y10.4128
G01 X10.9169 Y10.4266
G01 X10.9133 Y10.4408
G01 X10.9111 Y10.4553
G01 X10.9100 Y10.4786
G01 X10.9100 Y13.0614
G01 X10.9111 Y13.0847
G01 X10.9133 Y13.0992
G01 X10.9169 Y13.1134
G01 X10.9218 Y13.1272
G01 X10.9281 Y13.1405
G01 X10.9356 Y13.1531
G01 X10.9444 Y13.1649
G01 X10.9542 Y13.1758
G01 X10.9651 Y13.1856
G01 X10.9769 Y13.1944
G01 X10.9895 Y13.2019
G01 X11.0028 Y13.2082
G01 X11.0166 Y13.2131
G01 X11.0308 Y13.2167
G01 X11.0453 Y13.2189
G01 X11.0600 Y13.2196
G00 Z1.0000
G00 X16.8246 Y15.5000
G01 F15.00
G01 Z-0.4850
G01 F30.00
G01 X16.8236 Y15.4903
G01 X16.8208 Y15.4810
G01 X16.8162 Y15.4725
G01 X16.8101 Y15.4649
G01 X16.8025 Y15.4588
G01 X16.7940 Y15.4542
G01 X16.7847 Y15.4514
G01 X16.7750 Y15.4504
G01 X16.7653 Y15.4514
G01 X16.7560 Y15.4542
G01 X16.7475 Y15.4588
G01 X16.7399 Y15.4649
G01 X16.7338 Y15.4725
G01 X16.7292 Y15.4810
G01 X16.7264 Y15.4903
G01 X16.7254 Y15.5000
G01 X16.7264 Y15.5097
G01 X16.7292 Y15.5190
G01 X16.7338 Y15.5275
G01 X16.7399 Y15.5351
G01 X16.7475 Y15.5412
G01 X16.7560 Y15.5458
G01 X16.7653 Y15.5486
G01 X16.7750 Y15.5496
G01 X16.7847 Y15.5486
G01 X16.7940 Y15.5458
G01 X16.8025 Y15.5412
G01 X16.8101 Y15.5351
G01 X16.8162 Y15.5275
G01 X16.8208 Y15.5190
G01 X16.8236 Y15.5097
G01 X16.8246 Y15.5000
G00 X16.8246 Y15.5000
G01 F15.00
G01 Z-0.9700
G01 F30.00
G01 X16.8236 Y15.4903
G01 X16.8208 Y15.4810
G01 X16.8162 Y15.4725
G01 X16.8101 Y15.4649
G01 X16.8025 Y15.4588
G01 X16.7940 Y15.4542
G01 X16.7847 Y15.4514
G01 X16.7750 Y15.4504
G01 X16.7653 Y15.4514
G01 X16.7560 Y15.4542
G01 X16.7475 Y15.4588
G01 X16.7399 Y15.4649
G01 X16.7338 Y15.4725
G01 X16.7292 Y15.4810
G01 X16.7264 Y15.4903
G01 X16.7254 Y15.5000
G01 X16.7264 Y15.5097
G01 X16.7292 Y15.5190
G01 X16.7338 Y15.5275
G01 X16.7399 Y15.5351
G01 X16.7475 Y15.5412
G01 X16.7560 Y15.5458
G01 X16.7653 Y15.5486
G01 X16.7750 Y15.5496
G01 X16.7847 Y15.5486
G01 X16.7940 Y15.5458
G01 X16.8025 Y15.5412
G01 X16.8101 Y15.5351
G01 X16.8162 Y15.5275
G01 X16.8208 Y15.5190
G01 X16.8236 Y15.5097
G01 X16.8246 Y15.5000
G00 X16.8246 Y15.5000
G01 F15.00
G01 Z-1.4550
G01 F30.00
G01 X16.8236 Y15.4903
G01 X16.8208 Y15.4810
G01 X16.8162 Y15.4725
G01 X16.8101 Y15.4649
G01 X16.8025 Y15.4588
G01 X16.7940 Y15.4542
G01 X16.7847 Y15.4514
G01 X16.7750 Y15.4504
G01 X16.7653 Y15.4514
G01 X16.7560 Y15.4542
G01 X16.7475 Y15.4588
G01 X16.7399 Y15.4649
G01 X16.7338 Y15.4725
G01 X16.7292 Y15.4810
G01 X16.7264 Y15.4903
G01 X16.7254 Y15.5000
G01 X16.7264 Y15.5097
G01 X16.7292 Y15.5190
G01 X16.7338 Y15.5275
G01 X16.7399 Y15.5351
G01 X16.7475 Y15.5412
G01 X16.7560 Y15.5458
G01 X16.7653 Y15.5486
G01 X16.7750 Y15.5496
G01 X16.7847 Y15.5486
G01 X16.7940 Y15.5458
G01 X16.8025 Y15.5412
G01 X16.8101 Y15.5351
G01 X16.8162 Y15.5275
G01 X16.8208 Y15.5190
G01 X16.8236 Y15.5097
G01 X16.8246 Y15.5000
G00 X16.8246 Y15.5000
G01 F15.00
G01 Z-1.9400
G01 F30.00
G01 X16.8236 Y15.4903
G01 X16.8208 Y15.4810
G01 X16.8162 Y15.4725
G01 X16.8101 Y15.4649
G01 X16.8025 Y15.4588
G01 X16.7940 Y15.4542
G01 X16.7847 Y15.4514
G01 X16.7750 Y15.4504
G01 X16.7653 Y15.4514
G01 X16.7560 Y15.4542
G01 X16.7475 Y15.4588
G01 X16.7399 Y15.4649
G01 X16.7338 Y15.4725
G01 X16.7292 Y15.4810
G01 X16.7264 Y15.4903
G01 X16.7254 Y15.5000
G01 X16.7264 Y15.5097
G01 X16.7292 Y15.5190
G01 X16.7338 Y15.5275
G01 X16.7399 Y15.5351
G01 X16.7475 Y15.5412
G01 X16.7560 Y15.5458
G01 X16.7653 Y15.5486
G01 X16.7750 Y15.5496
G01 X16.7847 Y15.5486
G01 X16.7940 Y15.5458
G01 X16.8025 Y15.5412
G01 X16.8101 Y15.5351
G01 X16.8162 Y15.5275
G01 X16.8208 Y15.5190
G01 X16.8236 Y15.5097
G01 X16.8246 Y15.5000
G00 Z1.0000
G00 X16.8246 Y17.5000
G01 F15.00
G01 Z-0.4850
G01 F30.00
G01 X16.8236 Y17.4903
G01 X16.8208 Y17.4810
G01 X16.8162 Y17.4725
G01 X16.8101 Y17.4649
G01 X16.8025 Y17.4588
G01 X16.7940 Y17.4542
G01 X16.7847 Y17.4514
G01 X16.7750 Y17.4504
G01 X16.7653 Y17.4514
G01 X16.7560 Y17.4542
G01 X16.7475 Y17.4588
G01 X16.7399 Y17.4649
G01 X16.7338 Y17.4725
G01 X16.7292 Y17.4810
G01 X16.7264 Y17.4903
G01 X16.7254 Y17.5000
G01 X16.7264 Y17.5097
G01 X16.7292 Y17.5190
G01 X16.7338 Y17.5275
G01 X16.7399 Y17.5351
G01 X16.7475 Y17.5412
G01 X16.7560 Y17.5458
G01 X16.7653 Y17.5486
G01 X16.7750 Y17.5496
G01 X16.7847 Y17.5486
G01 X16.7940 Y17.5458
G01 X16.8025 Y17.5412
G01 X16.8101 Y17.5351
G01 X16.8162 Y17.5275
G01 X16.8208 Y17.5190
G01 X16.8236 Y17.5097
G01 X16.8246 Y17.5000
G00 X16.8246 Y17.5000
G01 F15.00
G01 Z-0.9700
G01 F30.00
G01 X16.8236 Y17.4903
G01 X16.8208 Y17.4810
G01 X16.8162 Y17.4725
G01 X16.8101 Y17.4649
G01 X16.8025 Y17.4588
G01 X16.7940 Y17.4542
G01 X16.7847 Y17.4514
G01 X16.7750 Y17.4504
G01 X16.7653 Y17.4514
G01 X16.7560 Y17.4542
G01 X16.7475 Y17.4588
G01 X16.7399 Y17.4649
G01 X16.7338 Y17.4725
G01 X16.7292 Y17.4810
G01 X16.7264 Y17.4903
G01 X16.7254 Y17.5000
G01 X16.7264 Y17.5097
G01 X16.7292 Y17.5190
G01 X16.7338 Y17.5275
G01 X16.7399 Y17.5351
G01 X16.7475 Y17.5412
G01 X16.7560 Y17.5458
G01 X16.7653 Y17.5486
G01 X16.7750 Y17.5496
G01 X16.7847 Y17.5486
G01 X16.7940 Y17.5458
G01 X16.8025 Y17.5412
G01 X16.8101 Y17.5351
G01 X16.8162 Y17.5275
G01 X16.8208 Y17.5190
G01 X16.8236 Y17.5097
G01 X16.8246 Y17.5000
G00 X16.8246 Y17.5000
G01 F15.00
G01 Z-1.4550
G01 F30.00
G01 X16.8236 Y17.4903
G01 X16.8208 Y17.4810
G01 X16.8162 Y17.4725
G01 X16.8101 Y17.4649
G01 X16.8025 Y17.4588
G01 X16.7940 Y17.4542
G01 X16.7847 Y17.4514
G01 X16.7750 Y17.4504
G01 X16.7653 Y17.4514
G01 X16.7560 Y17.4542
G01 X16.7475 Y17.4588
G01 X16.7399 Y17.4649
G01 X16.7338 Y17.4725
G01 X16.7292 Y17.4810
G01 X16.7264 Y17.4903
G01 X16.7254 Y17.5000
G01 X16.7264 Y17.5097
G01 X16.7292 Y17.5190
G01 X16.7338 Y17.5275
G01 X16.7399 Y17.5351
G01 X16.7475 Y17.5412
G01 X16.7560 Y17.5458
G01 X16.7653 Y17.5486
G01 X16.7750 Y17.5496
G01 X16.7847 Y17.5486
G01 X16.7940 Y17.5458
G01 X16.8025 Y17.5412
G01 X16.8101 Y17.5351
G01 X16.8162 Y17.5275
G01 X16.8208 Y17.5190
G01 X16.8236 Y17.5097
G01 X16.8246 Y17.5000
G00 X16.8246 Y17.5000
G01 F15.00
G01 Z-1.9400
G01 F30.00
G01 X16.8236 Y17.4903
G01 X16.8208 Y17.4810
G01 X16.8162 Y17.4725
G01 X16.8101 Y17.4649
G01 X16.8025 Y17.4588
G01 X16.7940 Y17.4542
G01 X16.7847 Y17.4514
G01 X16.7750 Y17.4504
G01 X16.7653 Y17.4514
G01 X16.7560 Y17.4542
G01 X16.7475 Y17.4588
G01 X16.7399 Y17.4649
G01 X16.7338 Y17.4725
G01 X16.7292 Y17.4810
G01 X16.7264 Y17.4903
G01 X16.7254 Y17.5000
G01 X16.7264 Y17.5097
G01 X16.7292 Y17.5190
G01 X16.7338 Y17.5275
G01 X16.7399 Y17.5351
G01 X16.7475 Y17.5412
G01 X16.7560 Y17.5458
G01 X16.7653 Y17.5486
G01 X16.7750 Y17.5496
G01 X16.7847 Y17.5486
G01 X16.7940 Y17.5458
G01 X16.8025 Y17.5412
G01 X16.8101 Y17.5351
G01 X16.8162 Y17.5275
G01 X16.8208 Y17.5190
G01 X16.8236 Y17.5097
G01 X16.8246 Y17.5000
G00 Z1.0000
G00 X22.5396 Y17.5000
G01 F15.00
G01 Z-0.4850
G01 F30.00
G01 X22.5386 Y17.4903
G01 X22.5358 Y17.4810
G01 X22.5312 Y17.4725
G01 X22.5251 Y17.4649
G01 X22.5175 Y17.4588
G01 X22.5090 Y17.4542
G01 X22.4997 Y17.4514
G01 X22.4900 Y17.4504
G01 X22.4803 Y17.4514
G01 X22.4710 Y17.4542
G01 X22.4625 Y17.4588
G01 X22.4549 Y17.4649
G01 X22.4488 Y17.4725
G01 X22.4442 Y17.4810
G01 X22.4414 Y17.4903
G01 X22.4404 Y17.5000
G01 X22.4414 Y17.5097
G01 X22.4442 Y17.5190
G01 X22.4488 Y17.5275
G01 X22.4549 Y17.5351
G01 X22.4625 Y17.5412
G01 X22.4710 Y17.5458
G01 X22.4803 Y17.5486
G01 X22.4900 Y17.5496
G01 X22.4997 Y17.5486
G01 X22.5090 Y17.5458
G01 X22.5175 Y17.5412
G01 X22.5251 Y17.5351
G01 X22.5312 Y17.5275
G01 X22.5358 Y17.5190
G01 X22.5386 Y17.5097
G01 X22.5396 Y17.5000
G00 X22.5396 Y17.5000
G01 F15.00
G01 Z-0.9700
G01 F30.00
G01 X22.5386 Y17.4903
G01 X22.5358 Y17.4810
G01 X22.5312 Y17.4725
G01 X22.5251 Y17.4649
G01 X22.5175 Y17.4588
G01 X22.5090 Y17.4542
G01 X22.4997 Y17.4514
G01 X22.4900 Y17.4504
G01 X22.4803 Y17.4514
G01 X22.4710 Y17.4542
G01 X22.4625 Y17.4588
G01 X22.4549 Y17.4649
G01 X22.4488 Y17.4725
G01 X22.4442 Y17.4810
G01 X22.4414 Y17.4903
G01 X22.4404 Y17.5000
G01 X22.4414 Y17.5097
G01 X22.4442 Y17.5190
G01 X22.4488 Y17.5275
G01 X22.4549 Y17.5351
G01 X22.4625 Y17.5412
G01 X22.4710 Y17.5458
G01 X22.4803 Y17.5486
G01 X22.4900 Y17.5496
G01 X22.4997 Y17.5486
G01 X22.5090 Y17.5458
G01 X22.5175 Y17.5412
G01 X22.5251 Y17.5351
G01 X22.5312 Y17.5275
G01 X22.5358 Y17.5190
G01 X22.5386 Y17.5097
G01 X22.5396 Y17.5000
G00 X22.5396 Y17.5000
G01 F15.00
G01 Z-1.4550
G01 F30.00
G01 X22.5386 Y17.4903
G01 X22.5358 Y17.4810
G01 X22.5312 Y17.4725
G01 X22.5251 Y17.4649
G01 X22.5175 Y17.4588
G01 X22.5090 Y17.4542
G01 X22.4997 Y17.4514
G01 X22.4900 Y17.4504
G01 X22.4803 Y17.4514
G01 X22.4710 Y17.4542
G01 X22.4625 Y17.4588
G01 X22.4549 Y17.4649
G01 X22.4488 Y17.4725
G01 X22.4442 Y17.4810
G01 X22.4414 Y17.4903
G01 X22.4404 Y17.5000
G01 X22.4414 Y17.5097
G01 X22.4442 Y17.5190
G01 X22.4488 Y17.5275
G01 X22.4549 Y17.5351
G01 X22.4625 Y17.5412
G01 X22.4710 Y17.5458
G01 X22.4803 Y17.5486
G01 X22.4900 Y17.5496
G01 X22.4997 Y17.5486
G01 X22.5090 Y17.5458
G01 X22.5175 Y17.5412
G01 X22.5251 Y17.5351
G01 X22.5312 Y17.5275
G01 X22.5358 Y17.5190
G01 X22.5386 Y17.5097
G01 X22.5396 Y17.5000
G00 X22.5396 Y17.5000
G01 F15.00
G01 Z-1.9400
G01 F30.00
G01 X22.5386 Y17.4903
G01 X22.5358 Y17.4810
G01 X22.5312 Y17.4725
G01 X22.5251 Y17.4649
G01 X22.5175 Y17.4588
G01 X22.5090 Y17.4542
G01 X22.4997 Y17.4514
G01 X22.4900 Y17.4504
G01 X22.4803 Y17.4514
G01 X22.4710 Y17.4542
G01 X22.4625 Y17.4588
G01 X22.4549 Y17.4649
G01 X22.4488 Y17.4725
G01 X22.4442 Y17.4810
G01 X22.4414 Y17.4903
G01 X22.4404 Y17.5000
G01 X22.4414 Y17.5097
G01 X22.4442 Y17.5190
G01 X22.4488 Y17.5275
G01 X22.4549 Y17.5351
G01 X22.4625 Y17.5412
G01 X22.4710 Y17.5458
G01 X22.4803 Y17.5486
G01 X22.4900 Y17.5496
G01 X22.4997 Y17.5486
G01 X22.5090 Y17.5458
G01 X22.5175 Y17.5412
G01 X22.5251 Y17.5351
G01 X22.5312 Y17.5275
G01 X22.5358 Y17.5190
G01 X22.5386 Y17.5097
G01 X22.5396 Y17.5000
G00 Z1.0000
G00 X22.5396 Y15.5000
G01 F15.00
G01 Z-0.4850
G01 F30.00
G01 X22.5386 Y15.4903
G01 X22.5358 Y15.4810
G01 X22.5312 Y15.4725
G01 X22.5251 Y15.4649
G01 X22.5175 Y15.4588
G01 X22.5090 Y15.4542
G01 X22.4997 Y15.4514
G01 X22.4900 Y15.4504
G01 X22.4803 Y15.4514
G01 X22.4710 Y15.4542
G01 X22.4625 Y15.4588
G01 X22.4549 Y15.4649
G01 X22.4488 Y15.4725
G01 X22.4442 Y15.4810
G01 X22.4414 Y15.4903
G01 X22.4404 Y15.5000
G01 X22.4414 Y15.5097
G01 X22.4442 Y15.5190
G01 X22.4488 Y15.5275
G01 X22.4549 Y15.5351
G01 X22.4625 Y15.5412
G01 X22.4710 Y15.5458
G01 X22.4803 Y15.5486
G01 X22.4900 Y15.5496
G01 X22.4997 Y15.5486
G01 X22.5090 Y15.5458
G01 X22.5175 Y15.5412
G01 X22.5251 Y15.5351
G01 X22.5312 Y15.5275
G01 X22.5358 Y15.5190
G01 X22.5386 Y15.5097
G01 X22.5396 Y15.5000
G00 X22.5396 Y15.5000
G01 F15.00
G01 Z-0.9700
G01 F30.00
G01 X22.5386 Y15.4903
G01 X22.5358 Y15.4810
G01 X22.5312 Y15.4725
G01 X22.5251 Y15.4649
G01 X22.5175 Y15.4588
G01 X22.5090 Y15.4542
G01 X22.4997 Y15.4514
G01 X22.4900 Y15.4504
G01 X22.4803 Y15.4514
G01 X22.4710 Y15.4542
G01 X22.4625 Y15.4588
G01 X22.4549 Y15.4649
G01 X22.4488 Y15.4725
G01 X22.4442 Y15.4810
G01 X22.4414 Y15.4903
G01 X22.4404 Y15.5000
G01 X22.4414 Y15.5097
G01 X22.4442 Y15.5190
G01 X22.4488 Y15.5275
G01 X22.4549 Y15.5351
G01 X22.4625 Y15.5412
G01 X22.4710 Y15.5458
G01 X22.4803 Y15.5486
G01 X22.4900 Y15.5496
G01 X22.4997 Y15.5486
G01 X22.5090 Y15.5458
G01 X22.5175 Y15.5412
G01 X22.5251 Y15.5351
G01 X22.5312 Y15.5275
G01 X22.5358 Y15.5190
G01 X22.5386 Y15.5097
G01 X22.5396 Y15.5000
G00 X22.5396 Y15.5000
G01 F15.00
G01 Z-1.4550
G01 F30.00
G01 X22.5386 Y15.4903
G01 X22.5358 Y15.4810
G01 X22.5312 Y15.4725
G01 X22.5251 Y15.4649
G01 X22.5175 Y15.4588
G01 X22.5090 Y15.4542
G01 X22.4997 Y15.4514
G01 X22.4900 Y15.4504
G01 X22.4803 Y15.4514
G01 X22.4710 Y15.4542
G01 X22.4625 Y15.4588
G01 X22.4549 Y15.4649
G01 X22.4488 Y15.4725
G01 X22.4442 Y15.4810
G01 X22.4414 Y15.4903
G01 X22.4404 Y15.5000
G01 X22.4414 Y15.5097
G01 X22.4442 Y15.5190
G01 X22.4488 Y15.5275
G01 X22.4549 Y15.5351
G01 X22.4625 Y15.5412
G01 X22.4710 Y15.5458
G01 X22.4803 Y15.5486
G01 X22.4900 Y15.5496
G01 X22.4997 Y15.5486
G01 X22.5090 Y15.5458
G01 X22.5175 Y15.5412
G01 X22.5251 Y15.5351
G01 X22.5312 Y15.5275
G01 X22.5358 Y15.5190
G01 X22.5386 Y15.5097
G01 X22.5396 Y15.5000
G00 X22.5396 Y15.5000
G01 F15.00
G01 Z-1.9400
G01 F30.00
G01 X22.5386 Y15.4903
G01 X22.5358 Y15.4810
G01 X22.5312 Y15.4725
G01 X22.5251 Y15.4649
G01 X22.5175 Y15.4588
G01 X22.5090 Y15.4542
G01 X22.4997 Y15.4514
G01 X22.4900 Y15.4504
G01 X22.4803 Y15.4514
G01 X22.4710 Y15.4542
G01 X22.4625 Y15.4588
G01 X22.4549 Y15.4649
G01 X22.4488 Y15.4725
G01 X22.4442 Y15.4810
G01 X22.4414 Y15.4903
G01 X22.4404 Y15.5000
G01 X22.4414 Y15.5097
G01 X22.4442 Y15.5190
G01 X22.4488 Y15.5275
G01 X22.4549 Y15.5351
G01 X22.4625 Y15.5412
G01 X22.4710 Y15.5458
G01 X22.4803 Y15.5486
G01 X22.4900 Y15.5496
G01 X22.4997 Y15.5486
G01 X22.5090 Y15.5458
G01 X22.5175 Y15.5412
G01 X22.5251 Y15.5351
G01 X22.5312 Y15.5275
G01 X22.5358 Y15.5190
G01 X22.5386 Y15.5097
G01 X22.5396 Y15.5000
G00 Z1.0000
G00 X22.5396 Y9.3400
G01 F15.00
G01 Z-0.4850
G01 F30.00
G01 X22.5386 Y9.3303
G01 X22.5358 Y9.3210
G01 X22.5312 Y9.3125
G01 X22.5251 Y9.3049
G01 X22.5175 Y9.2988
G01 X22.5090 Y9.2942
G01 X22.4997 Y9.2914
G01 X22.4900 Y9.2904
G01 X22.4803 Y9.2914
G01 X22.4710 Y9.2942
G01 X22.4625 Y9.2988
G01 X22.4549 Y9.3049
G01 X22.4488 Y9.3125
G01 X22.4442 Y9.3210
G01 X22.4414 Y9.3303
G01 X22.4404 Y9.3400
G01 X22.4414 Y9.3497
G01 X22.4442 Y9.3590
G01 X22.4488 Y9.3675
G01 X22.4549 Y9.3751
G01 X22.4625 Y9.3812
G01 X22.4710 Y9.3858
G01 X22.4803 Y9.3886
G01 X22.4900 Y9.3896
G01 X22.4997 Y9.3886
G01 X22.5090 Y9.3858
G01 X22.5175 Y9.3812
G01 X22.5251 Y9.3751
G01 X22.5312 Y9.3675
G01 X22.5358 Y9.3590
G01 X22.5386 Y9.3497
G01 X22.5396 Y9.3400
G00 X22.5396 Y9.3400
G01 F15.00
G01 Z-0.9700
G01 F30.00
G01 X22.5386 Y9.3303
G01 X22.5358 Y9.3210
G01 X22.5312 Y9.3125
G01 X22.5251 Y9.3049
G01 X22.5175 Y9.2988
G01 X22.5090 Y9.2942
G01 X22.4997 Y9.2914
G01 X22.4900 Y9.2904
G01 X22.4803 Y9.2914
G01 X22.4710 Y9.2942
G01 X22.4625 Y9.2988
G01 X22.4549 Y9.3049
G01 X22.4488 Y9.3125
G01 X22.4442 Y9.3210
G01 X22.4414 Y9.3303
G01 X22.4404 Y9.3400
G01 X22.4414 Y9.3497
G01 X22.4442 Y9.3590
G01 X22.4488 Y9.3675
G01 X22.4549 Y9.3751
G01 X22.4625 Y9.3812
G01 X22.4710 Y9.3858
G01 X22.4803 Y9.3886
G01 X22.4900 Y9.3896
G01 X22.4997 Y9.3886
G01 X22.5090 Y9.3858
G01 X22.5175 Y9.3812
G01 X22.5251 Y9.3751
G01 X22.5312 Y9.3675
G01 X22.5358 Y9.3590
G01 X22.5386 Y9.3497
G01 X22.5396 Y9.3400
G00 X22.5396 Y9.3400
G01 F15.00
G01 Z-1.4550
G01 F30.00
G01 X22.5386 Y9.3303
G01 X22.5358 Y9.3210
G01 X22.5312 Y9.3125
G01 X22.5251 Y9.3049
G01 X22.5175 Y9.2988
G01 X22.5090 Y9.2942
G01 X22.4997 Y9.2914
G01 X22.4900 Y9.2904
G01 X22.4803 Y9.2914
G01 X22.4710 Y9.2942
G01 X22.4625 Y9.2988
G01 X22.4549 Y9.3049
G01 X22.4488 Y9.3125
G01 X22.4442 Y9.3210
G01 X22.4414 Y9.3303
G01 X22.4404 Y9.3400
G01 X22.4414 Y9.3497
G01 X22.4442 Y9.3590
G01 X22.4488 Y9.3675
G01 X22.4549 Y9.3751
G01 X22.4625 Y9.3812
G01 X22.4710 Y9.3858
G01 X22.4803 Y9.3886
G01 X22.4900 Y9.3896
G01 X22.4997 Y9.3886
G01 X22.5090 Y9.3858
G01 X22.5175 Y9.3812
G01 X22.5251 Y9.3751
G01 X22.5312 Y9.3675
G01 X22.5358 Y9.3590
G01 X22.5386 Y9.3497
G01 X22.5396 Y9.3400
G00 X22.5396 Y9.3400
G01 F15.00
G01 Z-1.9400
G01 F30.00
G01 X22.5386 Y9.3303
G01 X22.5358 Y9.3210
G01 X22.5312 Y9.3125
G01 X22.5251 Y9.3049
G01 X22.5175 Y9.2988
G01 X22.5090 Y9.2942
G01 X22.4997 Y9.2914
G01 X22.4900 Y9.2904
G01 X22.4803 Y9.2914
G01 X22.4710 Y9.2942
G01 X22.4625 Y9.2988
G01 X22.4549 Y9.3049
G01 X22.4488 Y9.3125
G01 X22.4442 Y9.3210
G01 X22.4414 Y9.3303
G01 X22.4404 Y9.3400
G01 X22.4414 Y9.3497
G01 X22.4442 Y9.3590
G01 X22.4488 Y9.3675
G01 X22.4549 Y9.3751
G01 X22.4625 Y9.3812
G01 X22.4710 Y9.3858
G01 X22.4803 Y9.3886
G01 X22.4900 Y9.3896
G01 X22.4997 Y9.3886
G01 X22.5090 Y9.3858
G01 X22.5175 Y9.3812
G01 X22.5251 Y9.3751
G01 X22.5312 Y9.3675
G01 X22.5358 Y9.3590
G01 X22.5386 Y9.3497
G01 X22.5396 Y9.3400
G00 Z1.0000
G00 X22.5396 Y7.3400
G01 F15.00
G01 Z-0.4850
G01 F30.00
G01 X22.5386 Y7.3303
G01 X22.5358 Y7.3210
G01 X22.5312 Y7.3125
G01 X22.5251 Y7.3049
G01 X22.5175 Y7.2988
G01 X22.5090 Y7.2942
G01 X22.4997 Y7.2914
G01 X22.4900 Y7.2904
G01 X22.4803 Y7.2914
G01 X22.4710 Y7.2942
G01 X22.4625 Y7.2988
G01 X22.4549 Y7.3049
G01 X22.4488 Y7.3125
G01 X22.4442 Y7.3210
G01 X22.4414 Y7.3303
G01 X22.4404 Y7.3400
G01 X22.4414 Y7.3497
G01 X22.4442 Y7.3590
G01 X22.4488 Y7.3675
G01 X22.4549 Y7.3751
G01 X22.4625 Y7.3812
G01 X22.4710 Y7.3858
G01 X22.4803 Y7.3886
G01 X22.4900 Y7.3896
G01 X22.4997 Y7.3886
G01 X22.5090 Y7.3858
G01 X22.5175 Y7.3812
G01 X22.5251 Y7.3751
G01 X22.5312 Y7.3675
G01 X22.5358 Y7.3590
G01 X22.5386 Y7.3497
G01 X22.5396 Y7.3400
G00 X22.5396 Y7.3400
G01 F15.00
G01 Z-0.9700
G01 F30.00
G01 X22.5386 Y7.3303
G01 X22.5358 Y7.3210
G01 X22.5312 Y7.3125
G01 X22.5251 Y7.3049
G01 X22.5175 Y7.2988
G01 X22.5090 Y7.2942
G01 X22.4997 Y7.2914
G01 X22.4900 Y7.2904
G01 X22.4803 Y7.2914
G01 X22.4710 Y7.2942
G01 X22.4625 Y7.2988
G01 X22.4549 Y7.3049
G01 X22.4488 Y7.3125
G01 X22.4442 Y7.3210
G01 X22.4414 Y7.3303
G01 X22.4404 Y7.3400
G01 X22.4414 Y7.3497
G01 X22.4442 Y7.3590
G01 X22.4488 Y7.3675
G01 X22.4549 Y7.3751
G01 X22.4625 Y7.3812
G01 X22.4710 Y7.3858
G01 X22.4803 Y7.3886
G01 X22.4900 Y7.3896
G01 X22.4997 Y7.3886
G01 X22.5090 Y7.3858
G01 X22.5175 Y7.3812
G01 X22.5251 Y7.3751
G01 X22.5312 Y7.3675
G01 X22.5358 Y7.3590
G01 X22.5386 Y7.3497
G01 X22.5396 Y7.3400
G00 X22.5396 Y7.3400
G01 F15.00
G01 Z-1.4550
G01 F30.00
G01 X22.5386 Y7.3303
G01 X22.5358 Y7.3210
G01 X22.5312 Y7.3125
G01 X22.5251 Y7.3049
G01 X22.5175 Y7.2988
G01 X22.5090 Y7.2942
G01 X22.4997 Y7.2914
G01 X22.4900 Y7.2904
G01 X22.4803 Y7.2914
G01 X22.4710 Y7.2942
G01 X22.4625 Y7.2988
G01 X22.4549 Y7.3049
G01 X22.4488 Y7.3125
G01 X22.4442 Y7.3210
G01 X22.4414 Y7.3303
G01 X22.4404 Y7.3400
G01 X22.4414 Y7.3497
G01 X22.4442 Y7.3590
G01 X22.4488 Y7.3675
G01 X22.4549 Y7.3751
G01 X22.4625 Y7.3812
G01 X22.4710 Y7.3858
G01 X22.4803 Y7.3886
G01 X22.4900 Y7.3896
G01 X22.4997 Y7.3886
G01 X22.5090 Y7.3858
G01 X22.5175 Y7.3812
G01 X22.5251 Y7.3751
G01 X22.5312 Y7.3675
G01 X22.5358 Y7.3590
G01 X22.5386 Y7.3497
G01 X22.5396 Y7.3400
G00 X22.5396 Y7.3400
G01 F15.00
G01 Z-1.9400
G01 F30.00
G01 X22.5386 Y7.3303
G01 X22.5358 Y7.3210
G01 X22.5312 Y7.3125
G01 X22.5251 Y7.3049
G01 X22.5175 Y7.2988
G01 X22.5090 Y7.2942
G01 X22.4997 Y7.2914
G01 X22.4900 Y7.2904
G01 X22.4803 Y7.2914
G01 X22.4710 Y7.2942
G01 X22.4625 Y7.2988
G01 X22.4549 Y7.3049
G01 X22.4488 Y7.3125
G01 X22.4442 Y7.3210
G01 X22.4414 Y7.3303
G01 X22.4404 Y7.3400
G01 X22.4414 Y7.3497
G01 X22.4442 Y7.3590
G01 X22.4488 Y7.3675
G01 X22.4549 Y7.3751
G01 X22.4625 Y7.3812
G01 X22.4710 Y7.3858
G01 X22.4803 Y7.3886
G01 X22.4900 Y7.3896
G01 X22.4997 Y7.3886
G01 X22.5090 Y7.3858
G01 X22.5175 Y7.3812
G01 X22.5251 Y7.3751
G01 X22.5312 Y7.3675
G01 X22.5358 Y7.3590
G01 X22.5386 Y7.3497
G01 X22.5396 Y7.3400
G00 Z1.0000
G00 X16.8246 Y7.3400
G01 F15.00
G01 Z-0.4850
G01 F30.00
G01 X16.8236 Y7.3303
G01 X16.8208 Y7.3210
G01 X16.8162 Y7.3125
G01 X16.8101 Y7.3049
G01 X16.8025 Y7.2988
G01 X16.7940 Y7.2942
G01 X16.7847 Y7.2914
G01 X16.7750 Y7.2904
G01 X16.7653 Y7.2914
G01 X16.7560 Y7.2942
G01 X16.7475 Y7.2988
G01 X16.7399 Y7.3049
G01 X16.7338 Y7.3125
G01 X16.7292 Y7.3210
G01 X16.7264 Y7.3303
G01 X16.7254 Y7.3400
G01 X16.7264 Y7.3497
G01 X16.7292 Y7.3590
G01 X16.7338 Y7.3675
G01 X16.7399 Y7.3751
G01 X16.7475 Y7.3812
G01 X16.7560 Y7.3858
G01 X16.7653 Y7.3886
G01 X16.7750 Y7.3896
G01 X16.7847 Y7.3886
G01 X16.7940 Y7.3858
G01 X16.8025 Y7.3812
G01 X16.8101 Y7.3751
G01 X16.8162 Y7.3675
G01 X16.8208 Y7.3590
G01 X16.8236 Y7.3497
G01 X16.8246 Y7.3400
G00 X16.8246 Y7.3400
G01 F15.00
G01 Z-0.9700
G01 F30.00
G01 X16.8236 Y7.3303
G01 X16.8208 Y7.3210
G01 X16.8162 Y7.3125
G01 X16.8101 Y7.3049
G01 X16.8025 Y7.2988
G01 X16.7940 Y7.2942
G01 X16.7847 Y7.2914
G01 X16.7750 Y7.2904
G01 X16.7653 Y7.2914
G01 X16.7560 Y7.2942
G01 X16.7475 Y7.2988
G01 X16.7399 Y7.3049
G01 X16.7338 Y7.3125
G01 X16.7292 Y7.3210
G01 X16.7264 Y7.3303
G01 X16.7254 Y7.3400
G01 X16.7264 Y7.3497
G01 X16.7292 Y7.3590
G01 X16.7338 Y7.3675
G01 X16.7399 Y7.3751
G01 X16.7475 Y7.3812
G01 X16.7560 Y7.3858
G01 X16.7653 Y7.3886
G01 X16.7750 Y7.3896
G01 X16.7847 Y7.3886
G01 X16.7940 Y7.3858
G01 X16.8025 Y7.3812
G01 X16.8101 Y7.3751
G01 X16.8162 Y7.3675
G01 X16.8208 Y7.3590
G01 X16.8236 Y7.3497
G01 X16.8246 Y7.3400
G00 X16.8246 Y7.3400
G01 F15.00
G01 Z-1.4550
G01 F30.00
G01 X16.8236 Y7.3303
G01 X16.8208 Y7.3210
G01 X16.8162 Y7.3125
G01 X16.8101 Y7.3049
G01 X16.8025 Y7.2988
G01 X16.7940 Y7.2942
G01 X16.7847 Y7.2914
G01 X16.7750 Y7.2904
G01 X16.7653 Y7.2914
G01 X16.7560 Y7.2942
G01 X16.7475 Y7.2988
G01 X16.7399 Y7.3049
G01 X16.7338 Y7.3125
G01 X16.7292 Y7.3210
G01 X16.7264 Y7.3303
G01 X16.7254 Y7.3400
G01 X16.7264 Y7.3497
G01 X16.7292 Y7.3590
G01 X16.7338 Y7.3675
G01 X16.7399 Y7.3751
G01 X16.7475 Y7.3812
G01 X16.7560 Y7.3858
G01 X16.7653 Y7.3886
G01 X16.7750 Y7.3896
G01 X16.7847 Y7.3886
G01 X16.7940 Y7.3858
G01 X16.8025 Y7.3812
G01 X16.8101 Y7.3751
G01 X16.8162 Y7.3675
G01 X16.8208 Y7.3590
G01 X16.8236 Y7.3497
G01 X16.8246 Y7.3400
G00 X16.8246 Y7.3400
G01 F15.00
G01 Z-1.9400
G01 F30.00
G01 X16.8236 Y7.3303
G01 X16.8208 Y7.3210
G01 X16.8162 Y7.3125
G01 X16.8101 Y7.3049
G01 X16.8025 Y7.2988
G01 X16.7940 Y7.2942
G01 X16.7847 Y7.2914
G01 X16.7750 Y7.2904
G01 X16.7653 Y7.2914
G01 X16.7560 Y7.2942
G01 X16.7475 Y7.2988
G01 X16.7399 Y7.3049
G01 X16.7338 Y7.3125
G01 X16.7292 Y7.3210
G01 X16.7264 Y7.3303
G01 X16.7254 Y7.3400
G01 X16.7264 Y7.3497
G01 X16.7292 Y7.3590
G01 X16.7338 Y7.3675
G01 X16.7399 Y7.3751
G01 X16.7475 Y7.3812
G01 X16.7560 Y7.3858
G01 X16.7653 Y7.3886
G01 X16.7750 Y7.3896
G01 X16.7847 Y7.3886
G01 X16.7940 Y7.3858
G01 X16.8025 Y7.3812
G01 X16.8101 Y7.3751
G01 X16.8162 Y7.3675
G01 X16.8208 Y7.3590
G01 X16.8236 Y7.3497
G01 X16.8246 Y7.3400
G00 Z1.0000
G00 X16.8246 Y9.3400
G01 F15.00
G01 Z-0.4850
G01 F30.00
G01 X16.8236 Y9.3303
G01 X16.8208 Y9.3210
G01 X16.8162 Y9.3125
G01 X16.8101 Y9.3049
G01 X16.8025 Y9.2988
G01 X16.7940 Y9.2942
G01 X16.7847 Y9.2914
G01 X16.7750 Y9.2904
G01 X16.7653 Y9.2914
G01 X16.7560 Y9.2942
G01 X16.7475 Y9.2988
G01 X16.7399 Y9.3049
G01 X16.7338 Y9.3125
G01 X16.7292 Y9.3210
G01 X16.7264 Y9.3303
G01 X16.7254 Y9.3400
G01 X16.7264 Y9.3497
G01 X16.7292 Y9.3590
G01 X16.7338 Y9.3675
G01 X16.7399 Y9.3751
G01 X16.7475 Y9.3812
G01 X16.7560 Y9.3858
G01 X16.7653 Y9.3886
G01 X16.7750 Y9.3896
G01 X16.7847 Y9.3886
G01 X16.7940 Y9.3858
G01 X16.8025 Y9.3812
G01 X16.8101 Y9.3751
G01 X16.8162 Y9.3675
G01 X16.8208 Y9.3590
G01 X16.8236 Y9.3497
G01 X16.8246 Y9.3400
G00 X16.8246 Y9.3400
G01 F15.00
G01 Z-0.9700
G01 F30.00
G01 X16.8236 Y9.3303
G01 X16.8208 Y9.3210
G01 X16.8162 Y9.3125
G01 X16.8101 Y9.3049
G01 X16.8025 Y9.2988
G01 X16.7940 Y9.2942
G01 X16.7847 Y9.2914
G01 X16.7750 Y9.2904
G01 X16.7653 Y9.2914
G01 X16.7560 Y9.2942
G01 X16.7475 Y9.2988
G01 X16.7399 Y9.3049
G01 X16.7338 Y9.3125
G01 X16.7292 Y9.3210
G01 X16.7264 Y9.3303
G01 X16.7254 Y9.3400
G01 X16.7264 Y9.3497
G01 X16.7292 Y9.3590
G01 X16.7338 Y9.3675
G01 X16.7399 Y9.3751
G01 X16.7475 Y9.3812
G01 X16.7560 Y9.3858
G01 X16.7653 Y9.3886
G01 X16.7750 Y9.3896
G01 X16.7847 Y9.3886
G01 X16.7940 Y9.3858
G01 X16.8025 Y9.3812
G01 X16.8101 Y9.3751
G01 X16.8162 Y9.3675
G01 X16.8208 Y9.3590
G01 X16.8236 Y9.3497
G01 X16.8246 Y9.3400
G00 X16.8246 Y9.3400
G01 F15.00
G01 Z-1.4550
G01 F30.00
G01 X16.8236 Y9.3303
G01 X16.8208 Y9.3210
G01 X16.8162 Y9.3125
G01 X16.8101 Y9.3049
G01 X16.8025 Y9.2988
G01 X16.7940 Y9.2942
G01 X16.7847 Y9.2914
G01 X16.7750 Y9.2904
G01 X16.7653 Y9.2914
G01 X16.7560 Y9.2942
G01 X16.7475 Y9.2988
G01 X16.7399 Y9.3049
G01 X16.7338 Y9.3125
G01 X16.7292 Y9.3210
G01 X16.7264 Y9.3303
G01 X16.7254 Y9.3400
G01 X16.7264 Y9.3497
G01 X16.7292 Y9.3590
G01 X16.7338 Y9.3675
G01 X16.7399 Y9.3751
G01 X16.7475 Y9.3812
G01 X16.7560 Y9.3858
G01 X16.7653 Y9.3886
G01 X16.7750 Y9.3896
G01 X16.7847 Y9.3886
G01 X16.7940 Y9.3858
G01 X16.8025 Y9.3812
G01 X16.8101 Y9.3751
G01 X16.8162 Y9.3675
G01 X16.8208 Y9.3590
G01 X16.8236 Y9.3497
G01 X16.8246 Y9.3400
G00 X16.8246 Y9.3400
G01 F15.00
G01 Z-1.9400
G01 F30.00
G01 X16.8236 Y9.3303
G01 X16.8208 Y9.3210
G01 X16.8162 Y9.3125
G01 X16.8101 Y9.3049
G01 X16.8025 Y9.2988
G01 X16.7940 Y9.2942
G01 X16.7847 Y9.2914
G01 X16.7750 Y9.2904
G01 X16.7653 Y9.2914
G01 X16.7560 Y9.2942
G01 X16.7475 Y9.2988
G01 X16.7399 Y9.3049
G01 X16.7338 Y9.3125
G01 X16.7292 Y9.3210
G01 X16.7264 Y9.3303
G01 X16.7254 Y9.3400
G01 X16.7264 Y9.3497
G01 X16.7292 Y9.3590
G01 X16.7338 Y9.3675
G01 X16.7399 Y9.3751
G01 X16.7475 Y9.3812
G01 X16.7560 Y9.3858
G01 X16.7653 Y9.3886
G01 X16.7750 Y9.3896
G01 X16.7847 Y9.3886
G01 X16.7940 Y9.3858
G01 X16.8025 Y9.3812
G01 X16.8101 Y9.3751
G01 X16.8162 Y9.3675
G01 X16.8208 Y9.3590
G01 X16.8236 Y9.3497
G01 X16.8246 Y9.3400
G00 Z1.0000
M05
G00 Z1.0000
G00 Z15.00
G00 X0.0 Y0.0


