(G-CODE GENERATED BY FLATCAM v8.994 - www.flatcam.org - Version Date: 2020/11/7)

(Name: dc_ph2_converter-B_Cu.gbr_iso_combined_cnc)
(Type: G-code from Geometry)
(Units: MM)

(Created on Thursday, 19 January 2023 at 16:24)

(This preprocessor is the default preprocessor used by FlatCAM.)
(It is made to work with MACH3 compatible motion controllers.)

(TOOL DIAMETER: 0.32 mm)
(Feedrate_XY: 100.0 mm/min)
(Feedrate_Z: 30.0 mm/min)
(Feedrate rapids 1500.0 mm/min)

(Z_Cut: -0.08 mm)
(Z_Move: 1.0 mm)
(Z Start: None mm)
(Z End: 15.0 mm)
(X,Y End: 0.0000, 0.0000 mm)
(Steps per circle: 64)
(Preprocessor Geometry: default)

(X range:    0.8645 ...   29.5105  mm)
(Y range:    0.9545 ...   23.8855  mm)

(Spindle Speed: 1000.0 RPM)
G21
G90
G94

G01 F100.00

M5
G00 Z15.0000
G00 X0.0000 Y0.0000
T1
M6    
(MSG, Change to Tool Dia = 0.3200)
M0
G00 Z15.0000

M03 S1000.0
G01 F100.00
G00 X0.8645 Y4.2183
G01 F30.00
G01 Z-0.0800
G01 F100.00
G01 X0.8653 Y4.1880
G01 X0.8676 Y4.1588
G01 X0.8668 Y4.1362
G01 X0.8667 Y4.1227
G01 X0.8675 Y4.0958
G01 X0.8817 Y3.8430
G01 X0.8828 Y3.8278
G01 X0.8859 Y3.7986
G01 X0.8901 Y3.7683
G01 X0.9379 Y3.4875
G01 X0.9406 Y3.4725
G01 X0.9470 Y3.4438
G01 X0.9546 Y3.4143
G01 X1.0334 Y3.1405
G01 X1.0427 Y3.1114
G01 X1.0526 Y3.0838
G01 X1.0583 Y3.0696
G01 X1.1673 Y2.8064
G01 X1.1797 Y2.7785
G01 X1.1927 Y2.7522
G01 X1.1999 Y2.7387
G01 X1.3377 Y2.4894
G01 X1.3452 Y2.4761
G01 X1.3607 Y2.4512
G01 X1.3776 Y2.4258
G01 X1.5425 Y2.1934
G01 X1.5608 Y2.1691
G01 X1.5793 Y2.1462
G01 X1.5893 Y2.1347
G01 X1.7792 Y1.9223
G01 X1.7895 Y1.9110
G01 X1.8101 Y1.8901
G01 X1.8323 Y1.8692
G01 X2.0447 Y1.6793
G01 X2.0680 Y1.6596
G01 X2.0911 Y1.6415
G01 X2.1034 Y1.6325
G01 X2.3358 Y1.4676
G01 X2.3612 Y1.4507
G01 X2.3861 Y1.4352
G01 X2.3994 Y1.4277
G01 X2.6487 Y1.2899
G01 X2.6622 Y1.2827
G01 X2.6885 Y1.2697
G01 X2.7164 Y1.2573
G01 X2.9796 Y1.1483
G01 X2.9938 Y1.1426
G01 X3.0214 Y1.1327
G01 X3.0505 Y1.1234
G01 X3.3243 Y1.0446
G01 X3.3390 Y1.0406
G01 X3.3676 Y1.0338
G01 X3.3975 Y1.0279
G01 X3.6783 Y0.9801
G01 X3.6934 Y0.9778
G01 X3.7226 Y0.9743
G01 X3.7530 Y0.9717
G01 X4.0021 Y0.9577
G01 X4.0307 Y0.9569
G01 X4.0558 Y0.9574
G01 X4.0930 Y0.9550
G01 X4.1166 Y0.9545
G01 X26.2646 Y0.9547
G01 X26.2786 Y0.9552
G01 X26.3062 Y0.9572
G01 X26.3403 Y0.9565
G01 X26.3656 Y0.9573
G01 X26.6220 Y0.9717
G01 X26.6372 Y0.9728
G01 X26.6664 Y0.9759
G01 X26.6967 Y0.9801
G01 X26.9775 Y1.0279
G01 X26.9925 Y1.0306
G01 X27.0212 Y1.0370
G01 X27.0507 Y1.0446
G01 X27.3245 Y1.1234
G01 X27.3536 Y1.1327
G01 X27.3812 Y1.1426
G01 X27.3954 Y1.1483
G01 X27.6586 Y1.2573
G01 X27.6865 Y1.2697
G01 X27.7128 Y1.2827
G01 X27.7263 Y1.2899
G01 X27.9756 Y1.4277
G01 X27.9889 Y1.4352
G01 X28.0138 Y1.4507
G01 X28.0392 Y1.4676
G01 X28.2716 Y1.6325
G01 X28.2839 Y1.6415
G01 X28.3070 Y1.6596
G01 X28.3303 Y1.6793
G01 X28.5427 Y1.8692
G01 X28.5540 Y1.8795
G01 X28.5749 Y1.9001
G01 X28.5958 Y1.9223
G01 X28.7857 Y2.1347
G01 X28.7957 Y2.1462
G01 X28.8142 Y2.1691
G01 X28.8325 Y2.1934
G01 X28.9974 Y2.4258
G01 X29.0143 Y2.4512
G01 X29.0298 Y2.4761
G01 X29.0373 Y2.4894
G01 X29.1751 Y2.7387
G01 X29.1823 Y2.7522
G01 X29.1953 Y2.7785
G01 X29.2077 Y2.8064
G01 X29.3167 Y3.0696
G01 X29.3224 Y3.0838
G01 X29.3323 Y3.1114
G01 X29.3416 Y3.1405
G01 X29.4204 Y3.4143
G01 X29.4280 Y3.4438
G01 X29.4344 Y3.4725
G01 X29.4371 Y3.4875
G01 X29.4849 Y3.7683
G01 X29.4891 Y3.7986
G01 X29.4922 Y3.8278
G01 X29.4933 Y3.8430
G01 X29.5073 Y4.0921
G01 X29.5081 Y4.1207
G01 X29.5076 Y4.1458
G01 X29.5100 Y4.1830
G01 X29.5105 Y4.2066
G01 X29.5105 Y20.6256
G01 X29.5098 Y20.6536
G01 X29.5078 Y20.6812
G01 X29.5085 Y20.7027
G01 X29.5082 Y20.7280
G01 X29.4933 Y20.9970
G01 X29.4922 Y21.0122
G01 X29.4891 Y21.0414
G01 X29.4849 Y21.0717
G01 X29.4371 Y21.3525
G01 X29.4344 Y21.3675
G01 X29.4280 Y21.3962
G01 X29.4204 Y21.4257
G01 X29.3416 Y21.6995
G01 X29.3323 Y21.7286
G01 X29.3224 Y21.7562
G01 X29.3167 Y21.7704
G01 X29.2077 Y22.0336
G01 X29.1953 Y22.0615
G01 X29.1823 Y22.0878
G01 X29.1751 Y22.1013
G01 X29.0373 Y22.3506
G01 X29.0298 Y22.3639
G01 X29.0143 Y22.3888
G01 X28.9974 Y22.4142
G01 X28.8325 Y22.6466
G01 X28.8235 Y22.6589
G01 X28.8054 Y22.6820
G01 X28.7857 Y22.7053
G01 X28.5958 Y22.9177
G01 X28.5855 Y22.9290
G01 X28.5649 Y22.9499
G01 X28.5427 Y22.9708
G01 X28.3303 Y23.1607
G01 X28.3188 Y23.1707
G01 X28.2959 Y23.1892
G01 X28.2716 Y23.2075
G01 X28.0392 Y23.3724
G01 X28.0138 Y23.3893
G01 X27.9889 Y23.4048
G01 X27.9756 Y23.4123
G01 X27.7263 Y23.5501
G01 X27.7128 Y23.5573
G01 X27.6865 Y23.5703
G01 X27.6586 Y23.5827
G01 X27.3954 Y23.6917
G01 X27.3812 Y23.6974
G01 X27.3536 Y23.7073
G01 X27.3245 Y23.7166
G01 X27.0507 Y23.7954
G01 X27.0212 Y23.8030
G01 X26.9925 Y23.8094
G01 X26.9775 Y23.8121
G01 X26.6967 Y23.8599
G01 X26.6664 Y23.8641
G01 X26.6372 Y23.8672
G01 X26.6220 Y23.8683
G01 X26.3586 Y23.8829
G01 X26.3443 Y23.8831
G01 X26.3192 Y23.8826
G01 X26.2820 Y23.8850
G01 X26.2584 Y23.8855
G01 X4.1104 Y23.8853
G01 X4.0964 Y23.8848
G01 X4.0688 Y23.8828
G01 X4.0347 Y23.8835
G01 X4.0094 Y23.8827
G01 X3.7530 Y23.8683
G01 X3.7378 Y23.8672
G01 X3.7086 Y23.8641
G01 X3.6783 Y23.8599
G01 X3.3975 Y23.8121
G01 X3.3825 Y23.8094
G01 X3.3538 Y23.8030
G01 X3.3243 Y23.7954
G01 X3.0505 Y23.7166
G01 X3.0214 Y23.7073
G01 X2.9938 Y23.6974
G01 X2.9796 Y23.6917
G01 X2.7164 Y23.5827
G01 X2.6885 Y23.5703
G01 X2.6622 Y23.5573
G01 X2.6487 Y23.5501
G01 X2.3994 Y23.4123
G01 X2.3861 Y23.4048
G01 X2.3612 Y23.3893
G01 X2.3358 Y23.3724
G01 X2.1034 Y23.2075
G01 X2.0911 Y23.1985
G01 X2.0680 Y23.1804
G01 X2.0447 Y23.1607
G01 X1.8323 Y22.9708
G01 X1.8210 Y22.9605
G01 X1.8001 Y22.9399
G01 X1.7792 Y22.9177
G01 X1.5893 Y22.7053
G01 X1.5793 Y22.6938
G01 X1.5608 Y22.6709
G01 X1.5425 Y22.6466
G01 X1.3776 Y22.4142
G01 X1.3690 Y22.4017
G01 X1.3532 Y22.3769
G01 X1.3377 Y22.3506
G01 X1.1999 Y22.1013
G01 X1.1927 Y22.0878
G01 X1.1797 Y22.0615
G01 X1.1673 Y22.0336
G01 X1.0583 Y21.7704
G01 X1.0526 Y21.7562
G01 X1.0427 Y21.7286
G01 X1.0334 Y21.6995
G01 X0.9546 Y21.4257
G01 X0.9506 Y21.4110
G01 X0.9438 Y21.3824
G01 X0.9379 Y21.3525
G01 X0.8901 Y21.0717
G01 X0.8859 Y21.0414
G01 X0.8828 Y21.0122
G01 X0.8679 Y20.7516
G01 X0.8671 Y20.7274
G01 X0.8678 Y20.6938
G01 X0.8651 Y20.6553
G01 X0.8645 Y20.6295
G01 X0.8645 Y4.2183
G00 Z1.0000
G00 X1.0565 Y4.2183
G01 F30.00
G01 Z-0.0800
G01 F100.00
G01 X1.0570 Y4.1987
G01 X1.0599 Y4.1632
G01 X1.0587 Y4.1327
G01 X1.0592 Y4.1065
G01 X1.0734 Y3.8538
G01 X1.0741 Y3.8439
G01 X1.0767 Y3.8201
G01 X1.0794 Y3.8005
G01 X1.1271 Y3.5197
G01 X1.1289 Y3.5100
G01 X1.1341 Y3.4865
G01 X1.1391 Y3.4674
G01 X1.2179 Y3.1937
G01 X1.2239 Y3.1748
G01 X1.2320 Y3.1522
G01 X1.2356 Y3.1431
G01 X1.3447 Y2.8799
G01 X1.3527 Y2.8618
G01 X1.3633 Y2.8403
G01 X1.3679 Y2.8316
G01 X1.5057 Y2.5823
G01 X1.5106 Y2.5737
G01 X1.5233 Y2.5533
G01 X1.5342 Y2.5369
G01 X1.6991 Y2.3045
G01 X1.7109 Y2.2888
G01 X1.7260 Y2.2701
G01 X1.7325 Y2.2626
G01 X1.9223 Y2.0502
G01 X1.9290 Y2.0430
G01 X1.9459 Y2.0259
G01 X1.9602 Y2.0123
G01 X2.1726 Y1.8225
G01 X2.1877 Y1.8097
G01 X2.2066 Y1.7949
G01 X2.2145 Y1.7891
G01 X2.4469 Y1.6242
G01 X2.4633 Y1.6133
G01 X2.4837 Y1.6006
G01 X2.4923 Y1.5957
G01 X2.7416 Y1.4579
G01 X2.7503 Y1.4533
G01 X2.7718 Y1.4427
G01 X2.7899 Y1.4347
G01 X3.0531 Y1.3256
G01 X3.0622 Y1.3220
G01 X3.0848 Y1.3139
G01 X3.1037 Y1.3079
G01 X3.3774 Y1.2291
G01 X3.3869 Y1.2265
G01 X3.4103 Y1.2210
G01 X3.4297 Y1.2171
G01 X3.7105 Y1.1694
G01 X3.7301 Y1.1667
G01 X3.7539 Y1.1641
G01 X4.0129 Y1.1494
G01 X4.0314 Y1.1489
G01 X4.0605 Y1.1498
G01 X4.0937 Y1.1472
G01 X4.1166 Y1.1465
G01 X26.2597 Y1.1466
G01 X26.2778 Y1.1475
G01 X26.3018 Y1.1495
G01 X26.3303 Y1.1485
G01 X26.3549 Y1.1490
G01 X26.6112 Y1.1634
G01 X26.6309 Y1.1651
G01 X26.6547 Y1.1679
G01 X26.6645 Y1.1694
G01 X26.9453 Y1.2171
G01 X26.9550 Y1.2189
G01 X26.9785 Y1.2241
G01 X26.9976 Y1.2291
G01 X27.2713 Y1.3079
G01 X27.2902 Y1.3139
G01 X27.3128 Y1.3220
G01 X27.3219 Y1.3256
G01 X27.5851 Y1.4347
G01 X27.6032 Y1.4427
G01 X27.6247 Y1.4533
G01 X27.6334 Y1.4579
G01 X27.8827 Y1.5957
G01 X27.8997 Y1.6057
G01 X27.9200 Y1.6186
G01 X28.1605 Y1.7891
G01 X28.1684 Y1.7949
G01 X28.1873 Y1.8097
G01 X28.2024 Y1.8225
G01 X28.4148 Y2.0123
G01 X28.4220 Y2.0190
G01 X28.4391 Y2.0359
G01 X28.4527 Y2.0502
G01 X28.6425 Y2.2626
G01 X28.6490 Y2.2701
G01 X28.6641 Y2.2888
G01 X28.6759 Y2.3045
G01 X28.8408 Y2.5369
G01 X28.8517 Y2.5533
G01 X28.8644 Y2.5737
G01 X28.8693 Y2.5823
G01 X29.0071 Y2.8316
G01 X29.0117 Y2.8403
G01 X29.0223 Y2.8618
G01 X29.0303 Y2.8799
G01 X29.1394 Y3.1431
G01 X29.1430 Y3.1522
G01 X29.1511 Y3.1748
G01 X29.1571 Y3.1937
G01 X29.2359 Y3.4674
G01 X29.2409 Y3.4865
G01 X29.2461 Y3.5100
G01 X29.2479 Y3.5197
G01 X29.2956 Y3.8005
G01 X29.2983 Y3.8201
G01 X29.3009 Y3.8439
G01 X29.3016 Y3.8538
G01 X29.3156 Y4.1029
G01 X29.3161 Y4.1214
G01 X29.3152 Y4.1505
G01 X29.3178 Y4.1837
G01 X29.3185 Y4.2066
G01 X29.3185 Y20.6256
G01 X29.3180 Y20.6437
G01 X29.3155 Y20.6768
G01 X29.3165 Y20.7053
G01 X29.3163 Y20.7217
G01 X29.3016 Y20.9862
G01 X29.3009 Y20.9961
G01 X29.2983 Y21.0199
G01 X29.2956 Y21.0395
G01 X29.2479 Y21.3203
G01 X29.2461 Y21.3300
G01 X29.2409 Y21.3535
G01 X29.2359 Y21.3726
G01 X29.1571 Y21.6463
G01 X29.1511 Y21.6652
G01 X29.1430 Y21.6878
G01 X29.1394 Y21.6969
G01 X29.0303 Y21.9601
G01 X29.0223 Y21.9782
G01 X29.0117 Y21.9997
G01 X29.0071 Y22.0084
G01 X28.8693 Y22.2577
G01 X28.8593 Y22.2747
G01 X28.8464 Y22.2950
G01 X28.6759 Y22.5355
G01 X28.6701 Y22.5434
G01 X28.6552 Y22.5623
G01 X28.6425 Y22.5774
G01 X28.4527 Y22.7898
G01 X28.4460 Y22.7970
G01 X28.4291 Y22.8141
G01 X28.4148 Y22.8277
G01 X28.2024 Y23.0175
G01 X28.1949 Y23.0240
G01 X28.1762 Y23.0391
G01 X28.1605 Y23.0509
G01 X27.9281 Y23.2158
G01 X27.9117 Y23.2267
G01 X27.8913 Y23.2394
G01 X27.8827 Y23.2443
G01 X27.6334 Y23.3821
G01 X27.6247 Y23.3867
G01 X27.6032 Y23.3973
G01 X27.5851 Y23.4053
G01 X27.3219 Y23.5144
G01 X27.3128 Y23.5180
G01 X27.2902 Y23.5261
G01 X27.2713 Y23.5321
G01 X26.9976 Y23.6109
G01 X26.9785 Y23.6159
G01 X26.9550 Y23.6211
G01 X26.9453 Y23.6229
G01 X26.6645 Y23.6706
G01 X26.6449 Y23.6733
G01 X26.6211 Y23.6759
G01 X26.6112 Y23.6766
G01 X26.3529 Y23.6910
G01 X26.3344 Y23.6910
G01 X26.3145 Y23.6902
G01 X26.2813 Y23.6928
G01 X26.2584 Y23.6935
G01 X4.1153 Y23.6934
G01 X4.0972 Y23.6925
G01 X4.0732 Y23.6905
G01 X4.0447 Y23.6915
G01 X4.0201 Y23.6910
G01 X3.7638 Y23.6766
G01 X3.7441 Y23.6749
G01 X3.7203 Y23.6721
G01 X3.7105 Y23.6706
G01 X3.4297 Y23.6229
G01 X3.4200 Y23.6211
G01 X3.3965 Y23.6159
G01 X3.3774 Y23.6109
G01 X3.1037 Y23.5321
G01 X3.0848 Y23.5261
G01 X3.0622 Y23.5180
G01 X3.0531 Y23.5144
G01 X2.7899 Y23.4053
G01 X2.7718 Y23.3973
G01 X2.7503 Y23.3867
G01 X2.7416 Y23.3821
G01 X2.4923 Y23.2443
G01 X2.4753 Y23.2343
G01 X2.4550 Y23.2214
G01 X2.2145 Y23.0509
G01 X2.2066 Y23.0451
G01 X2.1877 Y23.0303
G01 X2.1726 Y23.0175
G01 X1.9602 Y22.8277
G01 X1.9530 Y22.8210
G01 X1.9359 Y22.8041
G01 X1.9223 Y22.7898
G01 X1.7325 Y22.5774
G01 X1.7260 Y22.5699
G01 X1.7109 Y22.5512
G01 X1.6991 Y22.5355
G01 X1.5342 Y22.3031
G01 X1.5286 Y22.2950
G01 X1.5157 Y22.2747
G01 X1.5057 Y22.2577
G01 X1.3679 Y22.0084
G01 X1.3633 Y21.9997
G01 X1.3527 Y21.9782
G01 X1.3447 Y21.9601
G01 X1.2356 Y21.6969
G01 X1.2320 Y21.6878
G01 X1.2239 Y21.6652
G01 X1.2179 Y21.6463
G01 X1.1391 Y21.3726
G01 X1.1365 Y21.3631
G01 X1.1310 Y21.3397
G01 X1.1271 Y21.3203
G01 X1.0794 Y21.0395
G01 X1.0767 Y21.0199
G01 X1.0741 Y20.9961
G01 X1.0596 Y20.7408
G01 X1.0591 Y20.7173
G01 X1.0603 Y20.6895
G01 X1.0574 Y20.6545
G01 X1.0565 Y20.6295
G01 X1.0565 Y4.2183
G00 Z1.0000
G00 X1.2485 Y4.2183
G01 F30.00
G01 Z-0.0800
G01 F100.00
G01 X1.2487 Y4.2094
G01 X1.2508 Y4.1840
G01 X1.2528 Y4.1690
G01 X1.2519 Y4.1581
G01 X1.2508 Y4.1331
G01 X1.2509 Y4.1173
G01 X1.2651 Y3.8645
G01 X1.2675 Y3.8416
G01 X1.2687 Y3.8327
G01 X1.3164 Y3.5518
G01 X1.3213 Y3.5292
G01 X1.4024 Y3.2468
G01 X1.4052 Y3.2383
G01 X1.4130 Y3.2165
G01 X1.5257 Y2.9452
G01 X1.5360 Y2.9245
G01 X1.6738 Y2.6751
G01 X1.6858 Y2.6554
G01 X1.6908 Y2.6480
G01 X1.8557 Y2.4156
G01 X1.8611 Y2.4085
G01 X1.8757 Y2.3906
G01 X2.0655 Y2.1782
G01 X2.0816 Y2.1616
G01 X2.3006 Y1.9657
G01 X2.3074 Y1.9599
G01 X2.3257 Y1.9457
G01 X2.5654 Y1.7758
G01 X2.5851 Y1.7638
G01 X2.8345 Y1.6260
G01 X2.8552 Y1.6157
G01 X2.8634 Y1.6120
G01 X3.1265 Y1.5030
G01 X3.1483 Y1.4952
G01 X3.1568 Y1.4924
G01 X3.4306 Y1.4136
G01 X3.4530 Y1.4082
G01 X3.7427 Y1.3587
G01 X3.7701 Y1.3554
G01 X4.0236 Y1.3411
G01 X4.0362 Y1.3409
G01 X4.0679 Y1.3424
G01 X4.0864 Y1.3402
G01 X4.1166 Y1.3385
G01 X26.2548 Y1.3386
G01 X26.2824 Y1.3405
G01 X26.2960 Y1.3421
G01 X26.3292 Y1.3406
G01 X26.3441 Y1.3407
G01 X26.6094 Y1.3559
G01 X26.6323 Y1.3587
G01 X26.9132 Y1.4064
G01 X26.9358 Y1.4113
G01 X26.9444 Y1.4136
G01 X27.2267 Y1.4952
G01 X27.2485 Y1.5030
G01 X27.5116 Y1.6120
G01 X27.5198 Y1.6157
G01 X27.5405 Y1.6260
G01 X27.7899 Y1.7638
G01 X27.8133 Y1.7783
G01 X28.0493 Y1.9457
G01 X28.0676 Y1.9599
G01 X28.2868 Y2.1555
G01 X28.3034 Y2.1716
G01 X28.4993 Y2.3906
G01 X28.5139 Y2.4085
G01 X28.6842 Y2.6480
G01 X28.6892 Y2.6554
G01 X28.7012 Y2.6751
G01 X28.8390 Y2.9245
G01 X28.8493 Y2.9452
G01 X28.9620 Y3.2165
G01 X28.9698 Y3.2383
G01 X28.9726 Y3.2468
G01 X29.0514 Y3.5206
G01 X29.0537 Y3.5292
G01 X29.0586 Y3.5518
G01 X29.1075 Y3.8416
G01 X29.1099 Y3.8645
G01 X29.1240 Y4.1178
G01 X29.1239 Y4.1305
G01 X29.1226 Y4.1579
G01 X29.1248 Y4.1764
G01 X29.1265 Y4.2066
G01 X29.1265 Y20.6256
G01 X29.1263 Y20.6339
G01 X29.1245 Y20.6574
G01 X29.1229 Y20.6710
G01 X29.1244 Y20.7042
G01 X29.1244 Y20.7154
G01 X29.1099 Y20.9755
G01 X29.1075 Y20.9984
G01 X29.0586 Y21.2882
G01 X29.0537 Y21.3108
G01 X29.0514 Y21.3194
G01 X28.9726 Y21.5932
G01 X28.9698 Y21.6017
G01 X28.9620 Y21.6235
G01 X28.8493 Y21.8948
G01 X28.8390 Y21.9155
G01 X28.7012 Y22.1649
G01 X28.6867 Y22.1883
G01 X28.5193 Y22.4243
G01 X28.5051 Y22.4426
G01 X28.3095 Y22.6618
G01 X28.2934 Y22.6784
G01 X28.0744 Y22.8743
G01 X28.0565 Y22.8889
G01 X27.8170 Y23.0592
G01 X27.8096 Y23.0642
G01 X27.7899 Y23.0762
G01 X27.5405 Y23.2140
G01 X27.5198 Y23.2243
G01 X27.2485 Y23.3370
G01 X27.2267 Y23.3448
G01 X27.2182 Y23.3476
G01 X26.9444 Y23.4264
G01 X26.9358 Y23.4287
G01 X26.9132 Y23.4336
G01 X26.6234 Y23.4825
G01 X26.6005 Y23.4849
G01 X26.3472 Y23.4990
G01 X26.3345 Y23.4989
G01 X26.3071 Y23.4976
G01 X26.2886 Y23.4998
G01 X26.2584 Y23.5015
G01 X4.1202 Y23.5014
G01 X4.0926 Y23.4995
G01 X4.0790 Y23.4979
G01 X4.0458 Y23.4994
G01 X4.0309 Y23.4993
G01 X3.7656 Y23.4841
G01 X3.7427 Y23.4813
G01 X3.4618 Y23.4336
G01 X3.4392 Y23.4287
G01 X3.4306 Y23.4264
G01 X3.1483 Y23.3448
G01 X3.1265 Y23.3370
G01 X2.8634 Y23.2280
G01 X2.8552 Y23.2243
G01 X2.8345 Y23.2140
G01 X2.5851 Y23.0762
G01 X2.5617 Y23.0617
G01 X2.3257 Y22.8943
G01 X2.3074 Y22.8801
G01 X2.0882 Y22.6845
G01 X2.0716 Y22.6684
G01 X1.8757 Y22.4494
G01 X1.8611 Y22.4315
G01 X1.6908 Y22.1920
G01 X1.6783 Y22.1726
G01 X1.5360 Y21.9155
G01 X1.5257 Y21.8948
G01 X1.4130 Y21.6235
G01 X1.4052 Y21.6017
G01 X1.3236 Y21.3194
G01 X1.3182 Y21.2970
G01 X1.2687 Y21.0073
G01 X1.2675 Y20.9984
G01 X1.2651 Y20.9755
G01 X1.2512 Y20.7265
G01 X1.2512 Y20.7158
G01 X1.2531 Y20.6817
G01 X1.2505 Y20.6625
G01 X1.2489 Y20.6409
G01 X1.2485 Y20.6295
G01 X1.2485 Y4.2183
G00 Z1.0000
G00 X2.2223 Y4.1456
G01 F30.00
G01 Z-0.0800
G01 F100.00
G01 X2.2421 Y3.8943
G01 X2.2957 Y3.6481
G01 X2.3824 Y3.4114
G01 X2.5003 Y3.1886
G01 X2.6474 Y2.9840
G01 X2.8209 Y2.8011
G01 X3.0176 Y2.6436
G01 X3.2338 Y2.5141
G01 X3.4657 Y2.4152
G01 X3.7088 Y2.3487
G01 X3.9587 Y2.3158
G01 X4.2107 Y2.3172
G01 X4.4602 Y2.3527
G01 X4.7026 Y2.4217
G01 X4.9334 Y2.5230
G01 X5.1483 Y2.6547
G01 X5.3433 Y2.8143
G01 X5.5149 Y2.9990
G01 X5.6598 Y3.2052
G01 X5.7754 Y3.4292
G01 X5.8596 Y3.6667
G01 X5.9107 Y3.9135
G01 X5.9281 Y4.1696
G01 X5.9278 Y4.1992
G01 X5.9050 Y4.4548
G01 X5.8487 Y4.7005
G01 X5.7597 Y4.9363
G01 X5.6394 Y5.1578
G01 X5.4902 Y5.3609
G01 X5.3148 Y5.5419
G01 X5.1164 Y5.6974
G01 X4.8988 Y5.8246
G01 X4.6660 Y5.9210
G01 X4.4222 Y5.9850
G01 X4.1720 Y6.0153
G01 X3.9200 Y6.0113
G01 X3.6708 Y5.9732
G01 X3.4292 Y5.9016
G01 X3.1994 Y5.7979
G01 X2.9859 Y5.6640
G01 X2.7926 Y5.5023
G01 X2.6230 Y5.3159
G01 X2.4802 Y5.1082
G01 X2.3670 Y4.8830
G01 X2.2853 Y4.6445
G01 X2.2368 Y4.3972
G01 X2.2223 Y4.1456
G00 Z1.0000
G00 X2.4147 Y4.1476
G01 F30.00
G01 Z-0.0800
G01 F100.00
G01 X2.4324 Y3.9224
G01 X2.4806 Y3.7018
G01 X2.5582 Y3.4897
G01 X2.6639 Y3.2901
G01 X2.7957 Y3.1066
G01 X2.9511 Y2.9428
G01 X3.1274 Y2.8016
G01 X3.3212 Y2.6856
G01 X3.5290 Y2.5970
G01 X3.7468 Y2.5374
G01 X3.9707 Y2.5079
G01 X4.1966 Y2.5091
G01 X4.4202 Y2.5409
G01 X4.6374 Y2.6028
G01 X4.8442 Y2.6936
G01 X5.0368 Y2.8116
G01 X5.2116 Y2.9546
G01 X5.3654 Y3.1201
G01 X5.4952 Y3.3049
G01 X5.5988 Y3.5056
G01 X5.6742 Y3.7185
G01 X5.7200 Y3.9397
G01 X5.7360 Y4.1744
G01 X5.7358 Y4.1913
G01 X5.7149 Y4.4247
G01 X5.6645 Y4.6449
G01 X5.5847 Y4.8562
G01 X5.4769 Y5.0547
G01 X5.3432 Y5.2367
G01 X5.1860 Y5.3989
G01 X5.0083 Y5.5383
G01 X4.8133 Y5.6522
G01 X4.6046 Y5.7387
G01 X4.3861 Y5.7960
G01 X4.1619 Y5.8231
G01 X3.9361 Y5.8196
G01 X3.7128 Y5.7854
G01 X3.4962 Y5.7212
G01 X3.2904 Y5.6283
G01 X3.0991 Y5.5083
G01 X2.9258 Y5.3634
G01 X2.7738 Y5.1963
G01 X2.6458 Y5.0102
G01 X2.5444 Y4.8084
G01 X2.4712 Y4.5947
G01 X2.4277 Y4.3731
G01 X2.4147 Y4.1476
G00 Z1.0000
G00 X2.6071 Y4.1496
G01 F30.00
G01 Z-0.0800
G01 F100.00
G01 X2.6228 Y3.9506
G01 X2.6654 Y3.7555
G01 X2.7340 Y3.5679
G01 X2.8274 Y3.3915
G01 X2.9439 Y3.2293
G01 X3.0810 Y3.0849
G01 X3.2404 Y2.9577
G01 X3.4086 Y2.8571
G01 X3.5922 Y2.7787
G01 X3.7849 Y2.7260
G01 X3.9828 Y2.7000
G01 X4.1825 Y2.7010
G01 X4.3796 Y2.7291
G01 X4.5756 Y2.7853
G01 X4.7546 Y2.8639
G01 X4.9282 Y2.9708
G01 X5.0799 Y3.0949
G01 X5.1700 Y3.1919
G01 X5.2174 Y3.2435
G01 X5.3306 Y3.4046
G01 X5.4219 Y3.5815
G01 X5.4896 Y3.7739
G01 X5.5293 Y3.9658
G01 X5.5439 Y4.1795
G01 X5.5249 Y4.3946
G01 X5.4804 Y4.5887
G01 X5.4079 Y4.7793
G01 X5.3134 Y4.9529
G01 X5.1962 Y5.1125
G01 X5.0572 Y5.2559
G01 X4.9001 Y5.3791
G01 X4.7277 Y5.4798
G01 X4.5432 Y5.5563
G01 X4.3506 Y5.6068
G01 X4.1481 Y5.6309
G01 X3.9490 Y5.6273
G01 X3.7548 Y5.5976
G01 X3.5633 Y5.5409
G01 X3.3794 Y5.4575
G01 X3.2122 Y5.3526
G01 X3.0594 Y5.2249
G01 X2.9225 Y5.0737
G01 X2.8115 Y4.9122
G01 X2.7218 Y4.7338
G01 X2.6571 Y4.5449
G01 X2.6186 Y4.3490
G01 X2.6071 Y4.1496
G00 Z1.0000
G00 X5.1740 Y8.9746
G01 F30.00
G01 Z-0.0800
G01 F100.00
G01 X5.3603 Y9.0342
G01 X5.5733 Y9.1392
G01 X5.7685 Y9.2746
G01 X5.9415 Y9.4374
G01 X6.0885 Y9.6239
G01 X6.2064 Y9.8301
G01 X6.2925 Y10.0515
G01 X6.3449 Y10.2831
G01 X6.3580 Y10.4596
G01 X6.3580 Y11.3560
G01 X6.1700 Y11.3560
G01 X6.1700 Y10.5200
G01 X6.1632 Y10.3818
G01 X6.1429 Y10.2449
G01 X6.1093 Y10.1107
G01 X6.0627 Y9.9804
G01 X6.0053 Y9.8588
G01 X5.9996 Y9.8485
G01 X5.9324 Y9.7366
G01 X5.8499 Y9.6255
G01 X5.7570 Y9.5230
G01 X5.6545 Y9.4301
G01 X5.5434 Y9.3476
G01 X5.4247 Y9.2765
G01 X5.2996 Y9.2173
G01 X5.1740 Y9.1722
G01 X5.1740 Y8.9746
G00 Z1.0000
G00 X3.1620 Y11.3560
G01 F30.00
G01 Z-0.0800
G01 F100.00
G01 X3.1620 Y10.4389
G01 X3.1819 Y10.2417
G01 X3.2403 Y10.0115
G01 X3.3322 Y9.7925
G01 X3.4554 Y9.5894
G01 X3.6073 Y9.4068
G01 X3.7845 Y9.2487
G01 X3.9831 Y9.1184
G01 X4.1988 Y9.0190
G01 X4.3460 Y8.9761
G01 X4.3460 Y9.1722
G01 X4.2204 Y9.2173
G01 X4.0953 Y9.2765
G01 X3.9766 Y9.3476
G01 X3.8655 Y9.4301
G01 X3.7630 Y9.5230
G01 X3.6701 Y9.6255
G01 X3.5876 Y9.7366
G01 X3.5204 Y9.8485
G01 X3.5147 Y9.8588
G01 X3.4573 Y9.9804
G01 X3.4107 Y10.1107
G01 X3.3771 Y10.2449
G01 X3.3568 Y10.3818
G01 X3.3500 Y10.5200
G01 X3.3500 Y11.3560
G01 X3.1620 Y11.3560
G00 Z1.0000
G00 X3.1620 Y12.1840
G01 F30.00
G01 Z-0.0800
G01 F100.00
G01 X3.3500 Y12.1840
G01 X3.3500 Y13.0200
G01 X3.3568 Y13.1582
G01 X3.3771 Y13.2951
G01 X3.4107 Y13.4293
G01 X3.4573 Y13.5596
G01 X3.5147 Y13.6812
G01 X3.5204 Y13.6915
G01 X3.5876 Y13.8034
G01 X3.6701 Y13.9145
G01 X3.7630 Y14.0170
G01 X3.8655 Y14.1099
G01 X3.9766 Y14.1924
G01 X4.0953 Y14.2635
G01 X4.2204 Y14.3227
G01 X4.3460 Y14.3678
G01 X4.3459 Y14.5654
G01 X4.1597 Y14.5058
G01 X3.9467 Y14.4008
G01 X3.7515 Y14.2654
G01 X3.5785 Y14.1026
G01 X3.4315 Y13.9161
G01 X3.3136 Y13.7099
G01 X3.2275 Y13.4885
G01 X3.1751 Y13.2569
G01 X3.1620 Y13.0804
G01 X3.1620 Y12.1840
G00 Z1.0000
G00 X5.1740 Y14.5639
G01 F30.00
G01 Z-0.0800
G01 F100.00
G01 X5.1740 Y14.3678
G01 X5.2996 Y14.3227
G01 X5.4247 Y14.2635
G01 X5.5434 Y14.1924
G01 X5.6545 Y14.1099
G01 X5.7570 Y14.0170
G01 X5.8499 Y13.9145
G01 X5.9324 Y13.8034
G01 X5.9996 Y13.6915
G01 X6.0053 Y13.6812
G01 X6.0627 Y13.5596
G01 X6.1093 Y13.4293
G01 X6.1429 Y13.2951
G01 X6.1632 Y13.1582
G01 X6.1700 Y13.0200
G01 X6.1700 Y12.1840
G01 X6.3580 Y12.1840
G01 X6.3580 Y13.1011
G01 X6.3381 Y13.2983
G01 X6.2797 Y13.5285
G01 X6.1878 Y13.7475
G01 X6.0646 Y13.9506
G01 X5.9127 Y14.1332
G01 X5.7355 Y14.2913
G01 X5.5369 Y14.4216
G01 X5.3212 Y14.5210
G01 X5.1740 Y14.5639
G00 Z1.0000
G00 X5.3100 Y16.6679
G01 F30.00
G01 Z-0.0800
G01 F100.00
G01 X5.3131 Y16.4303
G01 X5.3513 Y16.1958
G01 X5.4237 Y15.9695
G01 X5.5288 Y15.7564
G01 X5.6642 Y15.5612
G01 X5.8270 Y15.3882
G01 X6.0136 Y15.2411
G01 X6.2199 Y15.1232
G01 X6.4413 Y15.0371
G01 X6.6731 Y14.9846
G01 X6.8496 Y14.9715
G01 X9.3284 Y14.9715
G01 X9.3444 Y14.9707
G01 X9.3524 Y14.9697
G01 X9.3642 Y14.9675
G01 X9.4360 Y14.9490
G01 X9.4470 Y14.9451
G01 X9.4578 Y14.9405
G01 X9.4647 Y14.9369
G01 X9.4748 Y14.9310
G01 X9.4875 Y14.9220
G01 X9.4993 Y14.9119
G01 X9.5550 Y14.8561
G01 X9.5604 Y14.8502
G01 X9.5678 Y14.8408
G01 X9.5745 Y14.8310
G01 X9.5786 Y14.8242
G01 X9.5840 Y14.8136
G01 X9.5872 Y14.8063
G01 X9.5900 Y14.7989
G01 X9.5935 Y14.7875
G01 X9.6120 Y14.7026
G01 X9.6138 Y14.6868
G01 X9.6140 Y14.6709
G01 X9.6127 Y14.6551
G01 X9.6098 Y14.6394
G01 X9.6053 Y14.6242
G01 X9.5791 Y14.5539
G01 X9.5748 Y14.5434
G01 X9.5696 Y14.5332
G01 X9.5658 Y14.5266
G01 X9.5595 Y14.5171
G01 X9.5012 Y14.4391
G01 X9.4651 Y14.3430
G01 X9.4615 Y14.3095
G01 X9.4615 Y9.2305
G01 X9.4651 Y9.1970
G01 X9.5012 Y9.1009
G01 X9.5610 Y9.0210
G01 X9.6409 Y8.9612
G01 X9.7370 Y8.9251
G01 X9.7705 Y8.9215
G01 X12.3495 Y8.9215
G01 X12.3830 Y8.9251
G01 X12.4810 Y8.9619
G01 X12.5208 Y8.9840
G01 X12.5316 Y8.9893
G01 X12.5428 Y8.9939
G01 X12.5505 Y8.9965
G01 X12.5661 Y9.0004
G01 X12.5780 Y9.0024
G01 X12.5861 Y9.0031
G01 X12.6569 Y9.0082
G01 X12.6728 Y9.0085
G01 X12.6886 Y9.0073
G01 X12.7042 Y9.0045
G01 X12.7195 Y9.0002
G01 X12.7307 Y8.9959
G01 X12.7450 Y8.9890
G01 X12.8106 Y8.9531
G01 X12.8234 Y8.9449
G01 X12.8354 Y8.9355
G01 X12.8437 Y8.9277
G01 X13.0835 Y8.6880
G01 X13.1507 Y8.6336
G01 X13.1699 Y8.6165
G01 X14.9182 Y6.8683
G01 X14.9267 Y6.8591
G01 X14.9456 Y6.8365
G01 X14.9840 Y6.8019
G01 X15.0035 Y6.7830
G01 X15.0243 Y6.7656
G01 X15.0628 Y6.7310
G01 X15.0872 Y6.7146
G01 X15.0949 Y6.7089
G01 X15.1448 Y6.6834
G01 X15.1990 Y6.6524
G01 X15.2263 Y6.6414
G01 X15.2351 Y6.6374
G01 X15.2892 Y6.6229
G01 X15.3487 Y6.6038
G01 X15.3582 Y6.6023
G01 X15.3871 Y6.5967
G01 X15.4495 Y6.5932
G01 X15.4803 Y6.5903
G01 X15.4920 Y6.5884
G01 X15.4997 Y6.5866
G01 X15.5149 Y6.5820
G01 X15.5836 Y6.5572
G01 X15.5944 Y6.5528
G01 X15.6048 Y6.5477
G01 X15.6181 Y6.5398
G01 X15.6305 Y6.5306
G01 X15.6420 Y6.5202
G01 X15.6524 Y6.5088
G01 X15.6789 Y6.4738
G01 X15.6896 Y6.4623
G01 X15.6968 Y6.4530
G01 X15.7053 Y6.4398
G01 X15.7142 Y6.4236
G01 X15.7760 Y6.3410
G01 X15.8559 Y6.2812
G01 X15.9520 Y6.2451
G01 X15.9855 Y6.2415
G01 X17.5645 Y6.2415
G01 X17.5980 Y6.2451
G01 X17.6941 Y6.2812
G01 X17.7740 Y6.3410
G01 X17.8351 Y6.4226
G01 X17.8386 Y6.4299
G01 X17.8443 Y6.4403
G01 X17.8507 Y6.4502
G01 X17.8579 Y6.4596
G01 X17.9123 Y6.5221
G01 X17.9239 Y6.5331
G01 X17.9364 Y6.5428
G01 X17.9465 Y6.5492
G01 X17.9569 Y6.5549
G01 X17.9678 Y6.5598
G01 X17.9790 Y6.5639
G01 X18.0583 Y6.5870
G01 X18.0732 Y6.5899
G01 X18.0846 Y6.5911
G01 X18.0922 Y6.5915
G01 X21.1690 Y6.5915
G01 X21.1873 Y6.5909
G01 X21.1952 Y6.5902
G01 X21.2107 Y6.5878
G01 X21.2260 Y6.5838
G01 X21.3037 Y6.5551
G01 X21.3146 Y6.5502
G01 X21.3251 Y6.5446
G01 X21.3352 Y6.5382
G01 X21.3447 Y6.5311
G01 X21.3566 Y6.5205
G01 X21.3648 Y6.5118
G01 X21.3723 Y6.5026
G01 X21.3937 Y6.4741
G01 X21.4020 Y6.4653
G01 X21.4095 Y6.4562
G01 X21.4183 Y6.4432
G01 X21.4292 Y6.4236
G01 X21.4910 Y6.3410
G01 X21.5709 Y6.2812
G01 X21.6670 Y6.2451
G01 X21.7005 Y6.2415
G01 X23.2795 Y6.2415
G01 X23.3130 Y6.2451
G01 X23.4091 Y6.2812
G01 X23.4890 Y6.3410
G01 X23.5488 Y6.4209
G01 X23.5849 Y6.5170
G01 X23.5885 Y6.5505
G01 X23.5885 Y8.1295
G01 X23.5849 Y8.1630
G01 X23.5546 Y8.2440
G01 X23.5450 Y8.2764
G01 X23.5427 Y8.2877
G01 X23.5416 Y8.2953
G01 X23.5407 Y8.3067
G01 X23.5406 Y8.3182
G01 X23.5461 Y8.3966
G01 X23.5474 Y8.4080
G01 X23.5486 Y8.4155
G01 X23.5512 Y8.4266
G01 X23.5546 Y8.4375
G01 X23.5844 Y8.5171
G01 X23.5880 Y8.5506
G01 X23.5880 Y8.9260
G01 X23.4000 Y8.9260
G01 X23.4000 Y8.5861
G01 X23.3988 Y8.5704
G01 X23.3969 Y8.5588
G01 X23.3952 Y8.5511
G01 X23.3919 Y8.5398
G01 X23.3893 Y8.5324
G01 X23.3846 Y8.5216
G01 X23.3792 Y8.5111
G01 X23.3730 Y8.5011
G01 X23.3685 Y8.4947
G01 X23.3612 Y8.4855
G01 X23.3531 Y8.4769
G01 X23.3474 Y8.4714
G01 X23.3384 Y8.4639
G01 X23.3289 Y8.4570
G01 X23.3223 Y8.4528
G01 X23.3119 Y8.4471
G01 X23.3012 Y8.4422
G01 X23.2902 Y8.4381
G01 X23.2827 Y8.4358
G01 X23.2751 Y8.4339
G01 X23.2635 Y8.4317
G01 X23.2518 Y8.4304
G01 X23.2400 Y8.4300
G01 X21.7400 Y8.4300
G01 X21.7282 Y8.4304
G01 X21.7165 Y8.4317
G01 X21.7049 Y8.4339
G01 X21.6898 Y8.4381
G01 X21.6788 Y8.4422
G01 X21.6681 Y8.4471
G01 X21.6577 Y8.4528
G01 X21.6479 Y8.4592
G01 X21.6355 Y8.4688
G01 X21.6269 Y8.4769
G01 X21.6188 Y8.4855
G01 X21.6115 Y8.4947
G01 X21.6048 Y8.5044
G01 X21.5971 Y8.5181
G01 X21.5922 Y8.5288
G01 X21.5881 Y8.5398
G01 X21.5848 Y8.5511
G01 X21.5824 Y8.5626
G01 X21.5808 Y8.5743
G01 X21.5800 Y8.5861
G01 X21.5800 Y8.9260
G01 X21.3920 Y8.9260
G01 X21.3920 Y8.5506
G01 X21.3956 Y8.5171
G01 X21.4115 Y8.4749
G01 X21.4155 Y8.4626
G01 X21.4251 Y8.4245
G01 X21.4271 Y8.4128
G01 X21.4283 Y8.3971
G01 X21.4280 Y8.3814
G01 X21.4267 Y8.3697
G01 X21.4160 Y8.2955
G01 X21.4136 Y8.2838
G01 X21.4115 Y8.2761
G01 X21.4077 Y8.2649
G01 X21.4012 Y8.2503
G01 X21.3934 Y8.2365
G01 X21.3842 Y8.2235
G01 X21.3273 Y8.1579
G01 X21.3158 Y8.1469
G01 X21.3032 Y8.1372
G01 X21.2932 Y8.1308
G01 X21.2827 Y8.1251
G01 X21.2719 Y8.1202
G01 X21.2607 Y8.1161
G01 X21.1814 Y8.0930
G01 X21.1664 Y8.0901
G01 X21.1589 Y8.0892
G01 X21.1475 Y8.0885
G01 X18.1213 Y8.0885
G01 X18.1084 Y8.0890
G01 X18.0771 Y8.0924
G01 X18.0654 Y8.0941
G01 X18.0539 Y8.0966
G01 X18.0389 Y8.1013
G01 X18.0244 Y8.1075
G01 X17.9517 Y8.1472
G01 X17.9416 Y8.1536
G01 X17.9352 Y8.1582
G01 X17.9260 Y8.1658
G01 X17.9174 Y8.1740
G01 X17.9094 Y8.1829
G01 X17.9021 Y8.1923
G01 X17.8955 Y8.2022
G01 X17.8915 Y8.2091
G01 X17.8540 Y8.2786
G01 X17.8507 Y8.2858
G01 X17.8465 Y8.2969
G01 X17.8422 Y8.3122
G01 X17.8400 Y8.3239
G01 X17.8390 Y8.3318
G01 X17.8382 Y8.3437
G01 X17.8382 Y8.3517
G01 X17.8445 Y8.4380
G01 X17.8471 Y8.4530
G01 X17.8510 Y8.4677
G01 X17.8694 Y8.5171
G01 X17.8730 Y8.5506
G01 X17.8730 Y8.9260
G01 X17.6850 Y8.9260
G01 X17.6850 Y8.5861
G01 X17.6842 Y8.5743
G01 X17.6826 Y8.5626
G01 X17.6802 Y8.5511
G01 X17.6781 Y8.5436
G01 X17.6743 Y8.5324
G01 X17.6696 Y8.5216
G01 X17.6642 Y8.5111
G01 X17.6580 Y8.5011
G01 X17.6511 Y8.4916
G01 X17.6436 Y8.4826
G01 X17.6353 Y8.4741
G01 X17.6265 Y8.4663
G01 X17.6171 Y8.4592
G01 X17.6073 Y8.4528
G01 X17.5969 Y8.4471
G01 X17.5862 Y8.4422
G01 X17.5752 Y8.4381
G01 X17.5639 Y8.4348
G01 X17.5524 Y8.4324
G01 X17.5407 Y8.4308
G01 X17.5250 Y8.4300
G01 X16.0250 Y8.4300
G01 X16.0132 Y8.4304
G01 X16.0015 Y8.4317
G01 X15.9899 Y8.4339
G01 X15.9786 Y8.4369
G01 X15.9674 Y8.4407
G01 X15.9566 Y8.4454
G01 X15.9496 Y8.4489
G01 X15.9394 Y8.4548
G01 X15.9297 Y8.4615
G01 X15.9205 Y8.4688
G01 X15.9119 Y8.4769
G01 X15.9064 Y8.4826
G01 X15.8989 Y8.4916
G01 X15.8920 Y8.5011
G01 X15.8858 Y8.5111
G01 X15.8821 Y8.5181
G01 X15.8787 Y8.5252
G01 X15.8744 Y8.5361
G01 X15.8719 Y8.5436
G01 X15.8689 Y8.5549
G01 X15.8662 Y8.5704
G01 X15.8652 Y8.5821
G01 X15.8650 Y8.5900
G01 X15.8650 Y8.9260
G01 X15.6770 Y8.9260
G01 X15.6766 Y8.9023
G01 X15.6757 Y8.8905
G01 X15.6732 Y8.8749
G01 X15.6692 Y8.8596
G01 X15.6388 Y8.7782
G01 X15.6318 Y8.7639
G01 X15.6234 Y8.7504
G01 X15.6138 Y8.7378
G01 X15.6057 Y8.7291
G01 X15.5970 Y8.7209
G01 X15.5878 Y8.7134
G01 X15.5244 Y8.6663
G01 X15.5143 Y8.6600
G01 X15.5073 Y8.6562
G01 X15.4965 Y8.6512
G01 X15.4891 Y8.6484
G01 X15.4777 Y8.6447
G01 X15.4700 Y8.6428
G01 X15.4622 Y8.6413
G01 X15.4504 Y8.6397
G01 X15.3717 Y8.6341
G01 X15.3558 Y8.6341
G01 X15.3400 Y8.6357
G01 X15.3283 Y8.6380
G01 X15.3168 Y8.6411
G01 X15.3092 Y8.6436
G01 X15.2982 Y8.6481
G01 X15.2875 Y8.6535
G01 X15.2252 Y8.6875
G01 X15.2154 Y8.6933
G01 X15.2030 Y8.7021
G01 X15.1971 Y8.7070
G01 X15.1888 Y8.7148
G01 X14.1015 Y9.8020
G01 X14.0311 Y9.8591
G01 X14.0121 Y9.8765
G01 X12.7423 Y11.1463
G01 X12.7336 Y11.1557
G01 X12.7115 Y11.1831
G01 X12.7026 Y11.1960
G01 X12.6967 Y11.2062
G01 X12.6901 Y11.2205
G01 X12.6861 Y11.2316
G01 X12.6640 Y11.3071
G01 X12.6622 Y11.3145
G01 X12.6601 Y11.3257
G01 X12.6592 Y11.3333
G01 X12.6585 Y11.3447
G01 X12.6585 Y13.4765
G01 X12.6594 Y13.4936
G01 X12.6623 Y13.5204
G01 X12.6640 Y13.5320
G01 X12.6676 Y13.5473
G01 X12.6712 Y13.5585
G01 X12.6741 Y13.5658
G01 X12.6810 Y13.5800
G01 X12.7188 Y13.6489
G01 X12.7251 Y13.6584
G01 X12.7296 Y13.6645
G01 X12.7370 Y13.6732
G01 X12.7423 Y13.6787
G01 X13.7375 Y14.6736
G01 X13.7650 Y14.6961
G01 X13.7744 Y14.7031
G01 X13.7878 Y14.7114
G01 X13.8019 Y14.7183
G01 X13.8091 Y14.7213
G01 X13.8203 Y14.7250
G01 X13.8921 Y14.7460
G01 X13.9070 Y14.7493
G01 X13.9183 Y14.7508
G01 X13.9335 Y14.7515
G01 X15.4540 Y14.7515
G01 X15.4723 Y14.7509
G01 X15.4880 Y14.7492
G01 X15.4996 Y14.7469
G01 X15.5147 Y14.7425
G01 X15.5924 Y14.7135
G01 X15.6032 Y14.7084
G01 X15.6135 Y14.7026
G01 X15.6234 Y14.6959
G01 X15.6328 Y14.6885
G01 X15.6416 Y14.6805
G01 X15.6523 Y14.6688
G01 X15.6787 Y14.6341
G01 X15.6870 Y14.6253
G01 X15.6945 Y14.6162
G01 X15.7033 Y14.6032
G01 X15.7142 Y14.5836
G01 X15.7760 Y14.5010
G01 X15.8559 Y14.4412
G01 X15.9520 Y14.4051
G01 X15.9855 Y14.4015
G01 X17.5645 Y14.4015
G01 X17.5980 Y14.4051
G01 X17.6941 Y14.4412
G01 X17.7740 Y14.5010
G01 X17.8351 Y14.5826
G01 X17.8386 Y14.5899
G01 X17.8443 Y14.6003
G01 X17.8507 Y14.6102
G01 X17.8579 Y14.6196
G01 X17.9123 Y14.6821
G01 X17.9239 Y14.6931
G01 X17.9364 Y14.7028
G01 X17.9499 Y14.7112
G01 X17.9605 Y14.7166
G01 X17.9715 Y14.7212
G01 X17.9828 Y14.7250
G01 X18.0583 Y14.7470
G01 X18.0695 Y14.7493
G01 X18.0770 Y14.7504
G01 X18.0884 Y14.7513
G01 X18.0960 Y14.7515
G01 X21.1690 Y14.7515
G01 X21.1873 Y14.7509
G01 X21.1991 Y14.7498
G01 X21.2107 Y14.7478
G01 X21.2222 Y14.7449
G01 X21.2334 Y14.7412
G01 X21.3074 Y14.7135
G01 X21.3182 Y14.7084
G01 X21.3251 Y14.7046
G01 X21.3384 Y14.6959
G01 X21.3508 Y14.6859
G01 X21.3566 Y14.6805
G01 X21.3648 Y14.6718
G01 X21.3723 Y14.6626
G01 X21.3937 Y14.6341
G01 X21.3994 Y14.6282
G01 X21.4071 Y14.6193
G01 X21.4141 Y14.6098
G01 X21.4183 Y14.6032
G01 X21.4292 Y14.5836
G01 X21.4910 Y14.5010
G01 X21.5709 Y14.4412
G01 X21.6670 Y14.4051
G01 X21.7005 Y14.4015
G01 X23.2795 Y14.4015
G01 X23.3130 Y14.4051
G01 X23.4091 Y14.4412
G01 X23.4890 Y14.5010
G01 X23.5488 Y14.5809
G01 X23.5849 Y14.6770
G01 X23.5885 Y14.7105
G01 X23.5885 Y16.2895
G01 X23.5849 Y16.3230
G01 X23.5546 Y16.4040
G01 X23.5460 Y16.4327
G01 X23.5442 Y16.4402
G01 X23.5421 Y16.4515
G01 X23.5409 Y16.4629
G01 X23.5405 Y16.4743
G01 X23.5409 Y16.4858
G01 X23.5461 Y16.5566
G01 X23.5474 Y16.5680
G01 X23.5486 Y16.5755
G01 X23.5512 Y16.5866
G01 X23.5546 Y16.5975
G01 X23.5844 Y16.6771
G01 X23.5880 Y16.7106
G01 X23.5880 Y17.0860
G01 X23.4000 Y17.0860
G01 X23.4000 Y16.7461
G01 X23.3988 Y16.7304
G01 X23.3969 Y16.7188
G01 X23.3952 Y16.7111
G01 X23.3919 Y16.6998
G01 X23.3893 Y16.6924
G01 X23.3846 Y16.6816
G01 X23.3792 Y16.6711
G01 X23.3730 Y16.6611
G01 X23.3685 Y16.6547
G01 X23.3612 Y16.6455
G01 X23.3531 Y16.6369
G01 X23.3474 Y16.6314
G01 X23.3384 Y16.6239
G01 X23.3289 Y16.6170
G01 X23.3223 Y16.6128
G01 X23.3119 Y16.6071
G01 X23.3012 Y16.6022
G01 X23.2902 Y16.5981
G01 X23.2827 Y16.5958
G01 X23.2751 Y16.5939
G01 X23.2635 Y16.5917
G01 X23.2518 Y16.5904
G01 X23.2400 Y16.5900
G01 X21.7400 Y16.5900
G01 X21.7282 Y16.5904
G01 X21.7165 Y16.5917
G01 X21.7049 Y16.5939
G01 X21.6898 Y16.5981
G01 X21.6788 Y16.6022
G01 X21.6681 Y16.6071
G01 X21.6577 Y16.6128
G01 X21.6479 Y16.6192
G01 X21.6355 Y16.6288
G01 X21.6269 Y16.6369
G01 X21.6188 Y16.6455
G01 X21.6115 Y16.6547
G01 X21.6048 Y16.6644
G01 X21.5971 Y16.6781
G01 X21.5922 Y16.6888
G01 X21.5881 Y16.6998
G01 X21.5848 Y16.7111
G01 X21.5824 Y16.7226
G01 X21.5808 Y16.7343
G01 X21.5800 Y16.7461
G01 X21.5800 Y17.0860
G01 X21.3920 Y17.0860
G01 X21.3920 Y16.7106
G01 X21.3956 Y16.6771
G01 X21.4115 Y16.6349
G01 X21.4155 Y16.6226
G01 X21.4251 Y16.5845
G01 X21.4271 Y16.5728
G01 X21.4283 Y16.5571
G01 X21.4280 Y16.5414
G01 X21.4267 Y16.5297
G01 X21.4160 Y16.4555
G01 X21.4126 Y16.4399
G01 X21.4077 Y16.4249
G01 X21.4012 Y16.4103
G01 X21.3934 Y16.3965
G01 X21.3867 Y16.3867
G01 X21.3792 Y16.3774
G01 X21.3301 Y16.3208
G01 X21.3188 Y16.3096
G01 X21.3096 Y16.3019
G01 X21.2966 Y16.2928
G01 X21.2863 Y16.2869
G01 X21.2755 Y16.2817
G01 X21.2644 Y16.2774
G01 X21.1851 Y16.2540
G01 X21.1777 Y16.2522
G01 X21.1664 Y16.2501
G01 X21.1551 Y16.2489
G01 X21.1437 Y16.2485
G01 X18.1213 Y16.2485
G01 X18.1084 Y16.2490
G01 X18.0693 Y16.2534
G01 X18.0539 Y16.2566
G01 X18.0389 Y16.2613
G01 X18.0316 Y16.2642
G01 X18.0209 Y16.2693
G01 X17.9552 Y16.3053
G01 X17.9450 Y16.3114
G01 X17.9352 Y16.3182
G01 X17.9260 Y16.3258
G01 X17.9146 Y16.3369
G01 X17.9044 Y16.3491
G01 X17.8976 Y16.3589
G01 X17.8915 Y16.3691
G01 X17.8558 Y16.4350
G01 X17.8492 Y16.4495
G01 X17.8453 Y16.4607
G01 X17.8422 Y16.4722
G01 X17.8400 Y16.4839
G01 X17.8386 Y16.4958
G01 X17.8382 Y16.5077
G01 X17.8386 Y16.5196
G01 X17.8445 Y16.5980
G01 X17.8471 Y16.6130
G01 X17.8510 Y16.6277
G01 X17.8694 Y16.6771
G01 X17.8730 Y16.7106
G01 X17.8730 Y17.0860
G01 X17.6850 Y17.0860
G01 X17.6850 Y16.7461
G01 X17.6838 Y16.7304
G01 X17.6819 Y16.7188
G01 X17.6802 Y16.7111
G01 X17.6769 Y16.6998
G01 X17.6743 Y16.6924
G01 X17.6696 Y16.6816
G01 X17.6642 Y16.6711
G01 X17.6580 Y16.6611
G01 X17.6535 Y16.6547
G01 X17.6462 Y16.6455
G01 X17.6381 Y16.6369
G01 X17.6324 Y16.6314
G01 X17.6234 Y16.6239
G01 X17.6139 Y16.6170
G01 X17.6073 Y16.6128
G01 X17.5969 Y16.6071
G01 X17.5862 Y16.6022
G01 X17.5752 Y16.5981
G01 X17.5677 Y16.5958
G01 X17.5601 Y16.5939
G01 X17.5485 Y16.5917
G01 X17.5368 Y16.5904
G01 X17.5250 Y16.5900
G01 X16.0250 Y16.5900
G01 X16.0132 Y16.5904
G01 X16.0015 Y16.5917
G01 X15.9899 Y16.5939
G01 X15.9748 Y16.5981
G01 X15.9638 Y16.6022
G01 X15.9531 Y16.6071
G01 X15.9427 Y16.6128
G01 X15.9329 Y16.6192
G01 X15.9205 Y16.6288
G01 X15.9119 Y16.6369
G01 X15.9038 Y16.6455
G01 X15.8965 Y16.6547
G01 X15.8898 Y16.6644
G01 X15.8821 Y16.6781
G01 X15.8772 Y16.6888
G01 X15.8731 Y16.6998
G01 X15.8698 Y16.7111
G01 X15.8674 Y16.7226
G01 X15.8658 Y16.7343
G01 X15.8650 Y16.7461
G01 X15.8650 Y17.0860
G01 X15.6770 Y17.0860
G01 X15.6770 Y16.7106
G01 X15.6806 Y16.6771
G01 X15.6993 Y16.6267
G01 X15.7101 Y16.5845
G01 X15.7121 Y16.5728
G01 X15.7133 Y16.5571
G01 X15.7132 Y16.5453
G01 X15.7123 Y16.5336
G01 X15.7016 Y16.4594
G01 X15.6995 Y16.4477
G01 X15.6965 Y16.4361
G01 X15.6927 Y16.4249
G01 X15.6880 Y16.4139
G01 X15.6825 Y16.4033
G01 X15.6740 Y16.3899
G01 X15.6668 Y16.3804
G01 X15.6151 Y16.3208
G01 X15.6067 Y16.3122
G01 X15.5978 Y16.3044
G01 X15.5882 Y16.2972
G01 X15.5782 Y16.2908
G01 X15.5641 Y16.2834
G01 X15.5494 Y16.2774
G01 X15.4737 Y16.2550
G01 X15.4627 Y16.2522
G01 X15.4514 Y16.2501
G01 X15.4439 Y16.2492
G01 X15.4325 Y16.2485
G01 X13.5864 Y16.2485
G01 X13.5739 Y16.2490
G01 X13.5446 Y16.2516
G01 X13.4929 Y16.2489
G01 X13.4658 Y16.2485
G01 X13.4388 Y16.2461
G01 X13.3871 Y16.2433
G01 X13.3777 Y16.2413
G01 X13.3487 Y16.2362
G01 X13.2954 Y16.2190
G01 X13.2351 Y16.2026
G01 X13.2263 Y16.1986
G01 X13.1990 Y16.1876
G01 X13.1448 Y16.1566
G01 X13.0949 Y16.1311
G01 X13.0872 Y16.1254
G01 X13.0628 Y16.1090
G01 X13.0243 Y16.0744
G01 X13.0035 Y16.0570
G01 X12.9840 Y16.0381
G01 X12.9456 Y16.0035
G01 X12.9267 Y15.9809
G01 X12.9182 Y15.9717
G01 X11.6425 Y14.6964
G01 X11.6150 Y14.6739
G01 X11.6056 Y14.6669
G01 X11.5956 Y14.6605
G01 X11.5888 Y14.6567
G01 X11.5745 Y14.6501
G01 X11.5597 Y14.6450
G01 X11.4842 Y14.6230
G01 X11.4730 Y14.6207
G01 X11.4655 Y14.6196
G01 X11.4503 Y14.6185
G01 X10.2981 Y14.6185
G01 X10.2815 Y14.6194
G01 X10.2347 Y14.6265
G01 X10.2193 Y14.6297
G01 X10.2081 Y14.6331
G01 X10.1971 Y14.6372
G01 X10.1864 Y14.6422
G01 X10.1762 Y14.6480
G01 X10.1076 Y14.6944
G01 X10.1012 Y14.6992
G01 X10.0922 Y14.7070
G01 X10.0811 Y14.7183
G01 X10.0711 Y14.7307
G01 X10.0625 Y14.7440
G01 X10.0552 Y14.7581
G01 X10.0258 Y14.8271
G01 X10.0203 Y14.8420
G01 X10.0171 Y14.8535
G01 X10.0149 Y14.8652
G01 X10.0135 Y14.8770
G01 X10.0130 Y14.8889
G01 X10.0134 Y14.9009
G01 X10.0146 Y14.9127
G01 X10.0272 Y14.9866
G01 X10.0306 Y15.0021
G01 X10.0356 Y15.0172
G01 X10.0402 Y15.0282
G01 X10.0477 Y15.0422
G01 X10.0566 Y15.0554
G01 X10.0667 Y15.0676
G01 X10.1172 Y15.1229
G01 X10.1254 Y15.1308
G01 X10.1341 Y15.1382
G01 X10.1433 Y15.1449
G01 X10.1497 Y15.1490
G01 X10.3409 Y15.2650
G01 X10.5235 Y15.4169
G01 X10.6817 Y15.5942
G01 X10.8120 Y15.7929
G01 X10.9115 Y16.0086
G01 X10.9780 Y16.2367
G01 X11.0100 Y16.4721
G01 X11.0069 Y16.7097
G01 X10.9687 Y16.9442
G01 X10.8963 Y17.1705
G01 X10.7912 Y17.3836
G01 X10.6558 Y17.5788
G01 X10.4930 Y17.7518
G01 X10.3064 Y17.8989
G01 X10.1001 Y18.0168
G01 X9.8787 Y18.1029
G01 X9.6469 Y18.1554
G01 X9.4704 Y18.1685
G01 X6.8289 Y18.1685
G01 X6.6316 Y18.1486
G01 X6.4014 Y18.0902
G01 X6.1823 Y17.9983
G01 X5.9791 Y17.8750
G01 X5.7965 Y17.7231
G01 X5.6383 Y17.5458
G01 X5.5080 Y17.3471
G01 X5.4085 Y17.1314
G01 X5.3420 Y16.9033
G01 X5.3100 Y16.6679
G00 Z1.0000
G00 X6.9100 Y17.9800
G01 F30.00
G01 Z-0.0800
G01 F100.00
G01 X6.7718 Y17.9732
G01 X6.6427 Y17.9542
G01 X6.6273 Y17.9512
G01 X6.5083 Y17.9214
G01 X6.4932 Y17.9168
G01 X6.3704 Y17.8727
G01 X6.2453 Y17.8135
G01 X6.1266 Y17.7424
G01 X6.0217 Y17.6648
G01 X6.0096 Y17.6548
G01 X5.9187 Y17.5724
G01 X5.9076 Y17.5613
G01 X5.8201 Y17.4645
G01 X5.7376 Y17.3534
G01 X5.6665 Y17.2347
G01 X5.6105 Y17.1168
G01 X5.6045 Y17.1023
G01 X5.5632 Y16.9868
G01 X5.5586 Y16.9717
G01 X5.5271 Y16.8451
G01 X5.5068 Y16.7082
G01 X5.5000 Y16.5700
G01 X5.5062 Y16.4396
G01 X5.5078 Y16.4240
G01 X5.5258 Y16.3027
G01 X5.5288 Y16.2873
G01 X5.5607 Y16.1607
G01 X5.6073 Y16.0304
G01 X5.6665 Y15.9053
G01 X5.7334 Y15.7933
G01 X5.7421 Y15.7802
G01 X5.8152 Y15.6817
G01 X5.8252 Y15.6696
G01 X5.9130 Y15.5730
G01 X6.0155 Y15.4801
G01 X6.1266 Y15.3976
G01 X6.2419 Y15.3284
G01 X6.2523 Y15.3230
G01 X6.3704 Y15.2673
G01 X6.4932 Y15.2232
G01 X6.5083 Y15.2186
G01 X6.6349 Y15.1871
G01 X6.7640 Y15.1678
G01 X6.7796 Y15.1662
G01 X6.9021 Y15.1602
G01 X9.4100 Y15.1600
G01 X9.5404 Y15.1662
G01 X9.5521 Y15.1672
G01 X9.6773 Y15.1858
G01 X9.6927 Y15.1888
G01 X9.8193 Y15.2207
G01 X9.9423 Y15.2645
G01 X9.9568 Y15.2705
G01 X10.0747 Y15.3265
G01 X10.1934 Y15.3976
G01 X10.3045 Y15.4801
G01 X10.4013 Y15.5676
G01 X10.4124 Y15.5787
G01 X10.4999 Y15.6755
G01 X10.5779 Y15.7802
G01 X10.5866 Y15.7933
G01 X10.6516 Y15.9019
G01 X10.6570 Y15.9123
G01 X10.7127 Y16.0304
G01 X10.7593 Y16.1607
G01 X10.7929 Y16.2949
G01 X10.8132 Y16.4318
G01 X10.8200 Y16.5700
G01 X10.8132 Y16.7082
G01 X10.7929 Y16.8451
G01 X10.7593 Y16.9793
G01 X10.7127 Y17.1096
G01 X10.6535 Y17.2347
G01 X10.5824 Y17.3534
G01 X10.4999 Y17.4645
G01 X10.4070 Y17.5670
G01 X10.3045 Y17.6599
G01 X10.1934 Y17.7424
G01 X10.0781 Y17.8116
G01 X10.0677 Y17.8170
G01 X9.9496 Y17.8727
G01 X9.8193 Y17.9193
G01 X9.6851 Y17.9529
G01 X9.5560 Y17.9722
G01 X9.5404 Y17.9738
G01 X9.4100 Y17.9800
G01 X6.9100 Y17.9800
G00 Z1.0000
G00 X9.8100 Y14.6220
G01 F30.00
G01 Z-0.0800
G01 F100.00
G01 X9.9129 Y14.6220
G01 X9.9057 Y14.6326
G01 X9.8965 Y14.6475
G01 X9.8842 Y14.6706
G01 X9.8769 Y14.6865
G01 X9.8491 Y14.7519
G01 X9.8427 Y14.7681
G01 X9.8370 Y14.7847
G01 X9.8322 Y14.8015
G01 X9.8266 Y14.8271
G01 X9.8239 Y14.8444
G01 X9.8215 Y14.8705
G01 X9.8210 Y14.8879
G01 X9.8218 Y14.9141
G01 X9.8246 Y14.9402
G01 X9.8395 Y15.0276
G01 X9.7310 Y15.0006
G01 X9.7140 Y14.9972
G01 X9.6892 Y14.9934
G01 X9.7059 Y14.9754
G01 X9.7170 Y14.9618
G01 X9.7274 Y14.9478
G01 X9.7416 Y14.9257
G01 X9.7502 Y14.9105
G01 X9.7616 Y14.8869
G01 X9.7682 Y14.8707
G01 X9.7740 Y14.8542
G01 X9.7789 Y14.8374
G01 X9.7830 Y14.8205
G01 X9.7981 Y14.7511
G01 X9.8014 Y14.7339
G01 X9.8047 Y14.7079
G01 X9.8061 Y14.6817
G01 X9.8055 Y14.6555
G01 X9.8040 Y14.6381
G01 X9.8018 Y14.6219
G01 X9.8100 Y14.6220
G00 Z1.0000
G00 X9.8100 Y14.4300
G01 F30.00
G01 Z-0.0800
G01 F100.00
G01 X9.7943 Y14.4292
G01 X9.7788 Y14.4269
G01 X9.7636 Y14.4231
G01 X9.7488 Y14.4178
G01 X9.7346 Y14.4111
G01 X9.7211 Y14.4030
G01 X9.7085 Y14.3937
G01 X9.6969 Y14.3831
G01 X9.6863 Y14.3715
G01 X9.6792 Y14.3621
G01 X9.6708 Y14.3489
G01 X9.6637 Y14.3348
G01 X9.6581 Y14.3202
G01 X9.6539 Y14.3051
G01 X9.6512 Y14.2896
G01 X9.6500 Y14.2739
G01 X9.6500 Y9.2661
G01 X9.6508 Y9.2543
G01 X9.6524 Y9.2426
G01 X9.6548 Y9.2311
G01 X9.6569 Y9.2236
G01 X9.6607 Y9.2124
G01 X9.6637 Y9.2052
G01 X9.6689 Y9.1946
G01 X9.6728 Y9.1877
G01 X9.6770 Y9.1811
G01 X9.6839 Y9.1716
G01 X9.6914 Y9.1626
G01 X9.6969 Y9.1569
G01 X9.7055 Y9.1488
G01 X9.7116 Y9.1439
G01 X9.7179 Y9.1392
G01 X9.7277 Y9.1328
G01 X9.7381 Y9.1271
G01 X9.7452 Y9.1237
G01 X9.7561 Y9.1194
G01 X9.7673 Y9.1158
G01 X9.7749 Y9.1139
G01 X9.7865 Y9.1117
G01 X9.7982 Y9.1104
G01 X9.8100 Y9.1100
G01 X12.3100 Y9.1100
G01 X12.3218 Y9.1104
G01 X12.3335 Y9.1117
G01 X12.3451 Y9.1139
G01 X12.3564 Y9.1169
G01 X12.3639 Y9.1194
G01 X12.3748 Y9.1237
G01 X12.3854 Y9.1289
G01 X12.3956 Y9.1348
G01 X12.4053 Y9.1415
G01 X12.4145 Y9.1488
G01 X12.4231 Y9.1569
G01 X12.4312 Y9.1655
G01 X12.4385 Y9.1747
G01 X12.4452 Y9.1844
G01 X12.4511 Y9.1946
G01 X12.4563 Y9.2052
G01 X12.4606 Y9.2161
G01 X12.4631 Y9.2236
G01 X12.4661 Y9.2349
G01 X12.4683 Y9.2465
G01 X12.4692 Y9.2543
G01 X12.4700 Y9.2661
G01 X12.4700 Y9.5678
G01 X13.1889 Y8.8489
G01 X13.2296 Y8.8120
G01 X13.2731 Y8.7797
G01 X15.1089 Y6.9439
G01 X15.1437 Y6.9121
G01 X15.1558 Y6.9021
G01 X15.1938 Y6.8742
G01 X15.2341 Y6.8498
G01 X15.2479 Y6.8424
G01 X15.2906 Y6.8224
G01 X15.3349 Y6.8064
G01 X15.3500 Y6.8018
G01 X15.3880 Y6.7923
G01 X15.3996 Y6.7898
G01 X15.4501 Y6.7825
G01 X15.5011 Y6.7798
G01 X15.8650 Y6.7798
G01 X15.8652 Y6.5821
G01 X15.8662 Y6.5704
G01 X15.8681 Y6.5588
G01 X15.8708 Y6.5473
G01 X15.8744 Y6.5361
G01 X15.8772 Y6.5288
G01 X15.8821 Y6.5181
G01 X15.8878 Y6.5077
G01 X15.8942 Y6.4979
G01 X15.8989 Y6.4916
G01 X15.9064 Y6.4826
G01 X15.9119 Y6.4769
G01 X15.9205 Y6.4688
G01 X15.9266 Y6.4639
G01 X15.9361 Y6.4570
G01 X15.9461 Y6.4508
G01 X15.9566 Y6.4454
G01 X15.9638 Y6.4422
G01 X15.9748 Y6.4381
G01 X15.9823 Y6.4358
G01 X15.9938 Y6.4331
G01 X16.0093 Y6.4308
G01 X16.0250 Y6.4300
G01 X17.5250 Y6.4300
G01 X17.5407 Y6.4308
G01 X17.5562 Y6.4331
G01 X17.5639 Y6.4348
G01 X17.5752 Y6.4381
G01 X17.5862 Y6.4422
G01 X17.5934 Y6.4454
G01 X17.6039 Y6.4508
G01 X17.6139 Y6.4570
G01 X17.6234 Y6.4639
G01 X17.6295 Y6.4688
G01 X17.6381 Y6.4769
G01 X17.6436 Y6.4826
G01 X17.6511 Y6.4916
G01 X17.6558 Y6.4979
G01 X17.6622 Y6.5077
G01 X17.6679 Y6.5181
G01 X17.6713 Y6.5252
G01 X17.6756 Y6.5361
G01 X17.6792 Y6.5473
G01 X17.6819 Y6.5588
G01 X17.6838 Y6.5704
G01 X17.6848 Y6.5821
G01 X17.6850 Y6.7798
G01 X21.5800 Y6.7798
G01 X21.5802 Y6.5821
G01 X21.5817 Y6.5665
G01 X21.5839 Y6.5549
G01 X21.5869 Y6.5436
G01 X21.5907 Y6.5324
G01 X21.5937 Y6.5252
G01 X21.5989 Y6.5146
G01 X21.6048 Y6.5044
G01 X21.6115 Y6.4947
G01 X21.6188 Y6.4855
G01 X21.6241 Y6.4797
G01 X21.6326 Y6.4714
G01 X21.6385 Y6.4663
G01 X21.6447 Y6.4615
G01 X21.6544 Y6.4548
G01 X21.6646 Y6.4489
G01 X21.6752 Y6.4437
G01 X21.6824 Y6.4407
G01 X21.6936 Y6.4369
G01 X21.7049 Y6.4339
G01 X21.7165 Y6.4317
G01 X21.7282 Y6.4304
G01 X21.7400 Y6.4300
G01 X23.2479 Y6.4302
G01 X23.2557 Y6.4308
G01 X23.2674 Y6.4324
G01 X23.2751 Y6.4339
G01 X23.2864 Y6.4369
G01 X23.2939 Y6.4394
G01 X23.3048 Y6.4437
G01 X23.3154 Y6.4489
G01 X23.3223 Y6.4528
G01 X23.3321 Y6.4592
G01 X23.3384 Y6.4639
G01 X23.3445 Y6.4688
G01 X23.3531 Y6.4769
G01 X23.3612 Y6.4855
G01 X23.3661 Y6.4916
G01 X23.3708 Y6.4979
G01 X23.3772 Y6.5077
G01 X23.3829 Y6.5181
G01 X23.3863 Y6.5252
G01 X23.3906 Y6.5361
G01 X23.3942 Y6.5473
G01 X23.3969 Y6.5588
G01 X23.3983 Y6.5665
G01 X23.3996 Y6.5782
G01 X23.4000 Y6.5861
G01 X23.4000 Y8.0900
G01 X23.3996 Y8.1018
G01 X23.3983 Y8.1135
G01 X23.3952 Y8.1289
G01 X23.3906 Y8.1439
G01 X23.3863 Y8.1548
G01 X23.3811 Y8.1654
G01 X23.3752 Y8.1756
G01 X23.3685 Y8.1853
G01 X23.3586 Y8.1974
G01 X23.3503 Y8.2059
G01 X23.3384 Y8.2161
G01 X23.3289 Y8.2230
G01 X23.3189 Y8.2292
G01 X23.3048 Y8.2363
G01 X23.2939 Y8.2406
G01 X23.2789 Y8.2452
G01 X23.2674 Y8.2476
G01 X23.2518 Y8.2496
G01 X23.2400 Y8.2500
G01 X21.7400 Y8.2500
G01 X21.7243 Y8.2492
G01 X21.7088 Y8.2469
G01 X21.7011 Y8.2452
G01 X21.6898 Y8.2419
G01 X21.6788 Y8.2378
G01 X21.6681 Y8.2329
G01 X21.6577 Y8.2272
G01 X21.6511 Y8.2230
G01 X21.6447 Y8.2185
G01 X21.6355 Y8.2112
G01 X21.6269 Y8.2031
G01 X21.6188 Y8.1945
G01 X21.6139 Y8.1884
G01 X21.6070 Y8.1789
G01 X21.6008 Y8.1689
G01 X21.5971 Y8.1619
G01 X21.5922 Y8.1512
G01 X21.5894 Y8.1439
G01 X21.5858 Y8.1327
G01 X21.5831 Y8.1212
G01 X21.5812 Y8.1096
G01 X21.5802 Y8.0979
G01 X21.5800 Y7.9002
G01 X17.6850 Y7.9002
G01 X17.6848 Y8.0979
G01 X17.6838 Y8.1096
G01 X17.6819 Y8.1212
G01 X17.6792 Y8.1327
G01 X17.6756 Y8.1439
G01 X17.6728 Y8.1512
G01 X17.6679 Y8.1619
G01 X17.6622 Y8.1723
G01 X17.6558 Y8.1821
G01 X17.6511 Y8.1884
G01 X17.6436 Y8.1974
G01 X17.6381 Y8.2031
G01 X17.6295 Y8.2112
G01 X17.6234 Y8.2161
G01 X17.6139 Y8.2230
G01 X17.6039 Y8.2292
G01 X17.5934 Y8.2346
G01 X17.5862 Y8.2378
G01 X17.5752 Y8.2419
G01 X17.5677 Y8.2442
G01 X17.5562 Y8.2469
G01 X17.5407 Y8.2492
G01 X17.5250 Y8.2500
G01 X16.0171 Y8.2498
G01 X16.0093 Y8.2492
G01 X15.9976 Y8.2476
G01 X15.9861 Y8.2452
G01 X15.9748 Y8.2419
G01 X15.9638 Y8.2378
G01 X15.9531 Y8.2329
G01 X15.9427 Y8.2272
G01 X15.9361 Y8.2230
G01 X15.9266 Y8.2161
G01 X15.9176 Y8.2086
G01 X15.9091 Y8.2003
G01 X15.9013 Y8.1915
G01 X15.8942 Y8.1821
G01 X15.8878 Y8.1723
G01 X15.8839 Y8.1654
G01 X15.8787 Y8.1548
G01 X15.8731 Y8.1402
G01 X15.8689 Y8.1251
G01 X15.8662 Y8.1096
G01 X15.8652 Y8.0979
G01 X15.8650 Y7.9002
G01 X15.7370 Y7.9002
G01 X13.9961 Y9.6411
G01 X13.9554 Y9.6780
G01 X13.9119 Y9.7103
G01 X12.4700 Y11.1522
G01 X12.4700 Y13.6728
G01 X13.7370 Y14.9398
G01 X15.8650 Y14.9398
G01 X15.8652 Y14.7421
G01 X15.8662 Y14.7304
G01 X15.8681 Y14.7188
G01 X15.8708 Y14.7073
G01 X15.8744 Y14.6961
G01 X15.8772 Y14.6888
G01 X15.8821 Y14.6781
G01 X15.8878 Y14.6677
G01 X15.8942 Y14.6579
G01 X15.8989 Y14.6516
G01 X15.9064 Y14.6426
G01 X15.9119 Y14.6369
G01 X15.9205 Y14.6288
G01 X15.9266 Y14.6239
G01 X15.9361 Y14.6170
G01 X15.9461 Y14.6108
G01 X15.9566 Y14.6054
G01 X15.9638 Y14.6022
G01 X15.9748 Y14.5981
G01 X15.9823 Y14.5958
G01 X15.9938 Y14.5931
G01 X16.0093 Y14.5908
G01 X16.0250 Y14.5900
G01 X17.5250 Y14.5900
G01 X17.5368 Y14.5904
G01 X17.5485 Y14.5917
G01 X17.5601 Y14.5939
G01 X17.5714 Y14.5969
G01 X17.5826 Y14.6007
G01 X17.5934 Y14.6054
G01 X17.6039 Y14.6108
G01 X17.6139 Y14.6170
G01 X17.6234 Y14.6239
G01 X17.6324 Y14.6314
G01 X17.6409 Y14.6397
G01 X17.6487 Y14.6485
G01 X17.6558 Y14.6579
G01 X17.6622 Y14.6677
G01 X17.6661 Y14.6746
G01 X17.6713 Y14.6852
G01 X17.6769 Y14.6998
G01 X17.6811 Y14.7149
G01 X17.6838 Y14.7304
G01 X17.6848 Y14.7421
G01 X17.6850 Y14.9398
G01 X21.5800 Y14.9398
G01 X21.5802 Y14.7421
G01 X21.5812 Y14.7304
G01 X21.5831 Y14.7188
G01 X21.5858 Y14.7073
G01 X21.5894 Y14.6961
G01 X21.5922 Y14.6888
G01 X21.5971 Y14.6781
G01 X21.6028 Y14.6677
G01 X21.6092 Y14.6579
G01 X21.6139 Y14.6516
G01 X21.6214 Y14.6426
G01 X21.6269 Y14.6369
G01 X21.6355 Y14.6288
G01 X21.6416 Y14.6239
G01 X21.6511 Y14.6170
G01 X21.6611 Y14.6108
G01 X21.6716 Y14.6054
G01 X21.6788 Y14.6022
G01 X21.6898 Y14.5981
G01 X21.6973 Y14.5958
G01 X21.7088 Y14.5931
G01 X21.7243 Y14.5908
G01 X21.7400 Y14.5900
G01 X23.2400 Y14.5900
G01 X23.2518 Y14.5904
G01 X23.2635 Y14.5917
G01 X23.2789 Y14.5948
G01 X23.2939 Y14.5994
G01 X23.3048 Y14.6037
G01 X23.3189 Y14.6108
G01 X23.3321 Y14.6192
G01 X23.3415 Y14.6263
G01 X23.3531 Y14.6369
G01 X23.3612 Y14.6455
G01 X23.3708 Y14.6579
G01 X23.3772 Y14.6677
G01 X23.3829 Y14.6781
G01 X23.3893 Y14.6924
G01 X23.3931 Y14.7036
G01 X23.3969 Y14.7188
G01 X23.3988 Y14.7304
G01 X23.4000 Y14.7461
G01 X23.3998 Y16.2579
G01 X23.3992 Y16.2657
G01 X23.3976 Y16.2774
G01 X23.3961 Y16.2851
G01 X23.3931 Y16.2964
G01 X23.3906 Y16.3039
G01 X23.3863 Y16.3148
G01 X23.3811 Y16.3254
G01 X23.3772 Y16.3323
G01 X23.3708 Y16.3421
G01 X23.3661 Y16.3484
G01 X23.3612 Y16.3545
G01 X23.3531 Y16.3631
G01 X23.3445 Y16.3712
G01 X23.3384 Y16.3761
G01 X23.3321 Y16.3808
G01 X23.3223 Y16.3872
G01 X23.3119 Y16.3929
G01 X23.3048 Y16.3963
G01 X23.2939 Y16.4006
G01 X23.2827 Y16.4042
G01 X23.2712 Y16.4069
G01 X23.2596 Y16.4088
G01 X23.2518 Y16.4096
G01 X23.2400 Y16.4100
G01 X21.7400 Y16.4100
G01 X21.7243 Y16.4092
G01 X21.7088 Y16.4069
G01 X21.7011 Y16.4052
G01 X21.6898 Y16.4019
G01 X21.6788 Y16.3978
G01 X21.6681 Y16.3929
G01 X21.6577 Y16.3872
G01 X21.6511 Y16.3830
G01 X21.6447 Y16.3785
G01 X21.6355 Y16.3712
G01 X21.6269 Y16.3631
G01 X21.6188 Y16.3545
G01 X21.6139 Y16.3484
G01 X21.6070 Y16.3389
G01 X21.6008 Y16.3289
G01 X21.5971 Y16.3219
G01 X21.5922 Y16.3112
G01 X21.5894 Y16.3039
G01 X21.5858 Y16.2927
G01 X21.5831 Y16.2812
G01 X21.5812 Y16.2696
G01 X21.5802 Y16.2579
G01 X21.5800 Y16.0602
G01 X17.6850 Y16.0602
G01 X17.6848 Y16.2579
G01 X17.6838 Y16.2696
G01 X17.6819 Y16.2812
G01 X17.6792 Y16.2927
G01 X17.6756 Y16.3039
G01 X17.6728 Y16.3112
G01 X17.6679 Y16.3219
G01 X17.6622 Y16.3323
G01 X17.6558 Y16.3421
G01 X17.6511 Y16.3484
G01 X17.6436 Y16.3574
G01 X17.6381 Y16.3631
G01 X17.6295 Y16.3712
G01 X17.6234 Y16.3761
G01 X17.6139 Y16.3830
G01 X17.6039 Y16.3892
G01 X17.5934 Y16.3946
G01 X17.5862 Y16.3978
G01 X17.5752 Y16.4019
G01 X17.5677 Y16.4042
G01 X17.5562 Y16.4069
G01 X17.5407 Y16.4092
G01 X17.5250 Y16.4100
G01 X16.0250 Y16.4100
G01 X16.0132 Y16.4096
G01 X16.0015 Y16.4083
G01 X15.9899 Y16.4061
G01 X15.9786 Y16.4031
G01 X15.9674 Y16.3993
G01 X15.9566 Y16.3946
G01 X15.9461 Y16.3892
G01 X15.9361 Y16.3830
G01 X15.9266 Y16.3761
G01 X15.9176 Y16.3686
G01 X15.9091 Y16.3603
G01 X15.9013 Y16.3515
G01 X15.8942 Y16.3421
G01 X15.8878 Y16.3323
G01 X15.8839 Y16.3254
G01 X15.8787 Y16.3148
G01 X15.8731 Y16.3002
G01 X15.8689 Y16.2851
G01 X15.8662 Y16.2696
G01 X15.8652 Y16.2579
G01 X15.8650 Y16.0602
G01 X13.5050 Y16.0602
G01 X13.4579 Y16.0581
G01 X13.4423 Y16.0565
G01 X13.3957 Y16.0494
G01 X13.3500 Y16.0382
G01 X13.3349 Y16.0336
G01 X13.2979 Y16.0204
G01 X13.2870 Y16.0160
G01 X13.2409 Y15.9941
G01 X13.2004 Y15.9700
G01 X13.1905 Y15.9636
G01 X13.1558 Y15.9379
G01 X13.1437 Y15.9279
G01 X13.1089 Y15.8961
G01 X11.6428 Y14.4300
G01 X9.8100 Y14.4300
G00 Z1.0000
G00 X15.6770 Y17.9140
G01 F30.00
G01 Z-0.0800
G01 F100.00
G01 X15.8650 Y17.9140
G01 X15.8650 Y18.2500
G01 X15.8658 Y18.2657
G01 X15.8674 Y18.2774
G01 X15.8708 Y18.2927
G01 X15.8757 Y18.3076
G01 X15.8804 Y18.3184
G01 X15.8878 Y18.3323
G01 X15.8942 Y18.3421
G01 X15.9038 Y18.3545
G01 X15.9119 Y18.3631
G01 X15.9235 Y18.3737
G01 X15.9329 Y18.3808
G01 X15.9461 Y18.3892
G01 X15.9566 Y18.3946
G01 X15.9711 Y18.4006
G01 X15.9823 Y18.4042
G01 X15.9938 Y18.4069
G01 X16.0093 Y18.4092
G01 X16.0250 Y18.4100
G01 X16.3610 Y18.4100
G01 X16.3610 Y18.5980
G01 X15.9856 Y18.5980
G01 X15.9521 Y18.5944
G01 X15.8562 Y18.5584
G01 X15.7764 Y18.4986
G01 X15.7166 Y18.4188
G01 X15.6806 Y18.3229
G01 X15.6770 Y18.2894
G01 X15.6770 Y17.9140
G00 Z1.0000
G00 X17.1890 Y18.4100
G01 F30.00
G01 Z-0.0800
G01 F100.00
G01 X17.5250 Y18.4100
G01 X17.5368 Y18.4096
G01 X17.5485 Y18.4083
G01 X17.5601 Y18.4061
G01 X17.5714 Y18.4031
G01 X17.5826 Y18.3993
G01 X17.5898 Y18.3963
G01 X17.6004 Y18.3911
G01 X17.6106 Y18.3852
G01 X17.6203 Y18.3785
G01 X17.6324 Y18.3686
G01 X17.6436 Y18.3574
G01 X17.6535 Y18.3453
G01 X17.6622 Y18.3323
G01 X17.6696 Y18.3184
G01 X17.6756 Y18.3039
G01 X17.6802 Y18.2889
G01 X17.6833 Y18.2735
G01 X17.6846 Y18.2618
G01 X17.6850 Y18.2500
G01 X17.6850 Y17.9140
G01 X17.8730 Y17.9140
G01 X17.8730 Y18.2894
G01 X17.8694 Y18.3229
G01 X17.8334 Y18.4188
G01 X17.7736 Y18.4986
G01 X17.6938 Y18.5584
G01 X17.5979 Y18.5944
G01 X17.5644 Y18.5980
G01 X17.1890 Y18.5980
G01 X17.1890 Y18.4100
G00 Z1.0000
G00 X21.3920 Y17.9140
G01 F30.00
G01 Z-0.0800
G01 F100.00
G01 X21.5800 Y17.9140
G01 X21.5800 Y18.2500
G01 X21.5808 Y18.2657
G01 X21.5824 Y18.2774
G01 X21.5858 Y18.2927
G01 X21.5907 Y18.3076
G01 X21.5954 Y18.3184
G01 X21.6028 Y18.3323
G01 X21.6092 Y18.3421
G01 X21.6188 Y18.3545
G01 X21.6269 Y18.3631
G01 X21.6385 Y18.3737
G01 X21.6479 Y18.3808
G01 X21.6611 Y18.3892
G01 X21.6716 Y18.3946
G01 X21.6861 Y18.4006
G01 X21.6973 Y18.4042
G01 X21.7088 Y18.4069
G01 X21.7243 Y18.4092
G01 X21.7400 Y18.4100
G01 X22.0760 Y18.4100
G01 X22.0760 Y18.5980
G01 X21.7006 Y18.5980
G01 X21.6671 Y18.5944
G01 X21.5712 Y18.5584
G01 X21.4914 Y18.4986
G01 X21.4316 Y18.4188
G01 X21.3956 Y18.3229
G01 X21.3920 Y18.2894
G01 X21.3920 Y17.9140
G00 Z1.0000
G00 X22.9040 Y18.4100
G01 F30.00
G01 Z-0.0800
G01 F100.00
G01 X23.2400 Y18.4100
G01 X23.2518 Y18.4096
G01 X23.2635 Y18.4083
G01 X23.2751 Y18.4061
G01 X23.2864 Y18.4031
G01 X23.2976 Y18.3993
G01 X23.3048 Y18.3963
G01 X23.3154 Y18.3911
G01 X23.3256 Y18.3852
G01 X23.3353 Y18.3785
G01 X23.3474 Y18.3686
G01 X23.3586 Y18.3574
G01 X23.3685 Y18.3453
G01 X23.3772 Y18.3323
G01 X23.3846 Y18.3184
G01 X23.3906 Y18.3039
G01 X23.3952 Y18.2889
G01 X23.3983 Y18.2735
G01 X23.3996 Y18.2618
G01 X23.4000 Y18.2500
G01 X23.4000 Y17.9140
G01 X23.5880 Y17.9140
G01 X23.5880 Y18.2894
G01 X23.5844 Y18.3229
G01 X23.5484 Y18.4188
G01 X23.4886 Y18.4986
G01 X23.4088 Y18.5584
G01 X23.3129 Y18.5944
G01 X23.2794 Y18.5980
G01 X22.9040 Y18.5980
G01 X22.9040 Y18.4100
G00 Z1.0000
G00 X24.4473 Y20.6556
G01 F30.00
G01 Z-0.0800
G01 F100.00
G01 X24.4671 Y20.4043
G01 X24.5207 Y20.1581
G01 X24.6074 Y19.9214
G01 X24.7253 Y19.6986
G01 X24.8724 Y19.4940
G01 X25.0459 Y19.3111
G01 X25.2426 Y19.1536
G01 X25.4588 Y19.0241
G01 X25.6907 Y18.9252
G01 X25.9338 Y18.8587
G01 X26.1837 Y18.8258
G01 X26.4357 Y18.8272
G01 X26.6852 Y18.8627
G01 X26.9276 Y18.9317
G01 X27.1584 Y19.0330
G01 X27.3733 Y19.1647
G01 X27.5683 Y19.3243
G01 X27.7399 Y19.5090
G01 X27.8848 Y19.7152
G01 X28.0004 Y19.9392
G01 X28.0846 Y20.1767
G01 X28.1357 Y20.4235
G01 X28.1531 Y20.6796
G01 X28.1528 Y20.7092
G01 X28.1300 Y20.9648
G01 X28.0737 Y21.2105
G01 X27.9847 Y21.4463
G01 X27.8644 Y21.6678
G01 X27.7152 Y21.8709
G01 X27.5398 Y22.0519
G01 X27.3414 Y22.2074
G01 X27.1238 Y22.3346
G01 X26.8910 Y22.4310
G01 X26.6472 Y22.4950
G01 X26.3970 Y22.5253
G01 X26.1450 Y22.5213
G01 X25.8958 Y22.4832
G01 X25.6542 Y22.4116
G01 X25.4244 Y22.3079
G01 X25.2109 Y22.1740
G01 X25.0176 Y22.0123
G01 X24.8480 Y21.8259
G01 X24.7052 Y21.6182
G01 X24.5920 Y21.3930
G01 X24.5103 Y21.1545
G01 X24.4618 Y20.9072
G01 X24.4473 Y20.6556
G00 Z1.0000
G00 X24.6397 Y20.6576
G01 F30.00
G01 Z-0.0800
G01 F100.00
G01 X24.6574 Y20.4324
G01 X24.7056 Y20.2118
G01 X24.7832 Y19.9997
G01 X24.8889 Y19.8001
G01 X25.0207 Y19.6166
G01 X25.1761 Y19.4528
G01 X25.3524 Y19.3116
G01 X25.5462 Y19.1956
G01 X25.7540 Y19.1070
G01 X25.9718 Y19.0474
G01 X26.1957 Y19.0179
G01 X26.4216 Y19.0191
G01 X26.6452 Y19.0509
G01 X26.8624 Y19.1128
G01 X27.0692 Y19.2036
G01 X27.2618 Y19.3216
G01 X27.4366 Y19.4646
G01 X27.5904 Y19.6301
G01 X27.7202 Y19.8149
G01 X27.8238 Y20.0156
G01 X27.8992 Y20.2285
G01 X27.9450 Y20.4497
G01 X27.9610 Y20.6844
G01 X27.9608 Y20.7013
G01 X27.9399 Y20.9347
G01 X27.8895 Y21.1549
G01 X27.8097 Y21.3662
G01 X27.7019 Y21.5647
G01 X27.5682 Y21.7467
G01 X27.4110 Y21.9089
G01 X27.2333 Y22.0483
G01 X27.0383 Y22.1622
G01 X26.8296 Y22.2487
G01 X26.6111 Y22.3060
G01 X26.3869 Y22.3331
G01 X26.1611 Y22.3296
G01 X25.9378 Y22.2954
G01 X25.7212 Y22.2312
G01 X25.5154 Y22.1383
G01 X25.3241 Y22.0183
G01 X25.1508 Y21.8734
G01 X24.9988 Y21.7063
G01 X24.8708 Y21.5202
G01 X24.7694 Y21.3184
G01 X24.6962 Y21.1047
G01 X24.6527 Y20.8831
G01 X24.6397 Y20.6576
G00 Z1.0000
G00 X24.8321 Y20.6596
G01 F30.00
G01 Z-0.0800
G01 F100.00
G01 X24.8478 Y20.4606
G01 X24.8904 Y20.2655
G01 X24.9590 Y20.0779
G01 X25.0524 Y19.9015
G01 X25.1689 Y19.7393
G01 X25.3060 Y19.5949
G01 X25.4654 Y19.4677
G01 X25.6336 Y19.3671
G01 X25.8172 Y19.2887
G01 X26.0099 Y19.2360
G01 X26.2078 Y19.2100
G01 X26.4075 Y19.2110
G01 X26.6046 Y19.2391
G01 X26.8006 Y19.2953
G01 X26.9796 Y19.3739
G01 X27.1532 Y19.4808
G01 X27.3044 Y19.6046
G01 X27.4429 Y19.7542
G01 X27.5556 Y19.9146
G01 X27.6472 Y20.0920
G01 X27.7137 Y20.2797
G01 X27.7546 Y20.4795
G01 X27.7689 Y20.6895
G01 X27.7499 Y20.9046
G01 X27.7054 Y21.0987
G01 X27.6329 Y21.2893
G01 X27.5384 Y21.4629
G01 X27.4212 Y21.6225
G01 X27.2822 Y21.7659
G01 X27.1251 Y21.8891
G01 X26.9527 Y21.9898
G01 X26.7682 Y22.0663
G01 X26.5756 Y22.1168
G01 X26.3731 Y22.1409
G01 X26.1740 Y22.1373
G01 X25.9798 Y22.1076
G01 X25.7883 Y22.0509
G01 X25.6044 Y21.9675
G01 X25.4372 Y21.8626
G01 X25.2840 Y21.7345
G01 X25.1496 Y21.5868
G01 X25.0368 Y21.4227
G01 X24.9456 Y21.2403
G01 X24.8821 Y21.0549
G01 X24.8436 Y20.8590
G01 X24.8321 Y20.6596
G00 Z1.0000
G00 X22.9040 Y10.2500
G01 F30.00
G01 Z-0.0800
G01 F100.00
G01 X23.2400 Y10.2500
G01 X23.2518 Y10.2496
G01 X23.2596 Y10.2488
G01 X23.2712 Y10.2469
G01 X23.2827 Y10.2442
G01 X23.2939 Y10.2406
G01 X23.3048 Y10.2363
G01 X23.3154 Y10.2311
G01 X23.3256 Y10.2252
G01 X23.3353 Y10.2185
G01 X23.3474 Y10.2086
G01 X23.3586 Y10.1974
G01 X23.3685 Y10.1853
G01 X23.3772 Y10.1723
G01 X23.3846 Y10.1584
G01 X23.3906 Y10.1439
G01 X23.3952 Y10.1289
G01 X23.3983 Y10.1135
G01 X23.3996 Y10.1018
G01 X23.4000 Y10.0900
G01 X23.4000 Y9.7540
G01 X23.5880 Y9.7540
G01 X23.5880 Y10.1294
G01 X23.5844 Y10.1629
G01 X23.5484 Y10.2588
G01 X23.4886 Y10.3386
G01 X23.4088 Y10.3984
G01 X23.3129 Y10.4344
G01 X23.2794 Y10.4380
G01 X22.9040 Y10.4380
G01 X22.9040 Y10.2500
G00 Z1.0000
G00 X21.3920 Y9.7540
G01 F30.00
G01 Z-0.0800
G01 F100.00
G01 X21.5800 Y9.7540
G01 X21.5800 Y10.0900
G01 X21.5808 Y10.1057
G01 X21.5824 Y10.1174
G01 X21.5858 Y10.1327
G01 X21.5894 Y10.1439
G01 X21.5954 Y10.1584
G01 X21.6008 Y10.1689
G01 X21.6092 Y10.1821
G01 X21.6188 Y10.1945
G01 X21.6269 Y10.2031
G01 X21.6355 Y10.2112
G01 X21.6479 Y10.2208
G01 X21.6577 Y10.2272
G01 X21.6716 Y10.2346
G01 X21.6861 Y10.2406
G01 X21.6973 Y10.2442
G01 X21.7088 Y10.2469
G01 X21.7243 Y10.2492
G01 X21.7400 Y10.2500
G01 X22.0760 Y10.2500
G01 X22.0760 Y10.4380
G01 X21.7006 Y10.4380
G01 X21.6671 Y10.4344
G01 X21.5712 Y10.3984
G01 X21.4914 Y10.3386
G01 X21.4316 Y10.2588
G01 X21.3956 Y10.1629
G01 X21.3920 Y10.1294
G01 X21.3920 Y9.7540
G00 Z1.0000
G00 X17.1890 Y10.2500
G01 F30.00
G01 Z-0.0800
G01 F100.00
G01 X17.5250 Y10.2500
G01 X17.5368 Y10.2496
G01 X17.5446 Y10.2488
G01 X17.5562 Y10.2469
G01 X17.5677 Y10.2442
G01 X17.5789 Y10.2406
G01 X17.5898 Y10.2363
G01 X17.6004 Y10.2311
G01 X17.6106 Y10.2252
G01 X17.6203 Y10.2185
G01 X17.6324 Y10.2086
G01 X17.6436 Y10.1974
G01 X17.6535 Y10.1853
G01 X17.6622 Y10.1723
G01 X17.6696 Y10.1584
G01 X17.6756 Y10.1439
G01 X17.6802 Y10.1289
G01 X17.6833 Y10.1135
G01 X17.6846 Y10.1018
G01 X17.6850 Y10.0900
G01 X17.6850 Y9.7540
G01 X17.8730 Y9.7540
G01 X17.8730 Y10.1294
G01 X17.8694 Y10.1629
G01 X17.8334 Y10.2588
G01 X17.7736 Y10.3386
G01 X17.6938 Y10.3984
G01 X17.5979 Y10.4344
G01 X17.5644 Y10.4380
G01 X17.1890 Y10.4380
G01 X17.1890 Y10.2500
G00 Z1.0000
G00 X15.6770 Y9.7540
G01 F30.00
G01 Z-0.0800
G01 F100.00
G01 X15.8650 Y9.7540
G01 X15.8650 Y10.0900
G01 X15.8658 Y10.1057
G01 X15.8674 Y10.1174
G01 X15.8708 Y10.1327
G01 X15.8744 Y10.1439
G01 X15.8804 Y10.1584
G01 X15.8858 Y10.1689
G01 X15.8942 Y10.1821
G01 X15.9038 Y10.1945
G01 X15.9119 Y10.2031
G01 X15.9205 Y10.2112
G01 X15.9329 Y10.2208
G01 X15.9427 Y10.2272
G01 X15.9566 Y10.2346
G01 X15.9711 Y10.2406
G01 X15.9823 Y10.2442
G01 X15.9938 Y10.2469
G01 X16.0093 Y10.2492
G01 X16.0250 Y10.2500
G01 X16.3610 Y10.2500
G01 X16.3610 Y10.4380
G01 X15.9856 Y10.4380
G01 X15.9521 Y10.4344
G01 X15.8562 Y10.3984
G01 X15.7764 Y10.3386
G01 X15.7166 Y10.2588
G01 X15.6806 Y10.1629
G01 X15.6770 Y10.1294
G01 X15.6770 Y9.7540
G00 Z1.0000
G00 X15.4609 Y8.4479
G01 F30.00
G01 Z-0.0800
G01 F100.00
G01 X15.6954 Y8.2134
G01 X15.7032 Y8.2326
G01 X15.7106 Y8.2483
G01 X15.7187 Y8.2635
G01 X15.7276 Y8.2783
G01 X15.7423 Y8.2997
G01 X15.7529 Y8.3133
G01 X15.7642 Y8.3264
G01 X15.7772 Y8.3400
G01 X15.7701 Y8.3473
G01 X15.7585 Y8.3601
G01 X15.7423 Y8.3803
G01 X15.7276 Y8.4017
G01 X15.7187 Y8.4165
G01 X15.7106 Y8.4317
G01 X15.7032 Y8.4474
G01 X15.6966 Y8.4633
G01 X15.6882 Y8.4878
G01 X15.6816 Y8.5129
G01 X15.6782 Y8.5298
G01 X15.6766 Y8.5401
G01 X15.6389 Y8.5120
G01 X15.6244 Y8.5022
G01 X15.6095 Y8.4932
G01 X15.5941 Y8.4849
G01 X15.5702 Y8.4740
G01 X15.5457 Y8.4648
G01 X15.5205 Y8.4575
G01 X15.4948 Y8.4521
G01 X15.4775 Y8.4495
G01 X15.4609 Y8.4479
G00 Z1.0000
G00 X24.4473 Y4.1456
G01 F30.00
G01 Z-0.0800
G01 F100.00
G01 X24.4671 Y3.8943
G01 X24.5207 Y3.6481
G01 X24.6074 Y3.4114
G01 X24.7253 Y3.1886
G01 X24.8724 Y2.9840
G01 X25.0459 Y2.8011
G01 X25.2426 Y2.6436
G01 X25.4588 Y2.5141
G01 X25.6907 Y2.4152
G01 X25.9338 Y2.3487
G01 X26.1837 Y2.3158
G01 X26.4357 Y2.3172
G01 X26.6852 Y2.3527
G01 X26.9276 Y2.4217
G01 X27.1584 Y2.5230
G01 X27.3733 Y2.6547
G01 X27.5683 Y2.8143
G01 X27.7399 Y2.9990
G01 X27.8848 Y3.2052
G01 X28.0004 Y3.4292
G01 X28.0846 Y3.6667
G01 X28.1357 Y3.9135
G01 X28.1531 Y4.1696
G01 X28.1528 Y4.1992
G01 X28.1300 Y4.4548
G01 X28.0737 Y4.7005
G01 X27.9847 Y4.9363
G01 X27.8644 Y5.1578
G01 X27.7152 Y5.3609
G01 X27.5398 Y5.5419
G01 X27.3414 Y5.6974
G01 X27.1238 Y5.8246
G01 X26.8910 Y5.9210
G01 X26.6472 Y5.9850
G01 X26.3970 Y6.0153
G01 X26.1450 Y6.0113
G01 X25.8958 Y5.9732
G01 X25.6542 Y5.9016
G01 X25.4244 Y5.7979
G01 X25.2109 Y5.6640
G01 X25.0176 Y5.5023
G01 X24.8480 Y5.3159
G01 X24.7052 Y5.1082
G01 X24.5920 Y4.8830
G01 X24.5103 Y4.6445
G01 X24.4618 Y4.3972
G01 X24.4473 Y4.1456
G00 Z1.0000
G00 X24.6397 Y4.1476
G01 F30.00
G01 Z-0.0800
G01 F100.00
G01 X24.6574 Y3.9224
G01 X24.7056 Y3.7018
G01 X24.7832 Y3.4897
G01 X24.8889 Y3.2901
G01 X25.0207 Y3.1066
G01 X25.1761 Y2.9428
G01 X25.3524 Y2.8016
G01 X25.5462 Y2.6856
G01 X25.7540 Y2.5970
G01 X25.9718 Y2.5374
G01 X26.1957 Y2.5079
G01 X26.4216 Y2.5091
G01 X26.6452 Y2.5409
G01 X26.8624 Y2.6028
G01 X27.0692 Y2.6936
G01 X27.2618 Y2.8116
G01 X27.4366 Y2.9546
G01 X27.5904 Y3.1201
G01 X27.7202 Y3.3049
G01 X27.8238 Y3.5056
G01 X27.8992 Y3.7185
G01 X27.9450 Y3.9397
G01 X27.9610 Y4.1744
G01 X27.9608 Y4.1913
G01 X27.9399 Y4.4247
G01 X27.8895 Y4.6449
G01 X27.8097 Y4.8562
G01 X27.7019 Y5.0547
G01 X27.5682 Y5.2367
G01 X27.4110 Y5.3989
G01 X27.2333 Y5.5383
G01 X27.0383 Y5.6522
G01 X26.8296 Y5.7387
G01 X26.6111 Y5.7960
G01 X26.3869 Y5.8231
G01 X26.1611 Y5.8196
G01 X25.9378 Y5.7854
G01 X25.7212 Y5.7212
G01 X25.5154 Y5.6283
G01 X25.3241 Y5.5083
G01 X25.1508 Y5.3634
G01 X24.9988 Y5.1963
G01 X24.8708 Y5.0102
G01 X24.7694 Y4.8084
G01 X24.6962 Y4.5947
G01 X24.6527 Y4.3731
G01 X24.6397 Y4.1476
G00 Z1.0000
G00 X24.8321 Y4.1496
G01 F30.00
G01 Z-0.0800
G01 F100.00
G01 X24.8478 Y3.9506
G01 X24.8904 Y3.7555
G01 X24.9590 Y3.5679
G01 X25.0524 Y3.3915
G01 X25.1689 Y3.2293
G01 X25.3060 Y3.0849
G01 X25.4654 Y2.9577
G01 X25.6336 Y2.8571
G01 X25.8172 Y2.7787
G01 X26.0099 Y2.7260
G01 X26.2078 Y2.7000
G01 X26.4075 Y2.7010
G01 X26.6046 Y2.7291
G01 X26.8006 Y2.7853
G01 X26.9796 Y2.8639
G01 X27.1532 Y2.9708
G01 X27.3049 Y3.0949
G01 X27.3950 Y3.1919
G01 X27.4424 Y3.2435
G01 X27.5556 Y3.4046
G01 X27.6469 Y3.5815
G01 X27.7146 Y3.7739
G01 X27.7543 Y3.9658
G01 X27.7689 Y4.1795
G01 X27.7499 Y4.3946
G01 X27.7054 Y4.5887
G01 X27.6329 Y4.7793
G01 X27.5384 Y4.9529
G01 X27.4212 Y5.1125
G01 X27.2822 Y5.2559
G01 X27.1251 Y5.3791
G01 X26.9527 Y5.4798
G01 X26.7682 Y5.5563
G01 X26.5756 Y5.6068
G01 X26.3731 Y5.6309
G01 X26.1740 Y5.6273
G01 X25.9798 Y5.5976
G01 X25.7883 Y5.5409
G01 X25.6044 Y5.4575
G01 X25.4372 Y5.3526
G01 X25.2844 Y5.2249
G01 X25.1475 Y5.0737
G01 X25.0365 Y4.9122
G01 X24.9468 Y4.7338
G01 X24.8821 Y4.5449
G01 X24.8436 Y4.3490
G01 X24.8321 Y4.1496
G00 Z1.0000
G00 X2.6071 Y20.6596
G01 F30.00
G01 Z-0.0800
G01 F100.00
G01 X2.6228 Y20.4606
G01 X2.6654 Y20.2655
G01 X2.7340 Y20.0779
G01 X2.8274 Y19.9015
G01 X2.9439 Y19.7393
G01 X3.0810 Y19.5949
G01 X3.2404 Y19.4677
G01 X3.4086 Y19.3671
G01 X3.5922 Y19.2887
G01 X3.7849 Y19.2360
G01 X3.9828 Y19.2100
G01 X4.1825 Y19.2110
G01 X4.3796 Y19.2391
G01 X4.5756 Y19.2953
G01 X4.7546 Y19.3739
G01 X4.9282 Y19.4808
G01 X5.0794 Y19.6046
G01 X5.2179 Y19.7542
G01 X5.3306 Y19.9146
G01 X5.4222 Y20.0920
G01 X5.4887 Y20.2797
G01 X5.5296 Y20.4795
G01 X5.5439 Y20.6895
G01 X5.5249 Y20.9046
G01 X5.4804 Y21.0987
G01 X5.4079 Y21.2893
G01 X5.3134 Y21.4629
G01 X5.1962 Y21.6225
G01 X5.0572 Y21.7659
G01 X4.9001 Y21.8891
G01 X4.7277 Y21.9898
G01 X4.5432 Y22.0663
G01 X4.3506 Y22.1168
G01 X4.1481 Y22.1409
G01 X3.9490 Y22.1373
G01 X3.7548 Y22.1076
G01 X3.5633 Y22.0509
G01 X3.3794 Y21.9675
G01 X3.2122 Y21.8626
G01 X3.0590 Y21.7345
G01 X2.9246 Y21.5868
G01 X2.8118 Y21.4227
G01 X2.7206 Y21.2403
G01 X2.6571 Y21.0549
G01 X2.6186 Y20.8590
G01 X2.6071 Y20.6596
G00 Z1.0000
G00 X2.4147 Y20.6576
G01 F30.00
G01 Z-0.0800
G01 F100.00
G01 X2.4324 Y20.4324
G01 X2.4806 Y20.2118
G01 X2.5582 Y19.9997
G01 X2.6639 Y19.8001
G01 X2.7957 Y19.6166
G01 X2.9511 Y19.4528
G01 X3.1274 Y19.3116
G01 X3.3212 Y19.1956
G01 X3.5290 Y19.1070
G01 X3.7468 Y19.0474
G01 X3.9707 Y19.0179
G01 X4.1966 Y19.0191
G01 X4.4202 Y19.0509
G01 X4.6374 Y19.1128
G01 X4.8442 Y19.2036
G01 X5.0368 Y19.3216
G01 X5.2116 Y19.4646
G01 X5.3654 Y19.6301
G01 X5.4952 Y19.8149
G01 X5.5988 Y20.0156
G01 X5.6742 Y20.2285
G01 X5.7200 Y20.4497
G01 X5.7360 Y20.6844
G01 X5.7358 Y20.7013
G01 X5.7149 Y20.9347
G01 X5.6645 Y21.1549
G01 X5.5847 Y21.3662
G01 X5.4769 Y21.5647
G01 X5.3432 Y21.7467
G01 X5.1860 Y21.9089
G01 X5.0083 Y22.0483
G01 X4.8133 Y22.1622
G01 X4.6046 Y22.2487
G01 X4.3861 Y22.3060
G01 X4.1619 Y22.3331
G01 X3.9361 Y22.3296
G01 X3.7128 Y22.2954
G01 X3.4962 Y22.2312
G01 X3.2904 Y22.1383
G01 X3.0991 Y22.0183
G01 X2.9258 Y21.8734
G01 X2.7738 Y21.7063
G01 X2.6458 Y21.5202
G01 X2.5444 Y21.3184
G01 X2.4712 Y21.1047
G01 X2.4277 Y20.8831
G01 X2.4147 Y20.6576
G00 Z1.0000
G00 X2.2223 Y20.6556
G01 F30.00
G01 Z-0.0800
G01 F100.00
G01 X2.2421 Y20.4043
G01 X2.2957 Y20.1581
G01 X2.3824 Y19.9214
G01 X2.5003 Y19.6986
G01 X2.6474 Y19.4940
G01 X2.8209 Y19.3111
G01 X3.0176 Y19.1536
G01 X3.2338 Y19.0241
G01 X3.4657 Y18.9252
G01 X3.7088 Y18.8587
G01 X3.9587 Y18.8258
G01 X4.2107 Y18.8272
G01 X4.4602 Y18.8627
G01 X4.7026 Y18.9317
G01 X4.9334 Y19.0330
G01 X5.1483 Y19.1647
G01 X5.3433 Y19.3243
G01 X5.5149 Y19.5090
G01 X5.6598 Y19.7152
G01 X5.7754 Y19.9392
G01 X5.8596 Y20.1767
G01 X5.9107 Y20.4235
G01 X5.9281 Y20.6796
G01 X5.9278 Y20.7092
G01 X5.9050 Y20.9648
G01 X5.8487 Y21.2105
G01 X5.7597 Y21.4463
G01 X5.6394 Y21.6678
G01 X5.4902 Y21.8709
G01 X5.3148 Y22.0519
G01 X5.1164 Y22.2074
G01 X4.8988 Y22.3346
G01 X4.6660 Y22.4310
G01 X4.4222 Y22.4950
G01 X4.1720 Y22.5253
G01 X3.9200 Y22.5213
G01 X3.6708 Y22.4832
G01 X3.4292 Y22.4116
G01 X3.1994 Y22.3079
G01 X2.9859 Y22.1740
G01 X2.7926 Y22.0123
G01 X2.6230 Y21.8259
G01 X2.4802 Y21.6182
G01 X2.3670 Y21.3930
G01 X2.2853 Y21.1545
G01 X2.2368 Y20.9072
G01 X2.2223 Y20.6556
G00 Z1.0000
M05
G00 Z1.0000
G00 Z15.00
G00 X0.0 Y0.0


