(G-CODE GENERATED BY FLATCAM v8.994 - www.flatcam.org - Version Date: 2020/11/7)

(Name: dc_ph2_converter-F_Cu.gbr_iso_combined_cnc)
(Type: G-code from Geometry)
(Units: MM)

(Created on Tuesday, 17 January 2023 at 13:49)

(This preprocessor is the default preprocessor used by FlatCAM.)
(It is made to work with MACH3 compatible motion controllers.)

(TOOL DIAMETER: 0.32 mm)
(Feedrate_XY: 100.0 mm/min)
(Feedrate_Z: 30.0 mm/min)
(Feedrate rapids 1500.0 mm/min)

(Z_Cut: -0.12 mm)
(Z_Move: 1.0 mm)
(Z Start: None mm)
(Z End: 15.0 mm)
(X,Y End: 0.0000, 0.0000 mm)
(Steps per circle: 64)
(Preprocessor Geometry: default)

(X range:    0.6315 ...   34.0935  mm)
(Y range:    0.7215 ...   22.1185  mm)

(Spindle Speed: 1000.0 RPM)
G21
G90
G94

G01 F100.00

M5
G00 Z15.0000
G00 X0.0000 Y0.0000
T1
M6    
(MSG, Change to Tool Dia = 0.3200)
M0
G00 Z15.0000

M03 S1000.0
G01 F100.00
G00 X5.9100 Y5.7320
G01 F30.00
G01 Z-0.1200
G01 F100.00
G01 X8.4100 Y5.7320
G01 X8.4241 Y5.7323
G01 X8.5537 Y5.7388
G01 X8.5748 Y5.7411
G01 X8.6961 Y5.7591
G01 X8.7100 Y5.7616
G01 X8.7238 Y5.7646
G01 X8.8428 Y5.7945
G01 X8.8565 Y5.7982
G01 X8.8699 Y5.8027
G01 X8.9854 Y5.8440
G01 X8.9986 Y5.8491
G01 X9.0115 Y5.8548
G01 X9.1224 Y5.9072
G01 X9.1350 Y5.9136
G01 X9.1473 Y5.9206
G01 X9.2585 Y5.9873
G01 X9.2760 Y5.9993
G01 X9.3746 Y6.0724
G01 X9.3857 Y6.0811
G01 X9.3964 Y6.0903
G01 X9.4873 Y6.1727
G01 X9.4975 Y6.1825
G01 X9.5073 Y6.1927
G01 X9.5897 Y6.2836
G01 X9.5989 Y6.2943
G01 X9.6076 Y6.3054
G01 X9.6807 Y6.4040
G01 X9.6888 Y6.4155
G01 X9.6964 Y6.4275
G01 X9.7594 Y6.5327
G01 X9.7664 Y6.5450
G01 X9.7728 Y6.5576
G01 X9.8252 Y6.6685
G01 X9.8309 Y6.6814
G01 X9.8360 Y6.6946
G01 X9.8773 Y6.8101
G01 X9.8818 Y6.8235
G01 X9.8855 Y6.8372
G01 X9.9154 Y6.9562
G01 X9.9184 Y6.9700
G01 X9.9209 Y6.9839
G01 X9.9389 Y7.1052
G01 X9.9406 Y7.1192
G01 X9.9416 Y7.1333
G01 X9.9477 Y7.2559
G01 X9.9480 Y7.2700
G01 X9.9477 Y7.2841
G01 X9.9416 Y7.4067
G01 X9.9406 Y7.4208
G01 X9.9389 Y7.4348
G01 X9.9209 Y7.5561
G01 X9.9184 Y7.5700
G01 X9.9154 Y7.5838
G01 X9.8855 Y7.7028
G01 X9.8818 Y7.7165
G01 X9.8773 Y7.7299
G01 X9.8360 Y7.8454
G01 X9.8309 Y7.8586
G01 X9.8252 Y7.8715
G01 X9.7728 Y7.9824
G01 X9.7664 Y7.9950
G01 X9.7594 Y8.0073
G01 X9.6927 Y8.1185
G01 X9.6807 Y8.1360
G01 X9.6076 Y8.2346
G01 X9.5989 Y8.2457
G01 X9.5897 Y8.2564
G01 X9.5073 Y8.3473
G01 X9.4975 Y8.3575
G01 X9.4873 Y8.3673
G01 X9.3964 Y8.4497
G01 X9.3857 Y8.4589
G01 X9.3746 Y8.4676
G01 X9.2760 Y8.5407
G01 X9.2645 Y8.5488
G01 X9.2525 Y8.5564
G01 X9.1473 Y8.6194
G01 X9.1350 Y8.6264
G01 X9.1224 Y8.6328
G01 X9.0115 Y8.6852
G01 X8.9986 Y8.6909
G01 X8.9854 Y8.6960
G01 X8.8699 Y8.7373
G01 X8.8565 Y8.7418
G01 X8.8428 Y8.7455
G01 X8.7238 Y8.7754
G01 X8.7100 Y8.7784
G01 X8.6961 Y8.7809
G01 X8.5748 Y8.7989
G01 X8.5608 Y8.8006
G01 X8.5467 Y8.8016
G01 X8.4241 Y8.8077
G01 X8.4100 Y8.8080
G01 X5.9100 Y8.8080
G01 X5.8959 Y8.8077
G01 X5.7663 Y8.8012
G01 X5.7452 Y8.7989
G01 X5.6239 Y8.7809
G01 X5.6100 Y8.7784
G01 X5.5962 Y8.7754
G01 X5.4772 Y8.7455
G01 X5.4635 Y8.7418
G01 X5.4501 Y8.7373
G01 X5.3346 Y8.6960
G01 X5.3214 Y8.6909
G01 X5.3085 Y8.6852
G01 X5.1976 Y8.6328
G01 X5.1850 Y8.6264
G01 X5.1727 Y8.6194
G01 X5.0615 Y8.5527
G01 X5.0440 Y8.5407
G01 X4.9454 Y8.4676
G01 X4.9343 Y8.4589
G01 X4.9236 Y8.4497
G01 X4.8327 Y8.3673
G01 X4.8225 Y8.3575
G01 X4.8127 Y8.3473
G01 X4.7303 Y8.2564
G01 X4.7211 Y8.2457
G01 X4.7124 Y8.2346
G01 X4.6393 Y8.1360
G01 X4.6312 Y8.1245
G01 X4.6236 Y8.1125
G01 X4.5606 Y8.0073
G01 X4.5536 Y7.9950
G01 X4.5472 Y7.9824
G01 X4.4948 Y7.8715
G01 X4.4891 Y7.8586
G01 X4.4840 Y7.8454
G01 X4.4427 Y7.7299
G01 X4.4382 Y7.7165
G01 X4.4345 Y7.7028
G01 X4.4046 Y7.5838
G01 X4.4016 Y7.5700
G01 X4.3991 Y7.5561
G01 X4.3811 Y7.4348
G01 X4.3794 Y7.4208
G01 X4.3784 Y7.4067
G01 X4.3723 Y7.2841
G01 X4.3720 Y7.2700
G01 X4.3723 Y7.2559
G01 X4.3784 Y7.1333
G01 X4.3794 Y7.1192
G01 X4.3811 Y7.1052
G01 X4.3991 Y6.9839
G01 X4.4016 Y6.9700
G01 X4.4046 Y6.9562
G01 X4.4345 Y6.8372
G01 X4.4382 Y6.8235
G01 X4.4427 Y6.8101
G01 X4.4840 Y6.6946
G01 X4.4891 Y6.6814
G01 X4.4948 Y6.6685
G01 X4.5472 Y6.5576
G01 X4.5536 Y6.5450
G01 X4.5606 Y6.5327
G01 X4.6236 Y6.4275
G01 X4.6312 Y6.4155
G01 X4.6393 Y6.4040
G01 X4.7124 Y6.3054
G01 X4.7211 Y6.2943
G01 X4.7303 Y6.2836
G01 X4.8127 Y6.1927
G01 X4.8225 Y6.1825
G01 X4.8327 Y6.1727
G01 X4.9236 Y6.0903
G01 X4.9343 Y6.0811
G01 X4.9454 Y6.0724
G01 X5.0440 Y5.9993
G01 X5.0555 Y5.9912
G01 X5.0675 Y5.9836
G01 X5.1727 Y5.9206
G01 X5.1850 Y5.9136
G01 X5.1976 Y5.9072
G01 X5.3085 Y5.8548
G01 X5.3214 Y5.8491
G01 X5.3346 Y5.8440
G01 X5.4501 Y5.8027
G01 X5.4635 Y5.7982
G01 X5.4772 Y5.7945
G01 X5.5962 Y5.7646
G01 X5.6100 Y5.7616
G01 X5.6239 Y5.7591
G01 X5.7452 Y5.7411
G01 X5.7592 Y5.7394
G01 X5.7733 Y5.7384
G01 X5.8959 Y5.7323
G01 X5.9100 Y5.7320
G00 Z1.0000
G00 X5.9100 Y5.8600
G01 F30.00
G01 Z-0.1200
G01 F100.00
G01 X8.4100 Y5.8600
G01 X8.5404 Y5.8662
G01 X8.5560 Y5.8678
G01 X8.6851 Y5.8871
G01 X8.8193 Y5.9207
G01 X8.9496 Y5.9673
G01 X9.0677 Y6.0230
G01 X9.0781 Y6.0284
G01 X9.1934 Y6.0976
G01 X9.3045 Y6.1801
G01 X9.4070 Y6.2730
G01 X9.4999 Y6.3755
G01 X9.5824 Y6.4866
G01 X9.6535 Y6.6053
G01 X9.7127 Y6.7304
G01 X9.7593 Y6.8607
G01 X9.7929 Y6.9949
G01 X9.8132 Y7.1318
G01 X9.8200 Y7.2700
G01 X9.8132 Y7.4082
G01 X9.7929 Y7.5451
G01 X9.7593 Y7.6793
G01 X9.7127 Y7.8096
G01 X9.6570 Y7.9277
G01 X9.6516 Y7.9381
G01 X9.5866 Y8.0467
G01 X9.5779 Y8.0598
G01 X9.4999 Y8.1645
G01 X9.4124 Y8.2613
G01 X9.4013 Y8.2724
G01 X9.3045 Y8.3599
G01 X9.1934 Y8.4424
G01 X9.0747 Y8.5135
G01 X8.9568 Y8.5695
G01 X8.9423 Y8.5755
G01 X8.8193 Y8.6193
G01 X8.6927 Y8.6512
G01 X8.6773 Y8.6542
G01 X8.5521 Y8.6728
G01 X8.5404 Y8.6738
G01 X8.4100 Y8.6800
G01 X5.9021 Y8.6798
G01 X5.7796 Y8.6738
G01 X5.7640 Y8.6722
G01 X5.6349 Y8.6529
G01 X5.5083 Y8.6214
G01 X5.4932 Y8.6168
G01 X5.3704 Y8.5727
G01 X5.2523 Y8.5170
G01 X5.2419 Y8.5116
G01 X5.1266 Y8.4424
G01 X5.0155 Y8.3599
G01 X4.9130 Y8.2670
G01 X4.8252 Y8.1704
G01 X4.8152 Y8.1583
G01 X4.7421 Y8.0598
G01 X4.7334 Y8.0467
G01 X4.6665 Y7.9347
G01 X4.6073 Y7.8096
G01 X4.5607 Y7.6793
G01 X4.5288 Y7.5527
G01 X4.5258 Y7.5373
G01 X4.5078 Y7.4160
G01 X4.5062 Y7.4004
G01 X4.5000 Y7.2700
G01 X4.5068 Y7.1318
G01 X4.5271 Y6.9949
G01 X4.5586 Y6.8683
G01 X4.5632 Y6.8532
G01 X4.6045 Y6.7377
G01 X4.6105 Y6.7232
G01 X4.6665 Y6.6053
G01 X4.7376 Y6.4866
G01 X4.8201 Y6.3755
G01 X4.9076 Y6.2787
G01 X4.9187 Y6.2676
G01 X5.0096 Y6.1852
G01 X5.0217 Y6.1752
G01 X5.1266 Y6.0976
G01 X5.2453 Y6.0265
G01 X5.3704 Y5.9673
G01 X5.4932 Y5.9232
G01 X5.5083 Y5.9186
G01 X5.6273 Y5.8888
G01 X5.6427 Y5.8858
G01 X5.7718 Y5.8668
G01 X5.9100 Y5.8600
G00 Z1.0000
G00 X4.3036 Y7.2335
G01 F30.00
G01 Z-0.1200
G01 F100.00
G01 X4.3152 Y7.4658
G01 X4.3601 Y7.6940
G01 X4.4376 Y7.9133
G01 X4.5459 Y8.1191
G01 X4.6827 Y8.3071
G01 X4.8453 Y8.4734
G01 X5.0302 Y8.6145
G01 X5.2335 Y8.7274
G01 X5.4510 Y8.8098
G01 X5.6781 Y8.8600
G01 X5.8507 Y8.8725
G01 X8.0942 Y8.8725
G01 X8.1143 Y8.8732
G01 X8.1464 Y8.8758
G01 X8.1681 Y8.8793
G01 X8.1824 Y8.8825
G01 X8.2034 Y8.8887
G01 X8.2239 Y8.8965
G01 X8.2953 Y8.9287
G01 X8.3082 Y8.9350
G01 X8.3269 Y8.9455
G01 X8.3447 Y8.9574
G01 X8.3561 Y8.9660
G01 X8.3724 Y8.9800
G01 X8.3876 Y8.9952
G01 X8.4015 Y9.0114
G01 X8.4102 Y9.0228
G01 X8.4182 Y9.0346
G01 X8.4568 Y9.0943
G01 X8.4643 Y9.1065
G01 X8.4743 Y9.1254
G01 X8.4802 Y9.1385
G01 X8.4855 Y9.1518
G01 X8.4921 Y9.1722
G01 X8.4956 Y9.1860
G01 X8.4985 Y9.2000
G01 X8.5015 Y9.2213
G01 X8.5029 Y9.2427
G01 X8.5032 Y9.3208
G01 X8.5025 Y9.3414
G01 X8.5012 Y9.3550
G01 X8.4993 Y9.3686
G01 X8.4952 Y9.3888
G01 X8.4917 Y9.4020
G01 X8.4575 Y9.5198
G01 X8.4575 Y14.6202
G01 X8.4839 Y14.7111
G01 X8.5293 Y14.7878
G01 X8.5922 Y14.8507
G01 X8.6689 Y14.8961
G01 X8.7598 Y14.9225
G01 X11.3608 Y14.9223
G01 X11.4511 Y14.8961
G01 X11.5278 Y14.8507
G01 X11.5907 Y14.7878
G01 X11.6361 Y14.7111
G01 X11.6625 Y14.6202
G01 X11.6626 Y13.8296
G01 X11.6632 Y13.8160
G01 X11.6645 Y13.8023
G01 X11.6677 Y13.7820
G01 X11.6821 Y13.7159
G01 X11.6880 Y13.6952
G01 X11.6928 Y13.6816
G01 X11.7012 Y13.6617
G01 X11.7111 Y13.6425
G01 X11.7224 Y13.6242
G01 X11.7351 Y13.6067
G01 X11.7442 Y13.5956
G01 X11.7907 Y13.5419
G01 X11.8004 Y13.5313
G01 X11.8158 Y13.5164
G01 X11.8322 Y13.5027
G01 X11.8497 Y13.4902
G01 X11.8680 Y13.4790
G01 X11.8871 Y13.4693
G01 X11.9069 Y13.4610
G01 X11.9272 Y13.4542
G01 X11.9954 Y13.4342
G01 X12.0086 Y13.4306
G01 X12.0287 Y13.4265
G01 X12.0491 Y13.4238
G01 X12.0628 Y13.4228
G01 X12.0765 Y13.4225
G01 X17.5983 Y13.4225
G01 X17.6214 Y13.4234
G01 X17.6629 Y13.4279
G01 X17.6838 Y13.4314
G01 X17.7044 Y13.4365
G01 X17.7179 Y13.4407
G01 X17.7311 Y13.4456
G01 X17.7441 Y13.4511
G01 X17.7569 Y13.4573
G01 X17.8314 Y13.4980
G01 X17.8488 Y13.5089
G01 X17.8600 Y13.5169
G01 X17.8708 Y13.5253
G01 X17.8811 Y13.5343
G01 X17.8910 Y13.5438
G01 X18.2516 Y13.9045
G01 X18.2668 Y13.9219
G01 X18.2881 Y13.9484
G01 X18.2964 Y13.9599
G01 X18.3042 Y13.9717
G01 X18.3147 Y13.9901
G01 X18.3209 Y14.0028
G01 X18.3265 Y14.0158
G01 X18.3315 Y14.0290
G01 X18.3358 Y14.0424
G01 X18.3558 Y14.1106
G01 X18.3594 Y14.1238
G01 X18.3623 Y14.1372
G01 X18.3646 Y14.1507
G01 X18.3668 Y14.1712
G01 X18.3674 Y14.1849
G01 X18.3675 Y15.5102
G01 X18.3939 Y15.6011
G01 X18.4393 Y15.6778
G01 X18.5022 Y15.7407
G01 X18.5789 Y15.7861
G01 X18.6698 Y15.8125
G01 X21.7708 Y15.8123
G01 X21.8611 Y15.7861
G01 X21.9378 Y15.7407
G01 X22.0007 Y15.6778
G01 X22.0461 Y15.6011
G01 X22.0725 Y15.5102
G01 X22.0725 Y15.2265
G01 X22.0732 Y15.2060
G01 X22.0754 Y15.1855
G01 X22.0791 Y15.1653
G01 X22.0905 Y15.1129
G01 X22.0939 Y15.0990
G01 X22.0980 Y15.0852
G01 X22.1028 Y15.0716
G01 X22.1112 Y15.0517
G01 X22.1211 Y15.0325
G01 X22.1324 Y15.0142
G01 X22.1407 Y15.0024
G01 X22.1496 Y14.9911
G01 X22.2007 Y14.9319
G01 X22.2104 Y14.9213
G01 X22.2258 Y14.9064
G01 X22.2366 Y14.8971
G01 X22.2538 Y14.8842
G01 X22.2657 Y14.8763
G01 X22.2780 Y14.8690
G01 X22.2971 Y14.8593
G01 X22.3102 Y14.8536
G01 X22.3304 Y14.8463
G01 X22.4120 Y14.8223
G01 X22.4320 Y14.8177
G01 X22.4523 Y14.8145
G01 X22.4728 Y14.8128
G01 X22.4865 Y14.8125
G01 X30.0831 Y14.8125
G01 X30.1548 Y14.8150
G01 X30.2229 Y14.8052
G01 X30.2954 Y14.7966
G01 X30.3024 Y14.7950
G01 X30.3750 Y14.7705
G01 X30.4448 Y14.7488
G01 X30.4517 Y14.7458
G01 X30.5182 Y14.7087
G01 X30.5832 Y14.6744
G01 X30.5892 Y14.6704
G01 X30.6454 Y14.6237
G01 X30.6993 Y14.5810
G01 X30.7245 Y14.5524
G01 X30.7430 Y14.5326
G01 X31.6319 Y13.6438
G01 X31.6431 Y13.6331
G01 X31.6548 Y13.6232
G01 X31.6813 Y13.6019
G01 X31.6986 Y13.5896
G01 X31.7106 Y13.5822
G01 X31.7293 Y13.5721
G01 X31.7421 Y13.5662
G01 X31.7619 Y13.5585
G01 X31.7753 Y13.5542
G01 X31.8501 Y13.5323
G01 X31.8701 Y13.5277
G01 X31.8904 Y13.5245
G01 X31.9040 Y13.5232
G01 X31.9245 Y13.5225
G01 X32.4508 Y13.5223
G01 X32.5411 Y13.4961
G01 X32.6178 Y13.4507
G01 X32.6807 Y13.3878
G01 X32.7261 Y13.3111
G01 X32.7525 Y13.2202
G01 X32.7525 Y11.6198
G01 X32.7261 Y11.5289
G01 X32.6807 Y11.4522
G01 X32.6178 Y11.3893
G01 X32.5891 Y11.3719
G01 X32.5714 Y11.3592
G01 X32.5602 Y11.3500
G01 X32.5267 Y11.3212
G01 X32.5163 Y11.3118
G01 X32.5064 Y11.3020
G01 X32.4924 Y11.2863
G01 X32.4797 Y11.2696
G01 X32.4681 Y11.2520
G01 X32.4579 Y11.2337
G01 X32.4491 Y11.2147
G01 X32.4188 Y11.1426
G01 X32.4117 Y11.1224
G01 X32.4079 Y11.1086
G01 X32.4047 Y11.0946
G01 X32.4012 Y11.0735
G01 X32.3993 Y11.0521
G01 X32.3989 Y11.0378
G01 X32.3992 Y11.0249
G01 X32.3852 Y11.0416
G01 X32.3407 Y11.0907
G01 X32.3309 Y11.1009
G01 X32.3207 Y11.1107
G01 X32.2716 Y11.1552
G01 X32.2609 Y11.1644
G01 X32.2498 Y11.1731
G01 X32.1966 Y11.2126
G01 X32.1850 Y11.2207
G01 X32.1731 Y11.2283
G01 X32.1163 Y11.2623
G01 X32.0977 Y11.2725
G01 X32.0314 Y11.3040
G01 X32.0185 Y11.3097
G01 X32.0053 Y11.3148
G01 X31.9430 Y11.3371
G01 X31.9295 Y11.3415
G01 X31.9159 Y11.3453
G01 X31.8448 Y11.3630
G01 X31.8239 Y11.3669
G01 X31.7584 Y11.3766
G01 X31.7444 Y11.3784
G01 X31.7303 Y11.3794
G01 X31.6774 Y11.3820
G01 X32.4000 Y11.3820
G01 X32.4141 Y11.3823
G01 X32.4282 Y11.3834
G01 X32.4492 Y11.3862
G01 X32.4631 Y11.3890
G01 X32.4836 Y11.3944
G01 X32.4970 Y11.3988
G01 X32.5102 Y11.4039
G01 X32.5231 Y11.4097
G01 X32.5420 Y11.4194
G01 X32.5541 Y11.4267
G01 X32.5716 Y11.4387
G01 X32.5881 Y11.4519
G01 X32.5986 Y11.4614
G01 X32.6086 Y11.4714
G01 X32.6181 Y11.4819
G01 X32.6270 Y11.4928
G01 X32.6395 Y11.5100
G01 X32.6470 Y11.5219
G01 X32.6572 Y11.5405
G01 X32.6661 Y11.5598
G01 X32.6712 Y11.5730
G01 X32.6756 Y11.5864
G01 X32.6794 Y11.6000
G01 X32.6825 Y11.6138
G01 X32.6849 Y11.6277
G01 X32.6866 Y11.6418
G01 X32.6879 Y11.6629
G01 X32.6880 Y13.1700
G01 X32.6872 Y13.1912
G01 X32.6858 Y13.2053
G01 X32.6825 Y13.2262
G01 X32.6794 Y13.2400
G01 X32.6735 Y13.2603
G01 X32.6661 Y13.2802
G01 X32.6572 Y13.2995
G01 X32.6506 Y13.3120
G01 X32.6433 Y13.3241
G01 X32.6355 Y13.3358
G01 X32.6270 Y13.3472
G01 X32.6134 Y13.3634
G01 X32.5986 Y13.3786
G01 X32.5881 Y13.3881
G01 X32.5772 Y13.3970
G01 X32.5658 Y13.4055
G01 X32.5541 Y13.4133
G01 X32.5420 Y13.4206
G01 X32.5295 Y13.4272
G01 X32.5102 Y13.4361
G01 X32.4970 Y13.4412
G01 X32.4768 Y13.4476
G01 X32.4562 Y13.4525
G01 X32.4423 Y13.4549
G01 X32.4212 Y13.4572
G01 X32.4000 Y13.4580
G01 X31.7268 Y13.4580
G01 X30.6674 Y14.5174
G01 X30.6571 Y14.5271
G01 X30.6155 Y14.5648
G01 X30.5989 Y14.5780
G01 X30.5595 Y14.6073
G01 X30.5479 Y14.6154
G01 X30.5360 Y14.6230
G01 X30.4939 Y14.6482
G01 X30.4816 Y14.6552
G01 X30.4690 Y14.6615
G01 X30.4246 Y14.6825
G01 X30.4117 Y14.6882
G01 X30.3985 Y14.6933
G01 X30.3456 Y14.7122
G01 X30.3252 Y14.7181
G01 X30.2776 Y14.7300
G01 X30.2568 Y14.7344
G01 X30.2013 Y14.7427
G01 X30.1873 Y14.7445
G01 X30.1732 Y14.7455
G01 X30.1241 Y14.7479
G01 X30.1100 Y14.7483
G01 X22.0080 Y14.7483
G01 X22.0080 Y15.4600
G01 X22.0077 Y15.4741
G01 X22.0066 Y15.4882
G01 X22.0049 Y15.5023
G01 X22.0025 Y15.5162
G01 X21.9976 Y15.5368
G01 X21.9912 Y15.5570
G01 X21.9833 Y15.5767
G01 X21.9772 Y15.5895
G01 X21.9706 Y15.6020
G01 X21.9595 Y15.6200
G01 X21.9470 Y15.6372
G01 X21.9334 Y15.6534
G01 X21.9186 Y15.6686
G01 X21.9027 Y15.6826
G01 X21.8916 Y15.6913
G01 X21.8741 Y15.7033
G01 X21.8558 Y15.7140
G01 X21.8367 Y15.7233
G01 X21.8170 Y15.7312
G01 X21.8036 Y15.7356
G01 X21.7831 Y15.7410
G01 X21.7623 Y15.7449
G01 X21.7412 Y15.7472
G01 X21.7200 Y15.7480
G01 X18.7200 Y15.7480
G01 X18.6988 Y15.7472
G01 X18.6847 Y15.7458
G01 X18.6708 Y15.7438
G01 X18.6500 Y15.7394
G01 X18.6364 Y15.7356
G01 X18.6230 Y15.7312
G01 X18.6033 Y15.7233
G01 X18.5842 Y15.7140
G01 X18.5659 Y15.7033
G01 X18.5542 Y15.6955
G01 X18.5428 Y15.6870
G01 X18.5266 Y15.6734
G01 X18.5164 Y15.6636
G01 X18.5066 Y15.6534
G01 X18.4930 Y15.6372
G01 X18.4805 Y15.6200
G01 X18.4730 Y15.6081
G01 X18.4660 Y15.5958
G01 X18.4597 Y15.5831
G01 X18.4539 Y15.5702
G01 X18.4465 Y15.5503
G01 X18.4406 Y15.5300
G01 X18.4375 Y15.5162
G01 X18.4351 Y15.5023
G01 X18.4328 Y15.4812
G01 X18.4320 Y15.4600
G01 X18.4320 Y13.9942
G01 X17.7963 Y13.3585
G01 X11.5980 Y13.3585
G01 X11.5980 Y14.5700
G01 X11.5977 Y14.5841
G01 X11.5966 Y14.5982
G01 X11.5949 Y14.6123
G01 X11.5910 Y14.6331
G01 X11.5876 Y14.6468
G01 X11.5812 Y14.6670
G01 X11.5761 Y14.6802
G01 X11.5672 Y14.6995
G01 X11.5570 Y14.7181
G01 X11.5495 Y14.7300
G01 X11.5370 Y14.7472
G01 X11.5281 Y14.7581
G01 X11.5136 Y14.7736
G01 X11.5034 Y14.7834
G01 X11.4872 Y14.7970
G01 X11.4758 Y14.8055
G01 X11.4641 Y14.8133
G01 X11.4458 Y14.8240
G01 X11.4331 Y14.8303
G01 X11.4136 Y14.8387
G01 X11.3936 Y14.8456
G01 X11.3800 Y14.8494
G01 X11.3662 Y14.8525
G01 X11.3453 Y14.8558
G01 X11.3312 Y14.8572
G01 X11.3100 Y14.8580
G01 X8.8100 Y14.8580
G01 X8.7959 Y14.8577
G01 X8.7818 Y14.8566
G01 X8.7677 Y14.8549
G01 X8.7538 Y14.8525
G01 X8.7332 Y14.8476
G01 X8.7197 Y14.8435
G01 X8.7064 Y14.8387
G01 X8.6869 Y14.8303
G01 X8.6680 Y14.8206
G01 X8.6500 Y14.8095
G01 X8.6384 Y14.8013
G01 X8.6273 Y14.7926
G01 X8.6114 Y14.7786
G01 X8.6014 Y14.7686
G01 X8.5919 Y14.7581
G01 X8.5830 Y14.7472
G01 X8.5745 Y14.7358
G01 X8.5630 Y14.7181
G01 X8.5528 Y14.6995
G01 X8.5439 Y14.6802
G01 X8.5365 Y14.6603
G01 X8.5324 Y14.6468
G01 X8.5290 Y14.6331
G01 X8.5262 Y14.6192
G01 X8.5242 Y14.6053
G01 X8.5223 Y14.5841
G01 X8.5220 Y14.5700
G01 X8.5220 Y9.5700
G01 X8.5223 Y9.5559
G01 X8.5234 Y9.5418
G01 X8.5251 Y9.5277
G01 X8.5275 Y9.5138
G01 X8.5306 Y9.5000
G01 X8.5344 Y9.4864
G01 X8.5413 Y9.4664
G01 X8.5497 Y9.4469
G01 X8.5560 Y9.4342
G01 X8.5630 Y9.4219
G01 X8.5745 Y9.4042
G01 X8.5830 Y9.3928
G01 X8.5919 Y9.3819
G01 X8.6014 Y9.3714
G01 X8.6114 Y9.3614
G01 X8.6273 Y9.3474
G01 X8.6384 Y9.3387
G01 X8.6500 Y9.3305
G01 X8.6680 Y9.3194
G01 X8.6869 Y9.3097
G01 X8.6998 Y9.3039
G01 X8.7130 Y9.2988
G01 X8.7264 Y9.2944
G01 X8.7400 Y9.2906
G01 X8.7538 Y9.2875
G01 X8.7677 Y9.2851
G01 X8.7888 Y9.2828
G01 X8.8100 Y9.2820
G01 X11.3100 Y9.2820
G01 X11.3241 Y9.2823
G01 X11.3453 Y9.2842
G01 X11.3662 Y9.2875
G01 X11.3800 Y9.2906
G01 X11.3936 Y9.2944
G01 X11.4136 Y9.3013
G01 X11.4267 Y9.3067
G01 X11.4458 Y9.3160
G01 X11.4641 Y9.3267
G01 X11.4758 Y9.3345
G01 X11.4872 Y9.3430
G01 X11.5034 Y9.3566
G01 X11.5136 Y9.3664
G01 X11.5281 Y9.3819
G01 X11.5413 Y9.3984
G01 X11.5495 Y9.4100
G01 X11.5570 Y9.4219
G01 X11.5672 Y9.4405
G01 X11.5733 Y9.4533
G01 X11.5812 Y9.4730
G01 X11.5876 Y9.4932
G01 X11.5910 Y9.5069
G01 X11.5949 Y9.5277
G01 X11.5966 Y9.5418
G01 X11.5977 Y9.5559
G01 X11.5980 Y9.5700
G01 X11.5980 Y10.7815
G01 X18.3300 Y10.7815
G01 X18.3441 Y10.7818
G01 X18.4422 Y10.7867
G01 X18.4563 Y10.7877
G01 X18.4703 Y10.7894
G01 X18.5674 Y10.8038
G01 X18.5814 Y10.8063
G01 X18.5952 Y10.8094
G01 X18.6904 Y10.8332
G01 X18.7040 Y10.8370
G01 X18.7175 Y10.8414
G01 X18.8099 Y10.8745
G01 X18.8231 Y10.8796
G01 X18.8360 Y10.8853
G01 X18.9248 Y10.9273
G01 X18.9374 Y10.9336
G01 X18.9497 Y10.9406
G01 X19.0339 Y10.9911
G01 X19.0459 Y10.9987
G01 X19.0574 Y11.0068
G01 X19.1363 Y11.0653
G01 X19.1528 Y11.0785
G01 X19.2309 Y11.1491
G01 X19.2411 Y11.1589
G01 X20.2542 Y12.1720
G01 X21.7271 Y12.1721
G01 X21.7482 Y12.1734
G01 X21.7692 Y12.1762
G01 X21.7900 Y12.1806
G01 X21.8103 Y12.1865
G01 X21.8302 Y12.1939
G01 X21.8495 Y12.2028
G01 X21.8681 Y12.2130
G01 X21.8858 Y12.2245
G01 X21.9027 Y12.2374
G01 X21.9134 Y12.2466
G01 X21.9236 Y12.2564
G01 X21.9334 Y12.2666
G01 X21.9426 Y12.2773
G01 X21.9513 Y12.2884
G01 X21.9595 Y12.3000
G01 X21.9670 Y12.3119
G01 X21.9740 Y12.3242
G01 X21.9803 Y12.3369
G01 X21.9861 Y12.3498
G01 X21.9912 Y12.3630
G01 X21.9956 Y12.3764
G01 X22.0010 Y12.3969
G01 X22.0038 Y12.4108
G01 X22.0058 Y12.4247
G01 X22.0072 Y12.4388
G01 X22.0080 Y12.4600
G01 X22.0080 Y13.1717
G01 X29.7835 Y13.1717
G01 X30.6120 Y12.3432
G01 X30.6120 Y11.6700
G01 X30.6123 Y11.6559
G01 X30.6134 Y11.6418
G01 X30.6151 Y11.6277
G01 X30.6175 Y11.6138
G01 X30.6224 Y11.5932
G01 X30.6265 Y11.5797
G01 X30.6313 Y11.5664
G01 X30.6367 Y11.5533
G01 X30.6428 Y11.5405
G01 X30.6494 Y11.5280
G01 X30.6567 Y11.5159
G01 X30.6687 Y11.4984
G01 X30.6774 Y11.4873
G01 X30.6866 Y11.4766
G01 X30.7014 Y11.4614
G01 X30.7173 Y11.4474
G01 X30.7284 Y11.4387
G01 X30.7400 Y11.4305
G01 X30.7580 Y11.4194
G01 X30.7705 Y11.4128
G01 X30.7833 Y11.4067
G01 X30.8030 Y11.3988
G01 X30.8232 Y11.3924
G01 X30.8438 Y11.3875
G01 X30.8577 Y11.3851
G01 X30.8718 Y11.3834
G01 X30.8859 Y11.3823
G01 X30.9000 Y11.3820
G01 X31.6226 Y11.3820
G01 X31.5697 Y11.3794
G01 X31.5556 Y11.3784
G01 X31.5416 Y11.3766
G01 X31.4761 Y11.3669
G01 X31.4552 Y11.3630
G01 X31.3841 Y11.3453
G01 X31.3705 Y11.3415
G01 X31.3570 Y11.3371
G01 X31.2947 Y11.3148
G01 X31.2815 Y11.3097
G01 X31.2686 Y11.3040
G01 X31.2023 Y11.2725
G01 X31.1837 Y11.2623
G01 X31.1269 Y11.2283
G01 X31.1150 Y11.2207
G01 X31.1034 Y11.2126
G01 X31.0502 Y11.1731
G01 X31.0391 Y11.1644
G01 X31.0284 Y11.1552
G01 X30.9793 Y11.1107
G01 X30.9691 Y11.1009
G01 X30.9593 Y11.0907
G01 X30.9148 Y11.0416
G01 X30.9010 Y11.0251
G01 X30.8998 Y11.0400
G01 X30.8967 Y11.0613
G01 X30.8827 Y11.1382
G01 X30.8775 Y11.1590
G01 X30.8708 Y11.1794
G01 X30.8627 Y11.1993
G01 X30.8530 Y11.2184
G01 X30.8420 Y11.2368
G01 X30.8296 Y11.2544
G01 X30.8160 Y11.2709
G01 X30.7627 Y11.3281
G01 X30.7531 Y11.3379
G01 X30.7379 Y11.3517
G01 X30.7217 Y11.3644
G01 X30.7047 Y11.3759
G01 X30.6822 Y11.3893
G01 X30.6193 Y11.4522
G01 X30.5739 Y11.5289
G01 X30.5475 Y11.6198
G01 X30.5475 Y12.1454
G01 X30.5466 Y12.1685
G01 X30.5421 Y12.2100
G01 X30.5386 Y12.2309
G01 X30.5335 Y12.2515
G01 X30.5293 Y12.2650
G01 X30.5217 Y12.2848
G01 X30.5159 Y12.2976
G01 X30.5094 Y12.3102
G01 X30.4754 Y12.3725
G01 X30.4685 Y12.3844
G01 X30.4572 Y12.4016
G01 X30.4490 Y12.4125
G01 X30.4357 Y12.4282
G01 X30.4262 Y12.4381
G01 X29.8781 Y12.9862
G01 X29.8611 Y13.0019
G01 X29.8342 Y13.0237
G01 X29.8172 Y13.0364
G01 X29.7994 Y13.0478
G01 X29.7870 Y13.0547
G01 X29.7743 Y13.0609
G01 X29.7614 Y13.0665
G01 X29.7414 Y13.0738
G01 X29.6665 Y13.0958
G01 X29.6533 Y13.0994
G01 X29.6399 Y13.1023
G01 X29.6264 Y13.1046
G01 X29.6128 Y13.1062
G01 X29.5991 Y13.1072
G01 X29.5854 Y13.1075
G01 X22.4865 Y13.1075
G01 X22.4660 Y13.1068
G01 X22.4455 Y13.1046
G01 X22.4253 Y13.1009
G01 X22.3729 Y13.0895
G01 X22.3590 Y13.0861
G01 X22.3452 Y13.0820
G01 X22.3316 Y13.0772
G01 X22.3117 Y13.0688
G01 X22.2925 Y13.0589
G01 X22.2802 Y13.0515
G01 X22.2624 Y13.0393
G01 X22.2511 Y13.0304
G01 X22.1919 Y12.9793
G01 X22.1813 Y12.9696
G01 X22.1664 Y12.9542
G01 X22.1571 Y12.9434
G01 X22.1442 Y12.9262
G01 X22.1326 Y12.9082
G01 X22.1224 Y12.8893
G01 X22.1163 Y12.8764
G01 X22.1110 Y12.8631
G01 X22.1063 Y12.8496
G01 X22.0823 Y12.7680
G01 X22.0777 Y12.7480
G01 X22.0754 Y12.7345
G01 X22.0732 Y12.7140
G01 X22.0725 Y12.6935
G01 X22.0725 Y12.4098
G01 X22.0461 Y12.3189
G01 X22.0007 Y12.2422
G01 X21.9378 Y12.1793
G01 X21.8611 Y12.1339
G01 X21.7702 Y12.1075
G01 X20.4517 Y12.1075
G01 X20.4286 Y12.1066
G01 X20.3871 Y12.1021
G01 X20.3662 Y12.0986
G01 X20.3456 Y12.0935
G01 X20.3321 Y12.0893
G01 X20.3189 Y12.0844
G01 X20.3059 Y12.0789
G01 X20.2931 Y12.0727
G01 X20.2186 Y12.0320
G01 X20.2012 Y12.0211
G01 X20.1900 Y12.0131
G01 X20.1792 Y12.0047
G01 X20.1689 Y11.9957
G01 X20.1590 Y11.9862
G01 X19.5199 Y11.3470
G01 X19.5101 Y11.3362
G01 X19.4893 Y11.3109
G01 X19.4808 Y11.2999
G01 X19.4728 Y11.2885
G01 X19.4619 Y11.2707
G01 X19.4553 Y11.2584
G01 X19.4493 Y11.2459
G01 X19.4416 Y11.2265
G01 X19.4372 Y11.2133
G01 X19.4163 Y11.1454
G01 X19.4108 Y11.1247
G01 X19.4080 Y11.1106
G01 X19.4051 Y11.0894
G01 X19.4038 Y11.0680
G01 X19.4038 Y11.0537
G01 X19.4045 Y11.0394
G01 X19.4069 Y11.0181
G01 X19.4094 Y11.0040
G01 X19.4126 Y10.9900
G01 X19.4356 Y10.9079
G01 X19.4402 Y10.8944
G01 X19.4482 Y10.8745
G01 X19.4578 Y10.8553
G01 X19.4687 Y10.8368
G01 X19.4810 Y10.8192
G01 X19.4945 Y10.8026
G01 X19.5042 Y10.7921
G01 X19.5144 Y10.7820
G01 X19.5782 Y10.7254
G01 X19.5894 Y10.7165
G01 X19.6010 Y10.7081
G01 X19.6129 Y10.7003
G01 X19.6316 Y10.6897
G01 X19.6445 Y10.6835
G01 X19.6576 Y10.6779
G01 X19.6711 Y10.6729
G01 X19.6896 Y10.6673
G01 X19.5490 Y10.6170
G01 X19.5358 Y10.6119
G01 X19.5228 Y10.6062
G01 X19.3898 Y10.5432
G01 X19.3771 Y10.5369
G01 X19.3648 Y10.5299
G01 X19.2386 Y10.4542
G01 X19.2266 Y10.4467
G01 X19.2151 Y10.4385
G01 X19.0968 Y10.3508
G01 X19.0857 Y10.3421
G01 X19.0750 Y10.3329
G01 X18.9725 Y10.2400
G01 X18.9750 Y10.2511
G01 X18.9775 Y10.2652
G01 X18.9800 Y10.2865
G01 X18.9808 Y10.3080
G01 X18.9800 Y10.3294
G01 X18.9787 Y10.3436
G01 X18.9753 Y10.3648
G01 X18.9582 Y10.4411
G01 X18.9547 Y10.4550
G01 X18.9482 Y10.4754
G01 X18.9402 Y10.4953
G01 X18.9340 Y10.5082
G01 X18.9236 Y10.5270
G01 X18.9159 Y10.5390
G01 X18.9076 Y10.5507
G01 X18.8987 Y10.5619
G01 X18.8893 Y10.5727
G01 X18.8794 Y10.5830
G01 X18.8288 Y10.6328
G01 X18.8184 Y10.6426
G01 X18.8075 Y10.6518
G01 X18.7903 Y10.6647
G01 X18.7722 Y10.6762
G01 X18.7597 Y10.6831
G01 X18.7469 Y10.6894
G01 X18.7337 Y10.6951
G01 X18.7203 Y10.7001
G01 X18.6998 Y10.7063
G01 X18.6859 Y10.7096
G01 X18.6097 Y10.7255
G01 X18.5961 Y10.7277
G01 X18.5757 Y10.7297
G01 X18.5620 Y10.7303
G01 X18.5414 Y10.7299
G01 X18.3300 Y10.7133
G01 X18.2874 Y10.7166
G01 X18.2606 Y10.7175
G01 X12.0765 Y10.7175
G01 X12.0560 Y10.7168
G01 X12.0423 Y10.7155
G01 X12.0287 Y10.7135
G01 X12.0153 Y10.7109
G01 X11.9559 Y10.6979
G01 X11.9352 Y10.6920
G01 X11.9216 Y10.6872
G01 X11.9017 Y10.6788
G01 X11.8889 Y10.6723
G01 X11.8763 Y10.6653
G01 X11.8642 Y10.6576
G01 X11.8524 Y10.6493
G01 X11.8356 Y10.6358
G01 X11.7819 Y10.5893
G01 X11.7713 Y10.5796
G01 X11.7564 Y10.5642
G01 X11.7471 Y10.5534
G01 X11.7383 Y10.5421
G01 X11.7302 Y10.5303
G01 X11.7190 Y10.5120
G01 X11.7124 Y10.4993
G01 X11.7036 Y10.4798
G01 X11.6963 Y10.4596
G01 X11.6723 Y10.3780
G01 X11.6677 Y10.3580
G01 X11.6654 Y10.3445
G01 X11.6632 Y10.3241
G01 X11.6625 Y10.3036
G01 X11.6623 Y9.5192
G01 X11.6361 Y9.4289
G01 X11.5907 Y9.3522
G01 X11.5278 Y9.2893
G01 X11.4511 Y9.2439
G01 X11.3602 Y9.2175
G01 X9.7225 Y9.2175
G01 X9.6941 Y9.2164
G01 X9.6733 Y9.2145
G01 X9.6595 Y9.2125
G01 X9.6391 Y9.2081
G01 X9.6257 Y9.2044
G01 X9.6059 Y9.1976
G01 X9.5338 Y9.1680
G01 X9.5208 Y9.1622
G01 X9.5080 Y9.1558
G01 X9.4955 Y9.1488
G01 X9.4776 Y9.1370
G01 X9.4605 Y9.1240
G01 X9.4497 Y9.1147
G01 X9.4394 Y9.1048
G01 X9.4248 Y9.0890
G01 X9.4158 Y9.0779
G01 X9.4073 Y9.0664
G01 X9.3667 Y9.0081
G01 X9.3588 Y8.9962
G01 X9.3482 Y8.9776
G01 X9.3418 Y8.9648
G01 X9.3335 Y8.9450
G01 X9.3288 Y8.9315
G01 X9.3230 Y8.9108
G01 X9.3200 Y8.8969
G01 X9.3177 Y8.8827
G01 X9.3156 Y8.8614
G01 X9.3124 Y8.7762
G01 X9.3129 Y8.7547
G01 X9.3142 Y8.7405
G01 X9.3174 Y8.7192
G01 X9.3221 Y8.6983
G01 X9.3284 Y8.6778
G01 X9.3334 Y8.6644
G01 X9.3391 Y8.6513
G01 X9.3489 Y8.6322
G01 X9.3921 Y8.5590
G01 X9.4036 Y8.5420
G01 X9.4163 Y8.5258
G01 X9.4254 Y8.5155
G01 X9.4399 Y8.5010
G01 X9.5890 Y8.3617
G01 X9.7342 Y8.1801
G01 X9.8517 Y7.9794
G01 X9.9390 Y7.7639
G01 X9.9943 Y7.5380
G01 X10.0164 Y7.3065
G01 X10.0048 Y7.0742
G01 X9.9599 Y6.8460
G01 X9.8824 Y6.6267
G01 X9.7741 Y6.4209
G01 X9.6373 Y6.2329
G01 X9.4747 Y6.0666
G01 X9.2898 Y5.9255
G01 X9.0865 Y5.8126
G01 X8.8690 Y5.7302
G01 X8.6419 Y5.6800
G01 X8.4693 Y5.6675
G01 X5.8140 Y5.6676
G01 X5.7536 Y5.6706
G01 X5.5213 Y5.7109
G01 X5.3003 Y5.7834
G01 X5.0921 Y5.8870
G01 X4.9010 Y6.0195
G01 X4.7310 Y6.1783
G01 X4.5858 Y6.3599
G01 X4.4683 Y6.5606
G01 X4.3810 Y6.7761
G01 X4.3257 Y7.0020
G01 X4.3036 Y7.2335
G00 Z1.0000
G00 X4.1753 Y7.2306
G01 F30.00
G01 Z-0.1200
G01 F100.00
G01 X4.1878 Y7.4815
G01 X4.2364 Y7.7279
G01 X4.3200 Y7.9647
G01 X4.4369 Y8.1869
G01 X4.5847 Y8.3900
G01 X4.7603 Y8.5695
G01 X4.9599 Y8.7219
G01 X5.1794 Y8.8438
G01 X5.4143 Y8.9328
G01 X5.6595 Y8.9870
G01 X5.8461 Y9.0005
G01 X8.0942 Y9.0005
G01 X8.1054 Y9.0009
G01 X8.1270 Y9.0025
G01 X8.1391 Y9.0041
G01 X8.1510 Y9.0066
G01 X8.1627 Y9.0101
G01 X8.1741 Y9.0144
G01 X8.2461 Y9.0470
G01 X8.2600 Y9.0546
G01 X8.2731 Y9.0636
G01 X8.2793 Y9.0685
G01 X8.2882 Y9.0765
G01 X8.2964 Y9.0852
G01 X8.3039 Y9.0944
G01 X8.3108 Y9.1042
G01 X8.3535 Y9.1705
G01 X8.3607 Y9.1847
G01 X8.3666 Y9.1995
G01 X8.3709 Y9.2147
G01 X8.3737 Y9.2304
G01 X8.3745 Y9.2383
G01 X8.3750 Y9.2502
G01 X8.3752 Y9.3212
G01 X8.3748 Y9.3326
G01 X8.3730 Y9.3477
G01 X8.3698 Y9.3626
G01 X8.3306 Y9.4979
G01 X8.3295 Y9.5116
G01 X8.3295 Y14.6284
G01 X8.3306 Y14.6421
G01 X8.3655 Y14.7623
G01 X8.4273 Y14.8668
G01 X8.5132 Y14.9527
G01 X8.6177 Y15.0145
G01 X8.7379 Y15.0494
G01 X8.7516 Y15.0505
G01 X11.3684 Y15.0505
G01 X11.3821 Y15.0494
G01 X11.5023 Y15.0145
G01 X11.6068 Y14.9527
G01 X11.6927 Y14.8668
G01 X11.7545 Y14.7623
G01 X11.7894 Y14.6421
G01 X11.7905 Y14.6284
G01 X11.7905 Y13.8327
G01 X11.7916 Y13.8175
G01 X11.7942 Y13.8025
G01 X11.8064 Y13.7463
G01 X11.8097 Y13.7347
G01 X11.8124 Y13.7272
G01 X11.8171 Y13.7161
G01 X11.8226 Y13.7055
G01 X11.8289 Y13.6953
G01 X11.8384 Y13.6824
G01 X11.8901 Y13.6228
G01 X11.9014 Y13.6116
G01 X11.9137 Y13.6015
G01 X11.9236 Y13.5948
G01 X11.9339 Y13.5889
G01 X11.9446 Y13.5837
G01 X11.9557 Y13.5794
G01 X12.0314 Y13.5570
G01 X12.0425 Y13.5542
G01 X12.0500 Y13.5527
G01 X12.0651 Y13.5509
G01 X12.0765 Y13.5505
G01 X17.5983 Y13.5505
G01 X17.6111 Y13.5510
G01 X17.6461 Y13.5548
G01 X17.6577 Y13.5567
G01 X17.6729 Y13.5607
G01 X17.6876 Y13.5661
G01 X17.7018 Y13.5730
G01 X17.7674 Y13.6088
G01 X17.7802 Y13.6171
G01 X17.7922 Y13.6265
G01 X17.8005 Y13.6343
G01 X18.1587 Y13.9925
G01 X18.1672 Y14.0022
G01 X18.1841 Y14.0232
G01 X18.1911 Y14.0326
G01 X18.1954 Y14.0392
G01 X18.2013 Y14.0494
G01 X18.2063 Y14.0601
G01 X18.2093 Y14.0673
G01 X18.2130 Y14.0785
G01 X18.2350 Y14.1540
G01 X18.2366 Y14.1614
G01 X18.2384 Y14.1727
G01 X18.2395 Y14.1879
G01 X18.2395 Y15.5184
G01 X18.2406 Y15.5321
G01 X18.2755 Y15.6523
G01 X18.3373 Y15.7568
G01 X18.4232 Y15.8427
G01 X18.5277 Y15.9045
G01 X18.6479 Y15.9394
G01 X18.6616 Y15.9405
G01 X21.7784 Y15.9405
G01 X21.7921 Y15.9394
G01 X21.9123 Y15.9045
G01 X22.0168 Y15.8427
G01 X22.1027 Y15.7568
G01 X22.1645 Y15.6523
G01 X22.1994 Y15.5321
G01 X22.2005 Y15.5184
G01 X22.2005 Y15.2265
G01 X22.2009 Y15.2151
G01 X22.2021 Y15.2037
G01 X22.2034 Y15.1962
G01 X22.2164 Y15.1363
G01 X22.2210 Y15.1209
G01 X22.2254 Y15.1098
G01 X22.2288 Y15.1025
G01 X22.2346 Y15.0920
G01 X22.2411 Y15.0820
G01 X22.2484 Y15.0724
G01 X22.3028 Y15.0099
G01 X22.3144 Y14.9989
G01 X22.3269 Y14.9892
G01 X22.3336 Y14.9848
G01 X22.3439 Y14.9789
G01 X22.3546 Y14.9737
G01 X22.3657 Y14.9694
G01 X22.4451 Y14.9460
G01 X22.4562 Y14.9434
G01 X22.4675 Y14.9416
G01 X22.4789 Y14.9407
G01 X22.4865 Y14.9405
G01 X30.0831 Y14.9405
G01 X30.1615 Y14.9434
G01 X30.2396 Y14.9321
G01 X30.3168 Y14.9230
G01 X30.3379 Y14.9182
G01 X30.4146 Y14.8922
G01 X30.4888 Y14.8691
G01 X30.5087 Y14.8606
G01 X30.5765 Y14.8227
G01 X30.6481 Y14.7849
G01 X30.6536 Y14.7813
G01 X30.6662 Y14.7728
G01 X30.7259 Y14.7232
G01 X30.7878 Y14.6743
G01 X30.8207 Y14.6368
G01 X30.8335 Y14.6231
G01 X31.7224 Y13.7343
G01 X31.7351 Y13.7228
G01 X31.7592 Y13.7035
G01 X31.7688 Y13.6967
G01 X31.7755 Y13.6925
G01 X31.7858 Y13.6869
G01 X31.7966 Y13.6821
G01 X31.8077 Y13.6781
G01 X31.8832 Y13.6560
G01 X31.8981 Y13.6527
G01 X31.9094 Y13.6512
G01 X31.9246 Y13.6505
G01 X32.4584 Y13.6505
G01 X32.4721 Y13.6494
G01 X32.5923 Y13.6145
G01 X32.6968 Y13.5527
G01 X32.7827 Y13.4668
G01 X32.8445 Y13.3623
G01 X32.8794 Y13.2421
G01 X32.8805 Y13.2284
G01 X32.8805 Y11.6116
G01 X32.8794 Y11.5979
G01 X32.8445 Y11.4777
G01 X32.7827 Y11.3732
G01 X32.6968 Y11.2873
G01 X32.6631 Y11.2673
G01 X32.6499 Y11.2581
G01 X32.6072 Y11.2216
G01 X32.6016 Y11.2162
G01 X32.5936 Y11.2077
G01 X32.5887 Y11.2017
G01 X32.5818 Y11.1923
G01 X32.5776 Y11.1857
G01 X32.5720 Y11.1756
G01 X32.5670 Y11.1650
G01 X32.5380 Y11.0959
G01 X32.5329 Y11.0808
G01 X32.5294 Y11.0653
G01 X32.5274 Y11.0496
G01 X32.5270 Y11.0337
G01 X32.5277 Y11.0218
G01 X32.5287 Y11.0139
G01 X32.5415 Y10.9400
G01 X32.5430 Y10.9326
G01 X32.5459 Y10.9215
G01 X32.5495 Y10.9107
G01 X32.5524 Y10.9036
G01 X32.5866 Y10.8340
G01 X32.3744 Y10.8340
G01 X32.3443 Y10.8839
G01 X32.3003 Y10.9435
G01 X32.2903 Y10.9557
G01 X32.2404 Y11.0104
G01 X32.1857 Y11.0603
G01 X32.1735 Y11.0703
G01 X32.1139 Y11.1143
G01 X32.0471 Y11.1545
G01 X32.0366 Y11.1599
G01 X31.9695 Y11.1914
G01 X31.8998 Y11.2166
G01 X31.8848 Y11.2211
G01 X31.8129 Y11.2390
G01 X31.7396 Y11.2500
G01 X31.7240 Y11.2516
G01 X31.6500 Y11.2550
G01 X31.5760 Y11.2516
G01 X31.5604 Y11.2500
G01 X31.4871 Y11.2390
G01 X31.4152 Y11.2211
G01 X31.4002 Y11.2166
G01 X31.3305 Y11.1914
G01 X31.2634 Y11.1599
G01 X31.2529 Y11.1545
G01 X31.1861 Y11.1143
G01 X31.1265 Y11.0703
G01 X31.1143 Y11.0603
G01 X31.0596 Y11.0104
G01 X31.0097 Y10.9557
G01 X30.9997 Y10.9435
G01 X30.9557 Y10.8839
G01 X30.9256 Y10.8340
G01 X30.7118 Y10.8340
G01 X30.7429 Y10.8933
G01 X30.7490 Y10.9072
G01 X30.7527 Y10.9179
G01 X30.7676 Y10.9671
G01 X30.7704 Y10.9788
G01 X30.7722 Y10.9906
G01 X30.7732 Y11.0026
G01 X30.7733 Y11.0146
G01 X30.7729 Y11.0226
G01 X30.7715 Y11.0345
G01 X30.7573 Y11.1122
G01 X30.7545 Y11.1238
G01 X30.7508 Y11.1351
G01 X30.7462 Y11.1461
G01 X30.7409 Y11.1567
G01 X30.7348 Y11.1670
G01 X30.7279 Y11.1767
G01 X30.7176 Y11.1888
G01 X30.6665 Y11.2435
G01 X30.6554 Y11.2538
G01 X30.6433 Y11.2631
G01 X30.6337 Y11.2693
G01 X30.6032 Y11.2873
G01 X30.5173 Y11.3732
G01 X30.4555 Y11.4777
G01 X30.4206 Y11.5979
G01 X30.4195 Y11.6116
G01 X30.4194 Y12.1497
G01 X30.4186 Y12.1625
G01 X30.4157 Y12.1893
G01 X30.4133 Y12.2048
G01 X30.4104 Y12.2162
G01 X30.4068 Y12.2274
G01 X30.4039 Y12.2347
G01 X30.3989 Y12.2454
G01 X30.3592 Y12.3178
G01 X30.3551 Y12.3242
G01 X30.3484 Y12.3334
G01 X30.3384 Y12.3449
G01 X29.7846 Y12.8987
G01 X29.7749 Y12.9072
G01 X29.7477 Y12.9289
G01 X29.7345 Y12.9375
G01 X29.7206 Y12.9447
G01 X29.7134 Y12.9479
G01 X29.7023 Y12.9519
G01 X29.6305 Y12.9730
G01 X29.6194 Y12.9758
G01 X29.6044 Y12.9784
G01 X29.5930 Y12.9793
G01 X29.5854 Y12.9795
G01 X22.4865 Y12.9795
G01 X22.4713 Y12.9788
G01 X22.4562 Y12.9766
G01 X22.3963 Y12.9636
G01 X22.3885 Y12.9615
G01 X22.3772 Y12.9576
G01 X22.3698 Y12.9546
G01 X22.3590 Y12.9494
G01 X22.3486 Y12.9433
G01 X22.3387 Y12.9365
G01 X22.3294 Y12.9290
G01 X22.2699 Y12.8772
G01 X22.2589 Y12.8656
G01 X22.2492 Y12.8531
G01 X22.2428 Y12.8431
G01 X22.2389 Y12.8361
G01 X22.2322 Y12.8217
G01 X22.2270 Y12.8067
G01 X22.2060 Y12.7349
G01 X22.2027 Y12.7200
G01 X22.2009 Y12.7049
G01 X22.2005 Y12.6935
G01 X22.2005 Y12.4016
G01 X22.1994 Y12.3879
G01 X22.1645 Y12.2677
G01 X22.1027 Y12.1632
G01 X22.0168 Y12.0773
G01 X21.9123 Y12.0155
G01 X21.7921 Y11.9806
G01 X21.7784 Y11.9795
G01 X20.4517 Y11.9795
G01 X20.4389 Y11.9790
G01 X20.4000 Y11.9747
G01 X20.3885 Y11.9724
G01 X20.3734 Y11.9681
G01 X20.3624 Y11.9639
G01 X20.3517 Y11.9589
G01 X20.2826 Y11.9212
G01 X20.2729 Y11.9151
G01 X20.2667 Y11.9107
G01 X20.2578 Y11.9035
G01 X20.2522 Y11.8984
G01 X19.6155 Y11.2617
G01 X19.6072 Y11.2528
G01 X19.5838 Y11.2239
G01 X19.5772 Y11.2143
G01 X19.5714 Y11.2043
G01 X19.5663 Y11.1939
G01 X19.5633 Y11.1867
G01 X19.5595 Y11.1758
G01 X19.5387 Y11.1079
G01 X19.5357 Y11.0964
G01 X19.5341 Y11.0886
G01 X19.5325 Y11.0768
G01 X19.5319 Y11.0688
G01 X19.5317 Y11.0569
G01 X19.5321 Y11.0490
G01 X19.5335 Y11.0371
G01 X19.5357 Y11.0254
G01 X19.5377 Y11.0177
G01 X19.5568 Y10.9494
G01 X19.5605 Y10.9380
G01 X19.5650 Y10.9270
G01 X19.5703 Y10.9163
G01 X19.5763 Y10.9061
G01 X19.5831 Y10.8963
G01 X19.5907 Y10.8870
G01 X19.6017 Y10.8756
G01 X19.6608 Y10.8232
G01 X19.6702 Y10.8159
G01 X19.6801 Y10.8093
G01 X19.6904 Y10.8034
G01 X19.7012 Y10.7983
G01 X19.7124 Y10.7941
G01 X19.7199 Y10.7917
G01 X19.7354 Y10.7881
G01 X19.8132 Y10.7759
G01 X19.8246 Y10.7748
G01 X19.8360 Y10.7746
G01 X19.8474 Y10.7751
G01 X19.8550 Y10.7759
G01 X20.1037 Y10.8087
G01 X20.3557 Y10.8073
G01 X20.6051 Y10.7718
G01 X20.8474 Y10.7028
G01 X21.0782 Y10.6015
G01 X21.2009 Y10.5263
G01 X21.0627 Y10.3882
G01 X21.0094 Y10.4201
G01 X20.9990 Y10.4258
G01 X20.8624 Y10.4905
G01 X20.8516 Y10.4951
G01 X20.7019 Y10.5485
G01 X20.5515 Y10.5864
G01 X20.5400 Y10.5888
G01 X20.3827 Y10.6120
G01 X20.2200 Y10.6200
G01 X20.0573 Y10.6120
G01 X19.9000 Y10.5888
G01 X19.8885 Y10.5864
G01 X19.7457 Y10.5506
G01 X19.7307 Y10.5461
G01 X19.5847 Y10.4936
G01 X19.4375 Y10.4240
G01 X19.2978 Y10.3402
G01 X19.1731 Y10.2480
G01 X19.1610 Y10.2381
G01 X19.0462 Y10.1338
G01 X18.9368 Y10.0131
G01 X18.8443 Y9.8887
G01 X18.8356 Y9.8756
G01 X18.7560 Y9.7425
G01 X18.6864 Y9.5953
G01 X18.6339 Y9.4493
G01 X18.6294 Y9.4343
G01 X18.5936 Y9.2915
G01 X18.5912 Y9.2800
G01 X18.5680 Y9.1227
G01 X18.5600 Y8.9600
G01 X18.5680 Y8.7973
G01 X18.5912 Y8.6400
G01 X18.5936 Y8.6285
G01 X18.6315 Y8.4781
G01 X18.6849 Y8.3284
G01 X18.6895 Y8.3176
G01 X18.7542 Y8.1810
G01 X18.7599 Y8.1706
G01 X18.7918 Y8.1173
G01 X18.6525 Y7.9780
G01 X18.6256 Y8.0171
G01 X18.5124 Y8.2422
G01 X18.4308 Y8.4806
G01 X18.3823 Y8.7278
G01 X18.3678 Y8.9794
G01 X18.3875 Y9.2306
G01 X18.4412 Y9.4768
G01 X18.5278 Y9.7134
G01 X18.6457 Y9.9361
G01 X18.7984 Y10.1485
G01 X18.8082 Y10.1638
G01 X18.8153 Y10.1777
G01 X18.8197 Y10.1886
G01 X18.8227 Y10.1977
G01 X18.8444 Y10.2575
G01 X18.8478 Y10.2689
G01 X18.8496 Y10.2767
G01 X18.8520 Y10.2924
G01 X18.8528 Y10.3083
G01 X18.8520 Y10.3241
G01 X18.8504 Y10.3359
G01 X18.8314 Y10.4207
G01 X18.8264 Y10.4358
G01 X18.8216 Y10.4467
G01 X18.8180 Y10.4538
G01 X18.8141 Y10.4607
G01 X18.8076 Y10.4707
G01 X18.8003 Y10.4801
G01 X18.7951 Y10.4861
G01 X18.7361 Y10.5444
G01 X18.7240 Y10.5547
G01 X18.7143 Y10.5616
G01 X18.7006 Y10.5696
G01 X18.6861 Y10.5762
G01 X18.6749 Y10.5803
G01 X18.6634 Y10.5834
G01 X18.5901 Y10.5989
G01 X18.5750 Y10.6013
G01 X18.5636 Y10.6022
G01 X18.5560 Y10.6023
G01 X18.5446 Y10.6018
G01 X18.3300 Y10.5849
G01 X18.2799 Y10.5888
G01 X18.2606 Y10.5895
G01 X12.0765 Y10.5895
G01 X12.0613 Y10.5888
G01 X12.0462 Y10.5866
G01 X11.9901 Y10.5745
G01 X11.9747 Y10.5703
G01 X11.9635 Y10.5662
G01 X11.9490 Y10.5594
G01 X11.9386 Y10.5533
G01 X11.9287 Y10.5465
G01 X11.9194 Y10.5390
G01 X11.8628 Y10.4899
G01 X11.8542 Y10.4816
G01 X11.8464 Y10.4726
G01 X11.8392 Y10.4631
G01 X11.8328 Y10.4531
G01 X11.8271 Y10.4426
G01 X11.8222 Y10.4317
G01 X11.8170 Y10.4167
G01 X11.7960 Y10.3449
G01 X11.7934 Y10.3338
G01 X11.7921 Y10.3263
G01 X11.7909 Y10.3149
G01 X11.7905 Y10.3035
G01 X11.7905 Y9.5116
G01 X11.7894 Y9.4979
G01 X11.7545 Y9.3777
G01 X11.6927 Y9.2732
G01 X11.6068 Y9.1873
G01 X11.5023 Y9.1255
G01 X11.3821 Y9.0906
G01 X11.3684 Y9.0895
G01 X9.7225 Y9.0895
G01 X9.7008 Y9.0886
G01 X9.6893 Y9.0875
G01 X9.6778 Y9.0857
G01 X9.6703 Y9.0840
G01 X9.6591 Y9.0808
G01 X9.6483 Y9.0767
G01 X9.5754 Y9.0465
G01 X9.5648 Y9.0410
G01 X9.5514 Y9.0325
G01 X9.5450 Y9.0277
G01 X9.5359 Y9.0200
G01 X9.5274 Y9.0117
G01 X9.5195 Y9.0027
G01 X9.5123 Y8.9932
G01 X9.4695 Y8.9317
G01 X9.4633 Y8.9215
G01 X9.4596 Y8.9145
G01 X9.4547 Y8.9036
G01 X9.4507 Y8.8924
G01 X9.4475 Y8.8809
G01 X9.4458 Y8.8731
G01 X9.4440 Y8.8614
G01 X9.4431 Y8.8495
G01 X9.4404 Y8.7745
G01 X9.4405 Y8.7666
G01 X9.4414 Y8.7547
G01 X9.4439 Y8.7390
G01 X9.4480 Y8.7237
G01 X9.4536 Y8.7088
G01 X9.4588 Y8.6981
G01 X9.5007 Y8.6268
G01 X9.5071 Y8.6173
G01 X9.5142 Y8.6083
G01 X9.5192 Y8.6026
G01 X9.5273 Y8.5945
G01 X9.6831 Y8.4489
G01 X9.8400 Y8.2528
G01 X9.9669 Y8.0361
G01 X10.0611 Y7.8033
G01 X10.1208 Y7.5594
G01 X10.1447 Y7.3094
G01 X10.1322 Y7.0585
G01 X10.0836 Y6.8121
G01 X10.0000 Y6.5753
G01 X9.8831 Y6.3531
G01 X9.7353 Y6.1500
G01 X9.5597 Y5.9705
G01 X9.3601 Y5.8181
G01 X9.1406 Y5.6962
G01 X8.9057 Y5.6072
G01 X8.6605 Y5.5530
G01 X8.4739 Y5.5395
G01 X5.8108 Y5.5396
G01 X5.7395 Y5.5431
G01 X5.4902 Y5.5864
G01 X5.2516 Y5.6646
G01 X5.0267 Y5.7765
G01 X4.8204 Y5.9196
G01 X4.6369 Y6.0911
G01 X4.4800 Y6.2872
G01 X4.3531 Y6.5039
G01 X4.2589 Y6.7367
G01 X4.1992 Y6.9806
G01 X4.1753 Y7.2306
G00 Z1.0000
G00 X4.1740 Y9.2761
G01 F30.00
G01 Z-0.1200
G01 F100.00
G01 X4.1740 Y9.4722
G01 X4.2996 Y9.5173
G01 X4.4247 Y9.5765
G01 X4.5434 Y9.6476
G01 X4.6545 Y9.7301
G01 X4.7570 Y9.8230
G01 X4.8499 Y9.9255
G01 X4.9324 Y10.0366
G01 X4.9996 Y10.1485
G01 X5.0053 Y10.1588
G01 X5.0627 Y10.2804
G01 X5.1093 Y10.4107
G01 X5.1429 Y10.5449
G01 X5.1632 Y10.6818
G01 X5.1700 Y10.8200
G01 X5.1700 Y11.6560
G01 X5.3580 Y11.6560
G01 X5.3580 Y10.7389
G01 X5.3381 Y10.5417
G01 X5.2797 Y10.3115
G01 X5.1878 Y10.0925
G01 X5.0646 Y9.8894
G01 X4.9127 Y9.7068
G01 X4.7355 Y9.5487
G01 X4.5369 Y9.4184
G01 X4.3212 Y9.3190
G01 X4.1740 Y9.2761
G00 Z1.0000
G00 X2.1620 Y11.6560
G01 F30.00
G01 Z-0.1200
G01 F100.00
G01 X2.3500 Y11.6560
G01 X2.3500 Y10.8200
G01 X2.3568 Y10.6818
G01 X2.3771 Y10.5449
G01 X2.4107 Y10.4107
G01 X2.4573 Y10.2804
G01 X2.5147 Y10.1588
G01 X2.5204 Y10.1485
G01 X2.5876 Y10.0366
G01 X2.6701 Y9.9255
G01 X2.7630 Y9.8230
G01 X2.8655 Y9.7301
G01 X2.9766 Y9.6476
G01 X3.0953 Y9.5765
G01 X3.2204 Y9.5173
G01 X3.3460 Y9.4722
G01 X3.3459 Y9.2746
G01 X3.1597 Y9.3342
G01 X2.9467 Y9.4392
G01 X2.7515 Y9.5746
G01 X2.5785 Y9.7374
G01 X2.4315 Y9.9239
G01 X2.3136 Y10.1301
G01 X2.2275 Y10.3515
G01 X2.1751 Y10.5831
G01 X2.1620 Y10.7596
G01 X2.1620 Y11.6560
G00 Z1.0000
G00 X2.1620 Y12.4840
G01 F30.00
G01 Z-0.1200
G01 F100.00
G01 X2.1620 Y13.4011
G01 X2.1819 Y13.5983
G01 X2.2403 Y13.8285
G01 X2.3322 Y14.0475
G01 X2.4554 Y14.2506
G01 X2.6073 Y14.4332
G01 X2.7845 Y14.5913
G01 X2.9831 Y14.7216
G01 X3.1988 Y14.8210
G01 X3.3460 Y14.8639
G01 X3.3460 Y14.6678
G01 X3.2204 Y14.6227
G01 X3.0953 Y14.5635
G01 X2.9766 Y14.4924
G01 X2.8655 Y14.4099
G01 X2.7630 Y14.3170
G01 X2.6701 Y14.2145
G01 X2.5876 Y14.1034
G01 X2.5204 Y13.9915
G01 X2.5147 Y13.9812
G01 X2.4573 Y13.8596
G01 X2.4107 Y13.7293
G01 X2.3771 Y13.5951
G01 X2.3568 Y13.4582
G01 X2.3500 Y13.3200
G01 X2.3500 Y12.4840
G01 X2.1620 Y12.4840
G00 Z1.0000
G00 X4.1740 Y14.8654
G01 F30.00
G01 Z-0.1200
G01 F100.00
G01 X4.3603 Y14.8058
G01 X4.5733 Y14.7008
G01 X4.7685 Y14.5654
G01 X4.9415 Y14.4026
G01 X5.0885 Y14.2161
G01 X5.2064 Y14.0099
G01 X5.2925 Y13.7885
G01 X5.3449 Y13.5569
G01 X5.3580 Y13.3804
G01 X5.3580 Y12.4840
G01 X5.1700 Y12.4840
G01 X5.1700 Y13.3200
G01 X5.1632 Y13.4582
G01 X5.1429 Y13.5951
G01 X5.1093 Y13.7293
G01 X5.0627 Y13.8596
G01 X5.0053 Y13.9812
G01 X4.9996 Y13.9915
G01 X4.9324 Y14.1034
G01 X4.8499 Y14.2145
G01 X4.7570 Y14.3170
G01 X4.6545 Y14.4099
G01 X4.5434 Y14.4924
G01 X4.4247 Y14.5635
G01 X4.2996 Y14.6227
G01 X4.1740 Y14.6678
G01 X4.1740 Y14.8654
G00 Z1.0000
G00 X1.0155 Y18.2563
G01 F30.00
G01 Z-0.1200
G01 F100.00
G01 X1.0155 Y4.5810
G01 X1.0159 Y4.5698
G01 X1.0166 Y4.5624
G01 X1.0200 Y4.5332
G01 X1.0219 Y4.5213
G01 X1.0236 Y4.5134
G01 X1.0270 Y4.5018
G01 X1.0312 Y4.4905
G01 X1.0362 Y4.4795
G01 X1.0753 Y4.4108
G01 X1.0816 Y4.4007
G01 X1.0886 Y4.3911
G01 X1.0937 Y4.3849
G01 X1.1018 Y4.3763
G01 X1.1076 Y4.3708
G01 X1.1137 Y4.3657
G01 X1.1232 Y4.3585
G01 X1.1367 Y4.3502
G01 X1.2032 Y4.3155
G01 X1.2140 Y4.3104
G01 X1.2251 Y4.3061
G01 X1.2327 Y4.3037
G01 X1.2442 Y4.3008
G01 X1.2520 Y4.2994
G01 X1.2599 Y4.2983
G01 X1.2718 Y4.2975
G01 X1.2798 Y4.2974
G01 X1.2917 Y4.2981
G01 X1.3702 Y4.3054
G01 X1.3820 Y4.3075
G01 X1.3973 Y4.3117
G01 X1.4085 Y4.3158
G01 X1.4194 Y4.3207
G01 X1.4264 Y4.3244
G01 X1.4365 Y4.3307
G01 X1.4462 Y4.3377
G01 X1.5022 Y4.3813
G01 X1.5137 Y4.3912
G01 X1.5218 Y4.3994
G01 X1.5292 Y4.4080
G01 X1.5454 Y4.4304
G01 X1.7313 Y4.6262
G01 X1.9421 Y4.7951
G01 X2.1738 Y4.9338
G01 X2.4222 Y5.0397
G01 X2.6826 Y5.1110
G01 X2.9504 Y5.1462
G01 X3.2204 Y5.1448
G01 X3.4877 Y5.1068
G01 X3.7474 Y5.0328
G01 X3.9947 Y4.9242
G01 X4.2250 Y4.7831
G01 X4.4339 Y4.6121
G01 X4.6177 Y4.4143
G01 X4.7658 Y4.2036
G01 X4.7730 Y4.1934
G01 X4.8969 Y3.9534
G01 X4.9870 Y3.6988
G01 X5.0418 Y3.4344
G01 X5.0604 Y3.1604
G01 X5.0601 Y3.1280
G01 X5.0357 Y2.8545
G01 X4.9754 Y2.5912
G01 X4.8800 Y2.3386
G01 X4.7511 Y2.1013
G01 X4.5912 Y1.8837
G01 X4.4033 Y1.6898
G01 X4.3070 Y1.6142
G01 X4.2984 Y1.6065
G01 X4.2809 Y1.5899
G01 X4.2729 Y1.5817
G01 X4.2655 Y1.5730
G01 X4.2587 Y1.5637
G01 X4.2527 Y1.5540
G01 X4.2490 Y1.5473
G01 X4.2162 Y1.4759
G01 X4.2103 Y1.4611
G01 X4.2059 Y1.4459
G01 X4.2031 Y1.4302
G01 X4.2020 Y1.4184
G01 X4.2017 Y1.4104
G01 X4.2024 Y1.3946
G01 X4.2148 Y1.3086
G01 X4.2186 Y1.2931
G01 X4.2224 Y1.2819
G01 X4.2255 Y1.2745
G01 X4.2289 Y1.2673
G01 X4.2346 Y1.2569
G01 X4.2389 Y1.2502
G01 X4.2458 Y1.2405
G01 X4.3027 Y1.1749
G01 X4.3143 Y1.1639
G01 X4.3269 Y1.1542
G01 X4.3403 Y1.1458
G01 X4.3546 Y1.1387
G01 X4.3657 Y1.1344
G01 X4.3732 Y1.1320
G01 X4.4487 Y1.1100
G01 X4.4562 Y1.1084
G01 X4.4674 Y1.1066
G01 X4.4788 Y1.1057
G01 X4.4864 Y1.1055
G01 X30.2376 Y1.1055
G01 X30.2504 Y1.1060
G01 X30.2745 Y1.1080
G01 X30.2860 Y1.1096
G01 X30.2937 Y1.1112
G01 X30.3050 Y1.1142
G01 X30.3160 Y1.1181
G01 X30.3268 Y1.1228
G01 X30.3908 Y1.1534
G01 X30.4014 Y1.1589
G01 X30.4115 Y1.1652
G01 X30.4180 Y1.1699
G01 X30.4302 Y1.1800
G01 X30.4386 Y1.1884
G01 X30.4439 Y1.1944
G01 X30.4489 Y1.2005
G01 X30.4558 Y1.2103
G01 X30.4952 Y1.2740
G01 X30.5011 Y1.2844
G01 X30.5062 Y1.2952
G01 X30.5092 Y1.3025
G01 X30.5129 Y1.3139
G01 X30.5157 Y1.3254
G01 X30.5182 Y1.3411
G01 X30.5191 Y1.3570
G01 X30.5177 Y1.4359
G01 X30.5172 Y1.4438
G01 X30.5157 Y1.4557
G01 X30.5132 Y1.4673
G01 X30.5112 Y1.4750
G01 X30.5073 Y1.4863
G01 X30.5043 Y1.4936
G01 X30.4991 Y1.5043
G01 X30.4952 Y1.5113
G01 X30.4494 Y1.5802
G01 X30.4425 Y1.5893
G01 X30.4375 Y1.5951
G01 X30.4296 Y1.6033
G01 X30.4211 Y1.6109
G01 X30.2760 Y1.7322
G01 X30.0943 Y1.9319
G01 X29.9413 Y2.1545
G01 X29.8200 Y2.3957
G01 X29.7325 Y2.6512
G01 X29.6907 Y2.8644
G01 X29.6805 Y2.9162
G01 X29.6650 Y3.1858
G01 X29.6862 Y3.4550
G01 X29.7437 Y3.7188
G01 X29.8365 Y3.9724
G01 X29.9629 Y4.2111
G01 X30.1204 Y4.4304
G01 X30.3063 Y4.6262
G01 X30.5171 Y4.7951
G01 X30.7488 Y4.9338
G01 X30.9972 Y5.0397
G01 X31.2576 Y5.1110
G01 X31.5254 Y5.1462
G01 X31.7954 Y5.1448
G01 X32.0627 Y5.1068
G01 X32.3224 Y5.0328
G01 X32.5697 Y4.9242
G01 X32.8000 Y4.7831
G01 X33.0089 Y4.6121
G01 X33.1935 Y4.4135
G01 X33.2033 Y4.4017
G01 X33.2249 Y4.3780
G01 X33.2359 Y4.3674
G01 X33.2419 Y4.3625
G01 X33.2511 Y4.3557
G01 X33.2609 Y4.3496
G01 X33.2676 Y4.3459
G01 X33.3391 Y4.3131
G01 X33.3501 Y4.3085
G01 X33.3653 Y4.3038
G01 X33.3808 Y4.3005
G01 X33.3927 Y4.2991
G01 X33.4006 Y4.2987
G01 X33.4165 Y4.2990
G01 X33.4283 Y4.3002
G01 X33.5064 Y4.3117
G01 X33.5142 Y4.3134
G01 X33.5257 Y4.3167
G01 X33.5405 Y4.3224
G01 X33.5477 Y4.3257
G01 X33.5581 Y4.3315
G01 X33.5648 Y4.3357
G01 X33.5745 Y4.3427
G01 X33.6401 Y4.3996
G01 X33.6511 Y4.4112
G01 X33.6608 Y4.4237
G01 X33.6692 Y4.4372
G01 X33.6763 Y4.4515
G01 X33.6806 Y4.4626
G01 X33.6830 Y4.4701
G01 X33.7050 Y4.5456
G01 X33.7073 Y4.5568
G01 X33.7084 Y4.5643
G01 X33.7091 Y4.5719
G01 X33.7095 Y4.5833
G01 X33.7095 Y18.2608
G01 X33.7085 Y18.2786
G01 X33.7054 Y18.3065
G01 X33.7036 Y18.3183
G01 X33.7010 Y18.3299
G01 X33.6975 Y18.3413
G01 X33.6931 Y18.3524
G01 X33.6898 Y18.3596
G01 X33.6515 Y18.4287
G01 X33.6453 Y18.4388
G01 X33.6408 Y18.4454
G01 X33.6334 Y18.4547
G01 X33.6225 Y18.4662
G01 X33.6166 Y18.4716
G01 X33.6073 Y18.4791
G01 X33.5975 Y18.4858
G01 X33.5907 Y18.4899
G01 X33.5246 Y18.5253
G01 X33.5139 Y18.5305
G01 X33.5028 Y18.5349
G01 X33.4952 Y18.5374
G01 X33.4837 Y18.5404
G01 X33.4759 Y18.5419
G01 X33.4680 Y18.5430
G01 X33.4562 Y18.5440
G01 X33.4442 Y18.5441
G01 X33.4363 Y18.5436
G01 X33.3576 Y18.5371
G01 X33.3420 Y18.5343
G01 X33.3305 Y18.5311
G01 X33.3193 Y18.5271
G01 X33.3084 Y18.5223
G01 X33.3013 Y18.5187
G01 X33.2911 Y18.5125
G01 X33.2814 Y18.5057
G01 X33.2249 Y18.4626
G01 X33.2133 Y18.4528
G01 X33.2052 Y18.4448
G01 X33.1977 Y18.4362
G01 X33.1662 Y18.3937
G01 X32.9783 Y18.1998
G01 X32.7658 Y18.0331
G01 X32.5327 Y17.8969
G01 X32.2832 Y17.7936
G01 X32.0220 Y17.7250
G01 X31.7539 Y17.6926
G01 X31.4839 Y17.6968
G01 X31.2170 Y17.7377
G01 X30.9580 Y17.8144
G01 X30.7119 Y17.9255
G01 X30.5975 Y17.9972
G01 X30.4832 Y18.0690
G01 X30.2760 Y18.2422
G01 X30.0943 Y18.4419
G01 X29.9413 Y18.6645
G01 X29.8200 Y18.9057
G01 X29.7325 Y19.1612
G01 X29.6907 Y19.3744
G01 X29.6805 Y19.4262
G01 X29.6650 Y19.6958
G01 X29.6862 Y19.9650
G01 X29.7437 Y20.2288
G01 X29.8365 Y20.4824
G01 X29.9629 Y20.7211
G01 X30.1204 Y20.9404
G01 X30.3063 Y21.1362
G01 X30.4203 Y21.2276
G01 X30.4284 Y21.2349
G01 X30.4448 Y21.2507
G01 X30.4532 Y21.2594
G01 X30.4584 Y21.2655
G01 X30.4656 Y21.2751
G01 X30.4720 Y21.2853
G01 X30.4759 Y21.2923
G01 X30.5089 Y21.3641
G01 X30.5148 Y21.3789
G01 X30.5192 Y21.3941
G01 X30.5220 Y21.4098
G01 X30.5228 Y21.4177
G01 X30.5234 Y21.4296
G01 X30.5227 Y21.4454
G01 X30.5103 Y21.5314
G01 X30.5065 Y21.5469
G01 X30.5026 Y21.5581
G01 X30.4996 Y21.5655
G01 X30.4944 Y21.5762
G01 X30.4905 Y21.5831
G01 X30.4840 Y21.5931
G01 X30.4792 Y21.5995
G01 X30.4223 Y21.6651
G01 X30.4108 Y21.6761
G01 X30.3982 Y21.6858
G01 X30.3847 Y21.6942
G01 X30.3705 Y21.7013
G01 X30.3631 Y21.7042
G01 X30.3518 Y21.7080
G01 X30.2764 Y21.7300
G01 X30.2689 Y21.7316
G01 X30.2576 Y21.7334
G01 X30.2501 Y21.7341
G01 X30.2386 Y21.7345
G01 X4.4867 Y21.7345
G01 X4.4730 Y21.7339
G01 X4.4477 Y21.7317
G01 X4.4398 Y21.7306
G01 X4.4282 Y21.7283
G01 X4.4167 Y21.7251
G01 X4.4056 Y21.7211
G01 X4.3947 Y21.7163
G01 X4.3310 Y21.6850
G01 X4.3205 Y21.6793
G01 X4.3137 Y21.6751
G01 X4.3040 Y21.6682
G01 X4.2919 Y21.6579
G01 X4.2863 Y21.6524
G01 X4.2783 Y21.6435
G01 X4.2711 Y21.6340
G01 X4.2666 Y21.6274
G01 X4.2279 Y21.5633
G01 X4.2221 Y21.5529
G01 X4.2171 Y21.5420
G01 X4.2129 Y21.5309
G01 X4.2096 Y21.5194
G01 X4.2079 Y21.5117
G01 X4.2060 Y21.4999
G01 X4.2049 Y21.4840
G01 X4.2069 Y21.4051
G01 X4.2073 Y21.3972
G01 X4.2087 Y21.3854
G01 X4.2101 Y21.3775
G01 X4.2129 Y21.3660
G01 X4.2166 Y21.3546
G01 X4.2211 Y21.3436
G01 X4.2245 Y21.3364
G01 X4.2304 Y21.3260
G01 X4.2769 Y21.2576
G01 X4.2815 Y21.2516
G01 X4.2889 Y21.2429
G01 X4.2970 Y21.2347
G01 X4.3055 Y21.2272
G01 X4.4339 Y21.1221
G01 X4.6177 Y20.9243
G01 X4.7730 Y20.7034
G01 X4.8969 Y20.4634
G01 X4.9870 Y20.2088
G01 X5.0418 Y19.9444
G01 X5.0604 Y19.6704
G01 X5.0601 Y19.6380
G01 X5.0357 Y19.3645
G01 X4.9754 Y19.1012
G01 X4.8800 Y18.8486
G01 X4.7511 Y18.6113
G01 X4.5912 Y18.3937
G01 X4.4033 Y18.1998
G01 X4.1908 Y18.0331
G01 X3.9981 Y17.9205
G01 X3.9577 Y17.8969
G01 X3.7082 Y17.7936
G01 X3.4470 Y17.7250
G01 X3.3976 Y17.7191
G01 X3.1789 Y17.6926
G01 X2.9089 Y17.6968
G01 X2.6420 Y17.7377
G01 X2.3830 Y17.8144
G01 X2.1369 Y17.9255
G01 X1.9082 Y18.0690
G01 X1.7010 Y18.2422
G01 X1.5130 Y18.4488
G01 X1.4958 Y18.4660
G01 X1.4870 Y18.4740
G01 X1.4808 Y18.4789
G01 X1.4712 Y18.4857
G01 X1.4645 Y18.4898
G01 X1.4540 Y18.4954
G01 X1.3823 Y18.5282
G01 X1.3711 Y18.5324
G01 X1.3636 Y18.5348
G01 X1.3520 Y18.5377
G01 X1.3402 Y18.5397
G01 X1.3244 Y18.5409
G01 X1.3125 Y18.5409
G01 X1.2967 Y18.5394
G01 X1.2225 Y18.5287
G01 X1.2147 Y18.5272
G01 X1.2031 Y18.5242
G01 X1.1956 Y18.5217
G01 X1.1845 Y18.5173
G01 X1.1738 Y18.5121
G01 X1.1669 Y18.5081
G01 X1.1569 Y18.5016
G01 X1.1505 Y18.4969
G01 X1.0907 Y18.4453
G01 X1.0820 Y18.4372
G01 X1.0739 Y18.4285
G01 X1.0665 Y18.4191
G01 X1.0620 Y18.4126
G01 X1.0558 Y18.4024
G01 X1.0487 Y18.3882
G01 X1.0431 Y18.3733
G01 X1.0210 Y18.2977
G01 X1.0192 Y18.2903
G01 X1.0171 Y18.2791
G01 X1.0159 Y18.2677
G01 X1.0155 Y18.2563
G00 Z1.0000
G00 X0.8875 Y18.2563
G01 F30.00
G01 Z-0.1200
G01 F100.00
G01 X0.8875 Y4.5810
G01 X0.8878 Y4.5676
G01 X0.8888 Y4.5541
G01 X0.8938 Y4.5111
G01 X0.8962 Y4.4968
G01 X0.8994 Y4.4826
G01 X0.9054 Y4.4618
G01 X0.9129 Y4.4414
G01 X0.9188 Y4.4282
G01 X0.9289 Y4.4089
G01 X0.9641 Y4.3473
G01 X0.9755 Y4.3291
G01 X0.9838 Y4.3174
G01 X0.9973 Y4.3007
G01 X1.0069 Y4.2902
G01 X1.0171 Y4.2802
G01 X1.0278 Y4.2706
G01 X1.0389 Y4.2616
G01 X1.0505 Y4.2532
G01 X1.0686 Y4.2417
G01 X1.0811 Y4.2348
G01 X1.1441 Y4.2020
G01 X1.1634 Y4.1928
G01 X1.1835 Y4.1851
G01 X1.1971 Y4.1807
G01 X1.2179 Y4.1756
G01 X1.2320 Y4.1730
G01 X1.2462 Y4.1711
G01 X1.2604 Y4.1699
G01 X1.2747 Y4.1694
G01 X1.2961 Y4.1700
G01 X1.3811 Y4.1778
G01 X1.4023 Y4.1810
G01 X1.4163 Y4.1841
G01 X1.4369 Y4.1900
G01 X1.4570 Y4.1974
G01 X1.4766 Y4.2062
G01 X1.4954 Y4.2165
G01 X1.5075 Y4.2241
G01 X1.5192 Y4.2324
G01 X1.5809 Y4.2803
G01 X1.5915 Y4.2890
G01 X1.6066 Y4.3030
G01 X1.6207 Y4.3180
G01 X1.6336 Y4.3339
G01 X1.6443 Y4.3486
G01 X1.8182 Y4.5318
G01 X2.0153 Y4.6897
G01 X2.2320 Y4.8195
G01 X2.4643 Y4.9185
G01 X2.7080 Y4.9852
G01 X2.9584 Y5.0182
G01 X3.2110 Y5.0168
G01 X3.4611 Y4.9813
G01 X3.7040 Y4.9121
G01 X3.9353 Y4.8105
G01 X4.1506 Y4.6786
G01 X4.3461 Y4.5186
G01 X4.5180 Y4.3335
G01 X4.6611 Y4.1300
G01 X4.6633 Y4.1269
G01 X4.7791 Y3.9024
G01 X4.8634 Y3.6643
G01 X4.9147 Y3.4170
G01 X4.9324 Y3.1573
G01 X4.9320 Y3.1325
G01 X4.9090 Y2.8745
G01 X4.8526 Y2.6283
G01 X4.7633 Y2.3920
G01 X4.6428 Y2.1701
G01 X4.4932 Y1.9665
G01 X4.3175 Y1.7851
G01 X4.2310 Y1.7173
G01 X4.2203 Y1.7085
G01 X4.2101 Y1.6992
G01 X4.1877 Y1.6778
G01 X4.1737 Y1.6627
G01 X4.1607 Y1.6467
G01 X4.1528 Y1.6355
G01 X4.1453 Y1.6240
G01 X4.1352 Y1.6060
G01 X4.1292 Y1.5937
G01 X4.0969 Y1.5225
G01 X4.0916 Y1.5092
G01 X4.0849 Y1.4889
G01 X4.0813 Y1.4750
G01 X4.0784 Y1.4610
G01 X4.0762 Y1.4469
G01 X4.0747 Y1.4327
G01 X4.0737 Y1.4112
G01 X4.0740 Y1.3969
G01 X4.0750 Y1.3826
G01 X4.0766 Y1.3684
G01 X4.0867 Y1.2982
G01 X4.0906 Y1.2771
G01 X4.0940 Y1.2632
G01 X4.1004 Y1.2427
G01 X4.1056 Y1.2294
G01 X4.1113 Y1.2163
G01 X4.1178 Y1.2035
G01 X4.1248 Y1.1910
G01 X4.1325 Y1.1790
G01 X4.1451 Y1.1616
G01 X4.1542 Y1.1506
G01 X4.2007 Y1.0969
G01 X4.2153 Y1.0812
G01 X4.2257 Y1.0714
G01 X4.2366 Y1.0621
G01 X4.2479 Y1.0533
G01 X4.2596 Y1.0452
G01 X4.2779 Y1.0340
G01 X4.2906 Y1.0274
G01 X4.3036 Y1.0213
G01 X4.3168 Y1.0160
G01 X4.3303 Y1.0113
G01 X4.4053 Y0.9892
G01 X4.4185 Y0.9856
G01 X4.4387 Y0.9815
G01 X4.4522 Y0.9795
G01 X4.4727 Y0.9778
G01 X4.4864 Y0.9775
G01 X30.2376 Y0.9775
G01 X30.2530 Y0.9779
G01 X30.2878 Y0.9807
G01 X30.3087 Y0.9837
G01 X30.3224 Y0.9865
G01 X30.3428 Y0.9920
G01 X30.3627 Y0.9989
G01 X30.3820 Y1.0073
G01 X30.4460 Y1.0379
G01 X30.4650 Y1.0479
G01 X30.4773 Y1.0553
G01 X30.4891 Y1.0633
G01 X30.5061 Y1.0764
G01 X30.5169 Y1.0858
G01 X30.5321 Y1.1010
G01 X30.5416 Y1.1116
G01 X30.5506 Y1.1228
G01 X30.5590 Y1.1344
G01 X30.5668 Y1.1463
G01 X30.6041 Y1.2067
G01 X30.6147 Y1.2254
G01 X30.6239 Y1.2448
G01 X30.6292 Y1.2581
G01 X30.6338 Y1.2716
G01 X30.6395 Y1.2923
G01 X30.6424 Y1.3063
G01 X30.6455 Y1.3275
G01 X30.6467 Y1.3418
G01 X30.6471 Y1.3561
G01 X30.6458 Y1.4342
G01 X30.6452 Y1.4485
G01 X30.6430 Y1.4698
G01 X30.6392 Y1.4909
G01 X30.6338 Y1.5117
G01 X30.6269 Y1.5320
G01 X30.6185 Y1.5517
G01 X30.6086 Y1.5708
G01 X30.5974 Y1.5891
G01 X30.5580 Y1.6481
G01 X30.5459 Y1.6648
G01 X30.5373 Y1.6754
G01 X30.5234 Y1.6905
G01 X30.5084 Y1.7046
G01 X30.3648 Y1.8248
G01 X30.1948 Y2.0116
G01 X30.0517 Y2.2198
G01 X29.9383 Y2.4454
G01 X29.8564 Y2.6844
G01 X29.8078 Y2.9323
G01 X29.7933 Y3.1844
G01 X29.8131 Y3.4363
G01 X29.8669 Y3.6830
G01 X29.9537 Y3.9202
G01 X30.0719 Y4.1435
G01 X30.2193 Y4.3486
G01 X30.3932 Y4.5318
G01 X30.5903 Y4.6897
G01 X30.8070 Y4.8195
G01 X31.0393 Y4.9185
G01 X31.2830 Y4.9852
G01 X31.5334 Y5.0182
G01 X31.7860 Y5.0168
G01 X32.0361 Y4.9813
G01 X32.2790 Y4.9121
G01 X32.5103 Y4.8105
G01 X32.7256 Y4.6786
G01 X32.9211 Y4.5186
G01 X33.0962 Y4.3302
G01 X33.1071 Y4.3172
G01 X33.1320 Y4.2900
G01 X33.1468 Y4.2755
G01 X33.1625 Y4.2620
G01 X33.1736 Y4.2537
G01 X33.1850 Y4.2460
G01 X33.2028 Y4.2354
G01 X33.2151 Y4.2291
G01 X33.2925 Y4.1937
G01 X33.3058 Y4.1885
G01 X33.3193 Y4.1838
G01 X33.3400 Y4.1782
G01 X33.3540 Y4.1753
G01 X33.3681 Y4.1731
G01 X33.3823 Y4.1715
G01 X33.3966 Y4.1707
G01 X33.4109 Y4.1707
G01 X33.4252 Y4.1713
G01 X33.4466 Y4.1735
G01 X33.5168 Y4.1836
G01 X33.5309 Y4.1860
G01 X33.5518 Y4.1909
G01 X33.5655 Y4.1950
G01 X33.5790 Y4.1998
G01 X33.5922 Y4.2053
G01 X33.6052 Y4.2114
G01 X33.6178 Y4.2181
G01 X33.6360 Y4.2294
G01 X33.6477 Y4.2376
G01 X33.6644 Y4.2511
G01 X33.7181 Y4.2975
G01 X33.7287 Y4.3072
G01 X33.7388 Y4.3173
G01 X33.7483 Y4.3280
G01 X33.7573 Y4.3391
G01 X33.7658 Y4.3506
G01 X33.7737 Y4.3625
G01 X33.7810 Y4.3748
G01 X33.7876 Y4.3875
G01 X33.7937 Y4.4005
G01 X33.7990 Y4.4137
G01 X33.8037 Y4.4272
G01 X33.8258 Y4.5022
G01 X33.8294 Y4.5154
G01 X33.8323 Y4.5288
G01 X33.8355 Y4.5491
G01 X33.8368 Y4.5628
G01 X33.8375 Y4.5833
G01 X33.8375 Y18.2608
G01 X33.8372 Y18.2737
G01 X33.8364 Y18.2865
G01 X33.8317 Y18.3279
G01 X33.8294 Y18.3420
G01 X33.8246 Y18.3629
G01 X33.8206 Y18.3766
G01 X33.8159 Y18.3901
G01 X33.8076 Y18.4099
G01 X33.7979 Y18.4290
G01 X33.7633 Y18.4910
G01 X33.7522 Y18.5093
G01 X33.7440 Y18.5211
G01 X33.7352 Y18.5324
G01 X33.7211 Y18.5485
G01 X33.7110 Y18.5587
G01 X33.6950 Y18.5729
G01 X33.6837 Y18.5818
G01 X33.6720 Y18.5900
G01 X33.6600 Y18.5977
G01 X33.6475 Y18.6047
G01 X33.5849 Y18.6382
G01 X33.5656 Y18.6476
G01 X33.5457 Y18.6555
G01 X33.5321 Y18.6600
G01 X33.5183 Y18.6637
G01 X33.4973 Y18.6681
G01 X33.4831 Y18.6702
G01 X33.4689 Y18.6715
G01 X33.4546 Y18.6721
G01 X33.4332 Y18.6717
G01 X33.3481 Y18.6649
G01 X33.3269 Y18.6618
G01 X33.3060 Y18.6572
G01 X33.2922 Y18.6533
G01 X33.2720 Y18.6461
G01 X33.2524 Y18.6374
G01 X33.2334 Y18.6273
G01 X33.2213 Y18.6198
G01 X33.2095 Y18.6117
G01 X33.1473 Y18.5644
G01 X33.1366 Y18.5558
G01 X33.1213 Y18.5420
G01 X33.1117 Y18.5323
G01 X33.1026 Y18.5220
G01 X33.0940 Y18.5114
G01 X33.0682 Y18.4765
G01 X32.8925 Y18.2951
G01 X32.6937 Y18.1392
G01 X32.4756 Y18.0118
G01 X32.2423 Y17.9152
G01 X31.9979 Y17.8511
G01 X31.7472 Y17.8207
G01 X31.4946 Y17.8247
G01 X31.2449 Y17.8629
G01 X31.0028 Y17.9346
G01 X30.7725 Y18.0386
G01 X30.6656 Y18.1057
G01 X30.5586 Y18.1728
G01 X30.3648 Y18.3348
G01 X30.1948 Y18.5216
G01 X30.0517 Y18.7298
G01 X29.9383 Y18.9554
G01 X29.8564 Y19.1944
G01 X29.8078 Y19.4423
G01 X29.7933 Y19.6944
G01 X29.8131 Y19.9463
G01 X29.8669 Y20.1930
G01 X29.9537 Y20.4302
G01 X30.0719 Y20.6535
G01 X30.2193 Y20.8586
G01 X30.3932 Y21.0418
G01 X30.4975 Y21.1254
G01 X30.5075 Y21.1338
G01 X30.5387 Y21.1635
G01 X30.5533 Y21.1795
G01 X30.5624 Y21.1907
G01 X30.5709 Y21.2024
G01 X30.5825 Y21.2207
G01 X30.5895 Y21.2334
G01 X30.5958 Y21.2463
G01 X30.6282 Y21.3175
G01 X30.6359 Y21.3375
G01 X30.6402 Y21.3511
G01 X30.6438 Y21.3650
G01 X30.6467 Y21.3790
G01 X30.6489 Y21.3931
G01 X30.6504 Y21.4073
G01 X30.6512 Y21.4216
G01 X30.6513 Y21.4359
G01 X30.6501 Y21.4574
G01 X30.6484 Y21.4716
G01 X30.6383 Y21.5418
G01 X30.6345 Y21.5629
G01 X30.6311 Y21.5768
G01 X30.6269 Y21.5905
G01 X30.6195 Y21.6106
G01 X30.6137 Y21.6237
G01 X30.6073 Y21.6365
G01 X30.6003 Y21.6490
G01 X30.5885 Y21.6669
G01 X30.5800 Y21.6784
G01 X30.5709 Y21.6894
G01 X30.5244 Y21.7431
G01 X30.5098 Y21.7588
G01 X30.4994 Y21.7686
G01 X30.4885 Y21.7779
G01 X30.4714 Y21.7908
G01 X30.4594 Y21.7987
G01 X30.4471 Y21.8060
G01 X30.4345 Y21.8126
G01 X30.4215 Y21.8187
G01 X30.4082 Y21.8240
G01 X30.3947 Y21.8287
G01 X30.3198 Y21.8508
G01 X30.3065 Y21.8544
G01 X30.2931 Y21.8573
G01 X30.2728 Y21.8605
G01 X30.2592 Y21.8618
G01 X30.2386 Y21.8625
G01 X4.4867 Y21.8625
G01 X4.4703 Y21.8620
G01 X4.4336 Y21.8589
G01 X4.4124 Y21.8558
G01 X4.3916 Y21.8511
G01 X4.3712 Y21.8449
G01 X4.3578 Y21.8399
G01 X4.3383 Y21.8312
G01 X4.2746 Y21.7999
G01 X4.2557 Y21.7897
G01 X4.2435 Y21.7822
G01 X4.2318 Y21.7740
G01 X4.2149 Y21.7607
G01 X4.2043 Y21.7512
G01 X4.1941 Y21.7412
G01 X4.1844 Y21.7306
G01 X4.1709 Y21.7139
G01 X4.1627 Y21.7023
G01 X4.1550 Y21.6902
G01 X4.1183 Y21.6294
G01 X4.1079 Y21.6107
G01 X4.1017 Y21.5977
G01 X4.0937 Y21.5778
G01 X4.0873 Y21.5574
G01 X4.0838 Y21.5435
G01 X4.0810 Y21.5295
G01 X4.0782 Y21.5082
G01 X4.0771 Y21.4940
G01 X4.0768 Y21.4797
G01 X4.0789 Y21.4015
G01 X4.0797 Y21.3873
G01 X4.0822 Y21.3659
G01 X4.0862 Y21.3449
G01 X4.0918 Y21.3242
G01 X4.0989 Y21.3039
G01 X4.1075 Y21.2843
G01 X4.1176 Y21.2653
G01 X4.1290 Y21.2472
G01 X4.1691 Y21.1885
G01 X4.1813 Y21.1720
G01 X4.1900 Y21.1615
G01 X4.2041 Y21.1465
G01 X4.2192 Y21.1325
G01 X4.3461 Y21.0286
G01 X4.5180 Y20.8435
G01 X4.6633 Y20.6369
G01 X4.7791 Y20.4124
G01 X4.8634 Y20.1743
G01 X4.9147 Y19.9270
G01 X4.9324 Y19.6673
G01 X4.9320 Y19.6425
G01 X4.9090 Y19.3845
G01 X4.8526 Y19.1383
G01 X4.7633 Y18.9020
G01 X4.6428 Y18.6801
G01 X4.4932 Y18.4765
G01 X4.3175 Y18.2951
G01 X4.1187 Y18.1392
G01 X3.9335 Y18.0311
G01 X3.9006 Y18.0118
G01 X3.6673 Y17.9152
G01 X3.4229 Y17.8511
G01 X3.1722 Y17.8207
G01 X2.9196 Y17.8247
G01 X2.6699 Y17.8629
G01 X2.4278 Y17.9346
G01 X2.1975 Y18.0386
G01 X1.9836 Y18.1728
G01 X1.7898 Y18.3348
G01 X1.6019 Y18.5412
G01 X1.5800 Y18.5625
G01 X1.5694 Y18.5719
G01 X1.5583 Y18.5808
G01 X1.5409 Y18.5930
G01 X1.5288 Y18.6005
G01 X1.5164 Y18.6073
G01 X1.5037 Y18.6135
G01 X1.4391 Y18.6430
G01 X1.4192 Y18.6512
G01 X1.4057 Y18.6558
G01 X1.3920 Y18.6597
G01 X1.3710 Y18.6644
G01 X1.3569 Y18.6666
G01 X1.3355 Y18.6686
G01 X1.3141 Y18.6690
G01 X1.2998 Y18.6684
G01 X1.2784 Y18.6661
G01 X1.2082 Y18.6560
G01 X1.1871 Y18.6521
G01 X1.1732 Y18.6487
G01 X1.1527 Y18.6423
G01 X1.1394 Y18.6372
G01 X1.1198 Y18.6283
G01 X1.1072 Y18.6215
G01 X1.0950 Y18.6142
G01 X1.0831 Y18.6062
G01 X1.0660 Y18.5932
G01 X1.0016 Y18.5373
G01 X0.9862 Y18.5223
G01 X0.9721 Y18.5062
G01 X0.9592 Y18.4890
G01 X0.9513 Y18.4771
G01 X0.9406 Y18.4585
G01 X0.9313 Y18.4392
G01 X0.9235 Y18.4192
G01 X0.9192 Y18.4056
G01 X0.8973 Y18.3308
G01 X0.8941 Y18.3175
G01 X0.8904 Y18.2973
G01 X0.8882 Y18.2769
G01 X0.8875 Y18.2563
G00 Z1.0000
G00 X0.7595 Y18.2563
G01 F30.00
G01 Z-0.1200
G01 F100.00
G01 X0.7595 Y4.5810
G01 X0.7600 Y4.5616
G01 X0.7613 Y4.5422
G01 X0.7671 Y4.4930
G01 X0.7706 Y4.4723
G01 X0.7751 Y4.4519
G01 X0.7806 Y4.4317
G01 X0.7838 Y4.4217
G01 X0.7908 Y4.4020
G01 X0.7989 Y4.3827
G01 X0.8078 Y4.3638
G01 X0.8178 Y4.3454
G01 X0.8530 Y4.2837
G01 X0.8637 Y4.2661
G01 X0.8753 Y4.2489
G01 X0.8877 Y4.2324
G01 X0.9009 Y4.2165
G01 X0.9148 Y4.2013
G01 X0.9221 Y4.1940
G01 X0.9372 Y4.1798
G01 X0.9529 Y4.1665
G01 X0.9693 Y4.1539
G01 X0.9863 Y4.1421
G01 X1.0039 Y4.1313
G01 X1.0220 Y4.1213
G01 X1.0849 Y4.0885
G01 X1.1035 Y4.0794
G01 X1.1225 Y4.0712
G01 X1.1418 Y4.0640
G01 X1.1615 Y4.0578
G01 X1.1715 Y4.0550
G01 X1.1916 Y4.0503
G01 X1.2119 Y4.0465
G01 X1.2324 Y4.0438
G01 X1.2427 Y4.0428
G01 X1.2633 Y4.0416
G01 X1.2840 Y4.0415
G01 X1.3046 Y4.0423
G01 X1.3149 Y4.0431
G01 X1.3856 Y4.0496
G01 X1.3959 Y4.0506
G01 X1.4163 Y4.0535
G01 X1.4366 Y4.0574
G01 X1.4467 Y4.0598
G01 X1.4666 Y4.0652
G01 X1.4863 Y4.0716
G01 X1.4960 Y4.0751
G01 X1.5151 Y4.0829
G01 X1.5245 Y4.0872
G01 X1.5430 Y4.0965
G01 X1.5610 Y4.1066
G01 X1.5784 Y4.1176
G01 X1.5954 Y4.1295
G01 X1.6673 Y4.1856
G01 X1.6823 Y4.1985
G01 X1.6967 Y4.2121
G01 X1.7104 Y4.2263
G01 X1.7235 Y4.2413
G01 X1.7358 Y4.2568
G01 X1.7431 Y4.2668
G01 X1.9050 Y4.4374
G01 X2.0885 Y4.5844
G01 X2.2903 Y4.7051
G01 X2.5065 Y4.7974
G01 X2.7333 Y4.8594
G01 X2.9665 Y4.8901
G01 X3.2016 Y4.8889
G01 X3.4344 Y4.8558
G01 X3.6605 Y4.7913
G01 X3.8758 Y4.6968
G01 X4.0763 Y4.5740
G01 X4.2583 Y4.4251
G01 X4.4183 Y4.2528
G01 X4.5535 Y4.0604
G01 X4.6614 Y3.8515
G01 X4.7399 Y3.6298
G01 X4.7875 Y3.3996
G01 X4.8043 Y3.1539
G01 X4.8041 Y3.1392
G01 X4.7823 Y2.8946
G01 X4.7298 Y2.6654
G01 X4.6466 Y2.4454
G01 X4.5345 Y2.2388
G01 X4.3952 Y2.0493
G01 X4.2316 Y1.8804
G01 X4.1520 Y1.8180
G01 X4.1291 Y1.7987
G01 X4.1043 Y1.7753
G01 X4.0903 Y1.7613
G01 X4.0706 Y1.7390
G01 X4.0583 Y1.7234
G01 X4.0413 Y1.6990
G01 X4.0310 Y1.6821
G01 X4.0215 Y1.6647
G01 X4.0128 Y1.6468
G01 X3.9833 Y1.5823
G01 X3.9752 Y1.5632
G01 X3.9715 Y1.5536
G01 X3.9648 Y1.5341
G01 X3.9618 Y1.5242
G01 X3.9566 Y1.5042
G01 X3.9524 Y1.4839
G01 X3.9507 Y1.4737
G01 X3.9480 Y1.4533
G01 X3.9464 Y1.4327
G01 X3.9457 Y1.4120
G01 X3.9461 Y1.3914
G01 X3.9475 Y1.3707
G01 X3.9486 Y1.3605
G01 X3.9616 Y1.2697
G01 X3.9656 Y1.2495
G01 X3.9680 Y1.2394
G01 X3.9734 Y1.2195
G01 X3.9798 Y1.1998
G01 X3.9834 Y1.1902
G01 X3.9913 Y1.1711
G01 X4.0001 Y1.1524
G01 X4.0098 Y1.1341
G01 X4.0205 Y1.1164
G01 X4.0320 Y1.0993
G01 X4.0443 Y1.0827
G01 X4.0574 Y1.0667
G01 X4.1039 Y1.0131
G01 X4.1178 Y0.9978
G01 X4.1325 Y0.9832
G01 X4.1478 Y0.9694
G01 X4.1639 Y0.9564
G01 X4.1805 Y0.9442
G01 X4.1978 Y0.9328
G01 X4.2066 Y0.9274
G01 X4.2246 Y0.9173
G01 X4.2432 Y0.9082
G01 X4.2621 Y0.8999
G01 X4.2814 Y0.8927
G01 X4.3011 Y0.8864
G01 X4.3692 Y0.8664
G01 X4.3980 Y0.8590
G01 X4.4174 Y0.8553
G01 X4.4469 Y0.8514
G01 X4.4666 Y0.8500
G01 X4.4864 Y0.8495
G01 X30.2376 Y0.8495
G01 X30.2599 Y0.8501
G01 X30.3012 Y0.8534
G01 X30.3213 Y0.8560
G01 X30.3512 Y0.8617
G01 X30.3806 Y0.8697
G01 X30.3998 Y0.8761
G01 X30.4187 Y0.8835
G01 X30.4372 Y0.8918
G01 X30.5012 Y0.9224
G01 X30.5197 Y0.9318
G01 X30.5287 Y0.9368
G01 X30.5464 Y0.9476
G01 X30.5635 Y0.9591
G01 X30.5800 Y0.9715
G01 X30.5880 Y0.9781
G01 X30.6035 Y0.9917
G01 X30.6184 Y1.0060
G01 X30.6325 Y1.0211
G01 X30.6459 Y1.0369
G01 X30.6584 Y1.0533
G01 X30.6701 Y1.0703
G01 X30.6757 Y1.0790
G01 X30.7130 Y1.1394
G01 X30.7183 Y1.1483
G01 X30.7283 Y1.1664
G01 X30.7374 Y1.1849
G01 X30.7455 Y1.2039
G01 X30.7492 Y1.2136
G01 X30.7559 Y1.2331
G01 X30.7616 Y1.2530
G01 X30.7641 Y1.2630
G01 X30.7683 Y1.2832
G01 X30.7715 Y1.3036
G01 X30.7728 Y1.3139
G01 X30.7745 Y1.3345
G01 X30.7751 Y1.3551
G01 X30.7735 Y1.4468
G01 X30.7721 Y1.4674
G01 X30.7710 Y1.4777
G01 X30.7681 Y1.4981
G01 X30.7663 Y1.5083
G01 X30.7618 Y1.5285
G01 X30.7593 Y1.5385
G01 X30.7533 Y1.5583
G01 X30.7500 Y1.5680
G01 X30.7426 Y1.5873
G01 X30.7343 Y1.6062
G01 X30.7298 Y1.6155
G01 X30.7201 Y1.6338
G01 X30.7095 Y1.6515
G01 X30.6588 Y1.7274
G01 X30.6470 Y1.7433
G01 X30.6280 Y1.7661
G01 X30.6144 Y1.7805
G01 X30.6002 Y1.7942
G01 X30.5853 Y1.8073
G01 X30.4536 Y1.9174
G01 X30.2954 Y2.0913
G01 X30.1622 Y2.2851
G01 X30.0565 Y2.4952
G01 X29.9804 Y2.7176
G01 X29.9351 Y2.9484
G01 X29.9216 Y3.1831
G01 X29.9400 Y3.4175
G01 X29.9901 Y3.6472
G01 X30.0709 Y3.8681
G01 X30.1809 Y4.0759
G01 X30.3181 Y4.2668
G01 X30.4800 Y4.4374
G01 X30.6635 Y4.5844
G01 X30.8653 Y4.7051
G01 X31.0815 Y4.7974
G01 X31.3083 Y4.8594
G01 X31.5415 Y4.8901
G01 X31.7766 Y4.8889
G01 X32.0094 Y4.8558
G01 X32.2355 Y4.7913
G01 X32.4508 Y4.6968
G01 X32.6513 Y4.5740
G01 X32.8333 Y4.4251
G01 X32.9999 Y4.2458
G01 X33.0114 Y4.2323
G01 X33.0391 Y4.2019
G01 X33.0531 Y4.1878
G01 X33.0679 Y4.1743
G01 X33.0911 Y4.1555
G01 X33.1074 Y4.1439
G01 X33.1241 Y4.1331
G01 X33.1414 Y4.1231
G01 X33.1591 Y4.1140
G01 X33.2327 Y4.0802
G01 X33.2518 Y4.0721
G01 X33.2711 Y4.0649
G01 X33.2908 Y4.0587
G01 X33.3008 Y4.0560
G01 X33.3209 Y4.0513
G01 X33.3413 Y4.0476
G01 X33.3617 Y4.0449
G01 X33.3823 Y4.0433
G01 X33.4030 Y4.0426
G01 X33.4133 Y4.0427
G01 X33.4340 Y4.0436
G01 X33.4545 Y4.0455
G01 X33.5453 Y4.0585
G01 X33.5655 Y4.0625
G01 X33.5756 Y4.0648
G01 X33.5955 Y4.0703
G01 X33.6152 Y4.0767
G01 X33.6344 Y4.0841
G01 X33.6439 Y4.0882
G01 X33.6626 Y4.0970
G01 X33.6809 Y4.1067
G01 X33.6986 Y4.1174
G01 X33.7157 Y4.1289
G01 X33.7323 Y4.1412
G01 X33.7483 Y4.1543
G01 X33.8019 Y4.2008
G01 X33.8172 Y4.2147
G01 X33.8318 Y4.2294
G01 X33.8456 Y4.2447
G01 X33.8586 Y4.2608
G01 X33.8648 Y4.2690
G01 X33.8766 Y4.2860
G01 X33.8876 Y4.3035
G01 X33.8977 Y4.3215
G01 X33.9068 Y4.3400
G01 X33.9151 Y4.3590
G01 X33.9223 Y4.3783
G01 X33.9286 Y4.3980
G01 X33.9486 Y4.4661
G01 X33.9560 Y4.4949
G01 X33.9597 Y4.5143
G01 X33.9626 Y4.5339
G01 X33.9650 Y4.5635
G01 X33.9655 Y4.5833
G01 X33.9655 Y18.2608
G01 X33.9651 Y18.2794
G01 X33.9638 Y18.2979
G01 X33.9585 Y18.3453
G01 X33.9552 Y18.3657
G01 X33.9509 Y18.3859
G01 X33.9455 Y18.4058
G01 X33.9425 Y18.4157
G01 X33.9357 Y18.4352
G01 X33.9280 Y18.4543
G01 X33.9193 Y18.4731
G01 X33.9097 Y18.4914
G01 X33.8751 Y18.5534
G01 X33.8646 Y18.5712
G01 X33.8532 Y18.5884
G01 X33.8410 Y18.6051
G01 X33.8279 Y18.6211
G01 X33.8141 Y18.6364
G01 X33.7996 Y18.6511
G01 X33.7843 Y18.6650
G01 X33.7684 Y18.6782
G01 X33.7518 Y18.6905
G01 X33.7433 Y18.6964
G01 X33.7258 Y18.7074
G01 X33.7078 Y18.7176
G01 X33.6452 Y18.7511
G01 X33.6268 Y18.7604
G01 X33.6079 Y18.7687
G01 X33.5886 Y18.7761
G01 X33.5690 Y18.7825
G01 X33.5490 Y18.7880
G01 X33.5390 Y18.7904
G01 X33.5187 Y18.7943
G01 X33.4982 Y18.7973
G01 X33.4777 Y18.7992
G01 X33.4570 Y18.8001
G01 X33.4467 Y18.8002
G01 X33.4364 Y18.8000
G01 X33.4157 Y18.7988
G01 X33.3450 Y18.7931
G01 X33.3244 Y18.7909
G01 X33.3142 Y18.7895
G01 X33.2939 Y18.7858
G01 X33.2738 Y18.7811
G01 X33.2638 Y18.7784
G01 X33.2441 Y18.7722
G01 X33.2247 Y18.7650
G01 X33.2151 Y18.7611
G01 X33.1963 Y18.7525
G01 X33.1780 Y18.7430
G01 X33.1601 Y18.7326
G01 X33.1428 Y18.7213
G01 X33.1344 Y18.7154
G01 X33.0619 Y18.6601
G01 X33.0467 Y18.6473
G01 X33.0322 Y18.6339
G01 X33.0116 Y18.6124
G01 X32.9988 Y18.5974
G01 X32.9867 Y18.5817
G01 X32.9702 Y18.5593
G01 X32.8066 Y18.3904
G01 X32.6216 Y18.2454
G01 X32.4186 Y18.1267
G01 X32.2013 Y18.0367
G01 X31.9739 Y17.9771
G01 X31.7405 Y17.9488
G01 X31.5054 Y17.9525
G01 X31.2729 Y17.9881
G01 X31.0475 Y18.0549
G01 X30.8332 Y18.1516
G01 X30.6340 Y18.2766
G01 X30.4536 Y18.4274
G01 X30.2954 Y18.6013
G01 X30.1622 Y18.7951
G01 X30.0565 Y19.0052
G01 X29.9804 Y19.2276
G01 X29.9351 Y19.4584
G01 X29.9216 Y19.6931
G01 X29.9400 Y19.9275
G01 X29.9901 Y20.1572
G01 X30.0709 Y20.3781
G01 X30.1809 Y20.5859
G01 X30.3181 Y20.7768
G01 X30.4800 Y20.9474
G01 X30.5775 Y21.0255
G01 X30.5990 Y21.0439
G01 X30.6223 Y21.0662
G01 X30.6370 Y21.0811
G01 X30.6509 Y21.0966
G01 X30.6575 Y21.1047
G01 X30.6702 Y21.1212
G01 X30.6821 Y21.1384
G01 X30.6931 Y21.1561
G01 X30.7031 Y21.1744
G01 X30.7123 Y21.1932
G01 X30.7418 Y21.2577
G01 X30.7499 Y21.2768
G01 X30.7536 Y21.2864
G01 X30.7603 Y21.3059
G01 X30.7660 Y21.3258
G01 X30.7684 Y21.3358
G01 X30.7726 Y21.3561
G01 X30.7758 Y21.3765
G01 X30.7770 Y21.3867
G01 X30.7787 Y21.4073
G01 X30.7792 Y21.4177
G01 X30.7793 Y21.4383
G01 X30.7784 Y21.4590
G01 X30.7765 Y21.4795
G01 X30.7634 Y21.5703
G01 X30.7616 Y21.5804
G01 X30.7571 Y21.6006
G01 X30.7517 Y21.6205
G01 X30.7486 Y21.6304
G01 X30.7417 Y21.6498
G01 X30.7338 Y21.6689
G01 X30.7250 Y21.6876
G01 X30.7152 Y21.7059
G01 X30.7046 Y21.7236
G01 X30.6931 Y21.7407
G01 X30.6808 Y21.7573
G01 X30.6677 Y21.7733
G01 X30.6212 Y21.8269
G01 X30.6072 Y21.8422
G01 X30.5926 Y21.8568
G01 X30.5772 Y21.8706
G01 X30.5612 Y21.8836
G01 X30.5445 Y21.8958
G01 X30.5273 Y21.9072
G01 X30.5185 Y21.9126
G01 X30.5004 Y21.9227
G01 X30.4819 Y21.9318
G01 X30.4630 Y21.9401
G01 X30.4436 Y21.9473
G01 X30.4240 Y21.9536
G01 X30.3558 Y21.9736
G01 X30.3271 Y21.9810
G01 X30.3076 Y21.9847
G01 X30.2782 Y21.9886
G01 X30.2584 Y21.9900
G01 X30.2386 Y21.9905
G01 X4.4867 Y21.9905
G01 X4.4748 Y21.9903
G01 X4.4512 Y21.9890
G01 X4.4298 Y21.9871
G01 X4.4093 Y21.9849
G01 X4.3991 Y21.9834
G01 X4.3789 Y21.9796
G01 X4.3589 Y21.9748
G01 X4.3391 Y21.9691
G01 X4.3197 Y21.9624
G01 X4.3101 Y21.9586
G01 X4.3006 Y21.9547
G01 X4.2819 Y21.9461
G01 X4.2181 Y21.9148
G01 X4.2089 Y21.9101
G01 X4.1909 Y21.9001
G01 X4.1733 Y21.8892
G01 X4.1647 Y21.8834
G01 X4.1481 Y21.8712
G01 X4.1320 Y21.8582
G01 X4.1166 Y21.8445
G01 X4.1019 Y21.8300
G01 X4.0879 Y21.8147
G01 X4.0748 Y21.7988
G01 X4.0624 Y21.7823
G01 X4.0565 Y21.7738
G01 X4.0454 Y21.7564
G01 X4.0087 Y21.6956
G01 X4.0035 Y21.6867
G01 X3.9937 Y21.6685
G01 X3.9891 Y21.6592
G01 X3.9807 Y21.6403
G01 X3.9733 Y21.6211
G01 X3.9699 Y21.6113
G01 X3.9639 Y21.5915
G01 X3.9589 Y21.5715
G01 X3.9549 Y21.5512
G01 X3.9532 Y21.5410
G01 X3.9507 Y21.5205
G01 X3.9493 Y21.4999
G01 X3.9488 Y21.4792
G01 X3.9514 Y21.3876
G01 X3.9530 Y21.3670
G01 X3.9542 Y21.3568
G01 X3.9573 Y21.3363
G01 X3.9615 Y21.3161
G01 X3.9666 Y21.2961
G01 X3.9696 Y21.2862
G01 X3.9727 Y21.2764
G01 X3.9798 Y21.2570
G01 X3.9838 Y21.2474
G01 X3.9923 Y21.2286
G01 X4.0017 Y21.2102
G01 X4.0121 Y21.1923
G01 X4.0176 Y21.1836
G01 X4.0690 Y21.1082
G01 X4.0810 Y21.0924
G01 X4.0936 Y21.0772
G01 X4.1140 Y21.0556
G01 X4.1284 Y21.0420
G01 X4.1434 Y21.0291
G01 X4.2583 Y20.9351
G01 X4.4183 Y20.7628
G01 X4.5535 Y20.5704
G01 X4.6614 Y20.3615
G01 X4.7399 Y20.1398
G01 X4.7875 Y19.9096
G01 X4.8043 Y19.6639
G01 X4.8041 Y19.6492
G01 X4.7823 Y19.4046
G01 X4.7298 Y19.1754
G01 X4.6466 Y18.9554
G01 X4.5345 Y18.7488
G01 X4.3952 Y18.5593
G01 X4.2316 Y18.3904
G01 X4.0466 Y18.2454
G01 X3.8690 Y18.1416
G01 X3.8436 Y18.1267
G01 X3.6263 Y18.0367
G01 X3.3989 Y17.9771
G01 X3.3668 Y17.9732
G01 X3.1655 Y17.9488
G01 X2.9304 Y17.9525
G01 X2.6979 Y17.9881
G01 X2.4725 Y18.0549
G01 X2.2582 Y18.1516
G01 X2.0590 Y18.2766
G01 X1.8786 Y18.4274
G01 X1.6939 Y18.6301
G01 X1.6746 Y18.6493
G01 X1.6595 Y18.6632
G01 X1.6518 Y18.6699
G01 X1.6358 Y18.6827
G01 X1.6192 Y18.6947
G01 X1.6107 Y18.7004
G01 X1.5932 Y18.7111
G01 X1.5843 Y18.7161
G01 X1.5661 Y18.7256
G01 X1.4828 Y18.7636
G01 X1.4636 Y18.7712
G01 X1.4441 Y18.7779
G01 X1.4242 Y18.7836
G01 X1.4041 Y18.7883
G01 X1.3939 Y18.7903
G01 X1.3735 Y18.7935
G01 X1.3530 Y18.7957
G01 X1.3323 Y18.7968
G01 X1.3117 Y18.7970
G01 X1.3014 Y18.7966
G01 X1.2807 Y18.7952
G01 X1.2602 Y18.7928
G01 X1.1900 Y18.7827
G01 X1.1696 Y18.7792
G01 X1.1494 Y18.7748
G01 X1.1295 Y18.7693
G01 X1.1098 Y18.7629
G01 X1.1002 Y18.7593
G01 X1.0811 Y18.7514
G01 X1.0717 Y18.7472
G01 X1.0532 Y18.7379
G01 X1.0352 Y18.7277
G01 X1.0178 Y18.7166
G01 X1.0009 Y18.7047
G01 X0.9846 Y18.6920
G01 X0.9767 Y18.6853
G01 X0.9231 Y18.6388
G01 X0.9078 Y18.6249
G01 X0.9004 Y18.6177
G01 X0.8862 Y18.6027
G01 X0.8728 Y18.5870
G01 X0.8602 Y18.5706
G01 X0.8484 Y18.5537
G01 X0.8428 Y18.5450
G01 X0.8323 Y18.5272
G01 X0.8226 Y18.5089
G01 X0.8139 Y18.4902
G01 X0.8062 Y18.4710
G01 X0.7994 Y18.4515
G01 X0.7964 Y18.4416
G01 X0.7764 Y18.3735
G01 X0.7690 Y18.3447
G01 X0.7653 Y18.3253
G01 X0.7624 Y18.3057
G01 X0.7600 Y18.2761
G01 X0.7595 Y18.2563
G00 Z1.0000
G00 X0.6315 Y18.2563
G01 F30.00
G01 Z-0.1200
G01 F100.00
G01 X0.6315 Y4.5810
G01 X0.6321 Y4.5556
G01 X0.6339 Y4.5302
G01 X0.6404 Y4.4748
G01 X0.6450 Y4.4479
G01 X0.6509 Y4.4211
G01 X0.6581 Y4.3947
G01 X0.6667 Y4.3688
G01 X0.6765 Y4.3432
G01 X0.6876 Y4.3182
G01 X0.7000 Y4.2938
G01 X0.7419 Y4.2202
G01 X0.7559 Y4.1971
G01 X0.7633 Y4.1858
G01 X0.7790 Y4.1638
G01 X0.7957 Y4.1426
G01 X0.8135 Y4.1223
G01 X0.8322 Y4.1028
G01 X0.8420 Y4.0934
G01 X0.8621 Y4.0755
G01 X0.8832 Y4.0585
G01 X0.9050 Y4.0426
G01 X0.9276 Y4.0278
G01 X0.9392 Y4.0208
G01 X0.9628 Y4.0077
G01 X1.0378 Y3.9688
G01 X1.0624 Y3.9576
G01 X1.0749 Y3.9524
G01 X1.0875 Y3.9475
G01 X1.1130 Y3.9387
G01 X1.1390 Y3.9312
G01 X1.1653 Y3.9250
G01 X1.1918 Y3.9201
G01 X1.2052 Y3.9182
G01 X1.2321 Y3.9153
G01 X1.2590 Y3.9137
G01 X1.2861 Y3.9135
G01 X1.3130 Y3.9146
G01 X1.3265 Y3.9156
G01 X1.4107 Y3.9235
G01 X1.4241 Y3.9252
G01 X1.4507 Y3.9297
G01 X1.4771 Y3.9354
G01 X1.4902 Y3.9388
G01 X1.5161 Y3.9465
G01 X1.5289 Y3.9509
G01 X1.5541 Y3.9605
G01 X1.5665 Y3.9657
G01 X1.5789 Y3.9713
G01 X1.6030 Y3.9834
G01 X1.6149 Y3.9899
G01 X1.6381 Y4.0037
G01 X1.6494 Y4.0111
G01 X1.6715 Y4.0266
G01 X1.7383 Y4.0784
G01 X1.7484 Y4.0865
G01 X1.7680 Y4.1034
G01 X1.7868 Y4.1212
G01 X1.8048 Y4.1398
G01 X1.8218 Y4.1593
G01 X1.8416 Y4.1846
G01 X1.9918 Y4.3429
G01 X2.1617 Y4.4790
G01 X2.3485 Y4.5908
G01 X2.5487 Y4.6762
G01 X2.7587 Y4.7337
G01 X2.9745 Y4.7621
G01 X3.0744 Y4.7616
G01 X3.1955 Y4.7605
G01 X3.4111 Y4.7293
G01 X3.6171 Y4.6706
G01 X3.8159 Y4.5834
G01 X4.0049 Y4.4670
G01 X4.1700 Y4.3319
G01 X4.3208 Y4.1690
G01 X4.4438 Y3.9940
G01 X4.5436 Y3.8005
G01 X4.6163 Y3.5953
G01 X4.6604 Y3.3822
G01 X4.6762 Y3.1504
G01 X4.6762 Y3.1458
G01 X4.6556 Y2.9152
G01 X4.6056 Y2.6990
G01 X4.5300 Y2.4989
G01 X4.4261 Y2.3075
G01 X4.2976 Y2.1325
G01 X4.1428 Y1.9735
G01 X4.0628 Y1.9106
G01 X4.0431 Y1.8935
G01 X4.0068 Y1.8589
G01 X3.9977 Y1.8497
G01 X3.9803 Y1.8305
G01 X3.9637 Y1.8105
G01 X3.9482 Y1.7897
G01 X3.9408 Y1.7791
G01 X3.9268 Y1.7573
G01 X3.9138 Y1.7348
G01 X3.9077 Y1.7233
G01 X3.8964 Y1.7000
G01 X3.8614 Y1.6231
G01 X3.8514 Y1.5980
G01 X3.8427 Y1.5724
G01 X3.8352 Y1.5464
G01 X3.8291 Y1.5201
G01 X3.8243 Y1.4935
G01 X3.8207 Y1.4667
G01 X3.8195 Y1.4533
G01 X3.8180 Y1.4263
G01 X3.8178 Y1.3993
G01 X3.8190 Y1.3723
G01 X3.8215 Y1.3454
G01 X3.8233 Y1.3320
G01 X3.8354 Y1.2484
G01 X3.8406 Y1.2219
G01 X3.8471 Y1.1956
G01 X3.8549 Y1.1698
G01 X3.8639 Y1.1443
G01 X3.8742 Y1.1193
G01 X3.8798 Y1.1070
G01 X3.8920 Y1.0829
G01 X3.9053 Y1.0594
G01 X3.9197 Y1.0366
G01 X3.9274 Y1.0254
G01 X3.9435 Y1.0038
G01 X3.9607 Y0.9829
G01 X4.0162 Y0.9192
G01 X4.0254 Y0.9093
G01 X4.0445 Y0.8902
G01 X4.0646 Y0.8722
G01 X4.0856 Y0.8551
G01 X4.1074 Y0.8391
G01 X4.1185 Y0.8315
G01 X4.1415 Y0.8172
G01 X4.1650 Y0.8041
G01 X4.1893 Y0.7921
G01 X4.2140 Y0.7813
G01 X4.2393 Y0.7718
G01 X4.2650 Y0.7635
G01 X4.3456 Y0.7400
G01 X4.3708 Y0.7339
G01 X4.3962 Y0.7290
G01 X4.4218 Y0.7253
G01 X4.4476 Y0.7229
G01 X4.4605 Y0.7221
G01 X4.4864 Y0.7215
G01 X30.2376 Y0.7215
G01 X30.2522 Y0.7217
G01 X30.2812 Y0.7232
G01 X30.3146 Y0.7261
G01 X30.3277 Y0.7276
G01 X30.3409 Y0.7295
G01 X30.3670 Y0.7342
G01 X30.3928 Y0.7402
G01 X30.4184 Y0.7474
G01 X30.4435 Y0.7558
G01 X30.4559 Y0.7605
G01 X30.4804 Y0.7708
G01 X30.5686 Y0.8129
G01 X30.5923 Y0.8258
G01 X30.6154 Y0.8398
G01 X30.6378 Y0.8549
G01 X30.6487 Y0.8629
G01 X30.6699 Y0.8797
G01 X30.6902 Y0.8975
G01 X30.7096 Y0.9163
G01 X30.7190 Y0.9260
G01 X30.7370 Y0.9462
G01 X30.7539 Y0.9673
G01 X30.7698 Y0.9891
G01 X30.7773 Y1.0003
G01 X30.8288 Y1.0837
G01 X30.8419 Y1.1074
G01 X30.8537 Y1.1316
G01 X30.8644 Y1.1565
G01 X30.8738 Y1.1818
G01 X30.8819 Y1.2076
G01 X30.8887 Y1.2337
G01 X30.8942 Y1.2602
G01 X30.8984 Y1.2869
G01 X30.9013 Y1.3137
G01 X30.9022 Y1.3272
G01 X30.9028 Y1.3407
G01 X30.9030 Y1.3677
G01 X30.9014 Y1.4522
G01 X30.8996 Y1.4792
G01 X30.8982 Y1.4926
G01 X30.8943 Y1.5193
G01 X30.8919 Y1.5326
G01 X30.8861 Y1.5590
G01 X30.8790 Y1.5851
G01 X30.8750 Y1.5980
G01 X30.8707 Y1.6108
G01 X30.8610 Y1.6360
G01 X30.8501 Y1.6607
G01 X30.8442 Y1.6729
G01 X30.8380 Y1.6849
G01 X30.8247 Y1.7084
G01 X30.8103 Y1.7312
G01 X30.7635 Y1.8010
G01 X30.7481 Y1.8218
G01 X30.7318 Y1.8419
G01 X30.7145 Y1.8611
G01 X30.7055 Y1.8704
G01 X30.6963 Y1.8795
G01 X30.6772 Y1.8971
G01 X30.5424 Y2.0100
G01 X30.3959 Y2.1710
G01 X30.2726 Y2.3504
G01 X30.1748 Y2.5449
G01 X30.1289 Y2.6790
G01 X30.1043 Y2.7508
G01 X30.0624 Y2.9644
G01 X30.0498 Y3.1818
G01 X30.0669 Y3.3988
G01 X30.1133 Y3.6115
G01 X30.1881 Y3.8159
G01 X30.2900 Y4.0083
G01 X30.4170 Y4.1850
G01 X30.5668 Y4.3429
G01 X30.7367 Y4.4790
G01 X30.9235 Y4.5908
G01 X31.1237 Y4.6762
G01 X31.3337 Y4.7337
G01 X31.5495 Y4.7621
G01 X31.7705 Y4.7605
G01 X31.9861 Y4.7293
G01 X32.1921 Y4.6706
G01 X32.3909 Y4.5834
G01 X32.5799 Y4.4670
G01 X32.7448 Y4.3320
G01 X32.9373 Y4.1234
G01 X32.9553 Y4.1045
G01 X32.9646 Y4.0954
G01 X32.9838 Y4.0778
G01 X33.0039 Y4.0611
G01 X33.0248 Y4.0454
G01 X33.0355 Y4.0380
G01 X33.0574 Y4.0239
G01 X33.0800 Y4.0108
G01 X33.0915 Y4.0047
G01 X33.1150 Y3.9933
G01 X33.1796 Y3.9638
G01 X33.2044 Y3.9532
G01 X33.2298 Y3.9438
G01 X33.2555 Y3.9357
G01 X33.2686 Y3.9321
G01 X33.2949 Y3.9260
G01 X33.3215 Y3.9211
G01 X33.3348 Y3.9192
G01 X33.3617 Y3.9164
G01 X33.3887 Y3.9149
G01 X33.4022 Y3.9146
G01 X33.4292 Y3.9151
G01 X33.4562 Y3.9170
G01 X33.4830 Y3.9201
G01 X33.5666 Y3.9323
G01 X33.5931 Y3.9375
G01 X33.6194 Y3.9440
G01 X33.6452 Y3.9518
G01 X33.6707 Y3.9608
G01 X33.6957 Y3.9711
G01 X33.7080 Y3.9767
G01 X33.7321 Y3.9888
G01 X33.7556 Y4.0022
G01 X33.7784 Y4.0166
G01 X33.7896 Y4.0243
G01 X33.8112 Y4.0404
G01 X33.8321 Y4.0576
G01 X33.8958 Y4.1130
G01 X33.9154 Y4.1317
G01 X33.9248 Y4.1414
G01 X33.9339 Y4.1514
G01 X33.9515 Y4.1719
G01 X33.9680 Y4.1933
G01 X33.9835 Y4.2154
G01 X33.9978 Y4.2383
G01 X34.0109 Y4.2619
G01 X34.0229 Y4.2862
G01 X34.0337 Y4.3109
G01 X34.0432 Y4.3362
G01 X34.0515 Y4.3619
G01 X34.0750 Y4.4425
G01 X34.0811 Y4.4677
G01 X34.0860 Y4.4931
G01 X34.0897 Y4.5187
G01 X34.0910 Y4.5316
G01 X34.0929 Y4.5574
G01 X34.0935 Y4.5833
G01 X34.0935 Y18.2608
G01 X34.0930 Y18.2851
G01 X34.0913 Y18.3093
G01 X34.0853 Y18.3627
G01 X34.0810 Y18.3894
G01 X34.0753 Y18.4158
G01 X34.0684 Y18.4419
G01 X34.0601 Y18.4676
G01 X34.0506 Y18.4929
G01 X34.0399 Y18.5176
G01 X34.0279 Y18.5418
G01 X33.9869 Y18.6157
G01 X33.9731 Y18.6390
G01 X33.9658 Y18.6504
G01 X33.9504 Y18.6725
G01 X33.9339 Y18.6939
G01 X33.9252 Y18.7043
G01 X33.9071 Y18.7244
G01 X33.8881 Y18.7435
G01 X33.8681 Y18.7617
G01 X33.8578 Y18.7705
G01 X33.8366 Y18.7871
G01 X33.8145 Y18.8027
G01 X33.7917 Y18.8172
G01 X33.7682 Y18.8305
G01 X33.6936 Y18.8702
G01 X33.6691 Y18.8817
G01 X33.6567 Y18.8870
G01 X33.6315 Y18.8967
G01 X33.6187 Y18.9011
G01 X33.5928 Y18.9089
G01 X33.5666 Y18.9153
G01 X33.5401 Y18.9205
G01 X33.5133 Y18.9244
G01 X33.4864 Y18.9269
G01 X33.4730 Y18.9276
G01 X33.4459 Y18.9282
G01 X33.4189 Y18.9273
G01 X33.4055 Y18.9264
G01 X33.3212 Y18.9194
G01 X33.2944 Y18.9159
G01 X33.2679 Y18.9111
G01 X33.2547 Y18.9082
G01 X33.2285 Y18.9014
G01 X33.2027 Y18.8933
G01 X33.1900 Y18.8888
G01 X33.1649 Y18.8788
G01 X33.1526 Y18.8734
G01 X33.1283 Y18.8615
G01 X33.1163 Y18.8552
G01 X33.0930 Y18.8416
G01 X33.0816 Y18.8344
G01 X33.0593 Y18.8191
G01 X32.9920 Y18.7679
G01 X32.9818 Y18.7600
G01 X32.9620 Y18.7433
G01 X32.9430 Y18.7257
G01 X32.9338 Y18.7166
G01 X32.9161 Y18.6977
G01 X32.8993 Y18.6780
G01 X32.8913 Y18.6678
G01 X32.8723 Y18.6421
G01 X32.7211 Y18.4862
G01 X32.5462 Y18.3496
G01 X32.3615 Y18.2416
G01 X32.1604 Y18.1583
G01 X31.9499 Y18.1031
G01 X31.7337 Y18.0770
G01 X31.5161 Y18.0804
G01 X31.3009 Y18.1133
G01 X31.0927 Y18.1750
G01 X30.8906 Y18.2667
G01 X30.7069 Y18.3825
G01 X30.5424 Y18.5200
G01 X30.3959 Y18.6810
G01 X30.2726 Y18.8604
G01 X30.1748 Y19.0549
G01 X30.1043 Y19.2608
G01 X30.0624 Y19.4744
G01 X30.0498 Y19.6918
G01 X30.0669 Y19.9088
G01 X30.1133 Y20.1215
G01 X30.1881 Y20.3259
G01 X30.2900 Y20.5183
G01 X30.4170 Y20.6950
G01 X30.5668 Y20.8529
G01 X30.6671 Y20.9334
G01 X30.6856 Y20.9497
G01 X30.7208 Y20.9836
G01 X30.7395 Y21.0035
G01 X30.7571 Y21.0242
G01 X30.7656 Y21.0350
G01 X30.7816 Y21.0570
G01 X30.7965 Y21.0799
G01 X30.8103 Y21.1034
G01 X30.8167 Y21.1155
G01 X30.8287 Y21.1400
G01 X30.8637 Y21.2169
G01 X30.8736 Y21.2420
G01 X30.8782 Y21.2548
G01 X30.8863 Y21.2805
G01 X30.8931 Y21.3067
G01 X30.8986 Y21.3331
G01 X30.9027 Y21.3598
G01 X30.9056 Y21.3867
G01 X30.9071 Y21.4137
G01 X30.9073 Y21.4407
G01 X30.9061 Y21.4677
G01 X30.9036 Y21.4946
G01 X30.8917 Y21.5783
G01 X30.8872 Y21.6049
G01 X30.8814 Y21.6313
G01 X30.8743 Y21.6573
G01 X30.8702 Y21.6702
G01 X30.8612 Y21.6957
G01 X30.8509 Y21.7207
G01 X30.8393 Y21.7451
G01 X30.8331 Y21.7571
G01 X30.8198 Y21.7806
G01 X30.8053 Y21.8034
G01 X30.7898 Y21.8255
G01 X30.7816 Y21.8362
G01 X30.7644 Y21.8571
G01 X30.7089 Y21.9208
G01 X30.6902 Y21.9404
G01 X30.6805 Y21.9498
G01 X30.6605 Y21.9678
G01 X30.6395 Y21.9849
G01 X30.6177 Y22.0009
G01 X30.5952 Y22.0158
G01 X30.5719 Y22.0295
G01 X30.5600 Y22.0359
G01 X30.5358 Y22.0479
G01 X30.5110 Y22.0587
G01 X30.4858 Y22.0682
G01 X30.4600 Y22.0765
G01 X30.3794 Y22.1000
G01 X30.3543 Y22.1061
G01 X30.3289 Y22.1110
G01 X30.3032 Y22.1147
G01 X30.2904 Y22.1160
G01 X30.2645 Y22.1179
G01 X30.2386 Y22.1185
G01 X4.4867 Y22.1185
G01 X4.4712 Y22.1183
G01 X4.4403 Y22.1165
G01 X4.4054 Y22.1134
G01 X4.3921 Y22.1117
G01 X4.3655 Y22.1074
G01 X4.3392 Y22.1019
G01 X4.3132 Y22.0950
G01 X4.2875 Y22.0868
G01 X4.2623 Y22.0774
G01 X4.2376 Y22.0667
G01 X4.1617 Y22.0297
G01 X4.1378 Y22.0172
G01 X4.1145 Y22.0035
G01 X4.1031 Y21.9962
G01 X4.0809 Y21.9808
G01 X4.0595 Y21.9644
G01 X4.0389 Y21.9469
G01 X4.0192 Y21.9284
G01 X4.0097 Y21.9187
G01 X3.9914 Y21.8988
G01 X3.9742 Y21.8780
G01 X3.9660 Y21.8673
G01 X3.9503 Y21.8453
G01 X3.9358 Y21.8225
G01 X3.8923 Y21.7501
G01 X3.8795 Y21.7263
G01 X3.8735 Y21.7142
G01 X3.8625 Y21.6895
G01 X3.8575 Y21.6769
G01 X3.8484 Y21.6515
G01 X3.8405 Y21.6257
G01 X3.8340 Y21.5994
G01 X3.8287 Y21.5729
G01 X3.8248 Y21.5462
G01 X3.8222 Y21.5193
G01 X3.8210 Y21.4923
G01 X3.8208 Y21.4788
G01 X3.8236 Y21.3809
G01 X3.8257 Y21.3539
G01 X3.8272 Y21.3405
G01 X3.8313 Y21.3138
G01 X3.8339 Y21.3005
G01 X3.8399 Y21.2742
G01 X3.8473 Y21.2482
G01 X3.8515 Y21.2354
G01 X3.8608 Y21.2100
G01 X3.8659 Y21.1975
G01 X3.8713 Y21.1851
G01 X3.8831 Y21.1608
G01 X3.8894 Y21.1488
G01 X3.9029 Y21.1255
G01 X3.9176 Y21.1028
G01 X3.9651 Y21.0335
G01 X3.9807 Y21.0129
G01 X3.9973 Y20.9930
G01 X4.0059 Y20.9833
G01 X4.0239 Y20.9647
G01 X4.0427 Y20.9469
G01 X4.0524 Y20.9383
G01 X4.1700 Y20.8419
G01 X4.3208 Y20.6790
G01 X4.4438 Y20.5040
G01 X4.5436 Y20.3105
G01 X4.6163 Y20.1053
G01 X4.6604 Y19.8922
G01 X4.6762 Y19.6604
G01 X4.6762 Y19.6558
G01 X4.6555 Y19.4247
G01 X4.6069 Y19.2125
G01 X4.5300 Y19.0089
G01 X4.4261 Y18.8175
G01 X4.2973 Y18.6421
G01 X4.1461 Y18.4862
G01 X3.9712 Y18.3496
G01 X3.7865 Y18.2416
G01 X3.5854 Y18.1583
G01 X3.3749 Y18.1031
G01 X3.3514 Y18.1003
G01 X3.1587 Y18.0770
G01 X2.9411 Y18.0804
G01 X2.7259 Y18.1133
G01 X2.5177 Y18.1750
G01 X2.3156 Y18.2667
G01 X2.1319 Y18.3825
G01 X1.9674 Y18.5200
G01 X1.7971 Y18.7072
G01 X1.7746 Y18.7304
G01 X1.7542 Y18.7501
G01 X1.7443 Y18.7591
G01 X1.7238 Y18.7763
G01 X1.7025 Y18.7926
G01 X1.6804 Y18.8077
G01 X1.6576 Y18.8217
G01 X1.6341 Y18.8346
G01 X1.6100 Y18.8464
G01 X1.5454 Y18.8759
G01 X1.5331 Y18.8813
G01 X1.5080 Y18.8913
G01 X1.4824 Y18.9000
G01 X1.4695 Y18.9039
G01 X1.4433 Y18.9107
G01 X1.4169 Y18.9162
G01 X1.4035 Y18.9185
G01 X1.3767 Y18.9220
G01 X1.3498 Y18.9242
G01 X1.3228 Y18.9250
G01 X1.2958 Y18.9245
G01 X1.2823 Y18.9238
G01 X1.2554 Y18.9212
G01 X1.2420 Y18.9195
G01 X1.1584 Y18.9073
G01 X1.1319 Y18.9021
G01 X1.1056 Y18.8956
G01 X1.0798 Y18.8879
G01 X1.0543 Y18.8788
G01 X1.0293 Y18.8685
G01 X1.0049 Y18.8570
G01 X0.9811 Y18.8443
G01 X0.9579 Y18.8304
G01 X0.9354 Y18.8154
G01 X0.9245 Y18.8074
G01 X0.9032 Y18.7908
G01 X0.8393 Y18.7356
G01 X0.8292 Y18.7266
G01 X0.8096 Y18.7079
G01 X0.7911 Y18.6883
G01 X0.7735 Y18.6677
G01 X0.7570 Y18.6464
G01 X0.7415 Y18.6242
G01 X0.7272 Y18.6013
G01 X0.7141 Y18.5777
G01 X0.7021 Y18.5535
G01 X0.6913 Y18.5287
G01 X0.6818 Y18.5034
G01 X0.6735 Y18.4777
G01 X0.6500 Y18.3971
G01 X0.6439 Y18.3719
G01 X0.6390 Y18.3465
G01 X0.6353 Y18.3209
G01 X0.6329 Y18.2951
G01 X0.6321 Y18.2822
G01 X0.6315 Y18.2563
G00 Z1.0000
G00 X8.8100 Y9.4100
G01 F30.00
G01 Z-0.1200
G01 F100.00
G01 X11.3100 Y9.4100
G01 X11.3179 Y9.4102
G01 X11.3296 Y9.4112
G01 X11.3412 Y9.4131
G01 X11.3527 Y9.4158
G01 X11.3602 Y9.4181
G01 X11.3712 Y9.4222
G01 X11.3819 Y9.4271
G01 X11.3889 Y9.4308
G01 X11.3956 Y9.4348
G01 X11.4053 Y9.4415
G01 X11.4115 Y9.4463
G01 X11.4203 Y9.4541
G01 X11.4259 Y9.4597
G01 X11.4337 Y9.4685
G01 X11.4408 Y9.4779
G01 X11.4472 Y9.4877
G01 X11.4529 Y9.4981
G01 X11.4563 Y9.5052
G01 X11.4593 Y9.5124
G01 X11.4631 Y9.5236
G01 X11.4661 Y9.5349
G01 X11.4676 Y9.5426
G01 X11.4688 Y9.5504
G01 X11.4698 Y9.5621
G01 X11.4700 Y10.9095
G01 X18.3300 Y10.9095
G01 X18.4359 Y10.9145
G01 X18.4515 Y10.9160
G01 X18.5564 Y10.9318
G01 X18.6669 Y10.9595
G01 X18.7741 Y10.9978
G01 X18.8771 Y11.0465
G01 X18.9747 Y11.1051
G01 X19.0600 Y11.1681
G01 X19.0692 Y11.1754
G01 X19.1506 Y11.2494
G01 X20.2012 Y12.3000
G01 X21.7239 Y12.3000
G01 X21.7357 Y12.3008
G01 X21.7474 Y12.3024
G01 X21.7589 Y12.3048
G01 X21.7702 Y12.3081
G01 X21.7812 Y12.3122
G01 X21.7919 Y12.3171
G01 X21.8056 Y12.3248
G01 X21.8153 Y12.3315
G01 X21.8274 Y12.3414
G01 X21.8331 Y12.3469
G01 X21.8412 Y12.3555
G01 X21.8508 Y12.3679
G01 X21.8572 Y12.3777
G01 X21.8611 Y12.3846
G01 X21.8678 Y12.3988
G01 X21.8731 Y12.4136
G01 X21.8752 Y12.4211
G01 X21.8776 Y12.4326
G01 X21.8796 Y12.4482
G01 X21.8800 Y12.4600
G01 X21.8800 Y13.2997
G01 X29.8365 Y13.2997
G01 X30.7400 Y12.3963
G01 X30.7400 Y11.6700
G01 X30.7404 Y11.6582
G01 X30.7424 Y11.6426
G01 X30.7458 Y11.6273
G01 X30.7494 Y11.6161
G01 X30.7554 Y11.6016
G01 X30.7608 Y11.5911
G01 X30.7670 Y11.5811
G01 X30.7763 Y11.5685
G01 X30.7869 Y11.5569
G01 X30.7955 Y11.5488
G01 X30.8047 Y11.5415
G01 X30.8177 Y11.5328
G01 X30.8316 Y11.5254
G01 X30.8461 Y11.5194
G01 X30.8573 Y11.5158
G01 X30.8726 Y11.5124
G01 X30.8882 Y11.5104
G01 X30.9000 Y11.5100
G01 X32.4039 Y11.5100
G01 X32.4196 Y11.5112
G01 X32.4351 Y11.5139
G01 X32.4502 Y11.5181
G01 X32.4648 Y11.5237
G01 X32.4789 Y11.5308
G01 X32.4889 Y11.5370
G01 X32.5015 Y11.5463
G01 X32.5131 Y11.5569
G01 X32.5237 Y11.5685
G01 X32.5330 Y11.5811
G01 X32.5411 Y11.5946
G01 X32.5463 Y11.6052
G01 X32.5519 Y11.6198
G01 X32.5561 Y11.6349
G01 X32.5588 Y11.6504
G01 X32.5600 Y11.6661
G01 X32.5600 Y13.1700
G01 X32.5596 Y13.1818
G01 X32.5583 Y13.1935
G01 X32.5561 Y13.2051
G01 X32.5519 Y13.2202
G01 X32.5478 Y13.2312
G01 X32.5429 Y13.2419
G01 X32.5372 Y13.2523
G01 X32.5285 Y13.2653
G01 X32.5212 Y13.2745
G01 X32.5131 Y13.2831
G01 X32.5015 Y13.2937
G01 X32.4921 Y13.3008
G01 X32.4823 Y13.3072
G01 X32.4719 Y13.3129
G01 X32.4612 Y13.3178
G01 X32.4464 Y13.3231
G01 X32.4351 Y13.3261
G01 X32.4235 Y13.3283
G01 X32.4118 Y13.3296
G01 X32.4000 Y13.3300
G01 X31.6737 Y13.3300
G01 X30.5769 Y14.4269
G01 X30.5319 Y14.4679
G01 X30.5227 Y14.4752
G01 X30.4832 Y14.5045
G01 X30.4702 Y14.5132
G01 X30.4212 Y14.5423
G01 X30.3627 Y14.5700
G01 X30.3091 Y14.5894
G01 X30.2941 Y14.5939
G01 X30.2388 Y14.6076
G01 X30.1786 Y14.6166
G01 X30.1669 Y14.6176
G01 X30.1100 Y14.6203
G01 X21.8800 Y14.6203
G01 X21.8800 Y15.4600
G01 X21.8796 Y15.4718
G01 X21.8783 Y15.4835
G01 X21.8752 Y15.4989
G01 X21.8719 Y15.5102
G01 X21.8663 Y15.5248
G01 X21.8611 Y15.5354
G01 X21.8530 Y15.5489
G01 X21.8461 Y15.5584
G01 X21.8386 Y15.5674
G01 X21.8274 Y15.5786
G01 X21.8184 Y15.5861
G01 X21.8056 Y15.5952
G01 X21.7919 Y15.6029
G01 X21.7812 Y15.6078
G01 X21.7664 Y15.6131
G01 X21.7551 Y15.6161
G01 X21.7435 Y15.6183
G01 X21.7318 Y15.6196
G01 X21.7200 Y15.6200
G01 X18.7200 Y15.6200
G01 X18.7082 Y15.6196
G01 X18.6965 Y15.6183
G01 X18.6888 Y15.6169
G01 X18.6773 Y15.6142
G01 X18.6698 Y15.6119
G01 X18.6588 Y15.6078
G01 X18.6481 Y15.6029
G01 X18.6377 Y15.5972
G01 X18.6311 Y15.5930
G01 X18.6216 Y15.5861
G01 X18.6155 Y15.5812
G01 X18.6069 Y15.5731
G01 X18.5988 Y15.5645
G01 X18.5939 Y15.5584
G01 X18.5870 Y15.5489
G01 X18.5828 Y15.5423
G01 X18.5771 Y15.5319
G01 X18.5737 Y15.5248
G01 X18.5707 Y15.5176
G01 X18.5669 Y15.5064
G01 X18.5648 Y15.4989
G01 X18.5624 Y15.4874
G01 X18.5612 Y15.4796
G01 X18.5602 Y15.4679
G01 X18.5600 Y13.9412
G01 X17.8493 Y13.2305
G01 X11.4700 Y13.2305
G01 X11.4698 Y14.5779
G01 X11.4692 Y14.5857
G01 X11.4676 Y14.5974
G01 X11.4661 Y14.6051
G01 X11.4631 Y14.6164
G01 X11.4593 Y14.6276
G01 X11.4563 Y14.6348
G01 X11.4511 Y14.6454
G01 X11.4472 Y14.6523
G01 X11.4430 Y14.6589
G01 X11.4361 Y14.6684
G01 X11.4312 Y14.6745
G01 X11.4231 Y14.6831
G01 X11.4145 Y14.6912
G01 X11.4053 Y14.6985
G01 X11.3956 Y14.7052
G01 X11.3889 Y14.7092
G01 X11.3819 Y14.7129
G01 X11.3712 Y14.7178
G01 X11.3602 Y14.7219
G01 X11.3489 Y14.7252
G01 X11.3374 Y14.7276
G01 X11.3296 Y14.7288
G01 X11.3218 Y14.7296
G01 X11.3100 Y14.7300
G01 X8.8100 Y14.7300
G01 X8.7982 Y14.7296
G01 X8.7865 Y14.7283
G01 X8.7749 Y14.7261
G01 X8.7598 Y14.7219
G01 X8.7452 Y14.7163
G01 X8.7346 Y14.7111
G01 X8.7211 Y14.7030
G01 X8.7116 Y14.6961
G01 X8.6997 Y14.6859
G01 X8.6914 Y14.6774
G01 X8.6815 Y14.6653
G01 X8.6728 Y14.6523
G01 X8.6654 Y14.6384
G01 X8.6607 Y14.6276
G01 X8.6569 Y14.6164
G01 X8.6531 Y14.6012
G01 X8.6508 Y14.5857
G01 X8.6500 Y14.5739
G01 X8.6500 Y9.5700
G01 X8.6508 Y9.5543
G01 X8.6531 Y9.5388
G01 X8.6569 Y9.5236
G01 X8.6622 Y9.5088
G01 X8.6689 Y9.4946
G01 X8.6770 Y9.4811
G01 X8.6863 Y9.4685
G01 X8.6969 Y9.4569
G01 X8.7085 Y9.4463
G01 X8.7211 Y9.4370
G01 X8.7346 Y9.4289
G01 X8.7488 Y9.4222
G01 X8.7636 Y9.4169
G01 X8.7788 Y9.4131
G01 X8.7943 Y9.4108
G01 X8.8100 Y9.4100
G00 Z1.0000
G00 X8.7695 Y9.0275
G01 F30.00
G01 Z-0.1200
G01 F100.00
G01 X8.7833 Y9.0267
G01 X8.8100 Y9.0260
G01 X9.0906 Y9.0260
G01 X9.0850 Y9.0097
G01 X9.0774 Y8.9838
G01 X9.0711 Y8.9575
G01 X9.0674 Y8.9385
G01 X8.9561 Y8.9784
G01 X8.9308 Y8.9868
G01 X8.9050 Y8.9939
G01 X8.7860 Y9.0237
G01 X8.7695 Y9.0275
G00 Z1.0000
G00 X8.5019 Y8.9320
G01 F30.00
G01 Z-0.1200
G01 F100.00
G01 X8.5141 Y8.9481
G01 X8.5200 Y8.9565
G01 X8.5643 Y9.0248
G01 X8.5751 Y9.0424
G01 X8.5801 Y9.0514
G01 X8.5896 Y9.0698
G01 X8.5940 Y9.0791
G01 X8.6020 Y9.0981
G01 X8.6057 Y9.1078
G01 X8.6123 Y9.1274
G01 X8.6179 Y9.1473
G01 X8.6204 Y9.1573
G01 X8.6245 Y9.1775
G01 X8.6274 Y9.1963
G01 X8.6414 Y9.1897
G01 X8.6603 Y9.1819
G01 X8.6795 Y9.1750
G01 X8.6990 Y9.1691
G01 X8.7189 Y9.1641
G01 X8.7389 Y9.1601
G01 X8.7591 Y9.1571
G01 X8.7794 Y9.1551
G01 X8.7998 Y9.1541
G01 X8.8100 Y9.1540
G01 X9.3129 Y9.1540
G01 X9.3023 Y9.1396
G01 X9.2617 Y9.0813
G01 X9.2503 Y9.0641
G01 X9.2450 Y9.0552
G01 X9.2398 Y9.0463
G01 X9.2302 Y9.0280
G01 X9.2215 Y9.0093
G01 X9.2137 Y8.9901
G01 X9.2069 Y8.9706
G01 X9.2039 Y8.9607
G01 X9.1986 Y8.9408
G01 X9.1942 Y8.9206
G01 X9.1909 Y8.9002
G01 X9.1886 Y8.8796
G01 X9.1873 Y8.8590
G01 X9.1844 Y8.7778
G01 X9.1847 Y8.7571
G01 X9.1853 Y8.7444
G01 X9.0662 Y8.8009
G01 X9.0476 Y8.8092
G01 X9.0285 Y8.8165
G01 X8.9130 Y8.8579
G01 X8.8936 Y8.8643
G01 X8.8838 Y8.8671
G01 X8.7549 Y8.8995
G01 X8.7350 Y8.9040
G01 X8.7250 Y8.9059
G01 X8.5834 Y8.9269
G01 X8.5631 Y8.9289
G01 X8.5019 Y8.9320
G00 Z1.0000
G00 X18.8740 Y10.7622
G01 F30.00
G01 Z-0.1200
G01 F100.00
G01 X18.8907 Y10.7696
G01 X18.9795 Y10.8116
G01 X18.9977 Y10.8208
G01 X19.0155 Y10.8308
G01 X19.1084 Y10.8867
G01 X19.1254 Y10.8980
G01 X19.1337 Y10.9040
G01 X19.2206 Y10.9687
G01 X19.2364 Y10.9816
G01 X19.2778 Y11.0190
G01 X19.2803 Y10.9990
G01 X19.2820 Y10.9888
G01 X19.2861 Y10.9686
G01 X19.2885 Y10.9585
G01 X19.3133 Y10.8703
G01 X19.3199 Y10.8507
G01 X19.3274 Y10.8314
G01 X19.3359 Y10.8126
G01 X19.3453 Y10.7942
G01 X19.3556 Y10.7763
G01 X19.3667 Y10.7589
G01 X19.3788 Y10.7421
G01 X19.3916 Y10.7259
G01 X19.4052 Y10.7104
G01 X19.4174 Y10.6979
G01 X19.3259 Y10.6545
G01 X19.3079 Y10.6448
G01 X19.2990 Y10.6397
G01 X19.1641 Y10.5587
G01 X19.1555 Y10.5531
G01 X19.1388 Y10.5413
G01 X19.0764 Y10.4950
G01 X19.0720 Y10.5090
G01 X19.0650 Y10.5284
G01 X19.0571 Y10.5475
G01 X19.0482 Y10.5661
G01 X19.0384 Y10.5843
G01 X19.0277 Y10.6020
G01 X19.0161 Y10.6191
G01 X19.0100 Y10.6275
G01 X19.0037 Y10.6357
G01 X18.9905 Y10.6516
G01 X18.9836 Y10.6592
G01 X18.9693 Y10.6741
G01 X18.9113 Y10.7311
G01 X18.8958 Y10.7449
G01 X18.8740 Y10.7622
G00 Z1.0000
G00 X19.0933 Y10.7282
G01 F30.00
G01 Z-0.1200
G01 F100.00
G01 X19.1769 Y10.7785
G01 X19.2035 Y10.7965
G01 X19.2148 Y10.7695
G01 X19.2263 Y10.7454
G01 X19.1260 Y10.6852
G01 X19.1124 Y10.7043
G01 X19.0933 Y10.7282
G00 Z1.0000
G00 X19.2392 Y7.3937
G01 F30.00
G01 Z-0.1200
G01 F100.00
G01 X19.3773 Y7.5318
G01 X19.4306 Y7.4999
G01 X19.4410 Y7.4942
G01 X19.5776 Y7.4295
G01 X19.5884 Y7.4249
G01 X19.7381 Y7.3715
G01 X19.8923 Y7.3327
G01 X19.9039 Y7.3306
G01 X20.0495 Y7.3090
G01 X20.0651 Y7.3074
G01 X20.2200 Y7.3000
G01 X20.3788 Y7.3077
G01 X20.3905 Y7.3090
G01 X20.5438 Y7.3319
G01 X20.6943 Y7.3694
G01 X20.7056 Y7.3727
G01 X20.8479 Y7.4235
G01 X20.8589 Y7.4279
G01 X20.9990 Y7.4942
G01 X21.0094 Y7.4999
G01 X21.0627 Y7.5318
G01 X21.2014 Y7.3931
G01 X21.0436 Y7.3009
G01 X20.8108 Y7.2044
G01 X20.5671 Y7.1405
G01 X20.3169 Y7.1102
G01 X20.0650 Y7.1142
G01 X19.8159 Y7.1523
G01 X19.5743 Y7.2239
G01 X19.3447 Y7.3275
G01 X19.2392 Y7.3937
G00 Z1.0000
G00 X21.6482 Y8.1173
G01 F30.00
G01 Z-0.1200
G01 F100.00
G01 X21.6801 Y8.1706
G01 X21.6858 Y8.1810
G01 X21.7521 Y8.3211
G01 X21.7565 Y8.3321
G01 X21.8073 Y8.4744
G01 X21.8106 Y8.4857
G01 X21.8481 Y8.6362
G01 X21.8710 Y8.7895
G01 X21.8723 Y8.8012
G01 X21.8800 Y8.9600
G01 X21.8726 Y9.1149
G01 X21.8710 Y9.1305
G01 X21.8494 Y9.2761
G01 X21.8473 Y9.2877
G01 X21.8085 Y9.4419
G01 X21.7551 Y9.5916
G01 X21.7505 Y9.6024
G01 X21.6858 Y9.7390
G01 X21.6801 Y9.7494
G01 X21.6482 Y9.8027
G01 X21.7882 Y9.9427
G01 X21.8044 Y9.9196
G01 X21.9200 Y9.6956
G01 X22.0041 Y9.4581
G01 X22.0552 Y9.2114
G01 X22.0726 Y8.9554
G01 X22.0723 Y8.9258
G01 X22.0495 Y8.6702
G01 X21.9933 Y8.4246
G01 X21.9042 Y8.1889
G01 X21.7889 Y7.9766
G01 X21.6482 Y8.1173
G00 Z1.0000
G00 X30.7143 Y10.0060
G01 F30.00
G01 Z-0.1200
G01 F100.00
G01 X30.9256 Y10.0060
G01 X30.9557 Y9.9561
G01 X30.9997 Y9.8965
G01 X31.0097 Y9.8843
G01 X31.0596 Y9.8296
G01 X31.1143 Y9.7797
G01 X31.1265 Y9.7697
G01 X31.1861 Y9.7257
G01 X31.2360 Y9.6956
G01 X31.2360 Y9.4844
G01 X31.1598 Y9.5171
G01 X31.0034 Y9.6216
G01 X30.8688 Y9.7528
G01 X30.7603 Y9.9063
G01 X30.7143 Y10.0060
G00 Z1.0000
G00 X32.0640 Y9.4801
G01 F30.00
G01 Z-0.1200
G01 F100.00
G01 X32.0640 Y9.6956
G01 X32.1139 Y9.7257
G01 X32.1735 Y9.7697
G01 X32.1857 Y9.7797
G01 X32.2404 Y9.8296
G01 X32.2903 Y9.8843
G01 X32.3003 Y9.8965
G01 X32.3443 Y9.9561
G01 X32.3744 Y10.0060
G01 X32.5899 Y10.0060
G01 X32.5886 Y10.0021
G01 X32.4967 Y9.8381
G01 X32.3765 Y9.6935
G01 X32.2319 Y9.5733
G01 X32.0679 Y9.4814
G01 X32.0640 Y9.4801
G00 Z1.0000
M05
G00 Z1.0000
G00 Z15.00
G00 X0.0 Y0.0


