(G-CODE GENERATED BY FLATCAM v8.994 - www.flatcam.org - Version Date: 2020/11/7)

(Name: amp-Edge_Cuts.gbr_cutout_cnc)
(Type: G-code from Geometry)
(Units: MM)

(Created on Tuesday, 24 January 2023 at 12:37)

(This preprocessor is the default preprocessor used by FlatCAM.)
(It is made to work with MACH3 compatible motion controllers.)

(TOOL DIAMETER: 0.7 mm)
(Feedrate_XY: 30.0 mm/min)
(Feedrate_Z: 15.0 mm/min)
(Feedrate rapids 1500.0 mm/min)

(Z_Cut: -1.94 mm)
(DepthPerCut: 0.485 mm <=>4 passes)
(Z_Move: 1.0 mm)
(Z Start: None mm)
(Z End: 15.0 mm)
(X,Y End: 0.0000, 0.0000 mm)
(Steps per circle: 64)
(Preprocessor Geometry: default)

(X range:    2.8000 ...   49.6250  mm)
(Y range:    3.0847 ...   36.6396  mm)

(Spindle Speed: 1000.0 RPM)
G21
G90
G94

G01 F30.00

M5
G00 Z15.0000
G00 X0.0000 Y0.0000
T1
M6    
(MSG, Change to Tool Dia = 0.7000)
M0
G00 Z15.0000

M03 S1000.0
G01 F30.00
G00 X5.2000 Y4.2871
G01 F15.00
G01 Z-0.4850
G01 F30.00
G01 X5.1995 Y4.2650
G01 X5.1957 Y4.1866
G01 X5.1944 Y4.1695
G01 X5.1918 Y4.1475
G01 X5.1803 Y4.0699
G01 X5.1774 Y4.0529
G01 X5.1727 Y4.0314
G01 X5.1536 Y3.9552
G01 X5.1490 Y3.9387
G01 X5.1422 Y3.9176
G01 X5.1157 Y3.8437
G01 X5.1096 Y3.8277
G01 X5.1007 Y3.8075
G01 X5.0672 Y3.7365
G01 X5.0594 Y3.7211
G01 X5.0486 Y3.7019
G01 X5.0083 Y3.6345
G01 X4.9991 Y3.6200
G01 X4.9865 Y3.6019
G01 X4.9397 Y3.5388
G01 X4.9291 Y3.5253
G01 X4.9148 Y3.5085
G01 X4.8621 Y3.4503
G01 X4.8502 Y3.4379
G01 X4.8343 Y3.4226
G01 X4.7762 Y3.3698
G01 X4.7631 Y3.3586
G01 X4.7458 Y3.3449
G01 X4.6828 Y3.2982
G01 X4.6687 Y3.2883
G01 X4.6501 Y3.2764
G01 X4.5828 Y3.2360
G01 X4.5678 Y3.2275
G01 X4.5482 Y3.2175
G01 X4.4772 Y3.1839
G01 X4.4615 Y3.1770
G01 X4.4409 Y3.1689
G01 X4.3670 Y3.1424
G01 X4.3507 Y3.1371
G01 X4.3294 Y3.1311
G01 X4.2533 Y3.1120
G01 X4.2365 Y3.1082
G01 X4.2148 Y3.1043
G01 X4.1371 Y3.0928
G01 X4.1201 Y3.0907
G01 X4.0980 Y3.0889
G01 X4.0196 Y3.0851
G01 X4.0025 Y3.0847
G01 X3.9804 Y3.0851
G01 X3.9020 Y3.0889
G01 X3.8848 Y3.0902
G01 X3.8629 Y3.0928
G01 X3.7852 Y3.1043
G01 X3.7683 Y3.1073
G01 X3.7467 Y3.1120
G01 X3.6706 Y3.1311
G01 X3.6540 Y3.1356
G01 X3.6330 Y3.1424
G01 X3.5591 Y3.1689
G01 X3.5431 Y3.1751
G01 X3.5228 Y3.1839
G01 X3.4518 Y3.2175
G01 X3.4365 Y3.2252
G01 X3.4172 Y3.2360
G01 X3.3499 Y3.2764
G01 X3.3354 Y3.2855
G01 X3.3172 Y3.2982
G01 X3.2542 Y3.3449
G01 X3.2406 Y3.3555
G01 X3.2238 Y3.3698
G01 X3.1657 Y3.4226
G01 X3.1532 Y3.4344
G01 X3.1379 Y3.4503
G01 X3.0852 Y3.5085
G01 X3.0740 Y3.5215
G01 X3.0603 Y3.5388
G01 X3.0135 Y3.6019
G01 X3.0036 Y3.6159
G01 X2.9917 Y3.6345
G01 X2.9514 Y3.7019
G01 X2.9429 Y3.7168
G01 X2.9328 Y3.7365
G01 X2.8993 Y3.8075
G01 X2.8923 Y3.8232
G01 X2.8843 Y3.8437
G01 X2.8578 Y3.9176
G01 X2.8524 Y3.9340
G01 X2.8464 Y3.9552
G01 X2.8273 Y4.0314
G01 X2.8236 Y4.0481
G01 X2.8197 Y4.0699
G01 X2.8082 Y4.1475
G01 X2.8061 Y4.1646
G01 X2.8043 Y4.1866
G01 X2.8005 Y4.2650
G01 X2.8000 Y4.2822
G01 X2.8005 Y4.3043
G01 X2.8043 Y4.3827
G01 X2.8056 Y4.3998
G01 X2.8082 Y4.4217
G01 X2.8197 Y4.4994
G01 X2.8226 Y4.5163
G01 X2.8273 Y4.5379
G01 X2.8464 Y4.6141
G01 X2.8510 Y4.6306
G01 X2.8578 Y4.6516
G01 X2.8843 Y4.7256
G01 X2.8904 Y4.7416
G01 X2.8993 Y4.7618
G01 X2.9328 Y4.8328
G01 X2.9406 Y4.8481
G01 X2.9514 Y4.8674
G01 X2.9917 Y4.9348
G01 X3.0009 Y4.9493
G01 X3.0135 Y4.9674
G01 X3.0603 Y5.0304
G01 X3.0709 Y5.0440
G01 X3.0852 Y5.0608
G01 X3.1379 Y5.1190
G01 X3.1498 Y5.1314
G01 X3.1657 Y5.1467
G01 X3.2238 Y5.1994
G01 X3.2369 Y5.2107
G01 X3.2542 Y5.2244
G01 X3.3172 Y5.2711
G01 X3.3313 Y5.2810
G01 X3.3499 Y5.2929
G01 X3.4172 Y5.3333
G01 X3.4322 Y5.3418
G01 X3.4518 Y5.3518
G01 X3.5228 Y5.3854
G01 X3.5385 Y5.3923
G01 X3.5591 Y5.4004
G01 X3.6330 Y5.4268
G01 X3.6493 Y5.4322
G01 X3.6706 Y5.4382
G01 X3.7467 Y5.4573
G01 X3.7635 Y5.4611
G01 X3.7852 Y5.4650
G01 X3.8629 Y5.4765
G01 X3.8799 Y5.4786
G01 X3.9020 Y5.4803
G01 X3.9804 Y5.4842
G01 X3.9975 Y5.4846
G01 X4.0196 Y5.4842
G01 X4.0980 Y5.4803
G01 X4.1152 Y5.4791
G01 X4.1371 Y5.4765
G01 X4.2148 Y5.4650
G01 X4.2317 Y5.4620
G01 X4.2533 Y5.4573
G01 X4.3294 Y5.4382
G01 X4.3460 Y5.4336
G01 X4.3670 Y5.4268
G01 X4.4409 Y5.4004
G01 X4.4569 Y5.3942
G01 X4.4772 Y5.3854
G01 X4.5482 Y5.3518
G01 X4.5635 Y5.3441
G01 X4.5828 Y5.3333
G01 X4.6501 Y5.2929
G01 X4.6646 Y5.2837
G01 X4.6828 Y5.2711
G01 X4.7458 Y5.2244
G01 X4.7594 Y5.2138
G01 X4.7762 Y5.1994
G01 X4.8343 Y5.1467
G01 X4.8468 Y5.1349
G01 X4.8621 Y5.1190
G01 X4.9148 Y5.0608
G01 X4.9260 Y5.0478
G01 X4.9397 Y5.0304
G01 X4.9865 Y4.9674
G01 X4.9964 Y4.9533
G01 X5.0083 Y4.9348
G01 X5.0486 Y4.8674
G01 X5.0571 Y4.8525
G01 X5.0672 Y4.8328
G01 X5.1007 Y4.7618
G01 X5.1077 Y4.7461
G01 X5.1157 Y4.7256
G01 X5.1422 Y4.6516
G01 X5.1476 Y4.6353
G01 X5.1536 Y4.6141
G01 X5.1727 Y4.5379
G01 X5.1764 Y4.5211
G01 X5.1803 Y4.4994
G01 X5.1918 Y4.4217
G01 X5.1939 Y4.4047
G01 X5.1957 Y4.3827
G01 X5.1995 Y4.3043
G01 X5.2000 Y4.2871
G00 X5.2000 Y4.2871
G01 F15.00
G01 Z-0.9700
G01 F30.00
G01 X5.1995 Y4.3043
G01 X5.1957 Y4.3827
G01 X5.1939 Y4.4047
G01 X5.1918 Y4.4217
G01 X5.1803 Y4.4994
G01 X5.1764 Y4.5211
G01 X5.1727 Y4.5379
G01 X5.1536 Y4.6141
G01 X5.1476 Y4.6353
G01 X5.1422 Y4.6516
G01 X5.1157 Y4.7256
G01 X5.1077 Y4.7461
G01 X5.1007 Y4.7618
G01 X5.0672 Y4.8328
G01 X5.0571 Y4.8525
G01 X5.0486 Y4.8674
G01 X5.0083 Y4.9348
G01 X4.9964 Y4.9533
G01 X4.9865 Y4.9674
G01 X4.9397 Y5.0304
G01 X4.9260 Y5.0478
G01 X4.9148 Y5.0608
G01 X4.8621 Y5.1190
G01 X4.8468 Y5.1349
G01 X4.8343 Y5.1467
G01 X4.7762 Y5.1994
G01 X4.7594 Y5.2138
G01 X4.7458 Y5.2244
G01 X4.6828 Y5.2711
G01 X4.6646 Y5.2837
G01 X4.6501 Y5.2929
G01 X4.5828 Y5.3333
G01 X4.5635 Y5.3441
G01 X4.5482 Y5.3518
G01 X4.4772 Y5.3854
G01 X4.4569 Y5.3942
G01 X4.4409 Y5.4004
G01 X4.3670 Y5.4268
G01 X4.3460 Y5.4336
G01 X4.3294 Y5.4382
G01 X4.2533 Y5.4573
G01 X4.2317 Y5.4620
G01 X4.2148 Y5.4650
G01 X4.1371 Y5.4765
G01 X4.1152 Y5.4791
G01 X4.0980 Y5.4803
G01 X4.0196 Y5.4842
G01 X3.9975 Y5.4846
G01 X3.9804 Y5.4842
G01 X3.9020 Y5.4803
G01 X3.8799 Y5.4786
G01 X3.8629 Y5.4765
G01 X3.7852 Y5.4650
G01 X3.7635 Y5.4611
G01 X3.7467 Y5.4573
G01 X3.6706 Y5.4382
G01 X3.6493 Y5.4322
G01 X3.6330 Y5.4268
G01 X3.5591 Y5.4004
G01 X3.5385 Y5.3923
G01 X3.5228 Y5.3854
G01 X3.4518 Y5.3518
G01 X3.4322 Y5.3418
G01 X3.4172 Y5.3333
G01 X3.3499 Y5.2929
G01 X3.3313 Y5.2810
G01 X3.3172 Y5.2711
G01 X3.2542 Y5.2244
G01 X3.2369 Y5.2107
G01 X3.2238 Y5.1994
G01 X3.1657 Y5.1467
G01 X3.1498 Y5.1314
G01 X3.1379 Y5.1190
G01 X3.0852 Y5.0608
G01 X3.0709 Y5.0440
G01 X3.0603 Y5.0304
G01 X3.0135 Y4.9674
G01 X3.0009 Y4.9493
G01 X2.9917 Y4.9348
G01 X2.9514 Y4.8674
G01 X2.9406 Y4.8481
G01 X2.9328 Y4.8328
G01 X2.8993 Y4.7618
G01 X2.8904 Y4.7416
G01 X2.8843 Y4.7256
G01 X2.8578 Y4.6516
G01 X2.8510 Y4.6306
G01 X2.8464 Y4.6141
G01 X2.8273 Y4.5379
G01 X2.8226 Y4.5163
G01 X2.8197 Y4.4994
G01 X2.8082 Y4.4217
G01 X2.8056 Y4.3998
G01 X2.8043 Y4.3827
G01 X2.8005 Y4.3043
G01 X2.8000 Y4.2822
G01 X2.8005 Y4.2650
G01 X2.8043 Y4.1866
G01 X2.8061 Y4.1646
G01 X2.8082 Y4.1475
G01 X2.8197 Y4.0699
G01 X2.8236 Y4.0481
G01 X2.8273 Y4.0314
G01 X2.8464 Y3.9552
G01 X2.8524 Y3.9340
G01 X2.8578 Y3.9176
G01 X2.8843 Y3.8437
G01 X2.8923 Y3.8232
G01 X2.8993 Y3.8075
G01 X2.9328 Y3.7365
G01 X2.9429 Y3.7168
G01 X2.9514 Y3.7019
G01 X2.9917 Y3.6345
G01 X3.0036 Y3.6159
G01 X3.0135 Y3.6019
G01 X3.0603 Y3.5388
G01 X3.0740 Y3.5215
G01 X3.0852 Y3.5085
G01 X3.1379 Y3.4503
G01 X3.1532 Y3.4344
G01 X3.1657 Y3.4226
G01 X3.2238 Y3.3698
G01 X3.2406 Y3.3555
G01 X3.2542 Y3.3449
G01 X3.3172 Y3.2982
G01 X3.3354 Y3.2855
G01 X3.3499 Y3.2764
G01 X3.4172 Y3.2360
G01 X3.4365 Y3.2252
G01 X3.4518 Y3.2175
G01 X3.5228 Y3.1839
G01 X3.5431 Y3.1751
G01 X3.5591 Y3.1689
G01 X3.6330 Y3.1424
G01 X3.6540 Y3.1356
G01 X3.6706 Y3.1311
G01 X3.7467 Y3.1120
G01 X3.7683 Y3.1073
G01 X3.7852 Y3.1043
G01 X3.8629 Y3.0928
G01 X3.8848 Y3.0902
G01 X3.9020 Y3.0889
G01 X3.9804 Y3.0851
G01 X4.0025 Y3.0847
G01 X4.0196 Y3.0851
G01 X4.0980 Y3.0889
G01 X4.1201 Y3.0907
G01 X4.1371 Y3.0928
G01 X4.2148 Y3.1043
G01 X4.2365 Y3.1082
G01 X4.2533 Y3.1120
G01 X4.3294 Y3.1311
G01 X4.3507 Y3.1371
G01 X4.3670 Y3.1424
G01 X4.4409 Y3.1689
G01 X4.4615 Y3.1770
G01 X4.4772 Y3.1839
G01 X4.5482 Y3.2175
G01 X4.5678 Y3.2275
G01 X4.5828 Y3.2360
G01 X4.6501 Y3.2764
G01 X4.6687 Y3.2883
G01 X4.6828 Y3.2982
G01 X4.7458 Y3.3449
G01 X4.7631 Y3.3586
G01 X4.7762 Y3.3698
G01 X4.8343 Y3.4226
G01 X4.8502 Y3.4379
G01 X4.8621 Y3.4503
G01 X4.9148 Y3.5085
G01 X4.9291 Y3.5253
G01 X4.9397 Y3.5388
G01 X4.9865 Y3.6019
G01 X4.9991 Y3.6200
G01 X5.0083 Y3.6345
G01 X5.0486 Y3.7019
G01 X5.0594 Y3.7211
G01 X5.0672 Y3.7365
G01 X5.1007 Y3.8075
G01 X5.1096 Y3.8277
G01 X5.1157 Y3.8437
G01 X5.1422 Y3.9176
G01 X5.1490 Y3.9387
G01 X5.1536 Y3.9552
G01 X5.1727 Y4.0314
G01 X5.1774 Y4.0529
G01 X5.1803 Y4.0699
G01 X5.1918 Y4.1475
G01 X5.1944 Y4.1695
G01 X5.1957 Y4.1866
G01 X5.1995 Y4.2650
G01 X5.2000 Y4.2871
G00 X5.2000 Y4.2871
G01 F15.00
G01 Z-1.4550
G01 F30.00
G01 X5.1995 Y4.2650
G01 X5.1957 Y4.1866
G01 X5.1944 Y4.1695
G01 X5.1918 Y4.1475
G01 X5.1803 Y4.0699
G01 X5.1774 Y4.0529
G01 X5.1727 Y4.0314
G01 X5.1536 Y3.9552
G01 X5.1490 Y3.9387
G01 X5.1422 Y3.9176
G01 X5.1157 Y3.8437
G01 X5.1096 Y3.8277
G01 X5.1007 Y3.8075
G01 X5.0672 Y3.7365
G01 X5.0594 Y3.7211
G01 X5.0486 Y3.7019
G01 X5.0083 Y3.6345
G01 X4.9991 Y3.6200
G01 X4.9865 Y3.6019
G01 X4.9397 Y3.5388
G01 X4.9291 Y3.5253
G01 X4.9148 Y3.5085
G01 X4.8621 Y3.4503
G01 X4.8502 Y3.4379
G01 X4.8343 Y3.4226
G01 X4.7762 Y3.3698
G01 X4.7631 Y3.3586
G01 X4.7458 Y3.3449
G01 X4.6828 Y3.2982
G01 X4.6687 Y3.2883
G01 X4.6501 Y3.2764
G01 X4.5828 Y3.2360
G01 X4.5678 Y3.2275
G01 X4.5482 Y3.2175
G01 X4.4772 Y3.1839
G01 X4.4615 Y3.1770
G01 X4.4409 Y3.1689
G01 X4.3670 Y3.1424
G01 X4.3507 Y3.1371
G01 X4.3294 Y3.1311
G01 X4.2533 Y3.1120
G01 X4.2365 Y3.1082
G01 X4.2148 Y3.1043
G01 X4.1371 Y3.0928
G01 X4.1201 Y3.0907
G01 X4.0980 Y3.0889
G01 X4.0196 Y3.0851
G01 X4.0025 Y3.0847
G01 X3.9804 Y3.0851
G01 X3.9020 Y3.0889
G01 X3.8848 Y3.0902
G01 X3.8629 Y3.0928
G01 X3.7852 Y3.1043
G01 X3.7683 Y3.1073
G01 X3.7467 Y3.1120
G01 X3.6706 Y3.1311
G01 X3.6540 Y3.1356
G01 X3.6330 Y3.1424
G01 X3.5591 Y3.1689
G01 X3.5431 Y3.1751
G01 X3.5228 Y3.1839
G01 X3.4518 Y3.2175
G01 X3.4365 Y3.2252
G01 X3.4172 Y3.2360
G01 X3.3499 Y3.2764
G01 X3.3354 Y3.2855
G01 X3.3172 Y3.2982
G01 X3.2542 Y3.3449
G01 X3.2406 Y3.3555
G01 X3.2238 Y3.3698
G01 X3.1657 Y3.4226
G01 X3.1532 Y3.4344
G01 X3.1379 Y3.4503
G01 X3.0852 Y3.5085
G01 X3.0740 Y3.5215
G01 X3.0603 Y3.5388
G01 X3.0135 Y3.6019
G01 X3.0036 Y3.6159
G01 X2.9917 Y3.6345
G01 X2.9514 Y3.7019
G01 X2.9429 Y3.7168
G01 X2.9328 Y3.7365
G01 X2.8993 Y3.8075
G01 X2.8923 Y3.8232
G01 X2.8843 Y3.8437
G01 X2.8578 Y3.9176
G01 X2.8524 Y3.9340
G01 X2.8464 Y3.9552
G01 X2.8273 Y4.0314
G01 X2.8236 Y4.0481
G01 X2.8197 Y4.0699
G01 X2.8082 Y4.1475
G01 X2.8061 Y4.1646
G01 X2.8043 Y4.1866
G01 X2.8005 Y4.2650
G01 X2.8000 Y4.2822
G01 X2.8005 Y4.3043
G01 X2.8043 Y4.3827
G01 X2.8056 Y4.3998
G01 X2.8082 Y4.4217
G01 X2.8197 Y4.4994
G01 X2.8226 Y4.5163
G01 X2.8273 Y4.5379
G01 X2.8464 Y4.6141
G01 X2.8510 Y4.6306
G01 X2.8578 Y4.6516
G01 X2.8843 Y4.7256
G01 X2.8904 Y4.7416
G01 X2.8993 Y4.7618
G01 X2.9328 Y4.8328
G01 X2.9406 Y4.8481
G01 X2.9514 Y4.8674
G01 X2.9917 Y4.9348
G01 X3.0009 Y4.9493
G01 X3.0135 Y4.9674
G01 X3.0603 Y5.0304
G01 X3.0709 Y5.0440
G01 X3.0852 Y5.0608
G01 X3.1379 Y5.1190
G01 X3.1498 Y5.1314
G01 X3.1657 Y5.1467
G01 X3.2238 Y5.1994
G01 X3.2369 Y5.2107
G01 X3.2542 Y5.2244
G01 X3.3172 Y5.2711
G01 X3.3313 Y5.2810
G01 X3.3499 Y5.2929
G01 X3.4172 Y5.3333
G01 X3.4322 Y5.3418
G01 X3.4518 Y5.3518
G01 X3.5228 Y5.3854
G01 X3.5385 Y5.3923
G01 X3.5591 Y5.4004
G01 X3.6330 Y5.4268
G01 X3.6493 Y5.4322
G01 X3.6706 Y5.4382
G01 X3.7467 Y5.4573
G01 X3.7635 Y5.4611
G01 X3.7852 Y5.4650
G01 X3.8629 Y5.4765
G01 X3.8799 Y5.4786
G01 X3.9020 Y5.4803
G01 X3.9804 Y5.4842
G01 X3.9975 Y5.4846
G01 X4.0196 Y5.4842
G01 X4.0980 Y5.4803
G01 X4.1152 Y5.4791
G01 X4.1371 Y5.4765
G01 X4.2148 Y5.4650
G01 X4.2317 Y5.4620
G01 X4.2533 Y5.4573
G01 X4.3294 Y5.4382
G01 X4.3460 Y5.4336
G01 X4.3670 Y5.4268
G01 X4.4409 Y5.4004
G01 X4.4569 Y5.3942
G01 X4.4772 Y5.3854
G01 X4.5482 Y5.3518
G01 X4.5635 Y5.3441
G01 X4.5828 Y5.3333
G01 X4.6501 Y5.2929
G01 X4.6646 Y5.2837
G01 X4.6828 Y5.2711
G01 X4.7458 Y5.2244
G01 X4.7594 Y5.2138
G01 X4.7762 Y5.1994
G01 X4.8343 Y5.1467
G01 X4.8468 Y5.1349
G01 X4.8621 Y5.1190
G01 X4.9148 Y5.0608
G01 X4.9260 Y5.0478
G01 X4.9397 Y5.0304
G01 X4.9865 Y4.9674
G01 X4.9964 Y4.9533
G01 X5.0083 Y4.9348
G01 X5.0486 Y4.8674
G01 X5.0571 Y4.8525
G01 X5.0672 Y4.8328
G01 X5.1007 Y4.7618
G01 X5.1077 Y4.7461
G01 X5.1157 Y4.7256
G01 X5.1422 Y4.6516
G01 X5.1476 Y4.6353
G01 X5.1536 Y4.6141
G01 X5.1727 Y4.5379
G01 X5.1764 Y4.5211
G01 X5.1803 Y4.4994
G01 X5.1918 Y4.4217
G01 X5.1939 Y4.4047
G01 X5.1957 Y4.3827
G01 X5.1995 Y4.3043
G01 X5.2000 Y4.2871
G00 X5.2000 Y4.2871
G01 F15.00
G01 Z-1.9400
G01 F30.00
G01 X5.1995 Y4.3043
G01 X5.1957 Y4.3827
G01 X5.1939 Y4.4047
G01 X5.1918 Y4.4217
G01 X5.1803 Y4.4994
G01 X5.1764 Y4.5211
G01 X5.1727 Y4.5379
G01 X5.1536 Y4.6141
G01 X5.1476 Y4.6353
G01 X5.1422 Y4.6516
G01 X5.1157 Y4.7256
G01 X5.1077 Y4.7461
G01 X5.1007 Y4.7618
G01 X5.0672 Y4.8328
G01 X5.0571 Y4.8525
G01 X5.0486 Y4.8674
G01 X5.0083 Y4.9348
G01 X4.9964 Y4.9533
G01 X4.9865 Y4.9674
G01 X4.9397 Y5.0304
G01 X4.9260 Y5.0478
G01 X4.9148 Y5.0608
G01 X4.8621 Y5.1190
G01 X4.8468 Y5.1349
G01 X4.8343 Y5.1467
G01 X4.7762 Y5.1994
G01 X4.7594 Y5.2138
G01 X4.7458 Y5.2244
G01 X4.6828 Y5.2711
G01 X4.6646 Y5.2837
G01 X4.6501 Y5.2929
G01 X4.5828 Y5.3333
G01 X4.5635 Y5.3441
G01 X4.5482 Y5.3518
G01 X4.4772 Y5.3854
G01 X4.4569 Y5.3942
G01 X4.4409 Y5.4004
G01 X4.3670 Y5.4268
G01 X4.3460 Y5.4336
G01 X4.3294 Y5.4382
G01 X4.2533 Y5.4573
G01 X4.2317 Y5.4620
G01 X4.2148 Y5.4650
G01 X4.1371 Y5.4765
G01 X4.1152 Y5.4791
G01 X4.0980 Y5.4803
G01 X4.0196 Y5.4842
G01 X3.9975 Y5.4846
G01 X3.9804 Y5.4842
G01 X3.9020 Y5.4803
G01 X3.8799 Y5.4786
G01 X3.8629 Y5.4765
G01 X3.7852 Y5.4650
G01 X3.7635 Y5.4611
G01 X3.7467 Y5.4573
G01 X3.6706 Y5.4382
G01 X3.6493 Y5.4322
G01 X3.6330 Y5.4268
G01 X3.5591 Y5.4004
G01 X3.5385 Y5.3923
G01 X3.5228 Y5.3854
G01 X3.4518 Y5.3518
G01 X3.4322 Y5.3418
G01 X3.4172 Y5.3333
G01 X3.3499 Y5.2929
G01 X3.3313 Y5.2810
G01 X3.3172 Y5.2711
G01 X3.2542 Y5.2244
G01 X3.2369 Y5.2107
G01 X3.2238 Y5.1994
G01 X3.1657 Y5.1467
G01 X3.1498 Y5.1314
G01 X3.1379 Y5.1190
G01 X3.0852 Y5.0608
G01 X3.0709 Y5.0440
G01 X3.0603 Y5.0304
G01 X3.0135 Y4.9674
G01 X3.0009 Y4.9493
G01 X2.9917 Y4.9348
G01 X2.9514 Y4.8674
G01 X2.9406 Y4.8481
G01 X2.9328 Y4.8328
G01 X2.8993 Y4.7618
G01 X2.8904 Y4.7416
G01 X2.8843 Y4.7256
G01 X2.8578 Y4.6516
G01 X2.8510 Y4.6306
G01 X2.8464 Y4.6141
G01 X2.8273 Y4.5379
G01 X2.8226 Y4.5163
G01 X2.8197 Y4.4994
G01 X2.8082 Y4.4217
G01 X2.8056 Y4.3998
G01 X2.8043 Y4.3827
G01 X2.8005 Y4.3043
G01 X2.8000 Y4.2822
G01 X2.8005 Y4.2650
G01 X2.8043 Y4.1866
G01 X2.8061 Y4.1646
G01 X2.8082 Y4.1475
G01 X2.8197 Y4.0699
G01 X2.8236 Y4.0481
G01 X2.8273 Y4.0314
G01 X2.8464 Y3.9552
G01 X2.8524 Y3.9340
G01 X2.8578 Y3.9176
G01 X2.8843 Y3.8437
G01 X2.8923 Y3.8232
G01 X2.8993 Y3.8075
G01 X2.9328 Y3.7365
G01 X2.9429 Y3.7168
G01 X2.9514 Y3.7019
G01 X2.9917 Y3.6345
G01 X3.0036 Y3.6159
G01 X3.0135 Y3.6019
G01 X3.0603 Y3.5388
G01 X3.0740 Y3.5215
G01 X3.0852 Y3.5085
G01 X3.1379 Y3.4503
G01 X3.1532 Y3.4344
G01 X3.1657 Y3.4226
G01 X3.2238 Y3.3698
G01 X3.2406 Y3.3555
G01 X3.2542 Y3.3449
G01 X3.3172 Y3.2982
G01 X3.3354 Y3.2855
G01 X3.3499 Y3.2764
G01 X3.4172 Y3.2360
G01 X3.4365 Y3.2252
G01 X3.4518 Y3.2175
G01 X3.5228 Y3.1839
G01 X3.5431 Y3.1751
G01 X3.5591 Y3.1689
G01 X3.6330 Y3.1424
G01 X3.6540 Y3.1356
G01 X3.6706 Y3.1311
G01 X3.7467 Y3.1120
G01 X3.7683 Y3.1073
G01 X3.7852 Y3.1043
G01 X3.8629 Y3.0928
G01 X3.8848 Y3.0902
G01 X3.9020 Y3.0889
G01 X3.9804 Y3.0851
G01 X4.0025 Y3.0847
G01 X4.0196 Y3.0851
G01 X4.0980 Y3.0889
G01 X4.1201 Y3.0907
G01 X4.1371 Y3.0928
G01 X4.2148 Y3.1043
G01 X4.2365 Y3.1082
G01 X4.2533 Y3.1120
G01 X4.3294 Y3.1311
G01 X4.3507 Y3.1371
G01 X4.3670 Y3.1424
G01 X4.4409 Y3.1689
G01 X4.4615 Y3.1770
G01 X4.4772 Y3.1839
G01 X4.5482 Y3.2175
G01 X4.5678 Y3.2275
G01 X4.5828 Y3.2360
G01 X4.6501 Y3.2764
G01 X4.6687 Y3.2883
G01 X4.6828 Y3.2982
G01 X4.7458 Y3.3449
G01 X4.7631 Y3.3586
G01 X4.7762 Y3.3698
G01 X4.8343 Y3.4226
G01 X4.8502 Y3.4379
G01 X4.8621 Y3.4503
G01 X4.9148 Y3.5085
G01 X4.9291 Y3.5253
G01 X4.9397 Y3.5388
G01 X4.9865 Y3.6019
G01 X4.9991 Y3.6200
G01 X5.0083 Y3.6345
G01 X5.0486 Y3.7019
G01 X5.0594 Y3.7211
G01 X5.0672 Y3.7365
G01 X5.1007 Y3.8075
G01 X5.1096 Y3.8277
G01 X5.1157 Y3.8437
G01 X5.1422 Y3.9176
G01 X5.1490 Y3.9387
G01 X5.1536 Y3.9552
G01 X5.1727 Y4.0314
G01 X5.1774 Y4.0529
G01 X5.1803 Y4.0699
G01 X5.1918 Y4.1475
G01 X5.1944 Y4.1695
G01 X5.1957 Y4.1866
G01 X5.1995 Y4.2650
G01 X5.2000 Y4.2871
G00 Z1.0000
G00 X5.2000 Y35.4421
G01 F15.00
G01 Z-0.4850
G01 F30.00
G01 X5.1995 Y35.4200
G01 X5.1957 Y35.3416
G01 X5.1944 Y35.3245
G01 X5.1918 Y35.3025
G01 X5.1803 Y35.2249
G01 X5.1774 Y35.2079
G01 X5.1727 Y35.1864
G01 X5.1536 Y35.1102
G01 X5.1490 Y35.0937
G01 X5.1422 Y35.0726
G01 X5.1157 Y34.9987
G01 X5.1096 Y34.9827
G01 X5.1007 Y34.9625
G01 X5.0672 Y34.8915
G01 X5.0594 Y34.8761
G01 X5.0486 Y34.8569
G01 X5.0083 Y34.7895
G01 X4.9991 Y34.7750
G01 X4.9865 Y34.7569
G01 X4.9397 Y34.6938
G01 X4.9291 Y34.6803
G01 X4.9148 Y34.6635
G01 X4.8621 Y34.6053
G01 X4.8502 Y34.5929
G01 X4.8343 Y34.5776
G01 X4.7762 Y34.5248
G01 X4.7631 Y34.5136
G01 X4.7458 Y34.4999
G01 X4.6828 Y34.4532
G01 X4.6687 Y34.4433
G01 X4.6501 Y34.4314
G01 X4.5828 Y34.3910
G01 X4.5678 Y34.3825
G01 X4.5482 Y34.3725
G01 X4.4772 Y34.3389
G01 X4.4615 Y34.3320
G01 X4.4409 Y34.3239
G01 X4.3670 Y34.2974
G01 X4.3507 Y34.2921
G01 X4.3294 Y34.2861
G01 X4.2533 Y34.2670
G01 X4.2365 Y34.2632
G01 X4.2148 Y34.2593
G01 X4.1371 Y34.2478
G01 X4.1201 Y34.2457
G01 X4.0980 Y34.2439
G01 X4.0196 Y34.2401
G01 X4.0025 Y34.2397
G01 X3.9804 Y34.2401
G01 X3.9020 Y34.2439
G01 X3.8848 Y34.2452
G01 X3.8629 Y34.2478
G01 X3.7852 Y34.2593
G01 X3.7683 Y34.2623
G01 X3.7467 Y34.2670
G01 X3.6706 Y34.2861
G01 X3.6540 Y34.2906
G01 X3.6330 Y34.2974
G01 X3.5591 Y34.3239
G01 X3.5431 Y34.3301
G01 X3.5228 Y34.3389
G01 X3.4518 Y34.3725
G01 X3.4365 Y34.3802
G01 X3.4172 Y34.3910
G01 X3.3499 Y34.4314
G01 X3.3354 Y34.4405
G01 X3.3172 Y34.4532
G01 X3.2542 Y34.4999
G01 X3.2406 Y34.5105
G01 X3.2238 Y34.5248
G01 X3.1657 Y34.5776
G01 X3.1532 Y34.5894
G01 X3.1379 Y34.6053
G01 X3.0852 Y34.6635
G01 X3.0740 Y34.6765
G01 X3.0603 Y34.6938
G01 X3.0135 Y34.7569
G01 X3.0036 Y34.7709
G01 X2.9917 Y34.7895
G01 X2.9514 Y34.8569
G01 X2.9429 Y34.8718
G01 X2.9328 Y34.8915
G01 X2.8993 Y34.9625
G01 X2.8923 Y34.9782
G01 X2.8843 Y34.9987
G01 X2.8578 Y35.0726
G01 X2.8524 Y35.0890
G01 X2.8464 Y35.1102
G01 X2.8273 Y35.1864
G01 X2.8236 Y35.2031
G01 X2.8197 Y35.2249
G01 X2.8082 Y35.3025
G01 X2.8061 Y35.3196
G01 X2.8043 Y35.3416
G01 X2.8005 Y35.4200
G01 X2.8000 Y35.4372
G01 X2.8005 Y35.4593
G01 X2.8043 Y35.5377
G01 X2.8056 Y35.5548
G01 X2.8082 Y35.5767
G01 X2.8197 Y35.6544
G01 X2.8226 Y35.6713
G01 X2.8273 Y35.6929
G01 X2.8464 Y35.7691
G01 X2.8510 Y35.7856
G01 X2.8578 Y35.8066
G01 X2.8843 Y35.8806
G01 X2.8904 Y35.8966
G01 X2.8993 Y35.9168
G01 X2.9328 Y35.9878
G01 X2.9406 Y36.0031
G01 X2.9514 Y36.0224
G01 X2.9917 Y36.0898
G01 X3.0009 Y36.1043
G01 X3.0135 Y36.1224
G01 X3.0603 Y36.1854
G01 X3.0709 Y36.1990
G01 X3.0852 Y36.2158
G01 X3.1379 Y36.2740
G01 X3.1498 Y36.2864
G01 X3.1657 Y36.3017
G01 X3.2238 Y36.3544
G01 X3.2369 Y36.3657
G01 X3.2542 Y36.3794
G01 X3.3172 Y36.4261
G01 X3.3313 Y36.4360
G01 X3.3499 Y36.4479
G01 X3.4172 Y36.4883
G01 X3.4322 Y36.4968
G01 X3.4518 Y36.5068
G01 X3.5228 Y36.5404
G01 X3.5385 Y36.5473
G01 X3.5591 Y36.5554
G01 X3.6330 Y36.5818
G01 X3.6493 Y36.5872
G01 X3.6706 Y36.5932
G01 X3.7467 Y36.6123
G01 X3.7635 Y36.6161
G01 X3.7852 Y36.6200
G01 X3.8629 Y36.6315
G01 X3.8799 Y36.6336
G01 X3.9020 Y36.6353
G01 X3.9804 Y36.6392
G01 X3.9975 Y36.6396
G01 X4.0196 Y36.6392
G01 X4.0980 Y36.6353
G01 X4.1152 Y36.6341
G01 X4.1371 Y36.6315
G01 X4.2148 Y36.6200
G01 X4.2317 Y36.6170
G01 X4.2533 Y36.6123
G01 X4.3294 Y36.5932
G01 X4.3460 Y36.5886
G01 X4.3670 Y36.5818
G01 X4.4409 Y36.5554
G01 X4.4569 Y36.5492
G01 X4.4772 Y36.5404
G01 X4.5482 Y36.5068
G01 X4.5635 Y36.4991
G01 X4.5828 Y36.4883
G01 X4.6501 Y36.4479
G01 X4.6646 Y36.4387
G01 X4.6828 Y36.4261
G01 X4.7458 Y36.3794
G01 X4.7594 Y36.3688
G01 X4.7762 Y36.3544
G01 X4.8343 Y36.3017
G01 X4.8468 Y36.2899
G01 X4.8621 Y36.2740
G01 X4.9148 Y36.2158
G01 X4.9260 Y36.2028
G01 X4.9397 Y36.1854
G01 X4.9865 Y36.1224
G01 X4.9964 Y36.1083
G01 X5.0083 Y36.0898
G01 X5.0486 Y36.0224
G01 X5.0571 Y36.0075
G01 X5.0672 Y35.9878
G01 X5.1007 Y35.9168
G01 X5.1077 Y35.9011
G01 X5.1157 Y35.8806
G01 X5.1422 Y35.8066
G01 X5.1476 Y35.7903
G01 X5.1536 Y35.7691
G01 X5.1727 Y35.6929
G01 X5.1764 Y35.6761
G01 X5.1803 Y35.6544
G01 X5.1918 Y35.5767
G01 X5.1939 Y35.5597
G01 X5.1957 Y35.5377
G01 X5.1995 Y35.4593
G01 X5.2000 Y35.4421
G00 X5.2000 Y35.4421
G01 F15.00
G01 Z-0.9700
G01 F30.00
G01 X5.1995 Y35.4593
G01 X5.1957 Y35.5377
G01 X5.1939 Y35.5597
G01 X5.1918 Y35.5767
G01 X5.1803 Y35.6544
G01 X5.1764 Y35.6761
G01 X5.1727 Y35.6929
G01 X5.1536 Y35.7691
G01 X5.1476 Y35.7903
G01 X5.1422 Y35.8066
G01 X5.1157 Y35.8806
G01 X5.1077 Y35.9011
G01 X5.1007 Y35.9168
G01 X5.0672 Y35.9878
G01 X5.0571 Y36.0075
G01 X5.0486 Y36.0224
G01 X5.0083 Y36.0898
G01 X4.9964 Y36.1083
G01 X4.9865 Y36.1224
G01 X4.9397 Y36.1854
G01 X4.9260 Y36.2028
G01 X4.9148 Y36.2158
G01 X4.8621 Y36.2740
G01 X4.8468 Y36.2899
G01 X4.8343 Y36.3017
G01 X4.7762 Y36.3544
G01 X4.7594 Y36.3688
G01 X4.7458 Y36.3794
G01 X4.6828 Y36.4261
G01 X4.6646 Y36.4387
G01 X4.6501 Y36.4479
G01 X4.5828 Y36.4883
G01 X4.5635 Y36.4991
G01 X4.5482 Y36.5068
G01 X4.4772 Y36.5404
G01 X4.4569 Y36.5492
G01 X4.4409 Y36.5554
G01 X4.3670 Y36.5818
G01 X4.3460 Y36.5886
G01 X4.3294 Y36.5932
G01 X4.2533 Y36.6123
G01 X4.2317 Y36.6170
G01 X4.2148 Y36.6200
G01 X4.1371 Y36.6315
G01 X4.1152 Y36.6341
G01 X4.0980 Y36.6353
G01 X4.0196 Y36.6392
G01 X3.9975 Y36.6396
G01 X3.9804 Y36.6392
G01 X3.9020 Y36.6353
G01 X3.8799 Y36.6336
G01 X3.8629 Y36.6315
G01 X3.7852 Y36.6200
G01 X3.7635 Y36.6161
G01 X3.7467 Y36.6123
G01 X3.6706 Y36.5932
G01 X3.6493 Y36.5872
G01 X3.6330 Y36.5818
G01 X3.5591 Y36.5554
G01 X3.5385 Y36.5473
G01 X3.5228 Y36.5404
G01 X3.4518 Y36.5068
G01 X3.4322 Y36.4968
G01 X3.4172 Y36.4883
G01 X3.3499 Y36.4479
G01 X3.3313 Y36.4360
G01 X3.3172 Y36.4261
G01 X3.2542 Y36.3794
G01 X3.2369 Y36.3657
G01 X3.2238 Y36.3544
G01 X3.1657 Y36.3017
G01 X3.1498 Y36.2864
G01 X3.1379 Y36.2740
G01 X3.0852 Y36.2158
G01 X3.0709 Y36.1990
G01 X3.0603 Y36.1854
G01 X3.0135 Y36.1224
G01 X3.0009 Y36.1043
G01 X2.9917 Y36.0898
G01 X2.9514 Y36.0224
G01 X2.9406 Y36.0031
G01 X2.9328 Y35.9878
G01 X2.8993 Y35.9168
G01 X2.8904 Y35.8966
G01 X2.8843 Y35.8806
G01 X2.8578 Y35.8066
G01 X2.8510 Y35.7856
G01 X2.8464 Y35.7691
G01 X2.8273 Y35.6929
G01 X2.8226 Y35.6713
G01 X2.8197 Y35.6544
G01 X2.8082 Y35.5767
G01 X2.8056 Y35.5548
G01 X2.8043 Y35.5377
G01 X2.8005 Y35.4593
G01 X2.8000 Y35.4372
G01 X2.8005 Y35.4200
G01 X2.8043 Y35.3416
G01 X2.8061 Y35.3196
G01 X2.8082 Y35.3025
G01 X2.8197 Y35.2249
G01 X2.8236 Y35.2031
G01 X2.8273 Y35.1864
G01 X2.8464 Y35.1102
G01 X2.8524 Y35.0890
G01 X2.8578 Y35.0726
G01 X2.8843 Y34.9987
G01 X2.8923 Y34.9782
G01 X2.8993 Y34.9625
G01 X2.9328 Y34.8915
G01 X2.9429 Y34.8718
G01 X2.9514 Y34.8569
G01 X2.9917 Y34.7895
G01 X3.0036 Y34.7709
G01 X3.0135 Y34.7569
G01 X3.0603 Y34.6938
G01 X3.0740 Y34.6765
G01 X3.0852 Y34.6635
G01 X3.1379 Y34.6053
G01 X3.1532 Y34.5894
G01 X3.1657 Y34.5776
G01 X3.2238 Y34.5248
G01 X3.2406 Y34.5105
G01 X3.2542 Y34.4999
G01 X3.3172 Y34.4532
G01 X3.3354 Y34.4405
G01 X3.3499 Y34.4314
G01 X3.4172 Y34.3910
G01 X3.4365 Y34.3802
G01 X3.4518 Y34.3725
G01 X3.5228 Y34.3389
G01 X3.5431 Y34.3301
G01 X3.5591 Y34.3239
G01 X3.6330 Y34.2974
G01 X3.6540 Y34.2906
G01 X3.6706 Y34.2861
G01 X3.7467 Y34.2670
G01 X3.7683 Y34.2623
G01 X3.7852 Y34.2593
G01 X3.8629 Y34.2478
G01 X3.8848 Y34.2452
G01 X3.9020 Y34.2439
G01 X3.9804 Y34.2401
G01 X4.0025 Y34.2397
G01 X4.0196 Y34.2401
G01 X4.0980 Y34.2439
G01 X4.1201 Y34.2457
G01 X4.1371 Y34.2478
G01 X4.2148 Y34.2593
G01 X4.2365 Y34.2632
G01 X4.2533 Y34.2670
G01 X4.3294 Y34.2861
G01 X4.3507 Y34.2921
G01 X4.3670 Y34.2974
G01 X4.4409 Y34.3239
G01 X4.4615 Y34.3320
G01 X4.4772 Y34.3389
G01 X4.5482 Y34.3725
G01 X4.5678 Y34.3825
G01 X4.5828 Y34.3910
G01 X4.6501 Y34.4314
G01 X4.6687 Y34.4433
G01 X4.6828 Y34.4532
G01 X4.7458 Y34.4999
G01 X4.7631 Y34.5136
G01 X4.7762 Y34.5248
G01 X4.8343 Y34.5776
G01 X4.8502 Y34.5929
G01 X4.8621 Y34.6053
G01 X4.9148 Y34.6635
G01 X4.9291 Y34.6803
G01 X4.9397 Y34.6938
G01 X4.9865 Y34.7569
G01 X4.9991 Y34.7750
G01 X5.0083 Y34.7895
G01 X5.0486 Y34.8569
G01 X5.0594 Y34.8761
G01 X5.0672 Y34.8915
G01 X5.1007 Y34.9625
G01 X5.1096 Y34.9827
G01 X5.1157 Y34.9987
G01 X5.1422 Y35.0726
G01 X5.1490 Y35.0937
G01 X5.1536 Y35.1102
G01 X5.1727 Y35.1864
G01 X5.1774 Y35.2079
G01 X5.1803 Y35.2249
G01 X5.1918 Y35.3025
G01 X5.1944 Y35.3245
G01 X5.1957 Y35.3416
G01 X5.1995 Y35.4200
G01 X5.2000 Y35.4421
G00 X5.2000 Y35.4421
G01 F15.00
G01 Z-1.4550
G01 F30.00
G01 X5.1995 Y35.4200
G01 X5.1957 Y35.3416
G01 X5.1944 Y35.3245
G01 X5.1918 Y35.3025
G01 X5.1803 Y35.2249
G01 X5.1774 Y35.2079
G01 X5.1727 Y35.1864
G01 X5.1536 Y35.1102
G01 X5.1490 Y35.0937
G01 X5.1422 Y35.0726
G01 X5.1157 Y34.9987
G01 X5.1096 Y34.9827
G01 X5.1007 Y34.9625
G01 X5.0672 Y34.8915
G01 X5.0594 Y34.8761
G01 X5.0486 Y34.8569
G01 X5.0083 Y34.7895
G01 X4.9991 Y34.7750
G01 X4.9865 Y34.7569
G01 X4.9397 Y34.6938
G01 X4.9291 Y34.6803
G01 X4.9148 Y34.6635
G01 X4.8621 Y34.6053
G01 X4.8502 Y34.5929
G01 X4.8343 Y34.5776
G01 X4.7762 Y34.5248
G01 X4.7631 Y34.5136
G01 X4.7458 Y34.4999
G01 X4.6828 Y34.4532
G01 X4.6687 Y34.4433
G01 X4.6501 Y34.4314
G01 X4.5828 Y34.3910
G01 X4.5678 Y34.3825
G01 X4.5482 Y34.3725
G01 X4.4772 Y34.3389
G01 X4.4615 Y34.3320
G01 X4.4409 Y34.3239
G01 X4.3670 Y34.2974
G01 X4.3507 Y34.2921
G01 X4.3294 Y34.2861
G01 X4.2533 Y34.2670
G01 X4.2365 Y34.2632
G01 X4.2148 Y34.2593
G01 X4.1371 Y34.2478
G01 X4.1201 Y34.2457
G01 X4.0980 Y34.2439
G01 X4.0196 Y34.2401
G01 X4.0025 Y34.2397
G01 X3.9804 Y34.2401
G01 X3.9020 Y34.2439
G01 X3.8848 Y34.2452
G01 X3.8629 Y34.2478
G01 X3.7852 Y34.2593
G01 X3.7683 Y34.2623
G01 X3.7467 Y34.2670
G01 X3.6706 Y34.2861
G01 X3.6540 Y34.2906
G01 X3.6330 Y34.2974
G01 X3.5591 Y34.3239
G01 X3.5431 Y34.3301
G01 X3.5228 Y34.3389
G01 X3.4518 Y34.3725
G01 X3.4365 Y34.3802
G01 X3.4172 Y34.3910
G01 X3.3499 Y34.4314
G01 X3.3354 Y34.4405
G01 X3.3172 Y34.4532
G01 X3.2542 Y34.4999
G01 X3.2406 Y34.5105
G01 X3.2238 Y34.5248
G01 X3.1657 Y34.5776
G01 X3.1532 Y34.5894
G01 X3.1379 Y34.6053
G01 X3.0852 Y34.6635
G01 X3.0740 Y34.6765
G01 X3.0603 Y34.6938
G01 X3.0135 Y34.7569
G01 X3.0036 Y34.7709
G01 X2.9917 Y34.7895
G01 X2.9514 Y34.8569
G01 X2.9429 Y34.8718
G01 X2.9328 Y34.8915
G01 X2.8993 Y34.9625
G01 X2.8923 Y34.9782
G01 X2.8843 Y34.9987
G01 X2.8578 Y35.0726
G01 X2.8524 Y35.0890
G01 X2.8464 Y35.1102
G01 X2.8273 Y35.1864
G01 X2.8236 Y35.2031
G01 X2.8197 Y35.2249
G01 X2.8082 Y35.3025
G01 X2.8061 Y35.3196
G01 X2.8043 Y35.3416
G01 X2.8005 Y35.4200
G01 X2.8000 Y35.4372
G01 X2.8005 Y35.4593
G01 X2.8043 Y35.5377
G01 X2.8056 Y35.5548
G01 X2.8082 Y35.5767
G01 X2.8197 Y35.6544
G01 X2.8226 Y35.6713
G01 X2.8273 Y35.6929
G01 X2.8464 Y35.7691
G01 X2.8510 Y35.7856
G01 X2.8578 Y35.8066
G01 X2.8843 Y35.8806
G01 X2.8904 Y35.8966
G01 X2.8993 Y35.9168
G01 X2.9328 Y35.9878
G01 X2.9406 Y36.0031
G01 X2.9514 Y36.0224
G01 X2.9917 Y36.0898
G01 X3.0009 Y36.1043
G01 X3.0135 Y36.1224
G01 X3.0603 Y36.1854
G01 X3.0709 Y36.1990
G01 X3.0852 Y36.2158
G01 X3.1379 Y36.2740
G01 X3.1498 Y36.2864
G01 X3.1657 Y36.3017
G01 X3.2238 Y36.3544
G01 X3.2369 Y36.3657
G01 X3.2542 Y36.3794
G01 X3.3172 Y36.4261
G01 X3.3313 Y36.4360
G01 X3.3499 Y36.4479
G01 X3.4172 Y36.4883
G01 X3.4322 Y36.4968
G01 X3.4518 Y36.5068
G01 X3.5228 Y36.5404
G01 X3.5385 Y36.5473
G01 X3.5591 Y36.5554
G01 X3.6330 Y36.5818
G01 X3.6493 Y36.5872
G01 X3.6706 Y36.5932
G01 X3.7467 Y36.6123
G01 X3.7635 Y36.6161
G01 X3.7852 Y36.6200
G01 X3.8629 Y36.6315
G01 X3.8799 Y36.6336
G01 X3.9020 Y36.6353
G01 X3.9804 Y36.6392
G01 X3.9975 Y36.6396
G01 X4.0196 Y36.6392
G01 X4.0980 Y36.6353
G01 X4.1152 Y36.6341
G01 X4.1371 Y36.6315
G01 X4.2148 Y36.6200
G01 X4.2317 Y36.6170
G01 X4.2533 Y36.6123
G01 X4.3294 Y36.5932
G01 X4.3460 Y36.5886
G01 X4.3670 Y36.5818
G01 X4.4409 Y36.5554
G01 X4.4569 Y36.5492
G01 X4.4772 Y36.5404
G01 X4.5482 Y36.5068
G01 X4.5635 Y36.4991
G01 X4.5828 Y36.4883
G01 X4.6501 Y36.4479
G01 X4.6646 Y36.4387
G01 X4.6828 Y36.4261
G01 X4.7458 Y36.3794
G01 X4.7594 Y36.3688
G01 X4.7762 Y36.3544
G01 X4.8343 Y36.3017
G01 X4.8468 Y36.2899
G01 X4.8621 Y36.2740
G01 X4.9148 Y36.2158
G01 X4.9260 Y36.2028
G01 X4.9397 Y36.1854
G01 X4.9865 Y36.1224
G01 X4.9964 Y36.1083
G01 X5.0083 Y36.0898
G01 X5.0486 Y36.0224
G01 X5.0571 Y36.0075
G01 X5.0672 Y35.9878
G01 X5.1007 Y35.9168
G01 X5.1077 Y35.9011
G01 X5.1157 Y35.8806
G01 X5.1422 Y35.8066
G01 X5.1476 Y35.7903
G01 X5.1536 Y35.7691
G01 X5.1727 Y35.6929
G01 X5.1764 Y35.6761
G01 X5.1803 Y35.6544
G01 X5.1918 Y35.5767
G01 X5.1939 Y35.5597
G01 X5.1957 Y35.5377
G01 X5.1995 Y35.4593
G01 X5.2000 Y35.4421
G00 X5.2000 Y35.4421
G01 F15.00
G01 Z-1.9400
G01 F30.00
G01 X5.1995 Y35.4593
G01 X5.1957 Y35.5377
G01 X5.1939 Y35.5597
G01 X5.1918 Y35.5767
G01 X5.1803 Y35.6544
G01 X5.1764 Y35.6761
G01 X5.1727 Y35.6929
G01 X5.1536 Y35.7691
G01 X5.1476 Y35.7903
G01 X5.1422 Y35.8066
G01 X5.1157 Y35.8806
G01 X5.1077 Y35.9011
G01 X5.1007 Y35.9168
G01 X5.0672 Y35.9878
G01 X5.0571 Y36.0075
G01 X5.0486 Y36.0224
G01 X5.0083 Y36.0898
G01 X4.9964 Y36.1083
G01 X4.9865 Y36.1224
G01 X4.9397 Y36.1854
G01 X4.9260 Y36.2028
G01 X4.9148 Y36.2158
G01 X4.8621 Y36.2740
G01 X4.8468 Y36.2899
G01 X4.8343 Y36.3017
G01 X4.7762 Y36.3544
G01 X4.7594 Y36.3688
G01 X4.7458 Y36.3794
G01 X4.6828 Y36.4261
G01 X4.6646 Y36.4387
G01 X4.6501 Y36.4479
G01 X4.5828 Y36.4883
G01 X4.5635 Y36.4991
G01 X4.5482 Y36.5068
G01 X4.4772 Y36.5404
G01 X4.4569 Y36.5492
G01 X4.4409 Y36.5554
G01 X4.3670 Y36.5818
G01 X4.3460 Y36.5886
G01 X4.3294 Y36.5932
G01 X4.2533 Y36.6123
G01 X4.2317 Y36.6170
G01 X4.2148 Y36.6200
G01 X4.1371 Y36.6315
G01 X4.1152 Y36.6341
G01 X4.0980 Y36.6353
G01 X4.0196 Y36.6392
G01 X3.9975 Y36.6396
G01 X3.9804 Y36.6392
G01 X3.9020 Y36.6353
G01 X3.8799 Y36.6336
G01 X3.8629 Y36.6315
G01 X3.7852 Y36.6200
G01 X3.7635 Y36.6161
G01 X3.7467 Y36.6123
G01 X3.6706 Y36.5932
G01 X3.6493 Y36.5872
G01 X3.6330 Y36.5818
G01 X3.5591 Y36.5554
G01 X3.5385 Y36.5473
G01 X3.5228 Y36.5404
G01 X3.4518 Y36.5068
G01 X3.4322 Y36.4968
G01 X3.4172 Y36.4883
G01 X3.3499 Y36.4479
G01 X3.3313 Y36.4360
G01 X3.3172 Y36.4261
G01 X3.2542 Y36.3794
G01 X3.2369 Y36.3657
G01 X3.2238 Y36.3544
G01 X3.1657 Y36.3017
G01 X3.1498 Y36.2864
G01 X3.1379 Y36.2740
G01 X3.0852 Y36.2158
G01 X3.0709 Y36.1990
G01 X3.0603 Y36.1854
G01 X3.0135 Y36.1224
G01 X3.0009 Y36.1043
G01 X2.9917 Y36.0898
G01 X2.9514 Y36.0224
G01 X2.9406 Y36.0031
G01 X2.9328 Y35.9878
G01 X2.8993 Y35.9168
G01 X2.8904 Y35.8966
G01 X2.8843 Y35.8806
G01 X2.8578 Y35.8066
G01 X2.8510 Y35.7856
G01 X2.8464 Y35.7691
G01 X2.8273 Y35.6929
G01 X2.8226 Y35.6713
G01 X2.8197 Y35.6544
G01 X2.8082 Y35.5767
G01 X2.8056 Y35.5548
G01 X2.8043 Y35.5377
G01 X2.8005 Y35.4593
G01 X2.8000 Y35.4372
G01 X2.8005 Y35.4200
G01 X2.8043 Y35.3416
G01 X2.8061 Y35.3196
G01 X2.8082 Y35.3025
G01 X2.8197 Y35.2249
G01 X2.8236 Y35.2031
G01 X2.8273 Y35.1864
G01 X2.8464 Y35.1102
G01 X2.8524 Y35.0890
G01 X2.8578 Y35.0726
G01 X2.8843 Y34.9987
G01 X2.8923 Y34.9782
G01 X2.8993 Y34.9625
G01 X2.9328 Y34.8915
G01 X2.9429 Y34.8718
G01 X2.9514 Y34.8569
G01 X2.9917 Y34.7895
G01 X3.0036 Y34.7709
G01 X3.0135 Y34.7569
G01 X3.0603 Y34.6938
G01 X3.0740 Y34.6765
G01 X3.0852 Y34.6635
G01 X3.1379 Y34.6053
G01 X3.1532 Y34.5894
G01 X3.1657 Y34.5776
G01 X3.2238 Y34.5248
G01 X3.2406 Y34.5105
G01 X3.2542 Y34.4999
G01 X3.3172 Y34.4532
G01 X3.3354 Y34.4405
G01 X3.3499 Y34.4314
G01 X3.4172 Y34.3910
G01 X3.4365 Y34.3802
G01 X3.4518 Y34.3725
G01 X3.5228 Y34.3389
G01 X3.5431 Y34.3301
G01 X3.5591 Y34.3239
G01 X3.6330 Y34.2974
G01 X3.6540 Y34.2906
G01 X3.6706 Y34.2861
G01 X3.7467 Y34.2670
G01 X3.7683 Y34.2623
G01 X3.7852 Y34.2593
G01 X3.8629 Y34.2478
G01 X3.8848 Y34.2452
G01 X3.9020 Y34.2439
G01 X3.9804 Y34.2401
G01 X4.0025 Y34.2397
G01 X4.0196 Y34.2401
G01 X4.0980 Y34.2439
G01 X4.1201 Y34.2457
G01 X4.1371 Y34.2478
G01 X4.2148 Y34.2593
G01 X4.2365 Y34.2632
G01 X4.2533 Y34.2670
G01 X4.3294 Y34.2861
G01 X4.3507 Y34.2921
G01 X4.3670 Y34.2974
G01 X4.4409 Y34.3239
G01 X4.4615 Y34.3320
G01 X4.4772 Y34.3389
G01 X4.5482 Y34.3725
G01 X4.5678 Y34.3825
G01 X4.5828 Y34.3910
G01 X4.6501 Y34.4314
G01 X4.6687 Y34.4433
G01 X4.6828 Y34.4532
G01 X4.7458 Y34.4999
G01 X4.7631 Y34.5136
G01 X4.7762 Y34.5248
G01 X4.8343 Y34.5776
G01 X4.8502 Y34.5929
G01 X4.8621 Y34.6053
G01 X4.9148 Y34.6635
G01 X4.9291 Y34.6803
G01 X4.9397 Y34.6938
G01 X4.9865 Y34.7569
G01 X4.9991 Y34.7750
G01 X5.0083 Y34.7895
G01 X5.0486 Y34.8569
G01 X5.0594 Y34.8761
G01 X5.0672 Y34.8915
G01 X5.1007 Y34.9625
G01 X5.1096 Y34.9827
G01 X5.1157 Y34.9987
G01 X5.1422 Y35.0726
G01 X5.1490 Y35.0937
G01 X5.1536 Y35.1102
G01 X5.1727 Y35.1864
G01 X5.1774 Y35.2079
G01 X5.1803 Y35.2249
G01 X5.1918 Y35.3025
G01 X5.1944 Y35.3245
G01 X5.1957 Y35.3416
G01 X5.1995 Y35.4200
G01 X5.2000 Y35.4421
G00 Z1.0000
G00 X49.6250 Y35.4421
G01 F15.00
G01 Z-0.4850
G01 F30.00
G01 X49.6245 Y35.4200
G01 X49.6207 Y35.3416
G01 X49.6194 Y35.3245
G01 X49.6168 Y35.3025
G01 X49.6053 Y35.2249
G01 X49.6024 Y35.2079
G01 X49.5977 Y35.1864
G01 X49.5786 Y35.1102
G01 X49.5740 Y35.0937
G01 X49.5672 Y35.0726
G01 X49.5407 Y34.9987
G01 X49.5346 Y34.9827
G01 X49.5257 Y34.9625
G01 X49.4922 Y34.8915
G01 X49.4844 Y34.8761
G01 X49.4736 Y34.8569
G01 X49.4333 Y34.7895
G01 X49.4241 Y34.7750
G01 X49.4115 Y34.7569
G01 X49.3647 Y34.6938
G01 X49.3541 Y34.6803
G01 X49.3398 Y34.6635
G01 X49.2871 Y34.6053
G01 X49.2752 Y34.5929
G01 X49.2593 Y34.5776
G01 X49.2012 Y34.5248
G01 X49.1881 Y34.5136
G01 X49.1708 Y34.4999
G01 X49.1078 Y34.4532
G01 X49.0937 Y34.4433
G01 X49.0751 Y34.4314
G01 X49.0078 Y34.3910
G01 X48.9928 Y34.3825
G01 X48.9732 Y34.3725
G01 X48.9022 Y34.3389
G01 X48.8865 Y34.3320
G01 X48.8659 Y34.3239
G01 X48.7920 Y34.2974
G01 X48.7757 Y34.2921
G01 X48.7544 Y34.2861
G01 X48.6783 Y34.2670
G01 X48.6615 Y34.2632
G01 X48.6398 Y34.2593
G01 X48.5621 Y34.2478
G01 X48.5451 Y34.2457
G01 X48.5230 Y34.2439
G01 X48.4446 Y34.2401
G01 X48.4275 Y34.2397
G01 X48.4054 Y34.2401
G01 X48.3270 Y34.2439
G01 X48.3098 Y34.2452
G01 X48.2879 Y34.2478
G01 X48.2102 Y34.2593
G01 X48.1933 Y34.2623
G01 X48.1717 Y34.2670
G01 X48.0956 Y34.2861
G01 X48.0790 Y34.2906
G01 X48.0580 Y34.2974
G01 X47.9841 Y34.3239
G01 X47.9681 Y34.3301
G01 X47.9478 Y34.3389
G01 X47.8768 Y34.3725
G01 X47.8615 Y34.3802
G01 X47.8422 Y34.3910
G01 X47.7749 Y34.4314
G01 X47.7604 Y34.4405
G01 X47.7422 Y34.4532
G01 X47.6792 Y34.4999
G01 X47.6656 Y34.5105
G01 X47.6488 Y34.5248
G01 X47.5907 Y34.5776
G01 X47.5782 Y34.5894
G01 X47.5629 Y34.6053
G01 X47.5102 Y34.6635
G01 X47.4990 Y34.6765
G01 X47.4853 Y34.6938
G01 X47.4385 Y34.7569
G01 X47.4286 Y34.7709
G01 X47.4167 Y34.7895
G01 X47.3764 Y34.8569
G01 X47.3679 Y34.8718
G01 X47.3578 Y34.8915
G01 X47.3243 Y34.9625
G01 X47.3173 Y34.9782
G01 X47.3093 Y34.9987
G01 X47.2828 Y35.0726
G01 X47.2774 Y35.0890
G01 X47.2714 Y35.1102
G01 X47.2523 Y35.1864
G01 X47.2486 Y35.2031
G01 X47.2447 Y35.2249
G01 X47.2332 Y35.3025
G01 X47.2311 Y35.3196
G01 X47.2293 Y35.3416
G01 X47.2255 Y35.4200
G01 X47.2250 Y35.4372
G01 X47.2255 Y35.4593
G01 X47.2293 Y35.5377
G01 X47.2306 Y35.5548
G01 X47.2332 Y35.5767
G01 X47.2447 Y35.6544
G01 X47.2476 Y35.6713
G01 X47.2523 Y35.6929
G01 X47.2714 Y35.7691
G01 X47.2760 Y35.7856
G01 X47.2828 Y35.8066
G01 X47.3093 Y35.8806
G01 X47.3154 Y35.8966
G01 X47.3243 Y35.9168
G01 X47.3578 Y35.9878
G01 X47.3656 Y36.0031
G01 X47.3764 Y36.0224
G01 X47.4167 Y36.0898
G01 X47.4259 Y36.1043
G01 X47.4385 Y36.1224
G01 X47.4853 Y36.1854
G01 X47.4959 Y36.1990
G01 X47.5102 Y36.2158
G01 X47.5629 Y36.2740
G01 X47.5748 Y36.2864
G01 X47.5907 Y36.3017
G01 X47.6488 Y36.3544
G01 X47.6619 Y36.3657
G01 X47.6792 Y36.3794
G01 X47.7422 Y36.4261
G01 X47.7563 Y36.4360
G01 X47.7749 Y36.4479
G01 X47.8422 Y36.4883
G01 X47.8572 Y36.4968
G01 X47.8768 Y36.5068
G01 X47.9478 Y36.5404
G01 X47.9635 Y36.5473
G01 X47.9841 Y36.5554
G01 X48.0580 Y36.5818
G01 X48.0743 Y36.5872
G01 X48.0956 Y36.5932
G01 X48.1717 Y36.6123
G01 X48.1885 Y36.6161
G01 X48.2102 Y36.6200
G01 X48.2879 Y36.6315
G01 X48.3049 Y36.6336
G01 X48.3270 Y36.6353
G01 X48.4054 Y36.6392
G01 X48.4225 Y36.6396
G01 X48.4446 Y36.6392
G01 X48.5230 Y36.6353
G01 X48.5402 Y36.6341
G01 X48.5621 Y36.6315
G01 X48.6398 Y36.6200
G01 X48.6567 Y36.6170
G01 X48.6783 Y36.6123
G01 X48.7544 Y36.5932
G01 X48.7710 Y36.5886
G01 X48.7920 Y36.5818
G01 X48.8659 Y36.5554
G01 X48.8819 Y36.5492
G01 X48.9022 Y36.5404
G01 X48.9732 Y36.5068
G01 X48.9885 Y36.4991
G01 X49.0078 Y36.4883
G01 X49.0751 Y36.4479
G01 X49.0896 Y36.4387
G01 X49.1078 Y36.4261
G01 X49.1708 Y36.3794
G01 X49.1844 Y36.3688
G01 X49.2012 Y36.3544
G01 X49.2593 Y36.3017
G01 X49.2718 Y36.2899
G01 X49.2871 Y36.2740
G01 X49.3398 Y36.2158
G01 X49.3510 Y36.2028
G01 X49.3647 Y36.1854
G01 X49.4115 Y36.1224
G01 X49.4214 Y36.1083
G01 X49.4333 Y36.0898
G01 X49.4736 Y36.0224
G01 X49.4821 Y36.0075
G01 X49.4922 Y35.9878
G01 X49.5257 Y35.9168
G01 X49.5327 Y35.9011
G01 X49.5407 Y35.8806
G01 X49.5672 Y35.8066
G01 X49.5726 Y35.7903
G01 X49.5786 Y35.7691
G01 X49.5977 Y35.6929
G01 X49.6014 Y35.6761
G01 X49.6053 Y35.6544
G01 X49.6168 Y35.5767
G01 X49.6189 Y35.5597
G01 X49.6207 Y35.5377
G01 X49.6245 Y35.4593
G01 X49.6250 Y35.4421
G00 X49.6250 Y35.4421
G01 F15.00
G01 Z-0.9700
G01 F30.00
G01 X49.6245 Y35.4593
G01 X49.6207 Y35.5377
G01 X49.6189 Y35.5597
G01 X49.6168 Y35.5767
G01 X49.6053 Y35.6544
G01 X49.6014 Y35.6761
G01 X49.5977 Y35.6929
G01 X49.5786 Y35.7691
G01 X49.5726 Y35.7903
G01 X49.5672 Y35.8066
G01 X49.5407 Y35.8806
G01 X49.5327 Y35.9011
G01 X49.5257 Y35.9168
G01 X49.4922 Y35.9878
G01 X49.4821 Y36.0075
G01 X49.4736 Y36.0224
G01 X49.4333 Y36.0898
G01 X49.4214 Y36.1083
G01 X49.4115 Y36.1224
G01 X49.3647 Y36.1854
G01 X49.3510 Y36.2028
G01 X49.3398 Y36.2158
G01 X49.2871 Y36.2740
G01 X49.2718 Y36.2899
G01 X49.2593 Y36.3017
G01 X49.2012 Y36.3544
G01 X49.1844 Y36.3688
G01 X49.1708 Y36.3794
G01 X49.1078 Y36.4261
G01 X49.0896 Y36.4387
G01 X49.0751 Y36.4479
G01 X49.0078 Y36.4883
G01 X48.9885 Y36.4991
G01 X48.9732 Y36.5068
G01 X48.9022 Y36.5404
G01 X48.8819 Y36.5492
G01 X48.8659 Y36.5554
G01 X48.7920 Y36.5818
G01 X48.7710 Y36.5886
G01 X48.7544 Y36.5932
G01 X48.6783 Y36.6123
G01 X48.6567 Y36.6170
G01 X48.6398 Y36.6200
G01 X48.5621 Y36.6315
G01 X48.5402 Y36.6341
G01 X48.5230 Y36.6353
G01 X48.4446 Y36.6392
G01 X48.4225 Y36.6396
G01 X48.4054 Y36.6392
G01 X48.3270 Y36.6353
G01 X48.3049 Y36.6336
G01 X48.2879 Y36.6315
G01 X48.2102 Y36.6200
G01 X48.1885 Y36.6161
G01 X48.1717 Y36.6123
G01 X48.0956 Y36.5932
G01 X48.0743 Y36.5872
G01 X48.0580 Y36.5818
G01 X47.9841 Y36.5554
G01 X47.9635 Y36.5473
G01 X47.9478 Y36.5404
G01 X47.8768 Y36.5068
G01 X47.8572 Y36.4968
G01 X47.8422 Y36.4883
G01 X47.7749 Y36.4479
G01 X47.7563 Y36.4360
G01 X47.7422 Y36.4261
G01 X47.6792 Y36.3794
G01 X47.6619 Y36.3657
G01 X47.6488 Y36.3544
G01 X47.5907 Y36.3017
G01 X47.5748 Y36.2864
G01 X47.5629 Y36.2740
G01 X47.5102 Y36.2158
G01 X47.4959 Y36.1990
G01 X47.4853 Y36.1854
G01 X47.4385 Y36.1224
G01 X47.4259 Y36.1043
G01 X47.4167 Y36.0898
G01 X47.3764 Y36.0224
G01 X47.3656 Y36.0031
G01 X47.3578 Y35.9878
G01 X47.3243 Y35.9168
G01 X47.3154 Y35.8966
G01 X47.3093 Y35.8806
G01 X47.2828 Y35.8066
G01 X47.2760 Y35.7856
G01 X47.2714 Y35.7691
G01 X47.2523 Y35.6929
G01 X47.2476 Y35.6713
G01 X47.2447 Y35.6544
G01 X47.2332 Y35.5767
G01 X47.2306 Y35.5548
G01 X47.2293 Y35.5377
G01 X47.2255 Y35.4593
G01 X47.2250 Y35.4372
G01 X47.2255 Y35.4200
G01 X47.2293 Y35.3416
G01 X47.2311 Y35.3196
G01 X47.2332 Y35.3025
G01 X47.2447 Y35.2249
G01 X47.2486 Y35.2031
G01 X47.2523 Y35.1864
G01 X47.2714 Y35.1102
G01 X47.2774 Y35.0890
G01 X47.2828 Y35.0726
G01 X47.3093 Y34.9987
G01 X47.3173 Y34.9782
G01 X47.3243 Y34.9625
G01 X47.3578 Y34.8915
G01 X47.3679 Y34.8718
G01 X47.3764 Y34.8569
G01 X47.4167 Y34.7895
G01 X47.4286 Y34.7709
G01 X47.4385 Y34.7569
G01 X47.4853 Y34.6938
G01 X47.4990 Y34.6765
G01 X47.5102 Y34.6635
G01 X47.5629 Y34.6053
G01 X47.5782 Y34.5894
G01 X47.5907 Y34.5776
G01 X47.6488 Y34.5248
G01 X47.6656 Y34.5105
G01 X47.6792 Y34.4999
G01 X47.7422 Y34.4532
G01 X47.7604 Y34.4405
G01 X47.7749 Y34.4314
G01 X47.8422 Y34.3910
G01 X47.8615 Y34.3802
G01 X47.8768 Y34.3725
G01 X47.9478 Y34.3389
G01 X47.9681 Y34.3301
G01 X47.9841 Y34.3239
G01 X48.0580 Y34.2974
G01 X48.0790 Y34.2906
G01 X48.0956 Y34.2861
G01 X48.1717 Y34.2670
G01 X48.1933 Y34.2623
G01 X48.2102 Y34.2593
G01 X48.2879 Y34.2478
G01 X48.3098 Y34.2452
G01 X48.3270 Y34.2439
G01 X48.4054 Y34.2401
G01 X48.4275 Y34.2397
G01 X48.4446 Y34.2401
G01 X48.5230 Y34.2439
G01 X48.5451 Y34.2457
G01 X48.5621 Y34.2478
G01 X48.6398 Y34.2593
G01 X48.6615 Y34.2632
G01 X48.6783 Y34.2670
G01 X48.7544 Y34.2861
G01 X48.7757 Y34.2921
G01 X48.7920 Y34.2974
G01 X48.8659 Y34.3239
G01 X48.8865 Y34.3320
G01 X48.9022 Y34.3389
G01 X48.9732 Y34.3725
G01 X48.9928 Y34.3825
G01 X49.0078 Y34.3910
G01 X49.0751 Y34.4314
G01 X49.0937 Y34.4433
G01 X49.1078 Y34.4532
G01 X49.1708 Y34.4999
G01 X49.1881 Y34.5136
G01 X49.2012 Y34.5248
G01 X49.2593 Y34.5776
G01 X49.2752 Y34.5929
G01 X49.2871 Y34.6053
G01 X49.3398 Y34.6635
G01 X49.3541 Y34.6803
G01 X49.3647 Y34.6938
G01 X49.4115 Y34.7569
G01 X49.4241 Y34.7750
G01 X49.4333 Y34.7895
G01 X49.4736 Y34.8569
G01 X49.4844 Y34.8761
G01 X49.4922 Y34.8915
G01 X49.5257 Y34.9625
G01 X49.5346 Y34.9827
G01 X49.5407 Y34.9987
G01 X49.5672 Y35.0726
G01 X49.5740 Y35.0937
G01 X49.5786 Y35.1102
G01 X49.5977 Y35.1864
G01 X49.6024 Y35.2079
G01 X49.6053 Y35.2249
G01 X49.6168 Y35.3025
G01 X49.6194 Y35.3245
G01 X49.6207 Y35.3416
G01 X49.6245 Y35.4200
G01 X49.6250 Y35.4421
G00 X49.6250 Y35.4421
G01 F15.00
G01 Z-1.4550
G01 F30.00
G01 X49.6245 Y35.4200
G01 X49.6207 Y35.3416
G01 X49.6194 Y35.3245
G01 X49.6168 Y35.3025
G01 X49.6053 Y35.2249
G01 X49.6024 Y35.2079
G01 X49.5977 Y35.1864
G01 X49.5786 Y35.1102
G01 X49.5740 Y35.0937
G01 X49.5672 Y35.0726
G01 X49.5407 Y34.9987
G01 X49.5346 Y34.9827
G01 X49.5257 Y34.9625
G01 X49.4922 Y34.8915
G01 X49.4844 Y34.8761
G01 X49.4736 Y34.8569
G01 X49.4333 Y34.7895
G01 X49.4241 Y34.7750
G01 X49.4115 Y34.7569
G01 X49.3647 Y34.6938
G01 X49.3541 Y34.6803
G01 X49.3398 Y34.6635
G01 X49.2871 Y34.6053
G01 X49.2752 Y34.5929
G01 X49.2593 Y34.5776
G01 X49.2012 Y34.5248
G01 X49.1881 Y34.5136
G01 X49.1708 Y34.4999
G01 X49.1078 Y34.4532
G01 X49.0937 Y34.4433
G01 X49.0751 Y34.4314
G01 X49.0078 Y34.3910
G01 X48.9928 Y34.3825
G01 X48.9732 Y34.3725
G01 X48.9022 Y34.3389
G01 X48.8865 Y34.3320
G01 X48.8659 Y34.3239
G01 X48.7920 Y34.2974
G01 X48.7757 Y34.2921
G01 X48.7544 Y34.2861
G01 X48.6783 Y34.2670
G01 X48.6615 Y34.2632
G01 X48.6398 Y34.2593
G01 X48.5621 Y34.2478
G01 X48.5451 Y34.2457
G01 X48.5230 Y34.2439
G01 X48.4446 Y34.2401
G01 X48.4275 Y34.2397
G01 X48.4054 Y34.2401
G01 X48.3270 Y34.2439
G01 X48.3098 Y34.2452
G01 X48.2879 Y34.2478
G01 X48.2102 Y34.2593
G01 X48.1933 Y34.2623
G01 X48.1717 Y34.2670
G01 X48.0956 Y34.2861
G01 X48.0790 Y34.2906
G01 X48.0580 Y34.2974
G01 X47.9841 Y34.3239
G01 X47.9681 Y34.3301
G01 X47.9478 Y34.3389
G01 X47.8768 Y34.3725
G01 X47.8615 Y34.3802
G01 X47.8422 Y34.3910
G01 X47.7749 Y34.4314
G01 X47.7604 Y34.4405
G01 X47.7422 Y34.4532
G01 X47.6792 Y34.4999
G01 X47.6656 Y34.5105
G01 X47.6488 Y34.5248
G01 X47.5907 Y34.5776
G01 X47.5782 Y34.5894
G01 X47.5629 Y34.6053
G01 X47.5102 Y34.6635
G01 X47.4990 Y34.6765
G01 X47.4853 Y34.6938
G01 X47.4385 Y34.7569
G01 X47.4286 Y34.7709
G01 X47.4167 Y34.7895
G01 X47.3764 Y34.8569
G01 X47.3679 Y34.8718
G01 X47.3578 Y34.8915
G01 X47.3243 Y34.9625
G01 X47.3173 Y34.9782
G01 X47.3093 Y34.9987
G01 X47.2828 Y35.0726
G01 X47.2774 Y35.0890
G01 X47.2714 Y35.1102
G01 X47.2523 Y35.1864
G01 X47.2486 Y35.2031
G01 X47.2447 Y35.2249
G01 X47.2332 Y35.3025
G01 X47.2311 Y35.3196
G01 X47.2293 Y35.3416
G01 X47.2255 Y35.4200
G01 X47.2250 Y35.4372
G01 X47.2255 Y35.4593
G01 X47.2293 Y35.5377
G01 X47.2306 Y35.5548
G01 X47.2332 Y35.5767
G01 X47.2447 Y35.6544
G01 X47.2476 Y35.6713
G01 X47.2523 Y35.6929
G01 X47.2714 Y35.7691
G01 X47.2760 Y35.7856
G01 X47.2828 Y35.8066
G01 X47.3093 Y35.8806
G01 X47.3154 Y35.8966
G01 X47.3243 Y35.9168
G01 X47.3578 Y35.9878
G01 X47.3656 Y36.0031
G01 X47.3764 Y36.0224
G01 X47.4167 Y36.0898
G01 X47.4259 Y36.1043
G01 X47.4385 Y36.1224
G01 X47.4853 Y36.1854
G01 X47.4959 Y36.1990
G01 X47.5102 Y36.2158
G01 X47.5629 Y36.2740
G01 X47.5748 Y36.2864
G01 X47.5907 Y36.3017
G01 X47.6488 Y36.3544
G01 X47.6619 Y36.3657
G01 X47.6792 Y36.3794
G01 X47.7422 Y36.4261
G01 X47.7563 Y36.4360
G01 X47.7749 Y36.4479
G01 X47.8422 Y36.4883
G01 X47.8572 Y36.4968
G01 X47.8768 Y36.5068
G01 X47.9478 Y36.5404
G01 X47.9635 Y36.5473
G01 X47.9841 Y36.5554
G01 X48.0580 Y36.5818
G01 X48.0743 Y36.5872
G01 X48.0956 Y36.5932
G01 X48.1717 Y36.6123
G01 X48.1885 Y36.6161
G01 X48.2102 Y36.6200
G01 X48.2879 Y36.6315
G01 X48.3049 Y36.6336
G01 X48.3270 Y36.6353
G01 X48.4054 Y36.6392
G01 X48.4225 Y36.6396
G01 X48.4446 Y36.6392
G01 X48.5230 Y36.6353
G01 X48.5402 Y36.6341
G01 X48.5621 Y36.6315
G01 X48.6398 Y36.6200
G01 X48.6567 Y36.6170
G01 X48.6783 Y36.6123
G01 X48.7544 Y36.5932
G01 X48.7710 Y36.5886
G01 X48.7920 Y36.5818
G01 X48.8659 Y36.5554
G01 X48.8819 Y36.5492
G01 X48.9022 Y36.5404
G01 X48.9732 Y36.5068
G01 X48.9885 Y36.4991
G01 X49.0078 Y36.4883
G01 X49.0751 Y36.4479
G01 X49.0896 Y36.4387
G01 X49.1078 Y36.4261
G01 X49.1708 Y36.3794
G01 X49.1844 Y36.3688
G01 X49.2012 Y36.3544
G01 X49.2593 Y36.3017
G01 X49.2718 Y36.2899
G01 X49.2871 Y36.2740
G01 X49.3398 Y36.2158
G01 X49.3510 Y36.2028
G01 X49.3647 Y36.1854
G01 X49.4115 Y36.1224
G01 X49.4214 Y36.1083
G01 X49.4333 Y36.0898
G01 X49.4736 Y36.0224
G01 X49.4821 Y36.0075
G01 X49.4922 Y35.9878
G01 X49.5257 Y35.9168
G01 X49.5327 Y35.9011
G01 X49.5407 Y35.8806
G01 X49.5672 Y35.8066
G01 X49.5726 Y35.7903
G01 X49.5786 Y35.7691
G01 X49.5977 Y35.6929
G01 X49.6014 Y35.6761
G01 X49.6053 Y35.6544
G01 X49.6168 Y35.5767
G01 X49.6189 Y35.5597
G01 X49.6207 Y35.5377
G01 X49.6245 Y35.4593
G01 X49.6250 Y35.4421
G00 X49.6250 Y35.4421
G01 F15.00
G01 Z-1.9400
G01 F30.00
G01 X49.6245 Y35.4593
G01 X49.6207 Y35.5377
G01 X49.6189 Y35.5597
G01 X49.6168 Y35.5767
G01 X49.6053 Y35.6544
G01 X49.6014 Y35.6761
G01 X49.5977 Y35.6929
G01 X49.5786 Y35.7691
G01 X49.5726 Y35.7903
G01 X49.5672 Y35.8066
G01 X49.5407 Y35.8806
G01 X49.5327 Y35.9011
G01 X49.5257 Y35.9168
G01 X49.4922 Y35.9878
G01 X49.4821 Y36.0075
G01 X49.4736 Y36.0224
G01 X49.4333 Y36.0898
G01 X49.4214 Y36.1083
G01 X49.4115 Y36.1224
G01 X49.3647 Y36.1854
G01 X49.3510 Y36.2028
G01 X49.3398 Y36.2158
G01 X49.2871 Y36.2740
G01 X49.2718 Y36.2899
G01 X49.2593 Y36.3017
G01 X49.2012 Y36.3544
G01 X49.1844 Y36.3688
G01 X49.1708 Y36.3794
G01 X49.1078 Y36.4261
G01 X49.0896 Y36.4387
G01 X49.0751 Y36.4479
G01 X49.0078 Y36.4883
G01 X48.9885 Y36.4991
G01 X48.9732 Y36.5068
G01 X48.9022 Y36.5404
G01 X48.8819 Y36.5492
G01 X48.8659 Y36.5554
G01 X48.7920 Y36.5818
G01 X48.7710 Y36.5886
G01 X48.7544 Y36.5932
G01 X48.6783 Y36.6123
G01 X48.6567 Y36.6170
G01 X48.6398 Y36.6200
G01 X48.5621 Y36.6315
G01 X48.5402 Y36.6341
G01 X48.5230 Y36.6353
G01 X48.4446 Y36.6392
G01 X48.4225 Y36.6396
G01 X48.4054 Y36.6392
G01 X48.3270 Y36.6353
G01 X48.3049 Y36.6336
G01 X48.2879 Y36.6315
G01 X48.2102 Y36.6200
G01 X48.1885 Y36.6161
G01 X48.1717 Y36.6123
G01 X48.0956 Y36.5932
G01 X48.0743 Y36.5872
G01 X48.0580 Y36.5818
G01 X47.9841 Y36.5554
G01 X47.9635 Y36.5473
G01 X47.9478 Y36.5404
G01 X47.8768 Y36.5068
G01 X47.8572 Y36.4968
G01 X47.8422 Y36.4883
G01 X47.7749 Y36.4479
G01 X47.7563 Y36.4360
G01 X47.7422 Y36.4261
G01 X47.6792 Y36.3794
G01 X47.6619 Y36.3657
G01 X47.6488 Y36.3544
G01 X47.5907 Y36.3017
G01 X47.5748 Y36.2864
G01 X47.5629 Y36.2740
G01 X47.5102 Y36.2158
G01 X47.4959 Y36.1990
G01 X47.4853 Y36.1854
G01 X47.4385 Y36.1224
G01 X47.4259 Y36.1043
G01 X47.4167 Y36.0898
G01 X47.3764 Y36.0224
G01 X47.3656 Y36.0031
G01 X47.3578 Y35.9878
G01 X47.3243 Y35.9168
G01 X47.3154 Y35.8966
G01 X47.3093 Y35.8806
G01 X47.2828 Y35.8066
G01 X47.2760 Y35.7856
G01 X47.2714 Y35.7691
G01 X47.2523 Y35.6929
G01 X47.2476 Y35.6713
G01 X47.2447 Y35.6544
G01 X47.2332 Y35.5767
G01 X47.2306 Y35.5548
G01 X47.2293 Y35.5377
G01 X47.2255 Y35.4593
G01 X47.2250 Y35.4372
G01 X47.2255 Y35.4200
G01 X47.2293 Y35.3416
G01 X47.2311 Y35.3196
G01 X47.2332 Y35.3025
G01 X47.2447 Y35.2249
G01 X47.2486 Y35.2031
G01 X47.2523 Y35.1864
G01 X47.2714 Y35.1102
G01 X47.2774 Y35.0890
G01 X47.2828 Y35.0726
G01 X47.3093 Y34.9987
G01 X47.3173 Y34.9782
G01 X47.3243 Y34.9625
G01 X47.3578 Y34.8915
G01 X47.3679 Y34.8718
G01 X47.3764 Y34.8569
G01 X47.4167 Y34.7895
G01 X47.4286 Y34.7709
G01 X47.4385 Y34.7569
G01 X47.4853 Y34.6938
G01 X47.4990 Y34.6765
G01 X47.5102 Y34.6635
G01 X47.5629 Y34.6053
G01 X47.5782 Y34.5894
G01 X47.5907 Y34.5776
G01 X47.6488 Y34.5248
G01 X47.6656 Y34.5105
G01 X47.6792 Y34.4999
G01 X47.7422 Y34.4532
G01 X47.7604 Y34.4405
G01 X47.7749 Y34.4314
G01 X47.8422 Y34.3910
G01 X47.8615 Y34.3802
G01 X47.8768 Y34.3725
G01 X47.9478 Y34.3389
G01 X47.9681 Y34.3301
G01 X47.9841 Y34.3239
G01 X48.0580 Y34.2974
G01 X48.0790 Y34.2906
G01 X48.0956 Y34.2861
G01 X48.1717 Y34.2670
G01 X48.1933 Y34.2623
G01 X48.2102 Y34.2593
G01 X48.2879 Y34.2478
G01 X48.3098 Y34.2452
G01 X48.3270 Y34.2439
G01 X48.4054 Y34.2401
G01 X48.4275 Y34.2397
G01 X48.4446 Y34.2401
G01 X48.5230 Y34.2439
G01 X48.5451 Y34.2457
G01 X48.5621 Y34.2478
G01 X48.6398 Y34.2593
G01 X48.6615 Y34.2632
G01 X48.6783 Y34.2670
G01 X48.7544 Y34.2861
G01 X48.7757 Y34.2921
G01 X48.7920 Y34.2974
G01 X48.8659 Y34.3239
G01 X48.8865 Y34.3320
G01 X48.9022 Y34.3389
G01 X48.9732 Y34.3725
G01 X48.9928 Y34.3825
G01 X49.0078 Y34.3910
G01 X49.0751 Y34.4314
G01 X49.0937 Y34.4433
G01 X49.1078 Y34.4532
G01 X49.1708 Y34.4999
G01 X49.1881 Y34.5136
G01 X49.2012 Y34.5248
G01 X49.2593 Y34.5776
G01 X49.2752 Y34.5929
G01 X49.2871 Y34.6053
G01 X49.3398 Y34.6635
G01 X49.3541 Y34.6803
G01 X49.3647 Y34.6938
G01 X49.4115 Y34.7569
G01 X49.4241 Y34.7750
G01 X49.4333 Y34.7895
G01 X49.4736 Y34.8569
G01 X49.4844 Y34.8761
G01 X49.4922 Y34.8915
G01 X49.5257 Y34.9625
G01 X49.5346 Y34.9827
G01 X49.5407 Y34.9987
G01 X49.5672 Y35.0726
G01 X49.5740 Y35.0937
G01 X49.5786 Y35.1102
G01 X49.5977 Y35.1864
G01 X49.6024 Y35.2079
G01 X49.6053 Y35.2249
G01 X49.6168 Y35.3025
G01 X49.6194 Y35.3245
G01 X49.6207 Y35.3416
G01 X49.6245 Y35.4200
G01 X49.6250 Y35.4421
G00 Z1.0000
G00 X49.6250 Y4.3271
G01 F15.00
G01 Z-0.4850
G01 F30.00
G01 X49.6245 Y4.3050
G01 X49.6207 Y4.2266
G01 X49.6194 Y4.2095
G01 X49.6168 Y4.1875
G01 X49.6053 Y4.1099
G01 X49.6024 Y4.0929
G01 X49.5977 Y4.0714
G01 X49.5786 Y3.9952
G01 X49.5740 Y3.9787
G01 X49.5672 Y3.9576
G01 X49.5407 Y3.8837
G01 X49.5346 Y3.8677
G01 X49.5257 Y3.8475
G01 X49.4922 Y3.7765
G01 X49.4844 Y3.7611
G01 X49.4736 Y3.7419
G01 X49.4333 Y3.6745
G01 X49.4241 Y3.6600
G01 X49.4115 Y3.6419
G01 X49.3647 Y3.5788
G01 X49.3541 Y3.5653
G01 X49.3398 Y3.5485
G01 X49.2871 Y3.4903
G01 X49.2752 Y3.4779
G01 X49.2593 Y3.4626
G01 X49.2012 Y3.4098
G01 X49.1881 Y3.3986
G01 X49.1708 Y3.3849
G01 X49.1078 Y3.3382
G01 X49.0937 Y3.3283
G01 X49.0751 Y3.3164
G01 X49.0078 Y3.2760
G01 X48.9928 Y3.2675
G01 X48.9732 Y3.2575
G01 X48.9022 Y3.2239
G01 X48.8865 Y3.2170
G01 X48.8659 Y3.2089
G01 X48.7920 Y3.1824
G01 X48.7757 Y3.1771
G01 X48.7544 Y3.1711
G01 X48.6783 Y3.1520
G01 X48.6615 Y3.1482
G01 X48.6398 Y3.1443
G01 X48.5621 Y3.1328
G01 X48.5451 Y3.1307
G01 X48.5230 Y3.1289
G01 X48.4446 Y3.1251
G01 X48.4275 Y3.1247
G01 X48.4054 Y3.1251
G01 X48.3270 Y3.1289
G01 X48.3098 Y3.1302
G01 X48.2879 Y3.1328
G01 X48.2102 Y3.1443
G01 X48.1933 Y3.1473
G01 X48.1717 Y3.1520
G01 X48.0956 Y3.1711
G01 X48.0790 Y3.1756
G01 X48.0580 Y3.1824
G01 X47.9841 Y3.2089
G01 X47.9681 Y3.2151
G01 X47.9478 Y3.2239
G01 X47.8768 Y3.2575
G01 X47.8615 Y3.2652
G01 X47.8422 Y3.2760
G01 X47.7749 Y3.3164
G01 X47.7604 Y3.3255
G01 X47.7422 Y3.3382
G01 X47.6792 Y3.3849
G01 X47.6656 Y3.3955
G01 X47.6488 Y3.4098
G01 X47.5907 Y3.4626
G01 X47.5782 Y3.4744
G01 X47.5629 Y3.4903
G01 X47.5102 Y3.5485
G01 X47.4990 Y3.5615
G01 X47.4853 Y3.5788
G01 X47.4385 Y3.6419
G01 X47.4286 Y3.6559
G01 X47.4167 Y3.6745
G01 X47.3764 Y3.7419
G01 X47.3679 Y3.7568
G01 X47.3578 Y3.7765
G01 X47.3243 Y3.8475
G01 X47.3173 Y3.8632
G01 X47.3093 Y3.8837
G01 X47.2828 Y3.9576
G01 X47.2774 Y3.9740
G01 X47.2714 Y3.9952
G01 X47.2523 Y4.0714
G01 X47.2486 Y4.0881
G01 X47.2447 Y4.1099
G01 X47.2332 Y4.1875
G01 X47.2311 Y4.2046
G01 X47.2293 Y4.2266
G01 X47.2255 Y4.3050
G01 X47.2250 Y4.3222
G01 X47.2255 Y4.3443
G01 X47.2293 Y4.4227
G01 X47.2306 Y4.4398
G01 X47.2332 Y4.4617
G01 X47.2447 Y4.5394
G01 X47.2476 Y4.5563
G01 X47.2523 Y4.5779
G01 X47.2714 Y4.6541
G01 X47.2760 Y4.6706
G01 X47.2828 Y4.6916
G01 X47.3093 Y4.7656
G01 X47.3154 Y4.7816
G01 X47.3243 Y4.8018
G01 X47.3578 Y4.8728
G01 X47.3656 Y4.8881
G01 X47.3764 Y4.9074
G01 X47.4167 Y4.9748
G01 X47.4259 Y4.9893
G01 X47.4385 Y5.0074
G01 X47.4853 Y5.0704
G01 X47.4959 Y5.0840
G01 X47.5102 Y5.1008
G01 X47.5629 Y5.1590
G01 X47.5748 Y5.1714
G01 X47.5907 Y5.1867
G01 X47.6488 Y5.2394
G01 X47.6619 Y5.2507
G01 X47.6792 Y5.2644
G01 X47.7422 Y5.3111
G01 X47.7563 Y5.3210
G01 X47.7749 Y5.3329
G01 X47.8422 Y5.3733
G01 X47.8572 Y5.3818
G01 X47.8768 Y5.3918
G01 X47.9478 Y5.4254
G01 X47.9635 Y5.4323
G01 X47.9841 Y5.4404
G01 X48.0580 Y5.4668
G01 X48.0743 Y5.4722
G01 X48.0956 Y5.4782
G01 X48.1717 Y5.4973
G01 X48.1885 Y5.5011
G01 X48.2102 Y5.5050
G01 X48.2879 Y5.5165
G01 X48.3049 Y5.5186
G01 X48.3270 Y5.5203
G01 X48.4054 Y5.5242
G01 X48.4225 Y5.5246
G01 X48.4446 Y5.5242
G01 X48.5230 Y5.5203
G01 X48.5402 Y5.5191
G01 X48.5621 Y5.5165
G01 X48.6398 Y5.5050
G01 X48.6567 Y5.5020
G01 X48.6783 Y5.4973
G01 X48.7544 Y5.4782
G01 X48.7710 Y5.4736
G01 X48.7920 Y5.4668
G01 X48.8659 Y5.4404
G01 X48.8819 Y5.4342
G01 X48.9022 Y5.4254
G01 X48.9732 Y5.3918
G01 X48.9885 Y5.3841
G01 X49.0078 Y5.3733
G01 X49.0751 Y5.3329
G01 X49.0896 Y5.3237
G01 X49.1078 Y5.3111
G01 X49.1708 Y5.2644
G01 X49.1844 Y5.2538
G01 X49.2012 Y5.2394
G01 X49.2593 Y5.1867
G01 X49.2718 Y5.1749
G01 X49.2871 Y5.1590
G01 X49.3398 Y5.1008
G01 X49.3510 Y5.0878
G01 X49.3647 Y5.0704
G01 X49.4115 Y5.0074
G01 X49.4214 Y4.9933
G01 X49.4333 Y4.9748
G01 X49.4736 Y4.9074
G01 X49.4821 Y4.8925
G01 X49.4922 Y4.8728
G01 X49.5257 Y4.8018
G01 X49.5327 Y4.7861
G01 X49.5407 Y4.7656
G01 X49.5672 Y4.6916
G01 X49.5726 Y4.6753
G01 X49.5786 Y4.6541
G01 X49.5977 Y4.5779
G01 X49.6014 Y4.5611
G01 X49.6053 Y4.5394
G01 X49.6168 Y4.4617
G01 X49.6189 Y4.4447
G01 X49.6207 Y4.4227
G01 X49.6245 Y4.3443
G01 X49.6250 Y4.3271
G00 X49.6250 Y4.3271
G01 F15.00
G01 Z-0.9700
G01 F30.00
G01 X49.6245 Y4.3443
G01 X49.6207 Y4.4227
G01 X49.6189 Y4.4447
G01 X49.6168 Y4.4617
G01 X49.6053 Y4.5394
G01 X49.6014 Y4.5611
G01 X49.5977 Y4.5779
G01 X49.5786 Y4.6541
G01 X49.5726 Y4.6753
G01 X49.5672 Y4.6916
G01 X49.5407 Y4.7656
G01 X49.5327 Y4.7861
G01 X49.5257 Y4.8018
G01 X49.4922 Y4.8728
G01 X49.4821 Y4.8925
G01 X49.4736 Y4.9074
G01 X49.4333 Y4.9748
G01 X49.4214 Y4.9933
G01 X49.4115 Y5.0074
G01 X49.3647 Y5.0704
G01 X49.3510 Y5.0878
G01 X49.3398 Y5.1008
G01 X49.2871 Y5.1590
G01 X49.2718 Y5.1749
G01 X49.2593 Y5.1867
G01 X49.2012 Y5.2394
G01 X49.1844 Y5.2538
G01 X49.1708 Y5.2644
G01 X49.1078 Y5.3111
G01 X49.0896 Y5.3237
G01 X49.0751 Y5.3329
G01 X49.0078 Y5.3733
G01 X48.9885 Y5.3841
G01 X48.9732 Y5.3918
G01 X48.9022 Y5.4254
G01 X48.8819 Y5.4342
G01 X48.8659 Y5.4404
G01 X48.7920 Y5.4668
G01 X48.7710 Y5.4736
G01 X48.7544 Y5.4782
G01 X48.6783 Y5.4973
G01 X48.6567 Y5.5020
G01 X48.6398 Y5.5050
G01 X48.5621 Y5.5165
G01 X48.5402 Y5.5191
G01 X48.5230 Y5.5203
G01 X48.4446 Y5.5242
G01 X48.4225 Y5.5246
G01 X48.4054 Y5.5242
G01 X48.3270 Y5.5203
G01 X48.3049 Y5.5186
G01 X48.2879 Y5.5165
G01 X48.2102 Y5.5050
G01 X48.1885 Y5.5011
G01 X48.1717 Y5.4973
G01 X48.0956 Y5.4782
G01 X48.0743 Y5.4722
G01 X48.0580 Y5.4668
G01 X47.9841 Y5.4404
G01 X47.9635 Y5.4323
G01 X47.9478 Y5.4254
G01 X47.8768 Y5.3918
G01 X47.8572 Y5.3818
G01 X47.8422 Y5.3733
G01 X47.7749 Y5.3329
G01 X47.7563 Y5.3210
G01 X47.7422 Y5.3111
G01 X47.6792 Y5.2644
G01 X47.6619 Y5.2507
G01 X47.6488 Y5.2394
G01 X47.5907 Y5.1867
G01 X47.5748 Y5.1714
G01 X47.5629 Y5.1590
G01 X47.5102 Y5.1008
G01 X47.4959 Y5.0840
G01 X47.4853 Y5.0704
G01 X47.4385 Y5.0074
G01 X47.4259 Y4.9893
G01 X47.4167 Y4.9748
G01 X47.3764 Y4.9074
G01 X47.3656 Y4.8881
G01 X47.3578 Y4.8728
G01 X47.3243 Y4.8018
G01 X47.3154 Y4.7816
G01 X47.3093 Y4.7656
G01 X47.2828 Y4.6916
G01 X47.2760 Y4.6706
G01 X47.2714 Y4.6541
G01 X47.2523 Y4.5779
G01 X47.2476 Y4.5563
G01 X47.2447 Y4.5394
G01 X47.2332 Y4.4617
G01 X47.2306 Y4.4398
G01 X47.2293 Y4.4227
G01 X47.2255 Y4.3443
G01 X47.2250 Y4.3222
G01 X47.2255 Y4.3050
G01 X47.2293 Y4.2266
G01 X47.2311 Y4.2046
G01 X47.2332 Y4.1875
G01 X47.2447 Y4.1099
G01 X47.2486 Y4.0881
G01 X47.2523 Y4.0714
G01 X47.2714 Y3.9952
G01 X47.2774 Y3.9740
G01 X47.2828 Y3.9576
G01 X47.3093 Y3.8837
G01 X47.3173 Y3.8632
G01 X47.3243 Y3.8475
G01 X47.3578 Y3.7765
G01 X47.3679 Y3.7568
G01 X47.3764 Y3.7419
G01 X47.4167 Y3.6745
G01 X47.4286 Y3.6559
G01 X47.4385 Y3.6419
G01 X47.4853 Y3.5788
G01 X47.4990 Y3.5615
G01 X47.5102 Y3.5485
G01 X47.5629 Y3.4903
G01 X47.5782 Y3.4744
G01 X47.5907 Y3.4626
G01 X47.6488 Y3.4098
G01 X47.6656 Y3.3955
G01 X47.6792 Y3.3849
G01 X47.7422 Y3.3382
G01 X47.7604 Y3.3255
G01 X47.7749 Y3.3164
G01 X47.8422 Y3.2760
G01 X47.8615 Y3.2652
G01 X47.8768 Y3.2575
G01 X47.9478 Y3.2239
G01 X47.9681 Y3.2151
G01 X47.9841 Y3.2089
G01 X48.0580 Y3.1824
G01 X48.0790 Y3.1756
G01 X48.0956 Y3.1711
G01 X48.1717 Y3.1520
G01 X48.1933 Y3.1473
G01 X48.2102 Y3.1443
G01 X48.2879 Y3.1328
G01 X48.3098 Y3.1302
G01 X48.3270 Y3.1289
G01 X48.4054 Y3.1251
G01 X48.4275 Y3.1247
G01 X48.4446 Y3.1251
G01 X48.5230 Y3.1289
G01 X48.5451 Y3.1307
G01 X48.5621 Y3.1328
G01 X48.6398 Y3.1443
G01 X48.6615 Y3.1482
G01 X48.6783 Y3.1520
G01 X48.7544 Y3.1711
G01 X48.7757 Y3.1771
G01 X48.7920 Y3.1824
G01 X48.8659 Y3.2089
G01 X48.8865 Y3.2170
G01 X48.9022 Y3.2239
G01 X48.9732 Y3.2575
G01 X48.9928 Y3.2675
G01 X49.0078 Y3.2760
G01 X49.0751 Y3.3164
G01 X49.0937 Y3.3283
G01 X49.1078 Y3.3382
G01 X49.1708 Y3.3849
G01 X49.1881 Y3.3986
G01 X49.2012 Y3.4098
G01 X49.2593 Y3.4626
G01 X49.2752 Y3.4779
G01 X49.2871 Y3.4903
G01 X49.3398 Y3.5485
G01 X49.3541 Y3.5653
G01 X49.3647 Y3.5788
G01 X49.4115 Y3.6419
G01 X49.4241 Y3.6600
G01 X49.4333 Y3.6745
G01 X49.4736 Y3.7419
G01 X49.4844 Y3.7611
G01 X49.4922 Y3.7765
G01 X49.5257 Y3.8475
G01 X49.5346 Y3.8677
G01 X49.5407 Y3.8837
G01 X49.5672 Y3.9576
G01 X49.5740 Y3.9787
G01 X49.5786 Y3.9952
G01 X49.5977 Y4.0714
G01 X49.6024 Y4.0929
G01 X49.6053 Y4.1099
G01 X49.6168 Y4.1875
G01 X49.6194 Y4.2095
G01 X49.6207 Y4.2266
G01 X49.6245 Y4.3050
G01 X49.6250 Y4.3271
G00 X49.6250 Y4.3271
G01 F15.00
G01 Z-1.4550
G01 F30.00
G01 X49.6245 Y4.3050
G01 X49.6207 Y4.2266
G01 X49.6194 Y4.2095
G01 X49.6168 Y4.1875
G01 X49.6053 Y4.1099
G01 X49.6024 Y4.0929
G01 X49.5977 Y4.0714
G01 X49.5786 Y3.9952
G01 X49.5740 Y3.9787
G01 X49.5672 Y3.9576
G01 X49.5407 Y3.8837
G01 X49.5346 Y3.8677
G01 X49.5257 Y3.8475
G01 X49.4922 Y3.7765
G01 X49.4844 Y3.7611
G01 X49.4736 Y3.7419
G01 X49.4333 Y3.6745
G01 X49.4241 Y3.6600
G01 X49.4115 Y3.6419
G01 X49.3647 Y3.5788
G01 X49.3541 Y3.5653
G01 X49.3398 Y3.5485
G01 X49.2871 Y3.4903
G01 X49.2752 Y3.4779
G01 X49.2593 Y3.4626
G01 X49.2012 Y3.4098
G01 X49.1881 Y3.3986
G01 X49.1708 Y3.3849
G01 X49.1078 Y3.3382
G01 X49.0937 Y3.3283
G01 X49.0751 Y3.3164
G01 X49.0078 Y3.2760
G01 X48.9928 Y3.2675
G01 X48.9732 Y3.2575
G01 X48.9022 Y3.2239
G01 X48.8865 Y3.2170
G01 X48.8659 Y3.2089
G01 X48.7920 Y3.1824
G01 X48.7757 Y3.1771
G01 X48.7544 Y3.1711
G01 X48.6783 Y3.1520
G01 X48.6615 Y3.1482
G01 X48.6398 Y3.1443
G01 X48.5621 Y3.1328
G01 X48.5451 Y3.1307
G01 X48.5230 Y3.1289
G01 X48.4446 Y3.1251
G01 X48.4275 Y3.1247
G01 X48.4054 Y3.1251
G01 X48.3270 Y3.1289
G01 X48.3098 Y3.1302
G01 X48.2879 Y3.1328
G01 X48.2102 Y3.1443
G01 X48.1933 Y3.1473
G01 X48.1717 Y3.1520
G01 X48.0956 Y3.1711
G01 X48.0790 Y3.1756
G01 X48.0580 Y3.1824
G01 X47.9841 Y3.2089
G01 X47.9681 Y3.2151
G01 X47.9478 Y3.2239
G01 X47.8768 Y3.2575
G01 X47.8615 Y3.2652
G01 X47.8422 Y3.2760
G01 X47.7749 Y3.3164
G01 X47.7604 Y3.3255
G01 X47.7422 Y3.3382
G01 X47.6792 Y3.3849
G01 X47.6656 Y3.3955
G01 X47.6488 Y3.4098
G01 X47.5907 Y3.4626
G01 X47.5782 Y3.4744
G01 X47.5629 Y3.4903
G01 X47.5102 Y3.5485
G01 X47.4990 Y3.5615
G01 X47.4853 Y3.5788
G01 X47.4385 Y3.6419
G01 X47.4286 Y3.6559
G01 X47.4167 Y3.6745
G01 X47.3764 Y3.7419
G01 X47.3679 Y3.7568
G01 X47.3578 Y3.7765
G01 X47.3243 Y3.8475
G01 X47.3173 Y3.8632
G01 X47.3093 Y3.8837
G01 X47.2828 Y3.9576
G01 X47.2774 Y3.9740
G01 X47.2714 Y3.9952
G01 X47.2523 Y4.0714
G01 X47.2486 Y4.0881
G01 X47.2447 Y4.1099
G01 X47.2332 Y4.1875
G01 X47.2311 Y4.2046
G01 X47.2293 Y4.2266
G01 X47.2255 Y4.3050
G01 X47.2250 Y4.3222
G01 X47.2255 Y4.3443
G01 X47.2293 Y4.4227
G01 X47.2306 Y4.4398
G01 X47.2332 Y4.4617
G01 X47.2447 Y4.5394
G01 X47.2476 Y4.5563
G01 X47.2523 Y4.5779
G01 X47.2714 Y4.6541
G01 X47.2760 Y4.6706
G01 X47.2828 Y4.6916
G01 X47.3093 Y4.7656
G01 X47.3154 Y4.7816
G01 X47.3243 Y4.8018
G01 X47.3578 Y4.8728
G01 X47.3656 Y4.8881
G01 X47.3764 Y4.9074
G01 X47.4167 Y4.9748
G01 X47.4259 Y4.9893
G01 X47.4385 Y5.0074
G01 X47.4853 Y5.0704
G01 X47.4959 Y5.0840
G01 X47.5102 Y5.1008
G01 X47.5629 Y5.1590
G01 X47.5748 Y5.1714
G01 X47.5907 Y5.1867
G01 X47.6488 Y5.2394
G01 X47.6619 Y5.2507
G01 X47.6792 Y5.2644
G01 X47.7422 Y5.3111
G01 X47.7563 Y5.3210
G01 X47.7749 Y5.3329
G01 X47.8422 Y5.3733
G01 X47.8572 Y5.3818
G01 X47.8768 Y5.3918
G01 X47.9478 Y5.4254
G01 X47.9635 Y5.4323
G01 X47.9841 Y5.4404
G01 X48.0580 Y5.4668
G01 X48.0743 Y5.4722
G01 X48.0956 Y5.4782
G01 X48.1717 Y5.4973
G01 X48.1885 Y5.5011
G01 X48.2102 Y5.5050
G01 X48.2879 Y5.5165
G01 X48.3049 Y5.5186
G01 X48.3270 Y5.5203
G01 X48.4054 Y5.5242
G01 X48.4225 Y5.5246
G01 X48.4446 Y5.5242
G01 X48.5230 Y5.5203
G01 X48.5402 Y5.5191
G01 X48.5621 Y5.5165
G01 X48.6398 Y5.5050
G01 X48.6567 Y5.5020
G01 X48.6783 Y5.4973
G01 X48.7544 Y5.4782
G01 X48.7710 Y5.4736
G01 X48.7920 Y5.4668
G01 X48.8659 Y5.4404
G01 X48.8819 Y5.4342
G01 X48.9022 Y5.4254
G01 X48.9732 Y5.3918
G01 X48.9885 Y5.3841
G01 X49.0078 Y5.3733
G01 X49.0751 Y5.3329
G01 X49.0896 Y5.3237
G01 X49.1078 Y5.3111
G01 X49.1708 Y5.2644
G01 X49.1844 Y5.2538
G01 X49.2012 Y5.2394
G01 X49.2593 Y5.1867
G01 X49.2718 Y5.1749
G01 X49.2871 Y5.1590
G01 X49.3398 Y5.1008
G01 X49.3510 Y5.0878
G01 X49.3647 Y5.0704
G01 X49.4115 Y5.0074
G01 X49.4214 Y4.9933
G01 X49.4333 Y4.9748
G01 X49.4736 Y4.9074
G01 X49.4821 Y4.8925
G01 X49.4922 Y4.8728
G01 X49.5257 Y4.8018
G01 X49.5327 Y4.7861
G01 X49.5407 Y4.7656
G01 X49.5672 Y4.6916
G01 X49.5726 Y4.6753
G01 X49.5786 Y4.6541
G01 X49.5977 Y4.5779
G01 X49.6014 Y4.5611
G01 X49.6053 Y4.5394
G01 X49.6168 Y4.4617
G01 X49.6189 Y4.4447
G01 X49.6207 Y4.4227
G01 X49.6245 Y4.3443
G01 X49.6250 Y4.3271
G00 X49.6250 Y4.3271
G01 F15.00
G01 Z-1.9400
G01 F30.00
G01 X49.6245 Y4.3443
G01 X49.6207 Y4.4227
G01 X49.6189 Y4.4447
G01 X49.6168 Y4.4617
G01 X49.6053 Y4.5394
G01 X49.6014 Y4.5611
G01 X49.5977 Y4.5779
G01 X49.5786 Y4.6541
G01 X49.5726 Y4.6753
G01 X49.5672 Y4.6916
G01 X49.5407 Y4.7656
G01 X49.5327 Y4.7861
G01 X49.5257 Y4.8018
G01 X49.4922 Y4.8728
G01 X49.4821 Y4.8925
G01 X49.4736 Y4.9074
G01 X49.4333 Y4.9748
G01 X49.4214 Y4.9933
G01 X49.4115 Y5.0074
G01 X49.3647 Y5.0704
G01 X49.3510 Y5.0878
G01 X49.3398 Y5.1008
G01 X49.2871 Y5.1590
G01 X49.2718 Y5.1749
G01 X49.2593 Y5.1867
G01 X49.2012 Y5.2394
G01 X49.1844 Y5.2538
G01 X49.1708 Y5.2644
G01 X49.1078 Y5.3111
G01 X49.0896 Y5.3237
G01 X49.0751 Y5.3329
G01 X49.0078 Y5.3733
G01 X48.9885 Y5.3841
G01 X48.9732 Y5.3918
G01 X48.9022 Y5.4254
G01 X48.8819 Y5.4342
G01 X48.8659 Y5.4404
G01 X48.7920 Y5.4668
G01 X48.7710 Y5.4736
G01 X48.7544 Y5.4782
G01 X48.6783 Y5.4973
G01 X48.6567 Y5.5020
G01 X48.6398 Y5.5050
G01 X48.5621 Y5.5165
G01 X48.5402 Y5.5191
G01 X48.5230 Y5.5203
G01 X48.4446 Y5.5242
G01 X48.4225 Y5.5246
G01 X48.4054 Y5.5242
G01 X48.3270 Y5.5203
G01 X48.3049 Y5.5186
G01 X48.2879 Y5.5165
G01 X48.2102 Y5.5050
G01 X48.1885 Y5.5011
G01 X48.1717 Y5.4973
G01 X48.0956 Y5.4782
G01 X48.0743 Y5.4722
G01 X48.0580 Y5.4668
G01 X47.9841 Y5.4404
G01 X47.9635 Y5.4323
G01 X47.9478 Y5.4254
G01 X47.8768 Y5.3918
G01 X47.8572 Y5.3818
G01 X47.8422 Y5.3733
G01 X47.7749 Y5.3329
G01 X47.7563 Y5.3210
G01 X47.7422 Y5.3111
G01 X47.6792 Y5.2644
G01 X47.6619 Y5.2507
G01 X47.6488 Y5.2394
G01 X47.5907 Y5.1867
G01 X47.5748 Y5.1714
G01 X47.5629 Y5.1590
G01 X47.5102 Y5.1008
G01 X47.4959 Y5.0840
G01 X47.4853 Y5.0704
G01 X47.4385 Y5.0074
G01 X47.4259 Y4.9893
G01 X47.4167 Y4.9748
G01 X47.3764 Y4.9074
G01 X47.3656 Y4.8881
G01 X47.3578 Y4.8728
G01 X47.3243 Y4.8018
G01 X47.3154 Y4.7816
G01 X47.3093 Y4.7656
G01 X47.2828 Y4.6916
G01 X47.2760 Y4.6706
G01 X47.2714 Y4.6541
G01 X47.2523 Y4.5779
G01 X47.2476 Y4.5563
G01 X47.2447 Y4.5394
G01 X47.2332 Y4.4617
G01 X47.2306 Y4.4398
G01 X47.2293 Y4.4227
G01 X47.2255 Y4.3443
G01 X47.2250 Y4.3222
G01 X47.2255 Y4.3050
G01 X47.2293 Y4.2266
G01 X47.2311 Y4.2046
G01 X47.2332 Y4.1875
G01 X47.2447 Y4.1099
G01 X47.2486 Y4.0881
G01 X47.2523 Y4.0714
G01 X47.2714 Y3.9952
G01 X47.2774 Y3.9740
G01 X47.2828 Y3.9576
G01 X47.3093 Y3.8837
G01 X47.3173 Y3.8632
G01 X47.3243 Y3.8475
G01 X47.3578 Y3.7765
G01 X47.3679 Y3.7568
G01 X47.3764 Y3.7419
G01 X47.4167 Y3.6745
G01 X47.4286 Y3.6559
G01 X47.4385 Y3.6419
G01 X47.4853 Y3.5788
G01 X47.4990 Y3.5615
G01 X47.5102 Y3.5485
G01 X47.5629 Y3.4903
G01 X47.5782 Y3.4744
G01 X47.5907 Y3.4626
G01 X47.6488 Y3.4098
G01 X47.6656 Y3.3955
G01 X47.6792 Y3.3849
G01 X47.7422 Y3.3382
G01 X47.7604 Y3.3255
G01 X47.7749 Y3.3164
G01 X47.8422 Y3.2760
G01 X47.8615 Y3.2652
G01 X47.8768 Y3.2575
G01 X47.9478 Y3.2239
G01 X47.9681 Y3.2151
G01 X47.9841 Y3.2089
G01 X48.0580 Y3.1824
G01 X48.0790 Y3.1756
G01 X48.0956 Y3.1711
G01 X48.1717 Y3.1520
G01 X48.1933 Y3.1473
G01 X48.2102 Y3.1443
G01 X48.2879 Y3.1328
G01 X48.3098 Y3.1302
G01 X48.3270 Y3.1289
G01 X48.4054 Y3.1251
G01 X48.4275 Y3.1247
G01 X48.4446 Y3.1251
G01 X48.5230 Y3.1289
G01 X48.5451 Y3.1307
G01 X48.5621 Y3.1328
G01 X48.6398 Y3.1443
G01 X48.6615 Y3.1482
G01 X48.6783 Y3.1520
G01 X48.7544 Y3.1711
G01 X48.7757 Y3.1771
G01 X48.7920 Y3.1824
G01 X48.8659 Y3.2089
G01 X48.8865 Y3.2170
G01 X48.9022 Y3.2239
G01 X48.9732 Y3.2575
G01 X48.9928 Y3.2675
G01 X49.0078 Y3.2760
G01 X49.0751 Y3.3164
G01 X49.0937 Y3.3283
G01 X49.1078 Y3.3382
G01 X49.1708 Y3.3849
G01 X49.1881 Y3.3986
G01 X49.2012 Y3.4098
G01 X49.2593 Y3.4626
G01 X49.2752 Y3.4779
G01 X49.2871 Y3.4903
G01 X49.3398 Y3.5485
G01 X49.3541 Y3.5653
G01 X49.3647 Y3.5788
G01 X49.4115 Y3.6419
G01 X49.4241 Y3.6600
G01 X49.4333 Y3.6745
G01 X49.4736 Y3.7419
G01 X49.4844 Y3.7611
G01 X49.4922 Y3.7765
G01 X49.5257 Y3.8475
G01 X49.5346 Y3.8677
G01 X49.5407 Y3.8837
G01 X49.5672 Y3.9576
G01 X49.5740 Y3.9787
G01 X49.5786 Y3.9952
G01 X49.5977 Y4.0714
G01 X49.6024 Y4.0929
G01 X49.6053 Y4.1099
G01 X49.6168 Y4.1875
G01 X49.6194 Y4.2095
G01 X49.6207 Y4.2266
G01 X49.6245 Y4.3050
G01 X49.6250 Y4.3271
G00 Z1.0000
M05
G00 Z1.0000
G00 Z15.00
G00 X0.0 Y0.0


