(G-CODE GENERATED BY FLATCAM v8.994 - www.flatcam.org - Version Date: 2020/11/7)

(Name: amp-Edge_Cuts.gbr_cutout_1_cnc)
(Type: G-code from Geometry)
(Units: MM)

(Created on Tuesday, 24 January 2023 at 12:39)

(This preprocessor is the default preprocessor used by FlatCAM.)
(It is made to work with MACH3 compatible motion controllers.)

(TOOL DIAMETER: 0.7 mm)
(Feedrate_XY: 30.0 mm/min)
(Feedrate_Z: 15.0 mm/min)
(Feedrate rapids 1500.0 mm/min)

(Z_Cut: -1.94 mm)
(DepthPerCut: 0.485 mm <=>4 passes)
(Z_Move: 1.0 mm)
(Z Start: None mm)
(Z End: 15.0 mm)
(X,Y End: 0.0000, 0.0000 mm)
(Steps per circle: 64)
(Preprocessor Geometry: default)

(X range:    0.3967 ...   52.0000  mm)
(Y range:    0.7496 ...   39.0150  mm)

(Spindle Speed: 1000.0 RPM)
G21
G90
G94

G01 F30.00

M5
G00 Z15.0000
G00 X0.0000 Y0.0000
T1
M6    
(MSG, Change to Tool Dia = 0.7000)
M0
G00 Z15.0000

M03 S1000.0
G01 F30.00
G00 X0.3969 Y35.4447
G01 F15.00
G01 Z-0.4850
G01 F30.00
G01 X0.3972 Y35.4586
G01 X0.4115 Y35.7598
G01 X0.4131 Y35.7811
G01 X0.4151 Y35.7976
G01 X0.4579 Y36.0960
G01 X0.4615 Y36.1170
G01 X0.4650 Y36.1333
G01 X0.5359 Y36.4263
G01 X0.5415 Y36.4469
G01 X0.5465 Y36.4627
G01 X0.6449 Y36.7478
G01 X0.6524 Y36.7677
G01 X0.6589 Y36.7830
G01 X0.7838 Y37.0574
G01 X0.7932 Y37.0766
G01 X0.8011 Y37.0912
G01 X0.9514 Y37.3525
G01 X0.9626 Y37.3707
G01 X0.9719 Y37.3845
G01 X1.1463 Y37.6304
G01 X1.1592 Y37.6475
G01 X1.1697 Y37.6603
G01 X1.3666 Y37.8886
G01 X1.3810 Y37.9044
G01 X1.3928 Y37.9161
G01 X1.6104 Y38.1248
G01 X1.6263 Y38.1391
G01 X1.6390 Y38.1497
G01 X1.8755 Y38.3367
G01 X1.8926 Y38.3495
G01 X1.9063 Y38.3588
G01 X2.1595 Y38.5226
G01 X2.1777 Y38.5337
G01 X2.1923 Y38.5417
G01 X2.4598 Y38.6808
G01 X2.4790 Y38.6901
G01 X2.4942 Y38.6967
G01 X2.7737 Y38.8098
G01 X2.7937 Y38.8172
G01 X2.8095 Y38.8223
G01 X3.0985 Y38.9085
G01 X3.1191 Y38.9140
G01 X3.1353 Y38.9176
G01 X3.4311 Y38.9759
G01 X3.4522 Y38.9794
G01 X3.4686 Y38.9815
G01 X3.7686 Y39.0115
G01 X3.7852 Y39.0128
G01 X3.8065 Y39.0135
G01 X4.1100 Y39.0150
G01 X48.4336 Y39.0146
G01 X48.7558 Y38.9989
G01 X48.7730 Y38.9976
G01 X48.7949 Y38.9950
G01 X49.1031 Y38.9493
G01 X49.1200 Y38.9464
G01 X49.1416 Y38.9417
G01 X49.4439 Y38.8660
G01 X49.4651 Y38.8600
G01 X49.4814 Y38.8546
G01 X49.7748 Y38.7496
G01 X49.7908 Y38.7434
G01 X49.8111 Y38.7346
G01 X50.0927 Y38.6014
G01 X50.1081 Y38.5936
G01 X50.1273 Y38.5829
G01 X50.3946 Y38.4227
G01 X50.4091 Y38.4135
G01 X50.4272 Y38.4009
G01 X50.6775 Y38.2153
G01 X50.6948 Y38.2016
G01 X50.7078 Y38.1903
G01 X50.9387 Y37.9811
G01 X50.9511 Y37.9693
G01 X50.9665 Y37.9533
G01 X51.1757 Y37.7225
G01 X51.1869 Y37.7095
G01 X51.2006 Y37.6921
G01 X51.3862 Y37.4419
G01 X51.3961 Y37.4278
G01 X51.4080 Y37.4092
G01 X51.5682 Y37.1420
G01 X51.5767 Y37.1270
G01 X51.5867 Y37.1074
G01 X51.7199 Y36.8257
G01 X51.7288 Y36.8055
G01 X51.7350 Y36.7894
G01 X51.8399 Y36.4961
G01 X51.8453 Y36.4797
G01 X51.8513 Y36.4585
G01 X51.9270 Y36.1562
G01 X51.9308 Y36.1395
G01 X51.9347 Y36.1177
G01 X51.9804 Y35.8095
G01 X51.9825 Y35.7925
G01 X51.9843 Y35.7705
G01 X51.9999 Y35.4507
G01 X51.9999 Y4.3161
G01 X51.9843 Y3.9938
G01 X51.9830 Y3.9767
G01 X51.9804 Y3.9547
G01 X51.9347 Y3.6465
G01 X51.9318 Y3.6296
G01 X51.9270 Y3.6080
G01 X51.8513 Y3.3058
G01 X51.8453 Y3.2845
G01 X51.8399 Y3.2682
G01 X51.7350 Y2.9749
G01 X51.7288 Y2.9588
G01 X51.7199 Y2.9386
G01 X51.5867 Y2.6569
G01 X51.5790 Y2.6416
G01 X51.5682 Y2.6223
G01 X51.4080 Y2.3551
G01 X51.3988 Y2.3405
G01 X51.3862 Y2.3224
G01 X51.2006 Y2.0721
G01 X51.1869 Y2.0548
G01 X51.1757 Y2.0418
G01 X50.9665 Y1.8109
G01 X50.9546 Y1.7985
G01 X50.9387 Y1.7832
G01 X50.7078 Y1.5739
G01 X50.6948 Y1.5627
G01 X50.6775 Y1.5490
G01 X50.4272 Y1.3634
G01 X50.4132 Y1.3535
G01 X50.3946 Y1.3416
G01 X50.1273 Y1.1814
G01 X50.1124 Y1.1730
G01 X50.0927 Y1.1629
G01 X49.8111 Y1.0297
G01 X49.7908 Y1.0209
G01 X49.7748 Y1.0147
G01 X49.4814 Y0.9097
G01 X49.4651 Y0.9043
G01 X49.4439 Y0.8983
G01 X49.1416 Y0.8226
G01 X49.1248 Y0.8188
G01 X49.1031 Y0.8150
G01 X48.7949 Y0.7692
G01 X48.7779 Y0.7671
G01 X48.7558 Y0.7654
G01 X48.4336 Y0.7497
G01 X3.9664 Y0.7497
G01 X3.6442 Y0.7654
G01 X3.6270 Y0.7666
G01 X3.6051 Y0.7692
G01 X3.2969 Y0.8150
G01 X3.2800 Y0.8179
G01 X3.2584 Y0.8226
G01 X2.9561 Y0.8983
G01 X2.9349 Y0.9043
G01 X2.9186 Y0.9097
G01 X2.6252 Y1.0147
G01 X2.6092 Y1.0209
G01 X2.5889 Y1.0297
G01 X2.3073 Y1.1629
G01 X2.2919 Y1.1706
G01 X2.2727 Y1.1814
G01 X2.0054 Y1.3416
G01 X1.9909 Y1.3508
G01 X1.9728 Y1.3634
G01 X1.7225 Y1.5490
G01 X1.7052 Y1.5627
G01 X1.6922 Y1.5739
G01 X1.4613 Y1.7832
G01 X1.4489 Y1.7950
G01 X1.4335 Y1.8109
G01 X1.2243 Y2.0418
G01 X1.2131 Y2.0548
G01 X1.1994 Y2.0721
G01 X1.0138 Y2.3224
G01 X1.0039 Y2.3365
G01 X0.9920 Y2.3551
G01 X0.8318 Y2.6223
G01 X0.8233 Y2.6372
G01 X0.8133 Y2.6569
G01 X0.6801 Y2.9386
G01 X0.6712 Y2.9588
G01 X0.6650 Y2.9749
G01 X0.5601 Y3.2682
G01 X0.5547 Y3.2845
G01 X0.5487 Y3.3058
G01 X0.4730 Y3.6080
G01 X0.4692 Y3.6248
G01 X0.4653 Y3.6465
G01 X0.4196 Y3.9547
G01 X0.4175 Y3.9718
G01 X0.4157 Y3.9938
G01 X0.4005 Y4.3050
G01 X0.4000 Y4.3246
G01 X0.3969 Y35.4447
G00 X0.3969 Y35.4447
G01 F15.00
G01 Z-0.9700
G01 F30.00
G01 X0.4000 Y4.3246
G01 X0.4005 Y4.3050
G01 X0.4157 Y3.9938
G01 X0.4175 Y3.9718
G01 X0.4196 Y3.9547
G01 X0.4653 Y3.6465
G01 X0.4692 Y3.6248
G01 X0.4730 Y3.6080
G01 X0.5487 Y3.3058
G01 X0.5547 Y3.2845
G01 X0.5601 Y3.2682
G01 X0.6650 Y2.9749
G01 X0.6712 Y2.9588
G01 X0.6801 Y2.9386
G01 X0.8133 Y2.6569
G01 X0.8233 Y2.6372
G01 X0.8318 Y2.6223
G01 X0.9920 Y2.3551
G01 X1.0039 Y2.3365
G01 X1.0138 Y2.3224
G01 X1.1994 Y2.0721
G01 X1.2131 Y2.0548
G01 X1.2243 Y2.0418
G01 X1.4335 Y1.8109
G01 X1.4489 Y1.7950
G01 X1.4613 Y1.7832
G01 X1.6922 Y1.5739
G01 X1.7052 Y1.5627
G01 X1.7225 Y1.5490
G01 X1.9728 Y1.3634
G01 X1.9909 Y1.3508
G01 X2.0054 Y1.3416
G01 X2.2727 Y1.1814
G01 X2.2919 Y1.1706
G01 X2.3073 Y1.1629
G01 X2.5889 Y1.0297
G01 X2.6092 Y1.0209
G01 X2.6252 Y1.0147
G01 X2.9186 Y0.9097
G01 X2.9349 Y0.9043
G01 X2.9561 Y0.8983
G01 X3.2584 Y0.8226
G01 X3.2800 Y0.8179
G01 X3.2969 Y0.8150
G01 X3.6051 Y0.7692
G01 X3.6270 Y0.7666
G01 X3.6442 Y0.7654
G01 X3.9664 Y0.7497
G01 X48.4336 Y0.7497
G01 X48.7558 Y0.7654
G01 X48.7779 Y0.7671
G01 X48.7949 Y0.7692
G01 X49.1031 Y0.8150
G01 X49.1248 Y0.8188
G01 X49.1416 Y0.8226
G01 X49.4439 Y0.8983
G01 X49.4651 Y0.9043
G01 X49.4814 Y0.9097
G01 X49.7748 Y1.0147
G01 X49.7908 Y1.0209
G01 X49.8111 Y1.0297
G01 X50.0927 Y1.1629
G01 X50.1124 Y1.1730
G01 X50.1273 Y1.1814
G01 X50.3946 Y1.3416
G01 X50.4132 Y1.3535
G01 X50.4272 Y1.3634
G01 X50.6775 Y1.5490
G01 X50.6948 Y1.5627
G01 X50.7078 Y1.5739
G01 X50.9387 Y1.7832
G01 X50.9546 Y1.7985
G01 X50.9665 Y1.8109
G01 X51.1757 Y2.0418
G01 X51.1869 Y2.0548
G01 X51.2006 Y2.0721
G01 X51.3862 Y2.3224
G01 X51.3988 Y2.3405
G01 X51.4080 Y2.3551
G01 X51.5682 Y2.6223
G01 X51.5790 Y2.6416
G01 X51.5867 Y2.6569
G01 X51.7199 Y2.9386
G01 X51.7288 Y2.9588
G01 X51.7350 Y2.9749
G01 X51.8399 Y3.2682
G01 X51.8453 Y3.2845
G01 X51.8513 Y3.3058
G01 X51.9270 Y3.6080
G01 X51.9318 Y3.6296
G01 X51.9347 Y3.6465
G01 X51.9804 Y3.9547
G01 X51.9830 Y3.9767
G01 X51.9843 Y3.9938
G01 X51.9999 Y4.3161
G01 X51.9999 Y35.4507
G01 X51.9843 Y35.7705
G01 X51.9825 Y35.7925
G01 X51.9804 Y35.8095
G01 X51.9347 Y36.1177
G01 X51.9308 Y36.1395
G01 X51.9270 Y36.1562
G01 X51.8513 Y36.4585
G01 X51.8453 Y36.4797
G01 X51.8399 Y36.4961
G01 X51.7350 Y36.7894
G01 X51.7288 Y36.8055
G01 X51.7199 Y36.8257
G01 X51.5867 Y37.1074
G01 X51.5767 Y37.1270
G01 X51.5682 Y37.1420
G01 X51.4080 Y37.4092
G01 X51.3961 Y37.4278
G01 X51.3862 Y37.4419
G01 X51.2006 Y37.6921
G01 X51.1869 Y37.7095
G01 X51.1757 Y37.7225
G01 X50.9665 Y37.9533
G01 X50.9511 Y37.9693
G01 X50.9387 Y37.9811
G01 X50.7078 Y38.1903
G01 X50.6948 Y38.2016
G01 X50.6775 Y38.2153
G01 X50.4272 Y38.4009
G01 X50.4091 Y38.4135
G01 X50.3946 Y38.4227
G01 X50.1273 Y38.5829
G01 X50.1081 Y38.5936
G01 X50.0927 Y38.6014
G01 X49.8111 Y38.7346
G01 X49.7908 Y38.7434
G01 X49.7748 Y38.7496
G01 X49.4814 Y38.8546
G01 X49.4651 Y38.8600
G01 X49.4439 Y38.8660
G01 X49.1416 Y38.9417
G01 X49.1200 Y38.9464
G01 X49.1031 Y38.9493
G01 X48.7949 Y38.9950
G01 X48.7730 Y38.9976
G01 X48.7558 Y38.9989
G01 X48.4336 Y39.0146
G01 X4.1100 Y39.0150
G01 X3.8065 Y39.0135
G01 X3.7852 Y39.0128
G01 X3.7686 Y39.0115
G01 X3.4686 Y38.9815
G01 X3.4522 Y38.9794
G01 X3.4311 Y38.9759
G01 X3.1353 Y38.9176
G01 X3.1191 Y38.9140
G01 X3.0985 Y38.9085
G01 X2.8095 Y38.8223
G01 X2.7937 Y38.8172
G01 X2.7737 Y38.8098
G01 X2.4942 Y38.6967
G01 X2.4790 Y38.6901
G01 X2.4598 Y38.6808
G01 X2.1923 Y38.5417
G01 X2.1777 Y38.5337
G01 X2.1595 Y38.5226
G01 X1.9063 Y38.3588
G01 X1.8926 Y38.3495
G01 X1.8755 Y38.3367
G01 X1.6390 Y38.1497
G01 X1.6263 Y38.1391
G01 X1.6104 Y38.1248
G01 X1.3928 Y37.9161
G01 X1.3810 Y37.9044
G01 X1.3666 Y37.8886
G01 X1.1697 Y37.6603
G01 X1.1592 Y37.6475
G01 X1.1463 Y37.6304
G01 X0.9719 Y37.3845
G01 X0.9626 Y37.3707
G01 X0.9514 Y37.3525
G01 X0.8011 Y37.0912
G01 X0.7932 Y37.0766
G01 X0.7838 Y37.0574
G01 X0.6589 Y36.7830
G01 X0.6524 Y36.7677
G01 X0.6449 Y36.7478
G01 X0.5465 Y36.4627
G01 X0.5415 Y36.4469
G01 X0.5359 Y36.4263
G01 X0.4650 Y36.1333
G01 X0.4615 Y36.1170
G01 X0.4579 Y36.0960
G01 X0.4151 Y35.7976
G01 X0.4131 Y35.7811
G01 X0.4115 Y35.7598
G01 X0.3972 Y35.4586
G01 X0.3969 Y35.4447
G00 X0.3969 Y35.4447
G01 F15.00
G01 Z-1.4550
G01 F30.00
G01 X0.3972 Y35.4586
G01 X0.4115 Y35.7598
G01 X0.4131 Y35.7811
G01 X0.4151 Y35.7976
G01 X0.4579 Y36.0960
G01 X0.4615 Y36.1170
G01 X0.4650 Y36.1333
G01 X0.5359 Y36.4263
G01 X0.5415 Y36.4469
G01 X0.5465 Y36.4627
G01 X0.6449 Y36.7478
G01 X0.6524 Y36.7677
G01 X0.6589 Y36.7830
G01 X0.7838 Y37.0574
G01 X0.7932 Y37.0766
G01 X0.8011 Y37.0912
G01 X0.9514 Y37.3525
G01 X0.9626 Y37.3707
G01 X0.9719 Y37.3845
G01 X1.1463 Y37.6304
G01 X1.1592 Y37.6475
G01 X1.1697 Y37.6603
G01 X1.3666 Y37.8886
G01 X1.3810 Y37.9044
G01 X1.3928 Y37.9161
G01 X1.6104 Y38.1248
G01 X1.6263 Y38.1391
G01 X1.6390 Y38.1497
G01 X1.8755 Y38.3367
G01 X1.8926 Y38.3495
G01 X1.9063 Y38.3588
G01 X2.1595 Y38.5226
G01 X2.1777 Y38.5337
G01 X2.1923 Y38.5417
G01 X2.4598 Y38.6808
G01 X2.4790 Y38.6901
G01 X2.4942 Y38.6967
G01 X2.7737 Y38.8098
G01 X2.7937 Y38.8172
G01 X2.8095 Y38.8223
G01 X3.0985 Y38.9085
G01 X3.1191 Y38.9140
G01 X3.1353 Y38.9176
G01 X3.4311 Y38.9759
G01 X3.4522 Y38.9794
G01 X3.4686 Y38.9815
G01 X3.7686 Y39.0115
G01 X3.7852 Y39.0128
G01 X3.8065 Y39.0135
G01 X4.1100 Y39.0150
G01 X48.4336 Y39.0146
G01 X48.7558 Y38.9989
G01 X48.7730 Y38.9976
G01 X48.7949 Y38.9950
G01 X49.1031 Y38.9493
G01 X49.1200 Y38.9464
G01 X49.1416 Y38.9417
G01 X49.4439 Y38.8660
G01 X49.4651 Y38.8600
G01 X49.4814 Y38.8546
G01 X49.7748 Y38.7496
G01 X49.7908 Y38.7434
G01 X49.8111 Y38.7346
G01 X50.0927 Y38.6014
G01 X50.1081 Y38.5936
G01 X50.1273 Y38.5829
G01 X50.3946 Y38.4227
G01 X50.4091 Y38.4135
G01 X50.4272 Y38.4009
G01 X50.6775 Y38.2153
G01 X50.6948 Y38.2016
G01 X50.7078 Y38.1903
G01 X50.9387 Y37.9811
G01 X50.9511 Y37.9693
G01 X50.9665 Y37.9533
G01 X51.1757 Y37.7225
G01 X51.1869 Y37.7095
G01 X51.2006 Y37.6921
G01 X51.3862 Y37.4419
G01 X51.3961 Y37.4278
G01 X51.4080 Y37.4092
G01 X51.5682 Y37.1420
G01 X51.5767 Y37.1270
G01 X51.5867 Y37.1074
G01 X51.7199 Y36.8257
G01 X51.7288 Y36.8055
G01 X51.7350 Y36.7894
G01 X51.8399 Y36.4961
G01 X51.8453 Y36.4797
G01 X51.8513 Y36.4585
G01 X51.9270 Y36.1562
G01 X51.9308 Y36.1395
G01 X51.9347 Y36.1177
G01 X51.9804 Y35.8095
G01 X51.9825 Y35.7925
G01 X51.9843 Y35.7705
G01 X51.9999 Y35.4507
G01 X51.9999 Y4.3161
G01 X51.9843 Y3.9938
G01 X51.9830 Y3.9767
G01 X51.9804 Y3.9547
G01 X51.9347 Y3.6465
G01 X51.9318 Y3.6296
G01 X51.9270 Y3.6080
G01 X51.8513 Y3.3058
G01 X51.8453 Y3.2845
G01 X51.8399 Y3.2682
G01 X51.7350 Y2.9749
G01 X51.7288 Y2.9588
G01 X51.7199 Y2.9386
G01 X51.5867 Y2.6569
G01 X51.5790 Y2.6416
G01 X51.5682 Y2.6223
G01 X51.4080 Y2.3551
G01 X51.3988 Y2.3405
G01 X51.3862 Y2.3224
G01 X51.2006 Y2.0721
G01 X51.1869 Y2.0548
G01 X51.1757 Y2.0418
G01 X50.9665 Y1.8109
G01 X50.9546 Y1.7985
G01 X50.9387 Y1.7832
G01 X50.7078 Y1.5739
G01 X50.6948 Y1.5627
G01 X50.6775 Y1.5490
G01 X50.4272 Y1.3634
G01 X50.4132 Y1.3535
G01 X50.3946 Y1.3416
G01 X50.1273 Y1.1814
G01 X50.1124 Y1.1730
G01 X50.0927 Y1.1629
G01 X49.8111 Y1.0297
G01 X49.7908 Y1.0209
G01 X49.7748 Y1.0147
G01 X49.4814 Y0.9097
G01 X49.4651 Y0.9043
G01 X49.4439 Y0.8983
G01 X49.1416 Y0.8226
G01 X49.1248 Y0.8188
G01 X49.1031 Y0.8150
G01 X48.7949 Y0.7692
G01 X48.7779 Y0.7671
G01 X48.7558 Y0.7654
G01 X48.4336 Y0.7497
G01 X3.9664 Y0.7497
G01 X3.6442 Y0.7654
G01 X3.6270 Y0.7666
G01 X3.6051 Y0.7692
G01 X3.2969 Y0.8150
G01 X3.2800 Y0.8179
G01 X3.2584 Y0.8226
G01 X2.9561 Y0.8983
G01 X2.9349 Y0.9043
G01 X2.9186 Y0.9097
G01 X2.6252 Y1.0147
G01 X2.6092 Y1.0209
G01 X2.5889 Y1.0297
G01 X2.3073 Y1.1629
G01 X2.2919 Y1.1706
G01 X2.2727 Y1.1814
G01 X2.0054 Y1.3416
G01 X1.9909 Y1.3508
G01 X1.9728 Y1.3634
G01 X1.7225 Y1.5490
G01 X1.7052 Y1.5627
G01 X1.6922 Y1.5739
G01 X1.4613 Y1.7832
G01 X1.4489 Y1.7950
G01 X1.4335 Y1.8109
G01 X1.2243 Y2.0418
G01 X1.2131 Y2.0548
G01 X1.1994 Y2.0721
G01 X1.0138 Y2.3224
G01 X1.0039 Y2.3365
G01 X0.9920 Y2.3551
G01 X0.8318 Y2.6223
G01 X0.8233 Y2.6372
G01 X0.8133 Y2.6569
G01 X0.6801 Y2.9386
G01 X0.6712 Y2.9588
G01 X0.6650 Y2.9749
G01 X0.5601 Y3.2682
G01 X0.5547 Y3.2845
G01 X0.5487 Y3.3058
G01 X0.4730 Y3.6080
G01 X0.4692 Y3.6248
G01 X0.4653 Y3.6465
G01 X0.4196 Y3.9547
G01 X0.4175 Y3.9718
G01 X0.4157 Y3.9938
G01 X0.4005 Y4.3050
G01 X0.4000 Y4.3246
G01 X0.3969 Y35.4447
G00 X0.3969 Y35.4447
G01 F15.00
G01 Z-1.9400
G01 F30.00
G01 X0.4000 Y4.3246
G01 X0.4005 Y4.3050
G01 X0.4157 Y3.9938
G01 X0.4175 Y3.9718
G01 X0.4196 Y3.9547
G01 X0.4653 Y3.6465
G01 X0.4692 Y3.6248
G01 X0.4730 Y3.6080
G01 X0.5487 Y3.3058
G01 X0.5547 Y3.2845
G01 X0.5601 Y3.2682
G01 X0.6650 Y2.9749
G01 X0.6712 Y2.9588
G01 X0.6801 Y2.9386
G01 X0.8133 Y2.6569
G01 X0.8233 Y2.6372
G01 X0.8318 Y2.6223
G01 X0.9920 Y2.3551
G01 X1.0039 Y2.3365
G01 X1.0138 Y2.3224
G01 X1.1994 Y2.0721
G01 X1.2131 Y2.0548
G01 X1.2243 Y2.0418
G01 X1.4335 Y1.8109
G01 X1.4489 Y1.7950
G01 X1.4613 Y1.7832
G01 X1.6922 Y1.5739
G01 X1.7052 Y1.5627
G01 X1.7225 Y1.5490
G01 X1.9728 Y1.3634
G01 X1.9909 Y1.3508
G01 X2.0054 Y1.3416
G01 X2.2727 Y1.1814
G01 X2.2919 Y1.1706
G01 X2.3073 Y1.1629
G01 X2.5889 Y1.0297
G01 X2.6092 Y1.0209
G01 X2.6252 Y1.0147
G01 X2.9186 Y0.9097
G01 X2.9349 Y0.9043
G01 X2.9561 Y0.8983
G01 X3.2584 Y0.8226
G01 X3.2800 Y0.8179
G01 X3.2969 Y0.8150
G01 X3.6051 Y0.7692
G01 X3.6270 Y0.7666
G01 X3.6442 Y0.7654
G01 X3.9664 Y0.7497
G01 X48.4336 Y0.7497
G01 X48.7558 Y0.7654
G01 X48.7779 Y0.7671
G01 X48.7949 Y0.7692
G01 X49.1031 Y0.8150
G01 X49.1248 Y0.8188
G01 X49.1416 Y0.8226
G01 X49.4439 Y0.8983
G01 X49.4651 Y0.9043
G01 X49.4814 Y0.9097
G01 X49.7748 Y1.0147
G01 X49.7908 Y1.0209
G01 X49.8111 Y1.0297
G01 X50.0927 Y1.1629
G01 X50.1124 Y1.1730
G01 X50.1273 Y1.1814
G01 X50.3946 Y1.3416
G01 X50.4132 Y1.3535
G01 X50.4272 Y1.3634
G01 X50.6775 Y1.5490
G01 X50.6948 Y1.5627
G01 X50.7078 Y1.5739
G01 X50.9387 Y1.7832
G01 X50.9546 Y1.7985
G01 X50.9665 Y1.8109
G01 X51.1757 Y2.0418
G01 X51.1869 Y2.0548
G01 X51.2006 Y2.0721
G01 X51.3862 Y2.3224
G01 X51.3988 Y2.3405
G01 X51.4080 Y2.3551
G01 X51.5682 Y2.6223
G01 X51.5790 Y2.6416
G01 X51.5867 Y2.6569
G01 X51.7199 Y2.9386
G01 X51.7288 Y2.9588
G01 X51.7350 Y2.9749
G01 X51.8399 Y3.2682
G01 X51.8453 Y3.2845
G01 X51.8513 Y3.3058
G01 X51.9270 Y3.6080
G01 X51.9318 Y3.6296
G01 X51.9347 Y3.6465
G01 X51.9804 Y3.9547
G01 X51.9830 Y3.9767
G01 X51.9843 Y3.9938
G01 X51.9999 Y4.3161
G01 X51.9999 Y35.4507
G01 X51.9843 Y35.7705
G01 X51.9825 Y35.7925
G01 X51.9804 Y35.8095
G01 X51.9347 Y36.1177
G01 X51.9308 Y36.1395
G01 X51.9270 Y36.1562
G01 X51.8513 Y36.4585
G01 X51.8453 Y36.4797
G01 X51.8399 Y36.4961
G01 X51.7350 Y36.7894
G01 X51.7288 Y36.8055
G01 X51.7199 Y36.8257
G01 X51.5867 Y37.1074
G01 X51.5767 Y37.1270
G01 X51.5682 Y37.1420
G01 X51.4080 Y37.4092
G01 X51.3961 Y37.4278
G01 X51.3862 Y37.4419
G01 X51.2006 Y37.6921
G01 X51.1869 Y37.7095
G01 X51.1757 Y37.7225
G01 X50.9665 Y37.9533
G01 X50.9511 Y37.9693
G01 X50.9387 Y37.9811
G01 X50.7078 Y38.1903
G01 X50.6948 Y38.2016
G01 X50.6775 Y38.2153
G01 X50.4272 Y38.4009
G01 X50.4091 Y38.4135
G01 X50.3946 Y38.4227
G01 X50.1273 Y38.5829
G01 X50.1081 Y38.5936
G01 X50.0927 Y38.6014
G01 X49.8111 Y38.7346
G01 X49.7908 Y38.7434
G01 X49.7748 Y38.7496
G01 X49.4814 Y38.8546
G01 X49.4651 Y38.8600
G01 X49.4439 Y38.8660
G01 X49.1416 Y38.9417
G01 X49.1200 Y38.9464
G01 X49.1031 Y38.9493
G01 X48.7949 Y38.9950
G01 X48.7730 Y38.9976
G01 X48.7558 Y38.9989
G01 X48.4336 Y39.0146
G01 X4.1100 Y39.0150
G01 X3.8065 Y39.0135
G01 X3.7852 Y39.0128
G01 X3.7686 Y39.0115
G01 X3.4686 Y38.9815
G01 X3.4522 Y38.9794
G01 X3.4311 Y38.9759
G01 X3.1353 Y38.9176
G01 X3.1191 Y38.9140
G01 X3.0985 Y38.9085
G01 X2.8095 Y38.8223
G01 X2.7937 Y38.8172
G01 X2.7737 Y38.8098
G01 X2.4942 Y38.6967
G01 X2.4790 Y38.6901
G01 X2.4598 Y38.6808
G01 X2.1923 Y38.5417
G01 X2.1777 Y38.5337
G01 X2.1595 Y38.5226
G01 X1.9063 Y38.3588
G01 X1.8926 Y38.3495
G01 X1.8755 Y38.3367
G01 X1.6390 Y38.1497
G01 X1.6263 Y38.1391
G01 X1.6104 Y38.1248
G01 X1.3928 Y37.9161
G01 X1.3810 Y37.9044
G01 X1.3666 Y37.8886
G01 X1.1697 Y37.6603
G01 X1.1592 Y37.6475
G01 X1.1463 Y37.6304
G01 X0.9719 Y37.3845
G01 X0.9626 Y37.3707
G01 X0.9514 Y37.3525
G01 X0.8011 Y37.0912
G01 X0.7932 Y37.0766
G01 X0.7838 Y37.0574
G01 X0.6589 Y36.7830
G01 X0.6524 Y36.7677
G01 X0.6449 Y36.7478
G01 X0.5465 Y36.4627
G01 X0.5415 Y36.4469
G01 X0.5359 Y36.4263
G01 X0.4650 Y36.1333
G01 X0.4615 Y36.1170
G01 X0.4579 Y36.0960
G01 X0.4151 Y35.7976
G01 X0.4131 Y35.7811
G01 X0.4115 Y35.7598
G01 X0.3972 Y35.4586
G01 X0.3969 Y35.4447
G00 Z1.0000
M05
G00 Z1.0000
G00 Z15.00
G00 X0.0 Y0.0


