(G-CODE GENERATED BY FLATCAM v8.994 - www.flatcam.org - Version Date: 2020/11/7)

(Name: amp-PTH-drl.gbr_inverted_iso_combined_cnc)
(Type: G-code from Geometry)
(Units: MM)

(Created on Tuesday, 24 January 2023 at 12:31)

(This preprocessor is the default preprocessor used by FlatCAM.)
(It is made to work with MACH3 compatible motion controllers.)

(TOOL DIAMETER: 0.7 mm)
(Feedrate_XY: 30.0 mm/min)
(Feedrate_Z: 20.0 mm/min)
(Feedrate rapids 1500.0 mm/min)

(Z_Cut: -1.94 mm)
(DepthPerCut: 0.485 mm <=>4 passes)
(Z_Move: 1.0 mm)
(Z Start: None mm)
(Z End: 15.0 mm)
(X,Y End: 0.0000, 0.0000 mm)
(Steps per circle: 64)
(Preprocessor Geometry: default)

(X range:    3.3954 ...   45.4946  mm)
(Y range:    8.8146 ...   34.2192  mm)

(Spindle Speed: 1200.0 RPM)
G21
G90
G94

G01 F30.00

M5
G00 Z15.0000
G00 X0.0000 Y0.0000
T1
M6    
(MSG, Change to Tool Dia = 0.7000)
M0
G00 Z15.0000

M03 S1200.0
G01 F30.00
G00 X3.4536 Y8.9146
G01 F20.00
G01 Z-0.4850
G01 F30.00
G01 X3.7364 Y8.9146
G01 X3.7499 Y8.9140
G01 X3.7547 Y8.9133
G01 X3.7640 Y8.9104
G01 X3.7725 Y8.9059
G01 X3.7801 Y8.8997
G01 X3.7862 Y8.8922
G01 X3.7908 Y8.8836
G01 X3.7936 Y8.8743
G01 X3.7946 Y8.8646
G01 X3.7936 Y8.8550
G01 X3.7924 Y8.8502
G01 X3.7887 Y8.8413
G01 X3.7833 Y8.8332
G01 X3.7765 Y8.8263
G01 X3.7725 Y8.8234
G01 X3.7640 Y8.8188
G01 X3.7547 Y8.8160
G01 X3.7499 Y8.8153
G01 X3.7364 Y8.8146
G01 X3.4536 Y8.8146
G01 X3.4401 Y8.8153
G01 X3.4353 Y8.8160
G01 X3.4260 Y8.8188
G01 X3.4175 Y8.8234
G01 X3.4099 Y8.8296
G01 X3.4038 Y8.8371
G01 X3.3992 Y8.8457
G01 X3.3964 Y8.8550
G01 X3.3954 Y8.8646
G01 X3.3964 Y8.8743
G01 X3.3992 Y8.8836
G01 X3.4038 Y8.8922
G01 X3.4099 Y8.8997
G01 X3.4175 Y8.9059
G01 X3.4260 Y8.9104
G01 X3.4353 Y8.9133
G01 X3.4401 Y8.9140
G01 X3.4536 Y8.9146
G00 X3.4536 Y8.9146
G01 F20.00
G01 Z-0.9700
G01 F30.00
G01 X3.7364 Y8.9146
G01 X3.7499 Y8.9140
G01 X3.7547 Y8.9133
G01 X3.7640 Y8.9104
G01 X3.7725 Y8.9059
G01 X3.7801 Y8.8997
G01 X3.7862 Y8.8922
G01 X3.7908 Y8.8836
G01 X3.7936 Y8.8743
G01 X3.7946 Y8.8646
G01 X3.7936 Y8.8550
G01 X3.7924 Y8.8502
G01 X3.7887 Y8.8413
G01 X3.7833 Y8.8332
G01 X3.7765 Y8.8263
G01 X3.7725 Y8.8234
G01 X3.7640 Y8.8188
G01 X3.7547 Y8.8160
G01 X3.7499 Y8.8153
G01 X3.7364 Y8.8146
G01 X3.4536 Y8.8146
G01 X3.4401 Y8.8153
G01 X3.4353 Y8.8160
G01 X3.4260 Y8.8188
G01 X3.4175 Y8.8234
G01 X3.4099 Y8.8296
G01 X3.4038 Y8.8371
G01 X3.3992 Y8.8457
G01 X3.3964 Y8.8550
G01 X3.3954 Y8.8646
G01 X3.3964 Y8.8743
G01 X3.3992 Y8.8836
G01 X3.4038 Y8.8922
G01 X3.4099 Y8.8997
G01 X3.4175 Y8.9059
G01 X3.4260 Y8.9104
G01 X3.4353 Y8.9133
G01 X3.4401 Y8.9140
G01 X3.4536 Y8.9146
G00 X3.4536 Y8.9146
G01 F20.00
G01 Z-1.4550
G01 F30.00
G01 X3.7364 Y8.9146
G01 X3.7499 Y8.9140
G01 X3.7547 Y8.9133
G01 X3.7640 Y8.9104
G01 X3.7725 Y8.9059
G01 X3.7801 Y8.8997
G01 X3.7862 Y8.8922
G01 X3.7908 Y8.8836
G01 X3.7936 Y8.8743
G01 X3.7946 Y8.8646
G01 X3.7936 Y8.8550
G01 X3.7924 Y8.8502
G01 X3.7887 Y8.8413
G01 X3.7833 Y8.8332
G01 X3.7765 Y8.8263
G01 X3.7725 Y8.8234
G01 X3.7640 Y8.8188
G01 X3.7547 Y8.8160
G01 X3.7499 Y8.8153
G01 X3.7364 Y8.8146
G01 X3.4536 Y8.8146
G01 X3.4401 Y8.8153
G01 X3.4353 Y8.8160
G01 X3.4260 Y8.8188
G01 X3.4175 Y8.8234
G01 X3.4099 Y8.8296
G01 X3.4038 Y8.8371
G01 X3.3992 Y8.8457
G01 X3.3964 Y8.8550
G01 X3.3954 Y8.8646
G01 X3.3964 Y8.8743
G01 X3.3992 Y8.8836
G01 X3.4038 Y8.8922
G01 X3.4099 Y8.8997
G01 X3.4175 Y8.9059
G01 X3.4260 Y8.9104
G01 X3.4353 Y8.9133
G01 X3.4401 Y8.9140
G01 X3.4536 Y8.9146
G00 X3.4536 Y8.9146
G01 F20.00
G01 Z-1.9400
G01 F30.00
G01 X3.7364 Y8.9146
G01 X3.7499 Y8.9140
G01 X3.7547 Y8.9133
G01 X3.7640 Y8.9104
G01 X3.7725 Y8.9059
G01 X3.7801 Y8.8997
G01 X3.7862 Y8.8922
G01 X3.7908 Y8.8836
G01 X3.7936 Y8.8743
G01 X3.7946 Y8.8646
G01 X3.7936 Y8.8550
G01 X3.7924 Y8.8502
G01 X3.7887 Y8.8413
G01 X3.7833 Y8.8332
G01 X3.7765 Y8.8263
G01 X3.7725 Y8.8234
G01 X3.7640 Y8.8188
G01 X3.7547 Y8.8160
G01 X3.7499 Y8.8153
G01 X3.7364 Y8.8146
G01 X3.4536 Y8.8146
G01 X3.4401 Y8.8153
G01 X3.4353 Y8.8160
G01 X3.4260 Y8.8188
G01 X3.4175 Y8.8234
G01 X3.4099 Y8.8296
G01 X3.4038 Y8.8371
G01 X3.3992 Y8.8457
G01 X3.3964 Y8.8550
G01 X3.3954 Y8.8646
G01 X3.3964 Y8.8743
G01 X3.3992 Y8.8836
G01 X3.4038 Y8.8922
G01 X3.4099 Y8.8997
G01 X3.4175 Y8.9059
G01 X3.4260 Y8.9104
G01 X3.4353 Y8.9133
G01 X3.4401 Y8.9140
G01 X3.4536 Y8.9146
G00 Z1.0000
G00 X4.8446 Y11.7646
G01 F20.00
G01 Z-0.4850
G01 F30.00
G01 X4.8434 Y11.7402
G01 X4.8398 Y11.7159
G01 X4.8338 Y11.6922
G01 X4.8256 Y11.6691
G01 X4.8151 Y11.6470
G01 X4.8025 Y11.6260
G01 X4.7879 Y11.6063
G01 X4.7715 Y11.5882
G01 X4.7533 Y11.5717
G01 X4.7337 Y11.5571
G01 X4.7127 Y11.5445
G01 X4.6905 Y11.5341
G01 X4.6674 Y11.5258
G01 X4.6437 Y11.5199
G01 X4.6195 Y11.5163
G01 X4.5950 Y11.5151
G01 X4.5705 Y11.5163
G01 X4.5463 Y11.5199
G01 X4.5226 Y11.5258
G01 X4.4995 Y11.5341
G01 X4.4773 Y11.5445
G01 X4.4563 Y11.5571
G01 X4.4367 Y11.5717
G01 X4.4185 Y11.5882
G01 X4.4021 Y11.6063
G01 X4.3875 Y11.6260
G01 X4.3749 Y11.6470
G01 X4.3644 Y11.6691
G01 X4.3562 Y11.6922
G01 X4.3502 Y11.7159
G01 X4.3466 Y11.7402
G01 X4.3454 Y11.7646
G01 X4.3466 Y11.7891
G01 X4.3502 Y11.8133
G01 X4.3562 Y11.8371
G01 X4.3644 Y11.8601
G01 X4.3749 Y11.8823
G01 X4.3875 Y11.9033
G01 X4.4021 Y11.9230
G01 X4.4185 Y11.9411
G01 X4.4367 Y11.9576
G01 X4.4563 Y11.9722
G01 X4.4773 Y11.9847
G01 X4.4995 Y11.9952
G01 X4.5226 Y12.0035
G01 X4.5463 Y12.0094
G01 X4.5705 Y12.0130
G01 X4.5950 Y12.0142
G01 X4.6195 Y12.0130
G01 X4.6437 Y12.0094
G01 X4.6674 Y12.0035
G01 X4.6905 Y11.9952
G01 X4.7127 Y11.9847
G01 X4.7337 Y11.9722
G01 X4.7533 Y11.9576
G01 X4.7715 Y11.9411
G01 X4.7879 Y11.9230
G01 X4.8025 Y11.9033
G01 X4.8151 Y11.8823
G01 X4.8256 Y11.8601
G01 X4.8338 Y11.8371
G01 X4.8398 Y11.8133
G01 X4.8434 Y11.7891
G01 X4.8446 Y11.7646
G00 X4.8446 Y11.7646
G01 F20.00
G01 Z-0.9700
G01 F30.00
G01 X4.8434 Y11.7402
G01 X4.8398 Y11.7159
G01 X4.8338 Y11.6922
G01 X4.8256 Y11.6691
G01 X4.8151 Y11.6470
G01 X4.8025 Y11.6260
G01 X4.7879 Y11.6063
G01 X4.7715 Y11.5882
G01 X4.7533 Y11.5717
G01 X4.7337 Y11.5571
G01 X4.7127 Y11.5445
G01 X4.6905 Y11.5341
G01 X4.6674 Y11.5258
G01 X4.6437 Y11.5199
G01 X4.6195 Y11.5163
G01 X4.5950 Y11.5151
G01 X4.5705 Y11.5163
G01 X4.5463 Y11.5199
G01 X4.5226 Y11.5258
G01 X4.4995 Y11.5341
G01 X4.4773 Y11.5445
G01 X4.4563 Y11.5571
G01 X4.4367 Y11.5717
G01 X4.4185 Y11.5882
G01 X4.4021 Y11.6063
G01 X4.3875 Y11.6260
G01 X4.3749 Y11.6470
G01 X4.3644 Y11.6691
G01 X4.3562 Y11.6922
G01 X4.3502 Y11.7159
G01 X4.3466 Y11.7402
G01 X4.3454 Y11.7646
G01 X4.3466 Y11.7891
G01 X4.3502 Y11.8133
G01 X4.3562 Y11.8371
G01 X4.3644 Y11.8601
G01 X4.3749 Y11.8823
G01 X4.3875 Y11.9033
G01 X4.4021 Y11.9230
G01 X4.4185 Y11.9411
G01 X4.4367 Y11.9576
G01 X4.4563 Y11.9722
G01 X4.4773 Y11.9847
G01 X4.4995 Y11.9952
G01 X4.5226 Y12.0035
G01 X4.5463 Y12.0094
G01 X4.5705 Y12.0130
G01 X4.5950 Y12.0142
G01 X4.6195 Y12.0130
G01 X4.6437 Y12.0094
G01 X4.6674 Y12.0035
G01 X4.6905 Y11.9952
G01 X4.7127 Y11.9847
G01 X4.7337 Y11.9722
G01 X4.7533 Y11.9576
G01 X4.7715 Y11.9411
G01 X4.7879 Y11.9230
G01 X4.8025 Y11.9033
G01 X4.8151 Y11.8823
G01 X4.8256 Y11.8601
G01 X4.8338 Y11.8371
G01 X4.8398 Y11.8133
G01 X4.8434 Y11.7891
G01 X4.8446 Y11.7646
G00 X4.8446 Y11.7646
G01 F20.00
G01 Z-1.4550
G01 F30.00
G01 X4.8434 Y11.7402
G01 X4.8398 Y11.7159
G01 X4.8338 Y11.6922
G01 X4.8256 Y11.6691
G01 X4.8151 Y11.6470
G01 X4.8025 Y11.6260
G01 X4.7879 Y11.6063
G01 X4.7715 Y11.5882
G01 X4.7533 Y11.5717
G01 X4.7337 Y11.5571
G01 X4.7127 Y11.5445
G01 X4.6905 Y11.5341
G01 X4.6674 Y11.5258
G01 X4.6437 Y11.5199
G01 X4.6195 Y11.5163
G01 X4.5950 Y11.5151
G01 X4.5705 Y11.5163
G01 X4.5463 Y11.5199
G01 X4.5226 Y11.5258
G01 X4.4995 Y11.5341
G01 X4.4773 Y11.5445
G01 X4.4563 Y11.5571
G01 X4.4367 Y11.5717
G01 X4.4185 Y11.5882
G01 X4.4021 Y11.6063
G01 X4.3875 Y11.6260
G01 X4.3749 Y11.6470
G01 X4.3644 Y11.6691
G01 X4.3562 Y11.6922
G01 X4.3502 Y11.7159
G01 X4.3466 Y11.7402
G01 X4.3454 Y11.7646
G01 X4.3466 Y11.7891
G01 X4.3502 Y11.8133
G01 X4.3562 Y11.8371
G01 X4.3644 Y11.8601
G01 X4.3749 Y11.8823
G01 X4.3875 Y11.9033
G01 X4.4021 Y11.9230
G01 X4.4185 Y11.9411
G01 X4.4367 Y11.9576
G01 X4.4563 Y11.9722
G01 X4.4773 Y11.9847
G01 X4.4995 Y11.9952
G01 X4.5226 Y12.0035
G01 X4.5463 Y12.0094
G01 X4.5705 Y12.0130
G01 X4.5950 Y12.0142
G01 X4.6195 Y12.0130
G01 X4.6437 Y12.0094
G01 X4.6674 Y12.0035
G01 X4.6905 Y11.9952
G01 X4.7127 Y11.9847
G01 X4.7337 Y11.9722
G01 X4.7533 Y11.9576
G01 X4.7715 Y11.9411
G01 X4.7879 Y11.9230
G01 X4.8025 Y11.9033
G01 X4.8151 Y11.8823
G01 X4.8256 Y11.8601
G01 X4.8338 Y11.8371
G01 X4.8398 Y11.8133
G01 X4.8434 Y11.7891
G01 X4.8446 Y11.7646
G00 X4.8446 Y11.7646
G01 F20.00
G01 Z-1.9400
G01 F30.00
G01 X4.8434 Y11.7402
G01 X4.8398 Y11.7159
G01 X4.8338 Y11.6922
G01 X4.8256 Y11.6691
G01 X4.8151 Y11.6470
G01 X4.8025 Y11.6260
G01 X4.7879 Y11.6063
G01 X4.7715 Y11.5882
G01 X4.7533 Y11.5717
G01 X4.7337 Y11.5571
G01 X4.7127 Y11.5445
G01 X4.6905 Y11.5341
G01 X4.6674 Y11.5258
G01 X4.6437 Y11.5199
G01 X4.6195 Y11.5163
G01 X4.5950 Y11.5151
G01 X4.5705 Y11.5163
G01 X4.5463 Y11.5199
G01 X4.5226 Y11.5258
G01 X4.4995 Y11.5341
G01 X4.4773 Y11.5445
G01 X4.4563 Y11.5571
G01 X4.4367 Y11.5717
G01 X4.4185 Y11.5882
G01 X4.4021 Y11.6063
G01 X4.3875 Y11.6260
G01 X4.3749 Y11.6470
G01 X4.3644 Y11.6691
G01 X4.3562 Y11.6922
G01 X4.3502 Y11.7159
G01 X4.3466 Y11.7402
G01 X4.3454 Y11.7646
G01 X4.3466 Y11.7891
G01 X4.3502 Y11.8133
G01 X4.3562 Y11.8371
G01 X4.3644 Y11.8601
G01 X4.3749 Y11.8823
G01 X4.3875 Y11.9033
G01 X4.4021 Y11.9230
G01 X4.4185 Y11.9411
G01 X4.4367 Y11.9576
G01 X4.4563 Y11.9722
G01 X4.4773 Y11.9847
G01 X4.4995 Y11.9952
G01 X4.5226 Y12.0035
G01 X4.5463 Y12.0094
G01 X4.5705 Y12.0130
G01 X4.5950 Y12.0142
G01 X4.6195 Y12.0130
G01 X4.6437 Y12.0094
G01 X4.6674 Y12.0035
G01 X4.6905 Y11.9952
G01 X4.7127 Y11.9847
G01 X4.7337 Y11.9722
G01 X4.7533 Y11.9576
G01 X4.7715 Y11.9411
G01 X4.7879 Y11.9230
G01 X4.8025 Y11.9033
G01 X4.8151 Y11.8823
G01 X4.8256 Y11.8601
G01 X4.8338 Y11.8371
G01 X4.8398 Y11.8133
G01 X4.8434 Y11.7891
G01 X4.8446 Y11.7646
G00 Z1.0000
G00 X3.4536 Y14.7146
G01 F20.00
G01 Z-0.4850
G01 F30.00
G01 X3.7364 Y14.7146
G01 X3.7499 Y14.7140
G01 X3.7547 Y14.7133
G01 X3.7640 Y14.7104
G01 X3.7725 Y14.7059
G01 X3.7801 Y14.6997
G01 X3.7862 Y14.6922
G01 X3.7908 Y14.6836
G01 X3.7936 Y14.6743
G01 X3.7946 Y14.6646
G01 X3.7936 Y14.6550
G01 X3.7924 Y14.6502
G01 X3.7887 Y14.6413
G01 X3.7833 Y14.6332
G01 X3.7765 Y14.6263
G01 X3.7725 Y14.6234
G01 X3.7640 Y14.6188
G01 X3.7547 Y14.6160
G01 X3.7499 Y14.6153
G01 X3.7364 Y14.6146
G01 X3.4536 Y14.6146
G01 X3.4401 Y14.6153
G01 X3.4353 Y14.6160
G01 X3.4260 Y14.6188
G01 X3.4175 Y14.6234
G01 X3.4099 Y14.6296
G01 X3.4038 Y14.6371
G01 X3.3992 Y14.6457
G01 X3.3964 Y14.6550
G01 X3.3954 Y14.6646
G01 X3.3964 Y14.6743
G01 X3.3992 Y14.6836
G01 X3.4038 Y14.6922
G01 X3.4099 Y14.6997
G01 X3.4175 Y14.7059
G01 X3.4260 Y14.7104
G01 X3.4353 Y14.7133
G01 X3.4401 Y14.7140
G01 X3.4536 Y14.7146
G00 X3.4536 Y14.7146
G01 F20.00
G01 Z-0.9700
G01 F30.00
G01 X3.7364 Y14.7146
G01 X3.7499 Y14.7140
G01 X3.7547 Y14.7133
G01 X3.7640 Y14.7104
G01 X3.7725 Y14.7059
G01 X3.7801 Y14.6997
G01 X3.7862 Y14.6922
G01 X3.7908 Y14.6836
G01 X3.7936 Y14.6743
G01 X3.7946 Y14.6646
G01 X3.7936 Y14.6550
G01 X3.7924 Y14.6502
G01 X3.7887 Y14.6413
G01 X3.7833 Y14.6332
G01 X3.7765 Y14.6263
G01 X3.7725 Y14.6234
G01 X3.7640 Y14.6188
G01 X3.7547 Y14.6160
G01 X3.7499 Y14.6153
G01 X3.7364 Y14.6146
G01 X3.4536 Y14.6146
G01 X3.4401 Y14.6153
G01 X3.4353 Y14.6160
G01 X3.4260 Y14.6188
G01 X3.4175 Y14.6234
G01 X3.4099 Y14.6296
G01 X3.4038 Y14.6371
G01 X3.3992 Y14.6457
G01 X3.3964 Y14.6550
G01 X3.3954 Y14.6646
G01 X3.3964 Y14.6743
G01 X3.3992 Y14.6836
G01 X3.4038 Y14.6922
G01 X3.4099 Y14.6997
G01 X3.4175 Y14.7059
G01 X3.4260 Y14.7104
G01 X3.4353 Y14.7133
G01 X3.4401 Y14.7140
G01 X3.4536 Y14.7146
G00 X3.4536 Y14.7146
G01 F20.00
G01 Z-1.4550
G01 F30.00
G01 X3.7364 Y14.7146
G01 X3.7499 Y14.7140
G01 X3.7547 Y14.7133
G01 X3.7640 Y14.7104
G01 X3.7725 Y14.7059
G01 X3.7801 Y14.6997
G01 X3.7862 Y14.6922
G01 X3.7908 Y14.6836
G01 X3.7936 Y14.6743
G01 X3.7946 Y14.6646
G01 X3.7936 Y14.6550
G01 X3.7924 Y14.6502
G01 X3.7887 Y14.6413
G01 X3.7833 Y14.6332
G01 X3.7765 Y14.6263
G01 X3.7725 Y14.6234
G01 X3.7640 Y14.6188
G01 X3.7547 Y14.6160
G01 X3.7499 Y14.6153
G01 X3.7364 Y14.6146
G01 X3.4536 Y14.6146
G01 X3.4401 Y14.6153
G01 X3.4353 Y14.6160
G01 X3.4260 Y14.6188
G01 X3.4175 Y14.6234
G01 X3.4099 Y14.6296
G01 X3.4038 Y14.6371
G01 X3.3992 Y14.6457
G01 X3.3964 Y14.6550
G01 X3.3954 Y14.6646
G01 X3.3964 Y14.6743
G01 X3.3992 Y14.6836
G01 X3.4038 Y14.6922
G01 X3.4099 Y14.6997
G01 X3.4175 Y14.7059
G01 X3.4260 Y14.7104
G01 X3.4353 Y14.7133
G01 X3.4401 Y14.7140
G01 X3.4536 Y14.7146
G00 X3.4536 Y14.7146
G01 F20.00
G01 Z-1.9400
G01 F30.00
G01 X3.7364 Y14.7146
G01 X3.7499 Y14.7140
G01 X3.7547 Y14.7133
G01 X3.7640 Y14.7104
G01 X3.7725 Y14.7059
G01 X3.7801 Y14.6997
G01 X3.7862 Y14.6922
G01 X3.7908 Y14.6836
G01 X3.7936 Y14.6743
G01 X3.7946 Y14.6646
G01 X3.7936 Y14.6550
G01 X3.7924 Y14.6502
G01 X3.7887 Y14.6413
G01 X3.7833 Y14.6332
G01 X3.7765 Y14.6263
G01 X3.7725 Y14.6234
G01 X3.7640 Y14.6188
G01 X3.7547 Y14.6160
G01 X3.7499 Y14.6153
G01 X3.7364 Y14.6146
G01 X3.4536 Y14.6146
G01 X3.4401 Y14.6153
G01 X3.4353 Y14.6160
G01 X3.4260 Y14.6188
G01 X3.4175 Y14.6234
G01 X3.4099 Y14.6296
G01 X3.4038 Y14.6371
G01 X3.3992 Y14.6457
G01 X3.3964 Y14.6550
G01 X3.3954 Y14.6646
G01 X3.3964 Y14.6743
G01 X3.3992 Y14.6836
G01 X3.4038 Y14.6922
G01 X3.4099 Y14.6997
G01 X3.4175 Y14.7059
G01 X3.4260 Y14.7104
G01 X3.4353 Y14.7133
G01 X3.4401 Y14.7140
G01 X3.4536 Y14.7146
G00 Z1.0000
G00 X10.1536 Y14.7146
G01 F20.00
G01 Z-0.4850
G01 F30.00
G01 X10.4364 Y14.7146
G01 X10.4499 Y14.7140
G01 X10.4547 Y14.7133
G01 X10.4640 Y14.7104
G01 X10.4725 Y14.7059
G01 X10.4801 Y14.6997
G01 X10.4862 Y14.6922
G01 X10.4908 Y14.6836
G01 X10.4936 Y14.6743
G01 X10.4946 Y14.6646
G01 X10.4936 Y14.6550
G01 X10.4924 Y14.6502
G01 X10.4887 Y14.6413
G01 X10.4833 Y14.6332
G01 X10.4765 Y14.6263
G01 X10.4725 Y14.6234
G01 X10.4640 Y14.6188
G01 X10.4547 Y14.6160
G01 X10.4499 Y14.6153
G01 X10.4364 Y14.6146
G01 X10.1536 Y14.6146
G01 X10.1401 Y14.6153
G01 X10.1353 Y14.6160
G01 X10.1260 Y14.6188
G01 X10.1175 Y14.6234
G01 X10.1099 Y14.6296
G01 X10.1038 Y14.6371
G01 X10.0992 Y14.6457
G01 X10.0964 Y14.6550
G01 X10.0954 Y14.6646
G01 X10.0964 Y14.6743
G01 X10.0992 Y14.6836
G01 X10.1038 Y14.6922
G01 X10.1099 Y14.6997
G01 X10.1175 Y14.7059
G01 X10.1260 Y14.7104
G01 X10.1353 Y14.7133
G01 X10.1401 Y14.7140
G01 X10.1536 Y14.7146
G00 X10.1536 Y14.7146
G01 F20.00
G01 Z-0.9700
G01 F30.00
G01 X10.4364 Y14.7146
G01 X10.4499 Y14.7140
G01 X10.4547 Y14.7133
G01 X10.4640 Y14.7104
G01 X10.4725 Y14.7059
G01 X10.4801 Y14.6997
G01 X10.4862 Y14.6922
G01 X10.4908 Y14.6836
G01 X10.4936 Y14.6743
G01 X10.4946 Y14.6646
G01 X10.4936 Y14.6550
G01 X10.4924 Y14.6502
G01 X10.4887 Y14.6413
G01 X10.4833 Y14.6332
G01 X10.4765 Y14.6263
G01 X10.4725 Y14.6234
G01 X10.4640 Y14.6188
G01 X10.4547 Y14.6160
G01 X10.4499 Y14.6153
G01 X10.4364 Y14.6146
G01 X10.1536 Y14.6146
G01 X10.1401 Y14.6153
G01 X10.1353 Y14.6160
G01 X10.1260 Y14.6188
G01 X10.1175 Y14.6234
G01 X10.1099 Y14.6296
G01 X10.1038 Y14.6371
G01 X10.0992 Y14.6457
G01 X10.0964 Y14.6550
G01 X10.0954 Y14.6646
G01 X10.0964 Y14.6743
G01 X10.0992 Y14.6836
G01 X10.1038 Y14.6922
G01 X10.1099 Y14.6997
G01 X10.1175 Y14.7059
G01 X10.1260 Y14.7104
G01 X10.1353 Y14.7133
G01 X10.1401 Y14.7140
G01 X10.1536 Y14.7146
G00 X10.1536 Y14.7146
G01 F20.00
G01 Z-1.4550
G01 F30.00
G01 X10.4364 Y14.7146
G01 X10.4499 Y14.7140
G01 X10.4547 Y14.7133
G01 X10.4640 Y14.7104
G01 X10.4725 Y14.7059
G01 X10.4801 Y14.6997
G01 X10.4862 Y14.6922
G01 X10.4908 Y14.6836
G01 X10.4936 Y14.6743
G01 X10.4946 Y14.6646
G01 X10.4936 Y14.6550
G01 X10.4924 Y14.6502
G01 X10.4887 Y14.6413
G01 X10.4833 Y14.6332
G01 X10.4765 Y14.6263
G01 X10.4725 Y14.6234
G01 X10.4640 Y14.6188
G01 X10.4547 Y14.6160
G01 X10.4499 Y14.6153
G01 X10.4364 Y14.6146
G01 X10.1536 Y14.6146
G01 X10.1401 Y14.6153
G01 X10.1353 Y14.6160
G01 X10.1260 Y14.6188
G01 X10.1175 Y14.6234
G01 X10.1099 Y14.6296
G01 X10.1038 Y14.6371
G01 X10.0992 Y14.6457
G01 X10.0964 Y14.6550
G01 X10.0954 Y14.6646
G01 X10.0964 Y14.6743
G01 X10.0992 Y14.6836
G01 X10.1038 Y14.6922
G01 X10.1099 Y14.6997
G01 X10.1175 Y14.7059
G01 X10.1260 Y14.7104
G01 X10.1353 Y14.7133
G01 X10.1401 Y14.7140
G01 X10.1536 Y14.7146
G00 X10.1536 Y14.7146
G01 F20.00
G01 Z-1.9400
G01 F30.00
G01 X10.4364 Y14.7146
G01 X10.4499 Y14.7140
G01 X10.4547 Y14.7133
G01 X10.4640 Y14.7104
G01 X10.4725 Y14.7059
G01 X10.4801 Y14.6997
G01 X10.4862 Y14.6922
G01 X10.4908 Y14.6836
G01 X10.4936 Y14.6743
G01 X10.4946 Y14.6646
G01 X10.4936 Y14.6550
G01 X10.4924 Y14.6502
G01 X10.4887 Y14.6413
G01 X10.4833 Y14.6332
G01 X10.4765 Y14.6263
G01 X10.4725 Y14.6234
G01 X10.4640 Y14.6188
G01 X10.4547 Y14.6160
G01 X10.4499 Y14.6153
G01 X10.4364 Y14.6146
G01 X10.1536 Y14.6146
G01 X10.1401 Y14.6153
G01 X10.1353 Y14.6160
G01 X10.1260 Y14.6188
G01 X10.1175 Y14.6234
G01 X10.1099 Y14.6296
G01 X10.1038 Y14.6371
G01 X10.0992 Y14.6457
G01 X10.0964 Y14.6550
G01 X10.0954 Y14.6646
G01 X10.0964 Y14.6743
G01 X10.0992 Y14.6836
G01 X10.1038 Y14.6922
G01 X10.1099 Y14.6997
G01 X10.1175 Y14.7059
G01 X10.1260 Y14.7104
G01 X10.1353 Y14.7133
G01 X10.1401 Y14.7140
G01 X10.1536 Y14.7146
G00 Z1.0000
G00 X10.8446 Y11.7646
G01 F20.00
G01 Z-0.4850
G01 F30.00
G01 X10.8434 Y11.7402
G01 X10.8398 Y11.7159
G01 X10.8338 Y11.6922
G01 X10.8256 Y11.6691
G01 X10.8151 Y11.6470
G01 X10.8025 Y11.6260
G01 X10.7879 Y11.6063
G01 X10.7715 Y11.5882
G01 X10.7533 Y11.5717
G01 X10.7337 Y11.5571
G01 X10.7127 Y11.5445
G01 X10.6905 Y11.5341
G01 X10.6674 Y11.5258
G01 X10.6437 Y11.5199
G01 X10.6195 Y11.5163
G01 X10.5950 Y11.5151
G01 X10.5705 Y11.5163
G01 X10.5463 Y11.5199
G01 X10.5226 Y11.5258
G01 X10.4995 Y11.5341
G01 X10.4773 Y11.5445
G01 X10.4563 Y11.5571
G01 X10.4367 Y11.5717
G01 X10.4185 Y11.5882
G01 X10.4021 Y11.6063
G01 X10.3875 Y11.6260
G01 X10.3749 Y11.6470
G01 X10.3644 Y11.6691
G01 X10.3562 Y11.6922
G01 X10.3502 Y11.7159
G01 X10.3466 Y11.7402
G01 X10.3454 Y11.7646
G01 X10.3466 Y11.7891
G01 X10.3502 Y11.8133
G01 X10.3562 Y11.8371
G01 X10.3644 Y11.8601
G01 X10.3749 Y11.8823
G01 X10.3875 Y11.9033
G01 X10.4021 Y11.9230
G01 X10.4185 Y11.9411
G01 X10.4367 Y11.9576
G01 X10.4563 Y11.9722
G01 X10.4773 Y11.9847
G01 X10.4995 Y11.9952
G01 X10.5226 Y12.0035
G01 X10.5463 Y12.0094
G01 X10.5705 Y12.0130
G01 X10.5950 Y12.0142
G01 X10.6195 Y12.0130
G01 X10.6437 Y12.0094
G01 X10.6674 Y12.0035
G01 X10.6905 Y11.9952
G01 X10.7127 Y11.9847
G01 X10.7337 Y11.9722
G01 X10.7533 Y11.9576
G01 X10.7715 Y11.9411
G01 X10.7879 Y11.9230
G01 X10.8025 Y11.9033
G01 X10.8151 Y11.8823
G01 X10.8256 Y11.8601
G01 X10.8338 Y11.8371
G01 X10.8398 Y11.8133
G01 X10.8434 Y11.7891
G01 X10.8446 Y11.7646
G00 X10.8446 Y11.7646
G01 F20.00
G01 Z-0.9700
G01 F30.00
G01 X10.8434 Y11.7402
G01 X10.8398 Y11.7159
G01 X10.8338 Y11.6922
G01 X10.8256 Y11.6691
G01 X10.8151 Y11.6470
G01 X10.8025 Y11.6260
G01 X10.7879 Y11.6063
G01 X10.7715 Y11.5882
G01 X10.7533 Y11.5717
G01 X10.7337 Y11.5571
G01 X10.7127 Y11.5445
G01 X10.6905 Y11.5341
G01 X10.6674 Y11.5258
G01 X10.6437 Y11.5199
G01 X10.6195 Y11.5163
G01 X10.5950 Y11.5151
G01 X10.5705 Y11.5163
G01 X10.5463 Y11.5199
G01 X10.5226 Y11.5258
G01 X10.4995 Y11.5341
G01 X10.4773 Y11.5445
G01 X10.4563 Y11.5571
G01 X10.4367 Y11.5717
G01 X10.4185 Y11.5882
G01 X10.4021 Y11.6063
G01 X10.3875 Y11.6260
G01 X10.3749 Y11.6470
G01 X10.3644 Y11.6691
G01 X10.3562 Y11.6922
G01 X10.3502 Y11.7159
G01 X10.3466 Y11.7402
G01 X10.3454 Y11.7646
G01 X10.3466 Y11.7891
G01 X10.3502 Y11.8133
G01 X10.3562 Y11.8371
G01 X10.3644 Y11.8601
G01 X10.3749 Y11.8823
G01 X10.3875 Y11.9033
G01 X10.4021 Y11.9230
G01 X10.4185 Y11.9411
G01 X10.4367 Y11.9576
G01 X10.4563 Y11.9722
G01 X10.4773 Y11.9847
G01 X10.4995 Y11.9952
G01 X10.5226 Y12.0035
G01 X10.5463 Y12.0094
G01 X10.5705 Y12.0130
G01 X10.5950 Y12.0142
G01 X10.6195 Y12.0130
G01 X10.6437 Y12.0094
G01 X10.6674 Y12.0035
G01 X10.6905 Y11.9952
G01 X10.7127 Y11.9847
G01 X10.7337 Y11.9722
G01 X10.7533 Y11.9576
G01 X10.7715 Y11.9411
G01 X10.7879 Y11.9230
G01 X10.8025 Y11.9033
G01 X10.8151 Y11.8823
G01 X10.8256 Y11.8601
G01 X10.8338 Y11.8371
G01 X10.8398 Y11.8133
G01 X10.8434 Y11.7891
G01 X10.8446 Y11.7646
G00 X10.8446 Y11.7646
G01 F20.00
G01 Z-1.4550
G01 F30.00
G01 X10.8434 Y11.7402
G01 X10.8398 Y11.7159
G01 X10.8338 Y11.6922
G01 X10.8256 Y11.6691
G01 X10.8151 Y11.6470
G01 X10.8025 Y11.6260
G01 X10.7879 Y11.6063
G01 X10.7715 Y11.5882
G01 X10.7533 Y11.5717
G01 X10.7337 Y11.5571
G01 X10.7127 Y11.5445
G01 X10.6905 Y11.5341
G01 X10.6674 Y11.5258
G01 X10.6437 Y11.5199
G01 X10.6195 Y11.5163
G01 X10.5950 Y11.5151
G01 X10.5705 Y11.5163
G01 X10.5463 Y11.5199
G01 X10.5226 Y11.5258
G01 X10.4995 Y11.5341
G01 X10.4773 Y11.5445
G01 X10.4563 Y11.5571
G01 X10.4367 Y11.5717
G01 X10.4185 Y11.5882
G01 X10.4021 Y11.6063
G01 X10.3875 Y11.6260
G01 X10.3749 Y11.6470
G01 X10.3644 Y11.6691
G01 X10.3562 Y11.6922
G01 X10.3502 Y11.7159
G01 X10.3466 Y11.7402
G01 X10.3454 Y11.7646
G01 X10.3466 Y11.7891
G01 X10.3502 Y11.8133
G01 X10.3562 Y11.8371
G01 X10.3644 Y11.8601
G01 X10.3749 Y11.8823
G01 X10.3875 Y11.9033
G01 X10.4021 Y11.9230
G01 X10.4185 Y11.9411
G01 X10.4367 Y11.9576
G01 X10.4563 Y11.9722
G01 X10.4773 Y11.9847
G01 X10.4995 Y11.9952
G01 X10.5226 Y12.0035
G01 X10.5463 Y12.0094
G01 X10.5705 Y12.0130
G01 X10.5950 Y12.0142
G01 X10.6195 Y12.0130
G01 X10.6437 Y12.0094
G01 X10.6674 Y12.0035
G01 X10.6905 Y11.9952
G01 X10.7127 Y11.9847
G01 X10.7337 Y11.9722
G01 X10.7533 Y11.9576
G01 X10.7715 Y11.9411
G01 X10.7879 Y11.9230
G01 X10.8025 Y11.9033
G01 X10.8151 Y11.8823
G01 X10.8256 Y11.8601
G01 X10.8338 Y11.8371
G01 X10.8398 Y11.8133
G01 X10.8434 Y11.7891
G01 X10.8446 Y11.7646
G00 X10.8446 Y11.7646
G01 F20.00
G01 Z-1.9400
G01 F30.00
G01 X10.8434 Y11.7402
G01 X10.8398 Y11.7159
G01 X10.8338 Y11.6922
G01 X10.8256 Y11.6691
G01 X10.8151 Y11.6470
G01 X10.8025 Y11.6260
G01 X10.7879 Y11.6063
G01 X10.7715 Y11.5882
G01 X10.7533 Y11.5717
G01 X10.7337 Y11.5571
G01 X10.7127 Y11.5445
G01 X10.6905 Y11.5341
G01 X10.6674 Y11.5258
G01 X10.6437 Y11.5199
G01 X10.6195 Y11.5163
G01 X10.5950 Y11.5151
G01 X10.5705 Y11.5163
G01 X10.5463 Y11.5199
G01 X10.5226 Y11.5258
G01 X10.4995 Y11.5341
G01 X10.4773 Y11.5445
G01 X10.4563 Y11.5571
G01 X10.4367 Y11.5717
G01 X10.4185 Y11.5882
G01 X10.4021 Y11.6063
G01 X10.3875 Y11.6260
G01 X10.3749 Y11.6470
G01 X10.3644 Y11.6691
G01 X10.3562 Y11.6922
G01 X10.3502 Y11.7159
G01 X10.3466 Y11.7402
G01 X10.3454 Y11.7646
G01 X10.3466 Y11.7891
G01 X10.3502 Y11.8133
G01 X10.3562 Y11.8371
G01 X10.3644 Y11.8601
G01 X10.3749 Y11.8823
G01 X10.3875 Y11.9033
G01 X10.4021 Y11.9230
G01 X10.4185 Y11.9411
G01 X10.4367 Y11.9576
G01 X10.4563 Y11.9722
G01 X10.4773 Y11.9847
G01 X10.4995 Y11.9952
G01 X10.5226 Y12.0035
G01 X10.5463 Y12.0094
G01 X10.5705 Y12.0130
G01 X10.5950 Y12.0142
G01 X10.6195 Y12.0130
G01 X10.6437 Y12.0094
G01 X10.6674 Y12.0035
G01 X10.6905 Y11.9952
G01 X10.7127 Y11.9847
G01 X10.7337 Y11.9722
G01 X10.7533 Y11.9576
G01 X10.7715 Y11.9411
G01 X10.7879 Y11.9230
G01 X10.8025 Y11.9033
G01 X10.8151 Y11.8823
G01 X10.8256 Y11.8601
G01 X10.8338 Y11.8371
G01 X10.8398 Y11.8133
G01 X10.8434 Y11.7891
G01 X10.8446 Y11.7646
G00 Z1.0000
G00 X10.1536 Y8.9146
G01 F20.00
G01 Z-0.4850
G01 F30.00
G01 X10.4364 Y8.9146
G01 X10.4499 Y8.9140
G01 X10.4547 Y8.9133
G01 X10.4640 Y8.9104
G01 X10.4725 Y8.9059
G01 X10.4801 Y8.8997
G01 X10.4862 Y8.8922
G01 X10.4908 Y8.8836
G01 X10.4936 Y8.8743
G01 X10.4946 Y8.8646
G01 X10.4936 Y8.8550
G01 X10.4924 Y8.8502
G01 X10.4887 Y8.8413
G01 X10.4833 Y8.8332
G01 X10.4765 Y8.8263
G01 X10.4725 Y8.8234
G01 X10.4640 Y8.8188
G01 X10.4547 Y8.8160
G01 X10.4499 Y8.8153
G01 X10.4364 Y8.8146
G01 X10.1536 Y8.8146
G01 X10.1401 Y8.8153
G01 X10.1353 Y8.8160
G01 X10.1260 Y8.8188
G01 X10.1175 Y8.8234
G01 X10.1099 Y8.8296
G01 X10.1038 Y8.8371
G01 X10.0992 Y8.8457
G01 X10.0964 Y8.8550
G01 X10.0954 Y8.8646
G01 X10.0964 Y8.8743
G01 X10.0992 Y8.8836
G01 X10.1038 Y8.8922
G01 X10.1099 Y8.8997
G01 X10.1175 Y8.9059
G01 X10.1260 Y8.9104
G01 X10.1353 Y8.9133
G01 X10.1401 Y8.9140
G01 X10.1536 Y8.9146
G00 X10.1536 Y8.9146
G01 F20.00
G01 Z-0.9700
G01 F30.00
G01 X10.4364 Y8.9146
G01 X10.4499 Y8.9140
G01 X10.4547 Y8.9133
G01 X10.4640 Y8.9104
G01 X10.4725 Y8.9059
G01 X10.4801 Y8.8997
G01 X10.4862 Y8.8922
G01 X10.4908 Y8.8836
G01 X10.4936 Y8.8743
G01 X10.4946 Y8.8646
G01 X10.4936 Y8.8550
G01 X10.4924 Y8.8502
G01 X10.4887 Y8.8413
G01 X10.4833 Y8.8332
G01 X10.4765 Y8.8263
G01 X10.4725 Y8.8234
G01 X10.4640 Y8.8188
G01 X10.4547 Y8.8160
G01 X10.4499 Y8.8153
G01 X10.4364 Y8.8146
G01 X10.1536 Y8.8146
G01 X10.1401 Y8.8153
G01 X10.1353 Y8.8160
G01 X10.1260 Y8.8188
G01 X10.1175 Y8.8234
G01 X10.1099 Y8.8296
G01 X10.1038 Y8.8371
G01 X10.0992 Y8.8457
G01 X10.0964 Y8.8550
G01 X10.0954 Y8.8646
G01 X10.0964 Y8.8743
G01 X10.0992 Y8.8836
G01 X10.1038 Y8.8922
G01 X10.1099 Y8.8997
G01 X10.1175 Y8.9059
G01 X10.1260 Y8.9104
G01 X10.1353 Y8.9133
G01 X10.1401 Y8.9140
G01 X10.1536 Y8.9146
G00 X10.1536 Y8.9146
G01 F20.00
G01 Z-1.4550
G01 F30.00
G01 X10.4364 Y8.9146
G01 X10.4499 Y8.9140
G01 X10.4547 Y8.9133
G01 X10.4640 Y8.9104
G01 X10.4725 Y8.9059
G01 X10.4801 Y8.8997
G01 X10.4862 Y8.8922
G01 X10.4908 Y8.8836
G01 X10.4936 Y8.8743
G01 X10.4946 Y8.8646
G01 X10.4936 Y8.8550
G01 X10.4924 Y8.8502
G01 X10.4887 Y8.8413
G01 X10.4833 Y8.8332
G01 X10.4765 Y8.8263
G01 X10.4725 Y8.8234
G01 X10.4640 Y8.8188
G01 X10.4547 Y8.8160
G01 X10.4499 Y8.8153
G01 X10.4364 Y8.8146
G01 X10.1536 Y8.8146
G01 X10.1401 Y8.8153
G01 X10.1353 Y8.8160
G01 X10.1260 Y8.8188
G01 X10.1175 Y8.8234
G01 X10.1099 Y8.8296
G01 X10.1038 Y8.8371
G01 X10.0992 Y8.8457
G01 X10.0964 Y8.8550
G01 X10.0954 Y8.8646
G01 X10.0964 Y8.8743
G01 X10.0992 Y8.8836
G01 X10.1038 Y8.8922
G01 X10.1099 Y8.8997
G01 X10.1175 Y8.9059
G01 X10.1260 Y8.9104
G01 X10.1353 Y8.9133
G01 X10.1401 Y8.9140
G01 X10.1536 Y8.9146
G00 X10.1536 Y8.9146
G01 F20.00
G01 Z-1.9400
G01 F30.00
G01 X10.4364 Y8.9146
G01 X10.4499 Y8.9140
G01 X10.4547 Y8.9133
G01 X10.4640 Y8.9104
G01 X10.4725 Y8.9059
G01 X10.4801 Y8.8997
G01 X10.4862 Y8.8922
G01 X10.4908 Y8.8836
G01 X10.4936 Y8.8743
G01 X10.4946 Y8.8646
G01 X10.4936 Y8.8550
G01 X10.4924 Y8.8502
G01 X10.4887 Y8.8413
G01 X10.4833 Y8.8332
G01 X10.4765 Y8.8263
G01 X10.4725 Y8.8234
G01 X10.4640 Y8.8188
G01 X10.4547 Y8.8160
G01 X10.4499 Y8.8153
G01 X10.4364 Y8.8146
G01 X10.1536 Y8.8146
G01 X10.1401 Y8.8153
G01 X10.1353 Y8.8160
G01 X10.1260 Y8.8188
G01 X10.1175 Y8.8234
G01 X10.1099 Y8.8296
G01 X10.1038 Y8.8371
G01 X10.0992 Y8.8457
G01 X10.0964 Y8.8550
G01 X10.0954 Y8.8646
G01 X10.0964 Y8.8743
G01 X10.0992 Y8.8836
G01 X10.1038 Y8.8922
G01 X10.1099 Y8.8997
G01 X10.1175 Y8.9059
G01 X10.1260 Y8.9104
G01 X10.1353 Y8.9133
G01 X10.1401 Y8.9140
G01 X10.1536 Y8.9146
G00 Z1.0000
G00 X6.8536 Y8.9146
G01 F20.00
G01 Z-0.4850
G01 F30.00
G01 X7.1364 Y8.9146
G01 X7.1499 Y8.9140
G01 X7.1547 Y8.9133
G01 X7.1640 Y8.9104
G01 X7.1725 Y8.9059
G01 X7.1801 Y8.8997
G01 X7.1862 Y8.8922
G01 X7.1908 Y8.8836
G01 X7.1936 Y8.8743
G01 X7.1946 Y8.8646
G01 X7.1936 Y8.8550
G01 X7.1908 Y8.8457
G01 X7.1862 Y8.8371
G01 X7.1801 Y8.8296
G01 X7.1765 Y8.8263
G01 X7.1725 Y8.8234
G01 X7.1640 Y8.8188
G01 X7.1547 Y8.8160
G01 X7.1499 Y8.8153
G01 X7.1364 Y8.8146
G01 X6.8536 Y8.8146
G01 X6.8401 Y8.8153
G01 X6.8353 Y8.8160
G01 X6.8260 Y8.8188
G01 X6.8175 Y8.8234
G01 X6.8099 Y8.8296
G01 X6.8038 Y8.8371
G01 X6.7992 Y8.8457
G01 X6.7964 Y8.8550
G01 X6.7954 Y8.8646
G01 X6.7964 Y8.8743
G01 X6.7992 Y8.8836
G01 X6.8038 Y8.8922
G01 X6.8099 Y8.8997
G01 X6.8175 Y8.9059
G01 X6.8260 Y8.9104
G01 X6.8353 Y8.9133
G01 X6.8401 Y8.9140
G01 X6.8536 Y8.9146
G00 X6.8536 Y8.9146
G01 F20.00
G01 Z-0.9700
G01 F30.00
G01 X7.1364 Y8.9146
G01 X7.1499 Y8.9140
G01 X7.1547 Y8.9133
G01 X7.1640 Y8.9104
G01 X7.1725 Y8.9059
G01 X7.1801 Y8.8997
G01 X7.1862 Y8.8922
G01 X7.1908 Y8.8836
G01 X7.1936 Y8.8743
G01 X7.1946 Y8.8646
G01 X7.1936 Y8.8550
G01 X7.1908 Y8.8457
G01 X7.1862 Y8.8371
G01 X7.1801 Y8.8296
G01 X7.1765 Y8.8263
G01 X7.1725 Y8.8234
G01 X7.1640 Y8.8188
G01 X7.1547 Y8.8160
G01 X7.1499 Y8.8153
G01 X7.1364 Y8.8146
G01 X6.8536 Y8.8146
G01 X6.8401 Y8.8153
G01 X6.8353 Y8.8160
G01 X6.8260 Y8.8188
G01 X6.8175 Y8.8234
G01 X6.8099 Y8.8296
G01 X6.8038 Y8.8371
G01 X6.7992 Y8.8457
G01 X6.7964 Y8.8550
G01 X6.7954 Y8.8646
G01 X6.7964 Y8.8743
G01 X6.7992 Y8.8836
G01 X6.8038 Y8.8922
G01 X6.8099 Y8.8997
G01 X6.8175 Y8.9059
G01 X6.8260 Y8.9104
G01 X6.8353 Y8.9133
G01 X6.8401 Y8.9140
G01 X6.8536 Y8.9146
G00 X6.8536 Y8.9146
G01 F20.00
G01 Z-1.4550
G01 F30.00
G01 X7.1364 Y8.9146
G01 X7.1499 Y8.9140
G01 X7.1547 Y8.9133
G01 X7.1640 Y8.9104
G01 X7.1725 Y8.9059
G01 X7.1801 Y8.8997
G01 X7.1862 Y8.8922
G01 X7.1908 Y8.8836
G01 X7.1936 Y8.8743
G01 X7.1946 Y8.8646
G01 X7.1936 Y8.8550
G01 X7.1908 Y8.8457
G01 X7.1862 Y8.8371
G01 X7.1801 Y8.8296
G01 X7.1765 Y8.8263
G01 X7.1725 Y8.8234
G01 X7.1640 Y8.8188
G01 X7.1547 Y8.8160
G01 X7.1499 Y8.8153
G01 X7.1364 Y8.8146
G01 X6.8536 Y8.8146
G01 X6.8401 Y8.8153
G01 X6.8353 Y8.8160
G01 X6.8260 Y8.8188
G01 X6.8175 Y8.8234
G01 X6.8099 Y8.8296
G01 X6.8038 Y8.8371
G01 X6.7992 Y8.8457
G01 X6.7964 Y8.8550
G01 X6.7954 Y8.8646
G01 X6.7964 Y8.8743
G01 X6.7992 Y8.8836
G01 X6.8038 Y8.8922
G01 X6.8099 Y8.8997
G01 X6.8175 Y8.9059
G01 X6.8260 Y8.9104
G01 X6.8353 Y8.9133
G01 X6.8401 Y8.9140
G01 X6.8536 Y8.9146
G00 X6.8536 Y8.9146
G01 F20.00
G01 Z-1.9400
G01 F30.00
G01 X7.1364 Y8.9146
G01 X7.1499 Y8.9140
G01 X7.1547 Y8.9133
G01 X7.1640 Y8.9104
G01 X7.1725 Y8.9059
G01 X7.1801 Y8.8997
G01 X7.1862 Y8.8922
G01 X7.1908 Y8.8836
G01 X7.1936 Y8.8743
G01 X7.1946 Y8.8646
G01 X7.1936 Y8.8550
G01 X7.1908 Y8.8457
G01 X7.1862 Y8.8371
G01 X7.1801 Y8.8296
G01 X7.1765 Y8.8263
G01 X7.1725 Y8.8234
G01 X7.1640 Y8.8188
G01 X7.1547 Y8.8160
G01 X7.1499 Y8.8153
G01 X7.1364 Y8.8146
G01 X6.8536 Y8.8146
G01 X6.8401 Y8.8153
G01 X6.8353 Y8.8160
G01 X6.8260 Y8.8188
G01 X6.8175 Y8.8234
G01 X6.8099 Y8.8296
G01 X6.8038 Y8.8371
G01 X6.7992 Y8.8457
G01 X6.7964 Y8.8550
G01 X6.7954 Y8.8646
G01 X6.7964 Y8.8743
G01 X6.7992 Y8.8836
G01 X6.8038 Y8.8922
G01 X6.8099 Y8.8997
G01 X6.8175 Y8.9059
G01 X6.8260 Y8.9104
G01 X6.8353 Y8.9133
G01 X6.8401 Y8.9140
G01 X6.8536 Y8.9146
G00 Z1.0000
G00 X17.0496 Y12.4546
G01 F20.00
G01 Z-0.4850
G01 F30.00
G01 X17.0486 Y12.4450
G01 X17.0458 Y12.4357
G01 X17.0412 Y12.4271
G01 X17.0351 Y12.4196
G01 X17.0275 Y12.4134
G01 X17.0190 Y12.4088
G01 X17.0097 Y12.4060
G01 X17.0000 Y12.4051
G01 X16.9903 Y12.4060
G01 X16.9810 Y12.4088
G01 X16.9725 Y12.4134
G01 X16.9649 Y12.4196
G01 X16.9588 Y12.4271
G01 X16.9542 Y12.4357
G01 X16.9514 Y12.4450
G01 X16.9504 Y12.4546
G01 X16.9514 Y12.4643
G01 X16.9542 Y12.4736
G01 X16.9588 Y12.4822
G01 X16.9649 Y12.4897
G01 X16.9725 Y12.4959
G01 X16.9810 Y12.5004
G01 X16.9903 Y12.5033
G01 X17.0000 Y12.5042
G01 X17.0097 Y12.5033
G01 X17.0190 Y12.5004
G01 X17.0275 Y12.4959
G01 X17.0351 Y12.4897
G01 X17.0412 Y12.4822
G01 X17.0458 Y12.4736
G01 X17.0486 Y12.4643
G01 X17.0496 Y12.4546
G00 X17.0496 Y12.4546
G01 F20.00
G01 Z-0.9700
G01 F30.00
G01 X17.0486 Y12.4450
G01 X17.0458 Y12.4357
G01 X17.0412 Y12.4271
G01 X17.0351 Y12.4196
G01 X17.0275 Y12.4134
G01 X17.0190 Y12.4088
G01 X17.0097 Y12.4060
G01 X17.0000 Y12.4051
G01 X16.9903 Y12.4060
G01 X16.9810 Y12.4088
G01 X16.9725 Y12.4134
G01 X16.9649 Y12.4196
G01 X16.9588 Y12.4271
G01 X16.9542 Y12.4357
G01 X16.9514 Y12.4450
G01 X16.9504 Y12.4546
G01 X16.9514 Y12.4643
G01 X16.9542 Y12.4736
G01 X16.9588 Y12.4822
G01 X16.9649 Y12.4897
G01 X16.9725 Y12.4959
G01 X16.9810 Y12.5004
G01 X16.9903 Y12.5033
G01 X17.0000 Y12.5042
G01 X17.0097 Y12.5033
G01 X17.0190 Y12.5004
G01 X17.0275 Y12.4959
G01 X17.0351 Y12.4897
G01 X17.0412 Y12.4822
G01 X17.0458 Y12.4736
G01 X17.0486 Y12.4643
G01 X17.0496 Y12.4546
G00 X17.0496 Y12.4546
G01 F20.00
G01 Z-1.4550
G01 F30.00
G01 X17.0486 Y12.4450
G01 X17.0458 Y12.4357
G01 X17.0412 Y12.4271
G01 X17.0351 Y12.4196
G01 X17.0275 Y12.4134
G01 X17.0190 Y12.4088
G01 X17.0097 Y12.4060
G01 X17.0000 Y12.4051
G01 X16.9903 Y12.4060
G01 X16.9810 Y12.4088
G01 X16.9725 Y12.4134
G01 X16.9649 Y12.4196
G01 X16.9588 Y12.4271
G01 X16.9542 Y12.4357
G01 X16.9514 Y12.4450
G01 X16.9504 Y12.4546
G01 X16.9514 Y12.4643
G01 X16.9542 Y12.4736
G01 X16.9588 Y12.4822
G01 X16.9649 Y12.4897
G01 X16.9725 Y12.4959
G01 X16.9810 Y12.5004
G01 X16.9903 Y12.5033
G01 X17.0000 Y12.5042
G01 X17.0097 Y12.5033
G01 X17.0190 Y12.5004
G01 X17.0275 Y12.4959
G01 X17.0351 Y12.4897
G01 X17.0412 Y12.4822
G01 X17.0458 Y12.4736
G01 X17.0486 Y12.4643
G01 X17.0496 Y12.4546
G00 X17.0496 Y12.4546
G01 F20.00
G01 Z-1.9400
G01 F30.00
G01 X17.0486 Y12.4450
G01 X17.0458 Y12.4357
G01 X17.0412 Y12.4271
G01 X17.0351 Y12.4196
G01 X17.0275 Y12.4134
G01 X17.0190 Y12.4088
G01 X17.0097 Y12.4060
G01 X17.0000 Y12.4051
G01 X16.9903 Y12.4060
G01 X16.9810 Y12.4088
G01 X16.9725 Y12.4134
G01 X16.9649 Y12.4196
G01 X16.9588 Y12.4271
G01 X16.9542 Y12.4357
G01 X16.9514 Y12.4450
G01 X16.9504 Y12.4546
G01 X16.9514 Y12.4643
G01 X16.9542 Y12.4736
G01 X16.9588 Y12.4822
G01 X16.9649 Y12.4897
G01 X16.9725 Y12.4959
G01 X16.9810 Y12.5004
G01 X16.9903 Y12.5033
G01 X17.0000 Y12.5042
G01 X17.0097 Y12.5033
G01 X17.0190 Y12.5004
G01 X17.0275 Y12.4959
G01 X17.0351 Y12.4897
G01 X17.0412 Y12.4822
G01 X17.0458 Y12.4736
G01 X17.0486 Y12.4643
G01 X17.0496 Y12.4546
G00 Z1.0000
G00 X17.0496 Y14.9946
G01 F20.00
G01 Z-0.4850
G01 F30.00
G01 X17.0486 Y14.9850
G01 X17.0458 Y14.9757
G01 X17.0412 Y14.9671
G01 X17.0351 Y14.9596
G01 X17.0275 Y14.9534
G01 X17.0190 Y14.9488
G01 X17.0097 Y14.9460
G01 X17.0000 Y14.9451
G01 X16.9903 Y14.9460
G01 X16.9810 Y14.9488
G01 X16.9725 Y14.9534
G01 X16.9649 Y14.9596
G01 X16.9588 Y14.9671
G01 X16.9542 Y14.9757
G01 X16.9514 Y14.9850
G01 X16.9504 Y14.9946
G01 X16.9514 Y15.0043
G01 X16.9542 Y15.0136
G01 X16.9588 Y15.0222
G01 X16.9649 Y15.0297
G01 X16.9725 Y15.0359
G01 X16.9810 Y15.0404
G01 X16.9903 Y15.0433
G01 X17.0000 Y15.0442
G01 X17.0097 Y15.0433
G01 X17.0190 Y15.0404
G01 X17.0275 Y15.0359
G01 X17.0351 Y15.0297
G01 X17.0412 Y15.0222
G01 X17.0458 Y15.0136
G01 X17.0486 Y15.0043
G01 X17.0496 Y14.9946
G00 X17.0496 Y14.9946
G01 F20.00
G01 Z-0.9700
G01 F30.00
G01 X17.0486 Y14.9850
G01 X17.0458 Y14.9757
G01 X17.0412 Y14.9671
G01 X17.0351 Y14.9596
G01 X17.0275 Y14.9534
G01 X17.0190 Y14.9488
G01 X17.0097 Y14.9460
G01 X17.0000 Y14.9451
G01 X16.9903 Y14.9460
G01 X16.9810 Y14.9488
G01 X16.9725 Y14.9534
G01 X16.9649 Y14.9596
G01 X16.9588 Y14.9671
G01 X16.9542 Y14.9757
G01 X16.9514 Y14.9850
G01 X16.9504 Y14.9946
G01 X16.9514 Y15.0043
G01 X16.9542 Y15.0136
G01 X16.9588 Y15.0222
G01 X16.9649 Y15.0297
G01 X16.9725 Y15.0359
G01 X16.9810 Y15.0404
G01 X16.9903 Y15.0433
G01 X17.0000 Y15.0442
G01 X17.0097 Y15.0433
G01 X17.0190 Y15.0404
G01 X17.0275 Y15.0359
G01 X17.0351 Y15.0297
G01 X17.0412 Y15.0222
G01 X17.0458 Y15.0136
G01 X17.0486 Y15.0043
G01 X17.0496 Y14.9946
G00 X17.0496 Y14.9946
G01 F20.00
G01 Z-1.4550
G01 F30.00
G01 X17.0486 Y14.9850
G01 X17.0458 Y14.9757
G01 X17.0412 Y14.9671
G01 X17.0351 Y14.9596
G01 X17.0275 Y14.9534
G01 X17.0190 Y14.9488
G01 X17.0097 Y14.9460
G01 X17.0000 Y14.9451
G01 X16.9903 Y14.9460
G01 X16.9810 Y14.9488
G01 X16.9725 Y14.9534
G01 X16.9649 Y14.9596
G01 X16.9588 Y14.9671
G01 X16.9542 Y14.9757
G01 X16.9514 Y14.9850
G01 X16.9504 Y14.9946
G01 X16.9514 Y15.0043
G01 X16.9542 Y15.0136
G01 X16.9588 Y15.0222
G01 X16.9649 Y15.0297
G01 X16.9725 Y15.0359
G01 X16.9810 Y15.0404
G01 X16.9903 Y15.0433
G01 X17.0000 Y15.0442
G01 X17.0097 Y15.0433
G01 X17.0190 Y15.0404
G01 X17.0275 Y15.0359
G01 X17.0351 Y15.0297
G01 X17.0412 Y15.0222
G01 X17.0458 Y15.0136
G01 X17.0486 Y15.0043
G01 X17.0496 Y14.9946
G00 X17.0496 Y14.9946
G01 F20.00
G01 Z-1.9400
G01 F30.00
G01 X17.0486 Y14.9850
G01 X17.0458 Y14.9757
G01 X17.0412 Y14.9671
G01 X17.0351 Y14.9596
G01 X17.0275 Y14.9534
G01 X17.0190 Y14.9488
G01 X17.0097 Y14.9460
G01 X17.0000 Y14.9451
G01 X16.9903 Y14.9460
G01 X16.9810 Y14.9488
G01 X16.9725 Y14.9534
G01 X16.9649 Y14.9596
G01 X16.9588 Y14.9671
G01 X16.9542 Y14.9757
G01 X16.9514 Y14.9850
G01 X16.9504 Y14.9946
G01 X16.9514 Y15.0043
G01 X16.9542 Y15.0136
G01 X16.9588 Y15.0222
G01 X16.9649 Y15.0297
G01 X16.9725 Y15.0359
G01 X16.9810 Y15.0404
G01 X16.9903 Y15.0433
G01 X17.0000 Y15.0442
G01 X17.0097 Y15.0433
G01 X17.0190 Y15.0404
G01 X17.0275 Y15.0359
G01 X17.0351 Y15.0297
G01 X17.0412 Y15.0222
G01 X17.0458 Y15.0136
G01 X17.0486 Y15.0043
G01 X17.0496 Y14.9946
G00 Z1.0000
G00 X17.0496 Y17.5346
G01 F20.00
G01 Z-0.4850
G01 F30.00
G01 X17.0486 Y17.5250
G01 X17.0458 Y17.5157
G01 X17.0412 Y17.5071
G01 X17.0351 Y17.4996
G01 X17.0275 Y17.4934
G01 X17.0190 Y17.4888
G01 X17.0097 Y17.4860
G01 X17.0000 Y17.4851
G01 X16.9903 Y17.4860
G01 X16.9810 Y17.4888
G01 X16.9725 Y17.4934
G01 X16.9649 Y17.4996
G01 X16.9588 Y17.5071
G01 X16.9542 Y17.5157
G01 X16.9514 Y17.5250
G01 X16.9504 Y17.5346
G01 X16.9514 Y17.5443
G01 X16.9542 Y17.5536
G01 X16.9588 Y17.5622
G01 X16.9649 Y17.5697
G01 X16.9725 Y17.5759
G01 X16.9810 Y17.5804
G01 X16.9903 Y17.5833
G01 X17.0000 Y17.5842
G01 X17.0097 Y17.5833
G01 X17.0190 Y17.5804
G01 X17.0275 Y17.5759
G01 X17.0351 Y17.5697
G01 X17.0412 Y17.5622
G01 X17.0458 Y17.5536
G01 X17.0486 Y17.5443
G01 X17.0496 Y17.5346
G00 X17.0496 Y17.5346
G01 F20.00
G01 Z-0.9700
G01 F30.00
G01 X17.0486 Y17.5250
G01 X17.0458 Y17.5157
G01 X17.0412 Y17.5071
G01 X17.0351 Y17.4996
G01 X17.0275 Y17.4934
G01 X17.0190 Y17.4888
G01 X17.0097 Y17.4860
G01 X17.0000 Y17.4851
G01 X16.9903 Y17.4860
G01 X16.9810 Y17.4888
G01 X16.9725 Y17.4934
G01 X16.9649 Y17.4996
G01 X16.9588 Y17.5071
G01 X16.9542 Y17.5157
G01 X16.9514 Y17.5250
G01 X16.9504 Y17.5346
G01 X16.9514 Y17.5443
G01 X16.9542 Y17.5536
G01 X16.9588 Y17.5622
G01 X16.9649 Y17.5697
G01 X16.9725 Y17.5759
G01 X16.9810 Y17.5804
G01 X16.9903 Y17.5833
G01 X17.0000 Y17.5842
G01 X17.0097 Y17.5833
G01 X17.0190 Y17.5804
G01 X17.0275 Y17.5759
G01 X17.0351 Y17.5697
G01 X17.0412 Y17.5622
G01 X17.0458 Y17.5536
G01 X17.0486 Y17.5443
G01 X17.0496 Y17.5346
G00 X17.0496 Y17.5346
G01 F20.00
G01 Z-1.4550
G01 F30.00
G01 X17.0486 Y17.5250
G01 X17.0458 Y17.5157
G01 X17.0412 Y17.5071
G01 X17.0351 Y17.4996
G01 X17.0275 Y17.4934
G01 X17.0190 Y17.4888
G01 X17.0097 Y17.4860
G01 X17.0000 Y17.4851
G01 X16.9903 Y17.4860
G01 X16.9810 Y17.4888
G01 X16.9725 Y17.4934
G01 X16.9649 Y17.4996
G01 X16.9588 Y17.5071
G01 X16.9542 Y17.5157
G01 X16.9514 Y17.5250
G01 X16.9504 Y17.5346
G01 X16.9514 Y17.5443
G01 X16.9542 Y17.5536
G01 X16.9588 Y17.5622
G01 X16.9649 Y17.5697
G01 X16.9725 Y17.5759
G01 X16.9810 Y17.5804
G01 X16.9903 Y17.5833
G01 X17.0000 Y17.5842
G01 X17.0097 Y17.5833
G01 X17.0190 Y17.5804
G01 X17.0275 Y17.5759
G01 X17.0351 Y17.5697
G01 X17.0412 Y17.5622
G01 X17.0458 Y17.5536
G01 X17.0486 Y17.5443
G01 X17.0496 Y17.5346
G00 X17.0496 Y17.5346
G01 F20.00
G01 Z-1.9400
G01 F30.00
G01 X17.0486 Y17.5250
G01 X17.0458 Y17.5157
G01 X17.0412 Y17.5071
G01 X17.0351 Y17.4996
G01 X17.0275 Y17.4934
G01 X17.0190 Y17.4888
G01 X17.0097 Y17.4860
G01 X17.0000 Y17.4851
G01 X16.9903 Y17.4860
G01 X16.9810 Y17.4888
G01 X16.9725 Y17.4934
G01 X16.9649 Y17.4996
G01 X16.9588 Y17.5071
G01 X16.9542 Y17.5157
G01 X16.9514 Y17.5250
G01 X16.9504 Y17.5346
G01 X16.9514 Y17.5443
G01 X16.9542 Y17.5536
G01 X16.9588 Y17.5622
G01 X16.9649 Y17.5697
G01 X16.9725 Y17.5759
G01 X16.9810 Y17.5804
G01 X16.9903 Y17.5833
G01 X17.0000 Y17.5842
G01 X17.0097 Y17.5833
G01 X17.0190 Y17.5804
G01 X17.0275 Y17.5759
G01 X17.0351 Y17.5697
G01 X17.0412 Y17.5622
G01 X17.0458 Y17.5536
G01 X17.0486 Y17.5443
G01 X17.0496 Y17.5346
G00 Z1.0000
G00 X17.0496 Y25.5346
G01 F20.00
G01 Z-0.4850
G01 F30.00
G01 X17.0486 Y25.5250
G01 X17.0458 Y25.5157
G01 X17.0412 Y25.5071
G01 X17.0351 Y25.4996
G01 X17.0275 Y25.4934
G01 X17.0190 Y25.4888
G01 X17.0097 Y25.4860
G01 X17.0000 Y25.4851
G01 X16.9903 Y25.4860
G01 X16.9810 Y25.4888
G01 X16.9725 Y25.4934
G01 X16.9649 Y25.4996
G01 X16.9588 Y25.5071
G01 X16.9542 Y25.5157
G01 X16.9514 Y25.5250
G01 X16.9504 Y25.5346
G01 X16.9514 Y25.5443
G01 X16.9542 Y25.5536
G01 X16.9588 Y25.5622
G01 X16.9649 Y25.5697
G01 X16.9725 Y25.5759
G01 X16.9810 Y25.5804
G01 X16.9903 Y25.5833
G01 X17.0000 Y25.5842
G01 X17.0097 Y25.5833
G01 X17.0190 Y25.5804
G01 X17.0275 Y25.5759
G01 X17.0351 Y25.5697
G01 X17.0412 Y25.5622
G01 X17.0458 Y25.5536
G01 X17.0486 Y25.5443
G01 X17.0496 Y25.5346
G00 X17.0496 Y25.5346
G01 F20.00
G01 Z-0.9700
G01 F30.00
G01 X17.0486 Y25.5250
G01 X17.0458 Y25.5157
G01 X17.0412 Y25.5071
G01 X17.0351 Y25.4996
G01 X17.0275 Y25.4934
G01 X17.0190 Y25.4888
G01 X17.0097 Y25.4860
G01 X17.0000 Y25.4851
G01 X16.9903 Y25.4860
G01 X16.9810 Y25.4888
G01 X16.9725 Y25.4934
G01 X16.9649 Y25.4996
G01 X16.9588 Y25.5071
G01 X16.9542 Y25.5157
G01 X16.9514 Y25.5250
G01 X16.9504 Y25.5346
G01 X16.9514 Y25.5443
G01 X16.9542 Y25.5536
G01 X16.9588 Y25.5622
G01 X16.9649 Y25.5697
G01 X16.9725 Y25.5759
G01 X16.9810 Y25.5804
G01 X16.9903 Y25.5833
G01 X17.0000 Y25.5842
G01 X17.0097 Y25.5833
G01 X17.0190 Y25.5804
G01 X17.0275 Y25.5759
G01 X17.0351 Y25.5697
G01 X17.0412 Y25.5622
G01 X17.0458 Y25.5536
G01 X17.0486 Y25.5443
G01 X17.0496 Y25.5346
G00 X17.0496 Y25.5346
G01 F20.00
G01 Z-1.4550
G01 F30.00
G01 X17.0486 Y25.5250
G01 X17.0458 Y25.5157
G01 X17.0412 Y25.5071
G01 X17.0351 Y25.4996
G01 X17.0275 Y25.4934
G01 X17.0190 Y25.4888
G01 X17.0097 Y25.4860
G01 X17.0000 Y25.4851
G01 X16.9903 Y25.4860
G01 X16.9810 Y25.4888
G01 X16.9725 Y25.4934
G01 X16.9649 Y25.4996
G01 X16.9588 Y25.5071
G01 X16.9542 Y25.5157
G01 X16.9514 Y25.5250
G01 X16.9504 Y25.5346
G01 X16.9514 Y25.5443
G01 X16.9542 Y25.5536
G01 X16.9588 Y25.5622
G01 X16.9649 Y25.5697
G01 X16.9725 Y25.5759
G01 X16.9810 Y25.5804
G01 X16.9903 Y25.5833
G01 X17.0000 Y25.5842
G01 X17.0097 Y25.5833
G01 X17.0190 Y25.5804
G01 X17.0275 Y25.5759
G01 X17.0351 Y25.5697
G01 X17.0412 Y25.5622
G01 X17.0458 Y25.5536
G01 X17.0486 Y25.5443
G01 X17.0496 Y25.5346
G00 X17.0496 Y25.5346
G01 F20.00
G01 Z-1.9400
G01 F30.00
G01 X17.0486 Y25.5250
G01 X17.0458 Y25.5157
G01 X17.0412 Y25.5071
G01 X17.0351 Y25.4996
G01 X17.0275 Y25.4934
G01 X17.0190 Y25.4888
G01 X17.0097 Y25.4860
G01 X17.0000 Y25.4851
G01 X16.9903 Y25.4860
G01 X16.9810 Y25.4888
G01 X16.9725 Y25.4934
G01 X16.9649 Y25.4996
G01 X16.9588 Y25.5071
G01 X16.9542 Y25.5157
G01 X16.9514 Y25.5250
G01 X16.9504 Y25.5346
G01 X16.9514 Y25.5443
G01 X16.9542 Y25.5536
G01 X16.9588 Y25.5622
G01 X16.9649 Y25.5697
G01 X16.9725 Y25.5759
G01 X16.9810 Y25.5804
G01 X16.9903 Y25.5833
G01 X17.0000 Y25.5842
G01 X17.0097 Y25.5833
G01 X17.0190 Y25.5804
G01 X17.0275 Y25.5759
G01 X17.0351 Y25.5697
G01 X17.0412 Y25.5622
G01 X17.0458 Y25.5536
G01 X17.0486 Y25.5443
G01 X17.0496 Y25.5346
G00 Z1.0000
G00 X17.0496 Y28.0746
G01 F20.00
G01 Z-0.4850
G01 F30.00
G01 X17.0486 Y28.0650
G01 X17.0458 Y28.0557
G01 X17.0412 Y28.0471
G01 X17.0351 Y28.0396
G01 X17.0275 Y28.0334
G01 X17.0190 Y28.0288
G01 X17.0097 Y28.0260
G01 X17.0000 Y28.0251
G01 X16.9903 Y28.0260
G01 X16.9810 Y28.0288
G01 X16.9725 Y28.0334
G01 X16.9649 Y28.0396
G01 X16.9588 Y28.0471
G01 X16.9542 Y28.0557
G01 X16.9514 Y28.0650
G01 X16.9504 Y28.0746
G01 X16.9514 Y28.0843
G01 X16.9542 Y28.0936
G01 X16.9588 Y28.1022
G01 X16.9649 Y28.1097
G01 X16.9725 Y28.1159
G01 X16.9810 Y28.1204
G01 X16.9903 Y28.1233
G01 X17.0000 Y28.1242
G01 X17.0097 Y28.1233
G01 X17.0190 Y28.1204
G01 X17.0275 Y28.1159
G01 X17.0351 Y28.1097
G01 X17.0412 Y28.1022
G01 X17.0458 Y28.0936
G01 X17.0486 Y28.0843
G01 X17.0496 Y28.0746
G00 X17.0496 Y28.0746
G01 F20.00
G01 Z-0.9700
G01 F30.00
G01 X17.0486 Y28.0650
G01 X17.0458 Y28.0557
G01 X17.0412 Y28.0471
G01 X17.0351 Y28.0396
G01 X17.0275 Y28.0334
G01 X17.0190 Y28.0288
G01 X17.0097 Y28.0260
G01 X17.0000 Y28.0251
G01 X16.9903 Y28.0260
G01 X16.9810 Y28.0288
G01 X16.9725 Y28.0334
G01 X16.9649 Y28.0396
G01 X16.9588 Y28.0471
G01 X16.9542 Y28.0557
G01 X16.9514 Y28.0650
G01 X16.9504 Y28.0746
G01 X16.9514 Y28.0843
G01 X16.9542 Y28.0936
G01 X16.9588 Y28.1022
G01 X16.9649 Y28.1097
G01 X16.9725 Y28.1159
G01 X16.9810 Y28.1204
G01 X16.9903 Y28.1233
G01 X17.0000 Y28.1242
G01 X17.0097 Y28.1233
G01 X17.0190 Y28.1204
G01 X17.0275 Y28.1159
G01 X17.0351 Y28.1097
G01 X17.0412 Y28.1022
G01 X17.0458 Y28.0936
G01 X17.0486 Y28.0843
G01 X17.0496 Y28.0746
G00 X17.0496 Y28.0746
G01 F20.00
G01 Z-1.4550
G01 F30.00
G01 X17.0486 Y28.0650
G01 X17.0458 Y28.0557
G01 X17.0412 Y28.0471
G01 X17.0351 Y28.0396
G01 X17.0275 Y28.0334
G01 X17.0190 Y28.0288
G01 X17.0097 Y28.0260
G01 X17.0000 Y28.0251
G01 X16.9903 Y28.0260
G01 X16.9810 Y28.0288
G01 X16.9725 Y28.0334
G01 X16.9649 Y28.0396
G01 X16.9588 Y28.0471
G01 X16.9542 Y28.0557
G01 X16.9514 Y28.0650
G01 X16.9504 Y28.0746
G01 X16.9514 Y28.0843
G01 X16.9542 Y28.0936
G01 X16.9588 Y28.1022
G01 X16.9649 Y28.1097
G01 X16.9725 Y28.1159
G01 X16.9810 Y28.1204
G01 X16.9903 Y28.1233
G01 X17.0000 Y28.1242
G01 X17.0097 Y28.1233
G01 X17.0190 Y28.1204
G01 X17.0275 Y28.1159
G01 X17.0351 Y28.1097
G01 X17.0412 Y28.1022
G01 X17.0458 Y28.0936
G01 X17.0486 Y28.0843
G01 X17.0496 Y28.0746
G00 X17.0496 Y28.0746
G01 F20.00
G01 Z-1.9400
G01 F30.00
G01 X17.0486 Y28.0650
G01 X17.0458 Y28.0557
G01 X17.0412 Y28.0471
G01 X17.0351 Y28.0396
G01 X17.0275 Y28.0334
G01 X17.0190 Y28.0288
G01 X17.0097 Y28.0260
G01 X17.0000 Y28.0251
G01 X16.9903 Y28.0260
G01 X16.9810 Y28.0288
G01 X16.9725 Y28.0334
G01 X16.9649 Y28.0396
G01 X16.9588 Y28.0471
G01 X16.9542 Y28.0557
G01 X16.9514 Y28.0650
G01 X16.9504 Y28.0746
G01 X16.9514 Y28.0843
G01 X16.9542 Y28.0936
G01 X16.9588 Y28.1022
G01 X16.9649 Y28.1097
G01 X16.9725 Y28.1159
G01 X16.9810 Y28.1204
G01 X16.9903 Y28.1233
G01 X17.0000 Y28.1242
G01 X17.0097 Y28.1233
G01 X17.0190 Y28.1204
G01 X17.0275 Y28.1159
G01 X17.0351 Y28.1097
G01 X17.0412 Y28.1022
G01 X17.0458 Y28.0936
G01 X17.0486 Y28.0843
G01 X17.0496 Y28.0746
G00 Z1.0000
G00 X8.6496 Y28.8970
G01 F20.00
G01 Z-0.4850
G01 F30.00
G01 X8.6489 Y28.8823
G01 X8.6467 Y28.8678
G01 X8.6431 Y28.8535
G01 X8.6382 Y28.8397
G01 X8.6319 Y28.8265
G01 X8.6244 Y28.8139
G01 X8.6156 Y28.8021
G01 X8.6058 Y28.7912
G01 X8.5949 Y28.7813
G01 X8.5831 Y28.7726
G01 X8.5705 Y28.7650
G01 X8.5572 Y28.7588
G01 X8.5434 Y28.7538
G01 X8.5292 Y28.7503
G01 X8.5147 Y28.7481
G01 X8.5000 Y28.7474
G01 X8.4853 Y28.7481
G01 X8.4708 Y28.7503
G01 X8.4566 Y28.7538
G01 X8.4428 Y28.7588
G01 X8.4295 Y28.7650
G01 X8.4169 Y28.7726
G01 X8.4051 Y28.7813
G01 X8.3942 Y28.7912
G01 X8.3844 Y28.8021
G01 X8.3756 Y28.8139
G01 X8.3681 Y28.8265
G01 X8.3618 Y28.8397
G01 X8.3569 Y28.8535
G01 X8.3533 Y28.8678
G01 X8.3511 Y28.8823
G01 X8.3504 Y28.8970
G01 X8.3511 Y28.9116
G01 X8.3533 Y28.9261
G01 X8.3569 Y28.9404
G01 X8.3618 Y28.9542
G01 X8.3681 Y28.9675
G01 X8.3756 Y28.9801
G01 X8.3844 Y28.9919
G01 X8.3942 Y29.0027
G01 X8.4051 Y29.0126
G01 X8.4169 Y29.0213
G01 X8.4295 Y29.0289
G01 X8.4428 Y29.0352
G01 X8.4566 Y29.0401
G01 X8.4708 Y29.0437
G01 X8.4853 Y29.0458
G01 X8.5000 Y29.0465
G01 X8.5147 Y29.0458
G01 X8.5292 Y29.0437
G01 X8.5434 Y29.0401
G01 X8.5572 Y29.0352
G01 X8.5705 Y29.0289
G01 X8.5831 Y29.0213
G01 X8.5949 Y29.0126
G01 X8.6058 Y29.0027
G01 X8.6156 Y28.9919
G01 X8.6244 Y28.9801
G01 X8.6319 Y28.9675
G01 X8.6382 Y28.9542
G01 X8.6431 Y28.9404
G01 X8.6467 Y28.9261
G01 X8.6489 Y28.9116
G01 X8.6496 Y28.8970
G00 X8.6496 Y28.8970
G01 F20.00
G01 Z-0.9700
G01 F30.00
G01 X8.6489 Y28.8823
G01 X8.6467 Y28.8678
G01 X8.6431 Y28.8535
G01 X8.6382 Y28.8397
G01 X8.6319 Y28.8265
G01 X8.6244 Y28.8139
G01 X8.6156 Y28.8021
G01 X8.6058 Y28.7912
G01 X8.5949 Y28.7813
G01 X8.5831 Y28.7726
G01 X8.5705 Y28.7650
G01 X8.5572 Y28.7588
G01 X8.5434 Y28.7538
G01 X8.5292 Y28.7503
G01 X8.5147 Y28.7481
G01 X8.5000 Y28.7474
G01 X8.4853 Y28.7481
G01 X8.4708 Y28.7503
G01 X8.4566 Y28.7538
G01 X8.4428 Y28.7588
G01 X8.4295 Y28.7650
G01 X8.4169 Y28.7726
G01 X8.4051 Y28.7813
G01 X8.3942 Y28.7912
G01 X8.3844 Y28.8021
G01 X8.3756 Y28.8139
G01 X8.3681 Y28.8265
G01 X8.3618 Y28.8397
G01 X8.3569 Y28.8535
G01 X8.3533 Y28.8678
G01 X8.3511 Y28.8823
G01 X8.3504 Y28.8970
G01 X8.3511 Y28.9116
G01 X8.3533 Y28.9261
G01 X8.3569 Y28.9404
G01 X8.3618 Y28.9542
G01 X8.3681 Y28.9675
G01 X8.3756 Y28.9801
G01 X8.3844 Y28.9919
G01 X8.3942 Y29.0027
G01 X8.4051 Y29.0126
G01 X8.4169 Y29.0213
G01 X8.4295 Y29.0289
G01 X8.4428 Y29.0352
G01 X8.4566 Y29.0401
G01 X8.4708 Y29.0437
G01 X8.4853 Y29.0458
G01 X8.5000 Y29.0465
G01 X8.5147 Y29.0458
G01 X8.5292 Y29.0437
G01 X8.5434 Y29.0401
G01 X8.5572 Y29.0352
G01 X8.5705 Y29.0289
G01 X8.5831 Y29.0213
G01 X8.5949 Y29.0126
G01 X8.6058 Y29.0027
G01 X8.6156 Y28.9919
G01 X8.6244 Y28.9801
G01 X8.6319 Y28.9675
G01 X8.6382 Y28.9542
G01 X8.6431 Y28.9404
G01 X8.6467 Y28.9261
G01 X8.6489 Y28.9116
G01 X8.6496 Y28.8970
G00 X8.6496 Y28.8970
G01 F20.00
G01 Z-1.4550
G01 F30.00
G01 X8.6489 Y28.8823
G01 X8.6467 Y28.8678
G01 X8.6431 Y28.8535
G01 X8.6382 Y28.8397
G01 X8.6319 Y28.8265
G01 X8.6244 Y28.8139
G01 X8.6156 Y28.8021
G01 X8.6058 Y28.7912
G01 X8.5949 Y28.7813
G01 X8.5831 Y28.7726
G01 X8.5705 Y28.7650
G01 X8.5572 Y28.7588
G01 X8.5434 Y28.7538
G01 X8.5292 Y28.7503
G01 X8.5147 Y28.7481
G01 X8.5000 Y28.7474
G01 X8.4853 Y28.7481
G01 X8.4708 Y28.7503
G01 X8.4566 Y28.7538
G01 X8.4428 Y28.7588
G01 X8.4295 Y28.7650
G01 X8.4169 Y28.7726
G01 X8.4051 Y28.7813
G01 X8.3942 Y28.7912
G01 X8.3844 Y28.8021
G01 X8.3756 Y28.8139
G01 X8.3681 Y28.8265
G01 X8.3618 Y28.8397
G01 X8.3569 Y28.8535
G01 X8.3533 Y28.8678
G01 X8.3511 Y28.8823
G01 X8.3504 Y28.8970
G01 X8.3511 Y28.9116
G01 X8.3533 Y28.9261
G01 X8.3569 Y28.9404
G01 X8.3618 Y28.9542
G01 X8.3681 Y28.9675
G01 X8.3756 Y28.9801
G01 X8.3844 Y28.9919
G01 X8.3942 Y29.0027
G01 X8.4051 Y29.0126
G01 X8.4169 Y29.0213
G01 X8.4295 Y29.0289
G01 X8.4428 Y29.0352
G01 X8.4566 Y29.0401
G01 X8.4708 Y29.0437
G01 X8.4853 Y29.0458
G01 X8.5000 Y29.0465
G01 X8.5147 Y29.0458
G01 X8.5292 Y29.0437
G01 X8.5434 Y29.0401
G01 X8.5572 Y29.0352
G01 X8.5705 Y29.0289
G01 X8.5831 Y29.0213
G01 X8.5949 Y29.0126
G01 X8.6058 Y29.0027
G01 X8.6156 Y28.9919
G01 X8.6244 Y28.9801
G01 X8.6319 Y28.9675
G01 X8.6382 Y28.9542
G01 X8.6431 Y28.9404
G01 X8.6467 Y28.9261
G01 X8.6489 Y28.9116
G01 X8.6496 Y28.8970
G00 X8.6496 Y28.8970
G01 F20.00
G01 Z-1.9400
G01 F30.00
G01 X8.6489 Y28.8823
G01 X8.6467 Y28.8678
G01 X8.6431 Y28.8535
G01 X8.6382 Y28.8397
G01 X8.6319 Y28.8265
G01 X8.6244 Y28.8139
G01 X8.6156 Y28.8021
G01 X8.6058 Y28.7912
G01 X8.5949 Y28.7813
G01 X8.5831 Y28.7726
G01 X8.5705 Y28.7650
G01 X8.5572 Y28.7588
G01 X8.5434 Y28.7538
G01 X8.5292 Y28.7503
G01 X8.5147 Y28.7481
G01 X8.5000 Y28.7474
G01 X8.4853 Y28.7481
G01 X8.4708 Y28.7503
G01 X8.4566 Y28.7538
G01 X8.4428 Y28.7588
G01 X8.4295 Y28.7650
G01 X8.4169 Y28.7726
G01 X8.4051 Y28.7813
G01 X8.3942 Y28.7912
G01 X8.3844 Y28.8021
G01 X8.3756 Y28.8139
G01 X8.3681 Y28.8265
G01 X8.3618 Y28.8397
G01 X8.3569 Y28.8535
G01 X8.3533 Y28.8678
G01 X8.3511 Y28.8823
G01 X8.3504 Y28.8970
G01 X8.3511 Y28.9116
G01 X8.3533 Y28.9261
G01 X8.3569 Y28.9404
G01 X8.3618 Y28.9542
G01 X8.3681 Y28.9675
G01 X8.3756 Y28.9801
G01 X8.3844 Y28.9919
G01 X8.3942 Y29.0027
G01 X8.4051 Y29.0126
G01 X8.4169 Y29.0213
G01 X8.4295 Y29.0289
G01 X8.4428 Y29.0352
G01 X8.4566 Y29.0401
G01 X8.4708 Y29.0437
G01 X8.4853 Y29.0458
G01 X8.5000 Y29.0465
G01 X8.5147 Y29.0458
G01 X8.5292 Y29.0437
G01 X8.5434 Y29.0401
G01 X8.5572 Y29.0352
G01 X8.5705 Y29.0289
G01 X8.5831 Y29.0213
G01 X8.5949 Y29.0126
G01 X8.6058 Y29.0027
G01 X8.6156 Y28.9919
G01 X8.6244 Y28.9801
G01 X8.6319 Y28.9675
G01 X8.6382 Y28.9542
G01 X8.6431 Y28.9404
G01 X8.6467 Y28.9261
G01 X8.6489 Y28.9116
G01 X8.6496 Y28.8970
G00 Z1.0000
G00 X8.6496 Y23.8970
G01 F20.00
G01 Z-0.4850
G01 F30.00
G01 X8.6489 Y23.8823
G01 X8.6467 Y23.8678
G01 X8.6431 Y23.8535
G01 X8.6382 Y23.8397
G01 X8.6319 Y23.8265
G01 X8.6244 Y23.8139
G01 X8.6156 Y23.8021
G01 X8.6058 Y23.7912
G01 X8.5949 Y23.7813
G01 X8.5831 Y23.7726
G01 X8.5705 Y23.7650
G01 X8.5572 Y23.7588
G01 X8.5434 Y23.7538
G01 X8.5292 Y23.7503
G01 X8.5147 Y23.7481
G01 X8.5000 Y23.7474
G01 X8.4853 Y23.7481
G01 X8.4708 Y23.7503
G01 X8.4566 Y23.7538
G01 X8.4428 Y23.7588
G01 X8.4295 Y23.7650
G01 X8.4169 Y23.7726
G01 X8.4051 Y23.7813
G01 X8.3942 Y23.7912
G01 X8.3844 Y23.8021
G01 X8.3756 Y23.8139
G01 X8.3681 Y23.8265
G01 X8.3618 Y23.8397
G01 X8.3569 Y23.8535
G01 X8.3533 Y23.8678
G01 X8.3511 Y23.8823
G01 X8.3504 Y23.8970
G01 X8.3511 Y23.9116
G01 X8.3533 Y23.9261
G01 X8.3569 Y23.9404
G01 X8.3618 Y23.9542
G01 X8.3681 Y23.9675
G01 X8.3756 Y23.9801
G01 X8.3844 Y23.9919
G01 X8.3942 Y24.0027
G01 X8.4051 Y24.0126
G01 X8.4169 Y24.0213
G01 X8.4295 Y24.0289
G01 X8.4428 Y24.0352
G01 X8.4566 Y24.0401
G01 X8.4708 Y24.0437
G01 X8.4853 Y24.0458
G01 X8.5000 Y24.0465
G01 X8.5147 Y24.0458
G01 X8.5292 Y24.0437
G01 X8.5434 Y24.0401
G01 X8.5572 Y24.0352
G01 X8.5705 Y24.0289
G01 X8.5831 Y24.0213
G01 X8.5949 Y24.0126
G01 X8.6058 Y24.0027
G01 X8.6156 Y23.9919
G01 X8.6244 Y23.9801
G01 X8.6319 Y23.9675
G01 X8.6382 Y23.9542
G01 X8.6431 Y23.9404
G01 X8.6467 Y23.9261
G01 X8.6489 Y23.9116
G01 X8.6496 Y23.8970
G00 X8.6496 Y23.8970
G01 F20.00
G01 Z-0.9700
G01 F30.00
G01 X8.6489 Y23.8823
G01 X8.6467 Y23.8678
G01 X8.6431 Y23.8535
G01 X8.6382 Y23.8397
G01 X8.6319 Y23.8265
G01 X8.6244 Y23.8139
G01 X8.6156 Y23.8021
G01 X8.6058 Y23.7912
G01 X8.5949 Y23.7813
G01 X8.5831 Y23.7726
G01 X8.5705 Y23.7650
G01 X8.5572 Y23.7588
G01 X8.5434 Y23.7538
G01 X8.5292 Y23.7503
G01 X8.5147 Y23.7481
G01 X8.5000 Y23.7474
G01 X8.4853 Y23.7481
G01 X8.4708 Y23.7503
G01 X8.4566 Y23.7538
G01 X8.4428 Y23.7588
G01 X8.4295 Y23.7650
G01 X8.4169 Y23.7726
G01 X8.4051 Y23.7813
G01 X8.3942 Y23.7912
G01 X8.3844 Y23.8021
G01 X8.3756 Y23.8139
G01 X8.3681 Y23.8265
G01 X8.3618 Y23.8397
G01 X8.3569 Y23.8535
G01 X8.3533 Y23.8678
G01 X8.3511 Y23.8823
G01 X8.3504 Y23.8970
G01 X8.3511 Y23.9116
G01 X8.3533 Y23.9261
G01 X8.3569 Y23.9404
G01 X8.3618 Y23.9542
G01 X8.3681 Y23.9675
G01 X8.3756 Y23.9801
G01 X8.3844 Y23.9919
G01 X8.3942 Y24.0027
G01 X8.4051 Y24.0126
G01 X8.4169 Y24.0213
G01 X8.4295 Y24.0289
G01 X8.4428 Y24.0352
G01 X8.4566 Y24.0401
G01 X8.4708 Y24.0437
G01 X8.4853 Y24.0458
G01 X8.5000 Y24.0465
G01 X8.5147 Y24.0458
G01 X8.5292 Y24.0437
G01 X8.5434 Y24.0401
G01 X8.5572 Y24.0352
G01 X8.5705 Y24.0289
G01 X8.5831 Y24.0213
G01 X8.5949 Y24.0126
G01 X8.6058 Y24.0027
G01 X8.6156 Y23.9919
G01 X8.6244 Y23.9801
G01 X8.6319 Y23.9675
G01 X8.6382 Y23.9542
G01 X8.6431 Y23.9404
G01 X8.6467 Y23.9261
G01 X8.6489 Y23.9116
G01 X8.6496 Y23.8970
G00 X8.6496 Y23.8970
G01 F20.00
G01 Z-1.4550
G01 F30.00
G01 X8.6489 Y23.8823
G01 X8.6467 Y23.8678
G01 X8.6431 Y23.8535
G01 X8.6382 Y23.8397
G01 X8.6319 Y23.8265
G01 X8.6244 Y23.8139
G01 X8.6156 Y23.8021
G01 X8.6058 Y23.7912
G01 X8.5949 Y23.7813
G01 X8.5831 Y23.7726
G01 X8.5705 Y23.7650
G01 X8.5572 Y23.7588
G01 X8.5434 Y23.7538
G01 X8.5292 Y23.7503
G01 X8.5147 Y23.7481
G01 X8.5000 Y23.7474
G01 X8.4853 Y23.7481
G01 X8.4708 Y23.7503
G01 X8.4566 Y23.7538
G01 X8.4428 Y23.7588
G01 X8.4295 Y23.7650
G01 X8.4169 Y23.7726
G01 X8.4051 Y23.7813
G01 X8.3942 Y23.7912
G01 X8.3844 Y23.8021
G01 X8.3756 Y23.8139
G01 X8.3681 Y23.8265
G01 X8.3618 Y23.8397
G01 X8.3569 Y23.8535
G01 X8.3533 Y23.8678
G01 X8.3511 Y23.8823
G01 X8.3504 Y23.8970
G01 X8.3511 Y23.9116
G01 X8.3533 Y23.9261
G01 X8.3569 Y23.9404
G01 X8.3618 Y23.9542
G01 X8.3681 Y23.9675
G01 X8.3756 Y23.9801
G01 X8.3844 Y23.9919
G01 X8.3942 Y24.0027
G01 X8.4051 Y24.0126
G01 X8.4169 Y24.0213
G01 X8.4295 Y24.0289
G01 X8.4428 Y24.0352
G01 X8.4566 Y24.0401
G01 X8.4708 Y24.0437
G01 X8.4853 Y24.0458
G01 X8.5000 Y24.0465
G01 X8.5147 Y24.0458
G01 X8.5292 Y24.0437
G01 X8.5434 Y24.0401
G01 X8.5572 Y24.0352
G01 X8.5705 Y24.0289
G01 X8.5831 Y24.0213
G01 X8.5949 Y24.0126
G01 X8.6058 Y24.0027
G01 X8.6156 Y23.9919
G01 X8.6244 Y23.9801
G01 X8.6319 Y23.9675
G01 X8.6382 Y23.9542
G01 X8.6431 Y23.9404
G01 X8.6467 Y23.9261
G01 X8.6489 Y23.9116
G01 X8.6496 Y23.8970
G00 X8.6496 Y23.8970
G01 F20.00
G01 Z-1.9400
G01 F30.00
G01 X8.6489 Y23.8823
G01 X8.6467 Y23.8678
G01 X8.6431 Y23.8535
G01 X8.6382 Y23.8397
G01 X8.6319 Y23.8265
G01 X8.6244 Y23.8139
G01 X8.6156 Y23.8021
G01 X8.6058 Y23.7912
G01 X8.5949 Y23.7813
G01 X8.5831 Y23.7726
G01 X8.5705 Y23.7650
G01 X8.5572 Y23.7588
G01 X8.5434 Y23.7538
G01 X8.5292 Y23.7503
G01 X8.5147 Y23.7481
G01 X8.5000 Y23.7474
G01 X8.4853 Y23.7481
G01 X8.4708 Y23.7503
G01 X8.4566 Y23.7538
G01 X8.4428 Y23.7588
G01 X8.4295 Y23.7650
G01 X8.4169 Y23.7726
G01 X8.4051 Y23.7813
G01 X8.3942 Y23.7912
G01 X8.3844 Y23.8021
G01 X8.3756 Y23.8139
G01 X8.3681 Y23.8265
G01 X8.3618 Y23.8397
G01 X8.3569 Y23.8535
G01 X8.3533 Y23.8678
G01 X8.3511 Y23.8823
G01 X8.3504 Y23.8970
G01 X8.3511 Y23.9116
G01 X8.3533 Y23.9261
G01 X8.3569 Y23.9404
G01 X8.3618 Y23.9542
G01 X8.3681 Y23.9675
G01 X8.3756 Y23.9801
G01 X8.3844 Y23.9919
G01 X8.3942 Y24.0027
G01 X8.4051 Y24.0126
G01 X8.4169 Y24.0213
G01 X8.4295 Y24.0289
G01 X8.4428 Y24.0352
G01 X8.4566 Y24.0401
G01 X8.4708 Y24.0437
G01 X8.4853 Y24.0458
G01 X8.5000 Y24.0465
G01 X8.5147 Y24.0458
G01 X8.5292 Y24.0437
G01 X8.5434 Y24.0401
G01 X8.5572 Y24.0352
G01 X8.5705 Y24.0289
G01 X8.5831 Y24.0213
G01 X8.5949 Y24.0126
G01 X8.6058 Y24.0027
G01 X8.6156 Y23.9919
G01 X8.6244 Y23.9801
G01 X8.6319 Y23.9675
G01 X8.6382 Y23.9542
G01 X8.6431 Y23.9404
G01 X8.6467 Y23.9261
G01 X8.6489 Y23.9116
G01 X8.6496 Y23.8970
G00 Z1.0000
G00 X26.1546 Y34.1696
G01 F20.00
G01 Z-0.4850
G01 F30.00
G01 X26.1536 Y34.1600
G01 X26.1508 Y34.1507
G01 X26.1462 Y34.1421
G01 X26.1401 Y34.1346
G01 X26.1325 Y34.1284
G01 X26.1240 Y34.1238
G01 X26.1147 Y34.1210
G01 X26.1050 Y34.1201
G01 X26.0953 Y34.1210
G01 X26.0860 Y34.1238
G01 X26.0775 Y34.1284
G01 X26.0699 Y34.1346
G01 X26.0638 Y34.1421
G01 X26.0592 Y34.1507
G01 X26.0564 Y34.1600
G01 X26.0554 Y34.1696
G01 X26.0564 Y34.1793
G01 X26.0592 Y34.1886
G01 X26.0638 Y34.1972
G01 X26.0699 Y34.2047
G01 X26.0775 Y34.2109
G01 X26.0860 Y34.2154
G01 X26.0953 Y34.2183
G01 X26.1050 Y34.2192
G01 X26.1147 Y34.2183
G01 X26.1240 Y34.2154
G01 X26.1325 Y34.2109
G01 X26.1401 Y34.2047
G01 X26.1462 Y34.1972
G01 X26.1508 Y34.1886
G01 X26.1536 Y34.1793
G01 X26.1546 Y34.1696
G00 X26.1546 Y34.1696
G01 F20.00
G01 Z-0.9700
G01 F30.00
G01 X26.1536 Y34.1600
G01 X26.1508 Y34.1507
G01 X26.1462 Y34.1421
G01 X26.1401 Y34.1346
G01 X26.1325 Y34.1284
G01 X26.1240 Y34.1238
G01 X26.1147 Y34.1210
G01 X26.1050 Y34.1201
G01 X26.0953 Y34.1210
G01 X26.0860 Y34.1238
G01 X26.0775 Y34.1284
G01 X26.0699 Y34.1346
G01 X26.0638 Y34.1421
G01 X26.0592 Y34.1507
G01 X26.0564 Y34.1600
G01 X26.0554 Y34.1696
G01 X26.0564 Y34.1793
G01 X26.0592 Y34.1886
G01 X26.0638 Y34.1972
G01 X26.0699 Y34.2047
G01 X26.0775 Y34.2109
G01 X26.0860 Y34.2154
G01 X26.0953 Y34.2183
G01 X26.1050 Y34.2192
G01 X26.1147 Y34.2183
G01 X26.1240 Y34.2154
G01 X26.1325 Y34.2109
G01 X26.1401 Y34.2047
G01 X26.1462 Y34.1972
G01 X26.1508 Y34.1886
G01 X26.1536 Y34.1793
G01 X26.1546 Y34.1696
G00 X26.1546 Y34.1696
G01 F20.00
G01 Z-1.4550
G01 F30.00
G01 X26.1536 Y34.1600
G01 X26.1508 Y34.1507
G01 X26.1462 Y34.1421
G01 X26.1401 Y34.1346
G01 X26.1325 Y34.1284
G01 X26.1240 Y34.1238
G01 X26.1147 Y34.1210
G01 X26.1050 Y34.1201
G01 X26.0953 Y34.1210
G01 X26.0860 Y34.1238
G01 X26.0775 Y34.1284
G01 X26.0699 Y34.1346
G01 X26.0638 Y34.1421
G01 X26.0592 Y34.1507
G01 X26.0564 Y34.1600
G01 X26.0554 Y34.1696
G01 X26.0564 Y34.1793
G01 X26.0592 Y34.1886
G01 X26.0638 Y34.1972
G01 X26.0699 Y34.2047
G01 X26.0775 Y34.2109
G01 X26.0860 Y34.2154
G01 X26.0953 Y34.2183
G01 X26.1050 Y34.2192
G01 X26.1147 Y34.2183
G01 X26.1240 Y34.2154
G01 X26.1325 Y34.2109
G01 X26.1401 Y34.2047
G01 X26.1462 Y34.1972
G01 X26.1508 Y34.1886
G01 X26.1536 Y34.1793
G01 X26.1546 Y34.1696
G00 X26.1546 Y34.1696
G01 F20.00
G01 Z-1.9400
G01 F30.00
G01 X26.1536 Y34.1600
G01 X26.1508 Y34.1507
G01 X26.1462 Y34.1421
G01 X26.1401 Y34.1346
G01 X26.1325 Y34.1284
G01 X26.1240 Y34.1238
G01 X26.1147 Y34.1210
G01 X26.1050 Y34.1201
G01 X26.0953 Y34.1210
G01 X26.0860 Y34.1238
G01 X26.0775 Y34.1284
G01 X26.0699 Y34.1346
G01 X26.0638 Y34.1421
G01 X26.0592 Y34.1507
G01 X26.0564 Y34.1600
G01 X26.0554 Y34.1696
G01 X26.0564 Y34.1793
G01 X26.0592 Y34.1886
G01 X26.0638 Y34.1972
G01 X26.0699 Y34.2047
G01 X26.0775 Y34.2109
G01 X26.0860 Y34.2154
G01 X26.0953 Y34.2183
G01 X26.1050 Y34.2192
G01 X26.1147 Y34.2183
G01 X26.1240 Y34.2154
G01 X26.1325 Y34.2109
G01 X26.1401 Y34.2047
G01 X26.1462 Y34.1972
G01 X26.1508 Y34.1886
G01 X26.1536 Y34.1793
G01 X26.1546 Y34.1696
G00 Z1.0000
G00 X28.1546 Y34.1696
G01 F20.00
G01 Z-0.4850
G01 F30.00
G01 X28.1536 Y34.1600
G01 X28.1508 Y34.1507
G01 X28.1462 Y34.1421
G01 X28.1401 Y34.1346
G01 X28.1325 Y34.1284
G01 X28.1240 Y34.1238
G01 X28.1147 Y34.1210
G01 X28.1050 Y34.1201
G01 X28.0953 Y34.1210
G01 X28.0860 Y34.1238
G01 X28.0775 Y34.1284
G01 X28.0699 Y34.1346
G01 X28.0638 Y34.1421
G01 X28.0592 Y34.1507
G01 X28.0564 Y34.1600
G01 X28.0554 Y34.1696
G01 X28.0564 Y34.1793
G01 X28.0592 Y34.1886
G01 X28.0638 Y34.1972
G01 X28.0699 Y34.2047
G01 X28.0775 Y34.2109
G01 X28.0860 Y34.2154
G01 X28.0953 Y34.2183
G01 X28.1050 Y34.2192
G01 X28.1147 Y34.2183
G01 X28.1240 Y34.2154
G01 X28.1325 Y34.2109
G01 X28.1401 Y34.2047
G01 X28.1462 Y34.1972
G01 X28.1508 Y34.1886
G01 X28.1536 Y34.1793
G01 X28.1546 Y34.1696
G00 X28.1546 Y34.1696
G01 F20.00
G01 Z-0.9700
G01 F30.00
G01 X28.1536 Y34.1600
G01 X28.1508 Y34.1507
G01 X28.1462 Y34.1421
G01 X28.1401 Y34.1346
G01 X28.1325 Y34.1284
G01 X28.1240 Y34.1238
G01 X28.1147 Y34.1210
G01 X28.1050 Y34.1201
G01 X28.0953 Y34.1210
G01 X28.0860 Y34.1238
G01 X28.0775 Y34.1284
G01 X28.0699 Y34.1346
G01 X28.0638 Y34.1421
G01 X28.0592 Y34.1507
G01 X28.0564 Y34.1600
G01 X28.0554 Y34.1696
G01 X28.0564 Y34.1793
G01 X28.0592 Y34.1886
G01 X28.0638 Y34.1972
G01 X28.0699 Y34.2047
G01 X28.0775 Y34.2109
G01 X28.0860 Y34.2154
G01 X28.0953 Y34.2183
G01 X28.1050 Y34.2192
G01 X28.1147 Y34.2183
G01 X28.1240 Y34.2154
G01 X28.1325 Y34.2109
G01 X28.1401 Y34.2047
G01 X28.1462 Y34.1972
G01 X28.1508 Y34.1886
G01 X28.1536 Y34.1793
G01 X28.1546 Y34.1696
G00 X28.1546 Y34.1696
G01 F20.00
G01 Z-1.4550
G01 F30.00
G01 X28.1536 Y34.1600
G01 X28.1508 Y34.1507
G01 X28.1462 Y34.1421
G01 X28.1401 Y34.1346
G01 X28.1325 Y34.1284
G01 X28.1240 Y34.1238
G01 X28.1147 Y34.1210
G01 X28.1050 Y34.1201
G01 X28.0953 Y34.1210
G01 X28.0860 Y34.1238
G01 X28.0775 Y34.1284
G01 X28.0699 Y34.1346
G01 X28.0638 Y34.1421
G01 X28.0592 Y34.1507
G01 X28.0564 Y34.1600
G01 X28.0554 Y34.1696
G01 X28.0564 Y34.1793
G01 X28.0592 Y34.1886
G01 X28.0638 Y34.1972
G01 X28.0699 Y34.2047
G01 X28.0775 Y34.2109
G01 X28.0860 Y34.2154
G01 X28.0953 Y34.2183
G01 X28.1050 Y34.2192
G01 X28.1147 Y34.2183
G01 X28.1240 Y34.2154
G01 X28.1325 Y34.2109
G01 X28.1401 Y34.2047
G01 X28.1462 Y34.1972
G01 X28.1508 Y34.1886
G01 X28.1536 Y34.1793
G01 X28.1546 Y34.1696
G00 X28.1546 Y34.1696
G01 F20.00
G01 Z-1.9400
G01 F30.00
G01 X28.1536 Y34.1600
G01 X28.1508 Y34.1507
G01 X28.1462 Y34.1421
G01 X28.1401 Y34.1346
G01 X28.1325 Y34.1284
G01 X28.1240 Y34.1238
G01 X28.1147 Y34.1210
G01 X28.1050 Y34.1201
G01 X28.0953 Y34.1210
G01 X28.0860 Y34.1238
G01 X28.0775 Y34.1284
G01 X28.0699 Y34.1346
G01 X28.0638 Y34.1421
G01 X28.0592 Y34.1507
G01 X28.0564 Y34.1600
G01 X28.0554 Y34.1696
G01 X28.0564 Y34.1793
G01 X28.0592 Y34.1886
G01 X28.0638 Y34.1972
G01 X28.0699 Y34.2047
G01 X28.0775 Y34.2109
G01 X28.0860 Y34.2154
G01 X28.0953 Y34.2183
G01 X28.1050 Y34.2192
G01 X28.1147 Y34.2183
G01 X28.1240 Y34.2154
G01 X28.1325 Y34.2109
G01 X28.1401 Y34.2047
G01 X28.1462 Y34.1972
G01 X28.1508 Y34.1886
G01 X28.1536 Y34.1793
G01 X28.1546 Y34.1696
G00 Z1.0000
G00 X36.0496 Y28.0746
G01 F20.00
G01 Z-0.4850
G01 F30.00
G01 X36.0486 Y28.0650
G01 X36.0458 Y28.0557
G01 X36.0412 Y28.0471
G01 X36.0351 Y28.0396
G01 X36.0275 Y28.0334
G01 X36.0190 Y28.0288
G01 X36.0097 Y28.0260
G01 X36.0000 Y28.0251
G01 X35.9903 Y28.0260
G01 X35.9810 Y28.0288
G01 X35.9725 Y28.0334
G01 X35.9649 Y28.0396
G01 X35.9588 Y28.0471
G01 X35.9542 Y28.0557
G01 X35.9514 Y28.0650
G01 X35.9504 Y28.0746
G01 X35.9514 Y28.0843
G01 X35.9542 Y28.0936
G01 X35.9588 Y28.1022
G01 X35.9649 Y28.1097
G01 X35.9725 Y28.1159
G01 X35.9810 Y28.1204
G01 X35.9903 Y28.1233
G01 X36.0000 Y28.1242
G01 X36.0097 Y28.1233
G01 X36.0190 Y28.1204
G01 X36.0275 Y28.1159
G01 X36.0351 Y28.1097
G01 X36.0412 Y28.1022
G01 X36.0458 Y28.0936
G01 X36.0486 Y28.0843
G01 X36.0496 Y28.0746
G00 X36.0496 Y28.0746
G01 F20.00
G01 Z-0.9700
G01 F30.00
G01 X36.0486 Y28.0650
G01 X36.0458 Y28.0557
G01 X36.0412 Y28.0471
G01 X36.0351 Y28.0396
G01 X36.0275 Y28.0334
G01 X36.0190 Y28.0288
G01 X36.0097 Y28.0260
G01 X36.0000 Y28.0251
G01 X35.9903 Y28.0260
G01 X35.9810 Y28.0288
G01 X35.9725 Y28.0334
G01 X35.9649 Y28.0396
G01 X35.9588 Y28.0471
G01 X35.9542 Y28.0557
G01 X35.9514 Y28.0650
G01 X35.9504 Y28.0746
G01 X35.9514 Y28.0843
G01 X35.9542 Y28.0936
G01 X35.9588 Y28.1022
G01 X35.9649 Y28.1097
G01 X35.9725 Y28.1159
G01 X35.9810 Y28.1204
G01 X35.9903 Y28.1233
G01 X36.0000 Y28.1242
G01 X36.0097 Y28.1233
G01 X36.0190 Y28.1204
G01 X36.0275 Y28.1159
G01 X36.0351 Y28.1097
G01 X36.0412 Y28.1022
G01 X36.0458 Y28.0936
G01 X36.0486 Y28.0843
G01 X36.0496 Y28.0746
G00 X36.0496 Y28.0746
G01 F20.00
G01 Z-1.4550
G01 F30.00
G01 X36.0486 Y28.0650
G01 X36.0458 Y28.0557
G01 X36.0412 Y28.0471
G01 X36.0351 Y28.0396
G01 X36.0275 Y28.0334
G01 X36.0190 Y28.0288
G01 X36.0097 Y28.0260
G01 X36.0000 Y28.0251
G01 X35.9903 Y28.0260
G01 X35.9810 Y28.0288
G01 X35.9725 Y28.0334
G01 X35.9649 Y28.0396
G01 X35.9588 Y28.0471
G01 X35.9542 Y28.0557
G01 X35.9514 Y28.0650
G01 X35.9504 Y28.0746
G01 X35.9514 Y28.0843
G01 X35.9542 Y28.0936
G01 X35.9588 Y28.1022
G01 X35.9649 Y28.1097
G01 X35.9725 Y28.1159
G01 X35.9810 Y28.1204
G01 X35.9903 Y28.1233
G01 X36.0000 Y28.1242
G01 X36.0097 Y28.1233
G01 X36.0190 Y28.1204
G01 X36.0275 Y28.1159
G01 X36.0351 Y28.1097
G01 X36.0412 Y28.1022
G01 X36.0458 Y28.0936
G01 X36.0486 Y28.0843
G01 X36.0496 Y28.0746
G00 X36.0496 Y28.0746
G01 F20.00
G01 Z-1.9400
G01 F30.00
G01 X36.0486 Y28.0650
G01 X36.0458 Y28.0557
G01 X36.0412 Y28.0471
G01 X36.0351 Y28.0396
G01 X36.0275 Y28.0334
G01 X36.0190 Y28.0288
G01 X36.0097 Y28.0260
G01 X36.0000 Y28.0251
G01 X35.9903 Y28.0260
G01 X35.9810 Y28.0288
G01 X35.9725 Y28.0334
G01 X35.9649 Y28.0396
G01 X35.9588 Y28.0471
G01 X35.9542 Y28.0557
G01 X35.9514 Y28.0650
G01 X35.9504 Y28.0746
G01 X35.9514 Y28.0843
G01 X35.9542 Y28.0936
G01 X35.9588 Y28.1022
G01 X35.9649 Y28.1097
G01 X35.9725 Y28.1159
G01 X35.9810 Y28.1204
G01 X35.9903 Y28.1233
G01 X36.0000 Y28.1242
G01 X36.0097 Y28.1233
G01 X36.0190 Y28.1204
G01 X36.0275 Y28.1159
G01 X36.0351 Y28.1097
G01 X36.0412 Y28.1022
G01 X36.0458 Y28.0936
G01 X36.0486 Y28.0843
G01 X36.0496 Y28.0746
G00 Z1.0000
G00 X36.0496 Y25.5346
G01 F20.00
G01 Z-0.4850
G01 F30.00
G01 X36.0486 Y25.5250
G01 X36.0458 Y25.5157
G01 X36.0412 Y25.5071
G01 X36.0351 Y25.4996
G01 X36.0275 Y25.4934
G01 X36.0190 Y25.4888
G01 X36.0097 Y25.4860
G01 X36.0000 Y25.4851
G01 X35.9903 Y25.4860
G01 X35.9810 Y25.4888
G01 X35.9725 Y25.4934
G01 X35.9649 Y25.4996
G01 X35.9588 Y25.5071
G01 X35.9542 Y25.5157
G01 X35.9514 Y25.5250
G01 X35.9504 Y25.5346
G01 X35.9514 Y25.5443
G01 X35.9542 Y25.5536
G01 X35.9588 Y25.5622
G01 X35.9649 Y25.5697
G01 X35.9725 Y25.5759
G01 X35.9810 Y25.5804
G01 X35.9903 Y25.5833
G01 X36.0000 Y25.5842
G01 X36.0097 Y25.5833
G01 X36.0190 Y25.5804
G01 X36.0275 Y25.5759
G01 X36.0351 Y25.5697
G01 X36.0412 Y25.5622
G01 X36.0458 Y25.5536
G01 X36.0486 Y25.5443
G01 X36.0496 Y25.5346
G00 X36.0496 Y25.5346
G01 F20.00
G01 Z-0.9700
G01 F30.00
G01 X36.0486 Y25.5250
G01 X36.0458 Y25.5157
G01 X36.0412 Y25.5071
G01 X36.0351 Y25.4996
G01 X36.0275 Y25.4934
G01 X36.0190 Y25.4888
G01 X36.0097 Y25.4860
G01 X36.0000 Y25.4851
G01 X35.9903 Y25.4860
G01 X35.9810 Y25.4888
G01 X35.9725 Y25.4934
G01 X35.9649 Y25.4996
G01 X35.9588 Y25.5071
G01 X35.9542 Y25.5157
G01 X35.9514 Y25.5250
G01 X35.9504 Y25.5346
G01 X35.9514 Y25.5443
G01 X35.9542 Y25.5536
G01 X35.9588 Y25.5622
G01 X35.9649 Y25.5697
G01 X35.9725 Y25.5759
G01 X35.9810 Y25.5804
G01 X35.9903 Y25.5833
G01 X36.0000 Y25.5842
G01 X36.0097 Y25.5833
G01 X36.0190 Y25.5804
G01 X36.0275 Y25.5759
G01 X36.0351 Y25.5697
G01 X36.0412 Y25.5622
G01 X36.0458 Y25.5536
G01 X36.0486 Y25.5443
G01 X36.0496 Y25.5346
G00 X36.0496 Y25.5346
G01 F20.00
G01 Z-1.4550
G01 F30.00
G01 X36.0486 Y25.5250
G01 X36.0458 Y25.5157
G01 X36.0412 Y25.5071
G01 X36.0351 Y25.4996
G01 X36.0275 Y25.4934
G01 X36.0190 Y25.4888
G01 X36.0097 Y25.4860
G01 X36.0000 Y25.4851
G01 X35.9903 Y25.4860
G01 X35.9810 Y25.4888
G01 X35.9725 Y25.4934
G01 X35.9649 Y25.4996
G01 X35.9588 Y25.5071
G01 X35.9542 Y25.5157
G01 X35.9514 Y25.5250
G01 X35.9504 Y25.5346
G01 X35.9514 Y25.5443
G01 X35.9542 Y25.5536
G01 X35.9588 Y25.5622
G01 X35.9649 Y25.5697
G01 X35.9725 Y25.5759
G01 X35.9810 Y25.5804
G01 X35.9903 Y25.5833
G01 X36.0000 Y25.5842
G01 X36.0097 Y25.5833
G01 X36.0190 Y25.5804
G01 X36.0275 Y25.5759
G01 X36.0351 Y25.5697
G01 X36.0412 Y25.5622
G01 X36.0458 Y25.5536
G01 X36.0486 Y25.5443
G01 X36.0496 Y25.5346
G00 X36.0496 Y25.5346
G01 F20.00
G01 Z-1.9400
G01 F30.00
G01 X36.0486 Y25.5250
G01 X36.0458 Y25.5157
G01 X36.0412 Y25.5071
G01 X36.0351 Y25.4996
G01 X36.0275 Y25.4934
G01 X36.0190 Y25.4888
G01 X36.0097 Y25.4860
G01 X36.0000 Y25.4851
G01 X35.9903 Y25.4860
G01 X35.9810 Y25.4888
G01 X35.9725 Y25.4934
G01 X35.9649 Y25.4996
G01 X35.9588 Y25.5071
G01 X35.9542 Y25.5157
G01 X35.9514 Y25.5250
G01 X35.9504 Y25.5346
G01 X35.9514 Y25.5443
G01 X35.9542 Y25.5536
G01 X35.9588 Y25.5622
G01 X35.9649 Y25.5697
G01 X35.9725 Y25.5759
G01 X35.9810 Y25.5804
G01 X35.9903 Y25.5833
G01 X36.0000 Y25.5842
G01 X36.0097 Y25.5833
G01 X36.0190 Y25.5804
G01 X36.0275 Y25.5759
G01 X36.0351 Y25.5697
G01 X36.0412 Y25.5622
G01 X36.0458 Y25.5536
G01 X36.0486 Y25.5443
G01 X36.0496 Y25.5346
G00 Z1.0000
G00 X45.4946 Y24.2196
G01 F20.00
G01 Z-0.4850
G01 F30.00
G01 X45.4931 Y24.1903
G01 X45.4888 Y24.1612
G01 X45.4817 Y24.1327
G01 X45.4718 Y24.1050
G01 X45.4592 Y24.0784
G01 X45.4441 Y24.0532
G01 X45.4266 Y24.0296
G01 X45.4068 Y24.0078
G01 X45.3851 Y23.9881
G01 X45.3614 Y23.9706
G01 X45.3362 Y23.9554
G01 X45.3096 Y23.9429
G01 X45.2820 Y23.9330
G01 X45.2534 Y23.9258
G01 X45.2244 Y23.9215
G01 X45.1950 Y23.9201
G01 X45.1656 Y23.9215
G01 X45.1366 Y23.9258
G01 X45.1080 Y23.9330
G01 X45.0804 Y23.9429
G01 X45.0538 Y23.9554
G01 X45.0286 Y23.9706
G01 X45.0049 Y23.9881
G01 X44.9832 Y24.0078
G01 X44.9634 Y24.0296
G01 X44.9459 Y24.0532
G01 X44.9308 Y24.0784
G01 X44.9182 Y24.1050
G01 X44.9083 Y24.1327
G01 X44.9012 Y24.1612
G01 X44.8969 Y24.1903
G01 X44.8954 Y24.2196
G01 X44.8969 Y24.2490
G01 X44.9012 Y24.2781
G01 X44.9083 Y24.3066
G01 X44.9182 Y24.3343
G01 X44.9308 Y24.3609
G01 X44.9459 Y24.3861
G01 X44.9634 Y24.4097
G01 X44.9832 Y24.4315
G01 X45.0049 Y24.4512
G01 X45.0286 Y24.4687
G01 X45.0538 Y24.4838
G01 X45.0804 Y24.4964
G01 X45.1080 Y24.5063
G01 X45.1366 Y24.5135
G01 X45.1656 Y24.5178
G01 X45.1950 Y24.5192
G01 X45.2244 Y24.5178
G01 X45.2534 Y24.5135
G01 X45.2820 Y24.5063
G01 X45.3096 Y24.4964
G01 X45.3362 Y24.4838
G01 X45.3614 Y24.4687
G01 X45.3851 Y24.4512
G01 X45.4068 Y24.4315
G01 X45.4266 Y24.4097
G01 X45.4441 Y24.3861
G01 X45.4592 Y24.3609
G01 X45.4718 Y24.3343
G01 X45.4817 Y24.3066
G01 X45.4888 Y24.2781
G01 X45.4931 Y24.2490
G01 X45.4946 Y24.2196
G00 X45.4946 Y24.2196
G01 F20.00
G01 Z-0.9700
G01 F30.00
G01 X45.4931 Y24.1903
G01 X45.4888 Y24.1612
G01 X45.4817 Y24.1327
G01 X45.4718 Y24.1050
G01 X45.4592 Y24.0784
G01 X45.4441 Y24.0532
G01 X45.4266 Y24.0296
G01 X45.4068 Y24.0078
G01 X45.3851 Y23.9881
G01 X45.3614 Y23.9706
G01 X45.3362 Y23.9554
G01 X45.3096 Y23.9429
G01 X45.2820 Y23.9330
G01 X45.2534 Y23.9258
G01 X45.2244 Y23.9215
G01 X45.1950 Y23.9201
G01 X45.1656 Y23.9215
G01 X45.1366 Y23.9258
G01 X45.1080 Y23.9330
G01 X45.0804 Y23.9429
G01 X45.0538 Y23.9554
G01 X45.0286 Y23.9706
G01 X45.0049 Y23.9881
G01 X44.9832 Y24.0078
G01 X44.9634 Y24.0296
G01 X44.9459 Y24.0532
G01 X44.9308 Y24.0784
G01 X44.9182 Y24.1050
G01 X44.9083 Y24.1327
G01 X44.9012 Y24.1612
G01 X44.8969 Y24.1903
G01 X44.8954 Y24.2196
G01 X44.8969 Y24.2490
G01 X44.9012 Y24.2781
G01 X44.9083 Y24.3066
G01 X44.9182 Y24.3343
G01 X44.9308 Y24.3609
G01 X44.9459 Y24.3861
G01 X44.9634 Y24.4097
G01 X44.9832 Y24.4315
G01 X45.0049 Y24.4512
G01 X45.0286 Y24.4687
G01 X45.0538 Y24.4838
G01 X45.0804 Y24.4964
G01 X45.1080 Y24.5063
G01 X45.1366 Y24.5135
G01 X45.1656 Y24.5178
G01 X45.1950 Y24.5192
G01 X45.2244 Y24.5178
G01 X45.2534 Y24.5135
G01 X45.2820 Y24.5063
G01 X45.3096 Y24.4964
G01 X45.3362 Y24.4838
G01 X45.3614 Y24.4687
G01 X45.3851 Y24.4512
G01 X45.4068 Y24.4315
G01 X45.4266 Y24.4097
G01 X45.4441 Y24.3861
G01 X45.4592 Y24.3609
G01 X45.4718 Y24.3343
G01 X45.4817 Y24.3066
G01 X45.4888 Y24.2781
G01 X45.4931 Y24.2490
G01 X45.4946 Y24.2196
G00 X45.4946 Y24.2196
G01 F20.00
G01 Z-1.4550
G01 F30.00
G01 X45.4931 Y24.1903
G01 X45.4888 Y24.1612
G01 X45.4817 Y24.1327
G01 X45.4718 Y24.1050
G01 X45.4592 Y24.0784
G01 X45.4441 Y24.0532
G01 X45.4266 Y24.0296
G01 X45.4068 Y24.0078
G01 X45.3851 Y23.9881
G01 X45.3614 Y23.9706
G01 X45.3362 Y23.9554
G01 X45.3096 Y23.9429
G01 X45.2820 Y23.9330
G01 X45.2534 Y23.9258
G01 X45.2244 Y23.9215
G01 X45.1950 Y23.9201
G01 X45.1656 Y23.9215
G01 X45.1366 Y23.9258
G01 X45.1080 Y23.9330
G01 X45.0804 Y23.9429
G01 X45.0538 Y23.9554
G01 X45.0286 Y23.9706
G01 X45.0049 Y23.9881
G01 X44.9832 Y24.0078
G01 X44.9634 Y24.0296
G01 X44.9459 Y24.0532
G01 X44.9308 Y24.0784
G01 X44.9182 Y24.1050
G01 X44.9083 Y24.1327
G01 X44.9012 Y24.1612
G01 X44.8969 Y24.1903
G01 X44.8954 Y24.2196
G01 X44.8969 Y24.2490
G01 X44.9012 Y24.2781
G01 X44.9083 Y24.3066
G01 X44.9182 Y24.3343
G01 X44.9308 Y24.3609
G01 X44.9459 Y24.3861
G01 X44.9634 Y24.4097
G01 X44.9832 Y24.4315
G01 X45.0049 Y24.4512
G01 X45.0286 Y24.4687
G01 X45.0538 Y24.4838
G01 X45.0804 Y24.4964
G01 X45.1080 Y24.5063
G01 X45.1366 Y24.5135
G01 X45.1656 Y24.5178
G01 X45.1950 Y24.5192
G01 X45.2244 Y24.5178
G01 X45.2534 Y24.5135
G01 X45.2820 Y24.5063
G01 X45.3096 Y24.4964
G01 X45.3362 Y24.4838
G01 X45.3614 Y24.4687
G01 X45.3851 Y24.4512
G01 X45.4068 Y24.4315
G01 X45.4266 Y24.4097
G01 X45.4441 Y24.3861
G01 X45.4592 Y24.3609
G01 X45.4718 Y24.3343
G01 X45.4817 Y24.3066
G01 X45.4888 Y24.2781
G01 X45.4931 Y24.2490
G01 X45.4946 Y24.2196
G00 X45.4946 Y24.2196
G01 F20.00
G01 Z-1.9400
G01 F30.00
G01 X45.4931 Y24.1903
G01 X45.4888 Y24.1612
G01 X45.4817 Y24.1327
G01 X45.4718 Y24.1050
G01 X45.4592 Y24.0784
G01 X45.4441 Y24.0532
G01 X45.4266 Y24.0296
G01 X45.4068 Y24.0078
G01 X45.3851 Y23.9881
G01 X45.3614 Y23.9706
G01 X45.3362 Y23.9554
G01 X45.3096 Y23.9429
G01 X45.2820 Y23.9330
G01 X45.2534 Y23.9258
G01 X45.2244 Y23.9215
G01 X45.1950 Y23.9201
G01 X45.1656 Y23.9215
G01 X45.1366 Y23.9258
G01 X45.1080 Y23.9330
G01 X45.0804 Y23.9429
G01 X45.0538 Y23.9554
G01 X45.0286 Y23.9706
G01 X45.0049 Y23.9881
G01 X44.9832 Y24.0078
G01 X44.9634 Y24.0296
G01 X44.9459 Y24.0532
G01 X44.9308 Y24.0784
G01 X44.9182 Y24.1050
G01 X44.9083 Y24.1327
G01 X44.9012 Y24.1612
G01 X44.8969 Y24.1903
G01 X44.8954 Y24.2196
G01 X44.8969 Y24.2490
G01 X44.9012 Y24.2781
G01 X44.9083 Y24.3066
G01 X44.9182 Y24.3343
G01 X44.9308 Y24.3609
G01 X44.9459 Y24.3861
G01 X44.9634 Y24.4097
G01 X44.9832 Y24.4315
G01 X45.0049 Y24.4512
G01 X45.0286 Y24.4687
G01 X45.0538 Y24.4838
G01 X45.0804 Y24.4964
G01 X45.1080 Y24.5063
G01 X45.1366 Y24.5135
G01 X45.1656 Y24.5178
G01 X45.1950 Y24.5192
G01 X45.2244 Y24.5178
G01 X45.2534 Y24.5135
G01 X45.2820 Y24.5063
G01 X45.3096 Y24.4964
G01 X45.3362 Y24.4838
G01 X45.3614 Y24.4687
G01 X45.3851 Y24.4512
G01 X45.4068 Y24.4315
G01 X45.4266 Y24.4097
G01 X45.4441 Y24.3861
G01 X45.4592 Y24.3609
G01 X45.4718 Y24.3343
G01 X45.4817 Y24.3066
G01 X45.4888 Y24.2781
G01 X45.4931 Y24.2490
G01 X45.4946 Y24.2196
G00 Z1.0000
G00 X45.4946 Y29.2996
G01 F20.00
G01 Z-0.4850
G01 F30.00
G01 X45.4931 Y29.2703
G01 X45.4888 Y29.2412
G01 X45.4817 Y29.2127
G01 X45.4718 Y29.1850
G01 X45.4592 Y29.1584
G01 X45.4441 Y29.1332
G01 X45.4266 Y29.1096
G01 X45.4068 Y29.0878
G01 X45.3851 Y29.0681
G01 X45.3614 Y29.0506
G01 X45.3362 Y29.0354
G01 X45.3096 Y29.0229
G01 X45.2820 Y29.0130
G01 X45.2534 Y29.0058
G01 X45.2244 Y29.0015
G01 X45.1950 Y29.0001
G01 X45.1656 Y29.0015
G01 X45.1366 Y29.0058
G01 X45.1080 Y29.0130
G01 X45.0804 Y29.0229
G01 X45.0538 Y29.0354
G01 X45.0286 Y29.0506
G01 X45.0049 Y29.0681
G01 X44.9832 Y29.0878
G01 X44.9634 Y29.1096
G01 X44.9459 Y29.1332
G01 X44.9308 Y29.1584
G01 X44.9182 Y29.1850
G01 X44.9083 Y29.2127
G01 X44.9012 Y29.2412
G01 X44.8969 Y29.2703
G01 X44.8954 Y29.2996
G01 X44.8969 Y29.3290
G01 X44.9012 Y29.3581
G01 X44.9083 Y29.3866
G01 X44.9182 Y29.4143
G01 X44.9308 Y29.4409
G01 X44.9459 Y29.4661
G01 X44.9634 Y29.4897
G01 X44.9832 Y29.5115
G01 X45.0049 Y29.5312
G01 X45.0286 Y29.5487
G01 X45.0538 Y29.5638
G01 X45.0804 Y29.5764
G01 X45.1080 Y29.5863
G01 X45.1366 Y29.5935
G01 X45.1656 Y29.5978
G01 X45.1950 Y29.5992
G01 X45.2244 Y29.5978
G01 X45.2534 Y29.5935
G01 X45.2820 Y29.5863
G01 X45.3096 Y29.5764
G01 X45.3362 Y29.5638
G01 X45.3614 Y29.5487
G01 X45.3851 Y29.5312
G01 X45.4068 Y29.5115
G01 X45.4266 Y29.4897
G01 X45.4441 Y29.4661
G01 X45.4592 Y29.4409
G01 X45.4718 Y29.4143
G01 X45.4817 Y29.3866
G01 X45.4888 Y29.3581
G01 X45.4931 Y29.3290
G01 X45.4946 Y29.2996
G00 X45.4946 Y29.2996
G01 F20.00
G01 Z-0.9700
G01 F30.00
G01 X45.4931 Y29.2703
G01 X45.4888 Y29.2412
G01 X45.4817 Y29.2127
G01 X45.4718 Y29.1850
G01 X45.4592 Y29.1584
G01 X45.4441 Y29.1332
G01 X45.4266 Y29.1096
G01 X45.4068 Y29.0878
G01 X45.3851 Y29.0681
G01 X45.3614 Y29.0506
G01 X45.3362 Y29.0354
G01 X45.3096 Y29.0229
G01 X45.2820 Y29.0130
G01 X45.2534 Y29.0058
G01 X45.2244 Y29.0015
G01 X45.1950 Y29.0001
G01 X45.1656 Y29.0015
G01 X45.1366 Y29.0058
G01 X45.1080 Y29.0130
G01 X45.0804 Y29.0229
G01 X45.0538 Y29.0354
G01 X45.0286 Y29.0506
G01 X45.0049 Y29.0681
G01 X44.9832 Y29.0878
G01 X44.9634 Y29.1096
G01 X44.9459 Y29.1332
G01 X44.9308 Y29.1584
G01 X44.9182 Y29.1850
G01 X44.9083 Y29.2127
G01 X44.9012 Y29.2412
G01 X44.8969 Y29.2703
G01 X44.8954 Y29.2996
G01 X44.8969 Y29.3290
G01 X44.9012 Y29.3581
G01 X44.9083 Y29.3866
G01 X44.9182 Y29.4143
G01 X44.9308 Y29.4409
G01 X44.9459 Y29.4661
G01 X44.9634 Y29.4897
G01 X44.9832 Y29.5115
G01 X45.0049 Y29.5312
G01 X45.0286 Y29.5487
G01 X45.0538 Y29.5638
G01 X45.0804 Y29.5764
G01 X45.1080 Y29.5863
G01 X45.1366 Y29.5935
G01 X45.1656 Y29.5978
G01 X45.1950 Y29.5992
G01 X45.2244 Y29.5978
G01 X45.2534 Y29.5935
G01 X45.2820 Y29.5863
G01 X45.3096 Y29.5764
G01 X45.3362 Y29.5638
G01 X45.3614 Y29.5487
G01 X45.3851 Y29.5312
G01 X45.4068 Y29.5115
G01 X45.4266 Y29.4897
G01 X45.4441 Y29.4661
G01 X45.4592 Y29.4409
G01 X45.4718 Y29.4143
G01 X45.4817 Y29.3866
G01 X45.4888 Y29.3581
G01 X45.4931 Y29.3290
G01 X45.4946 Y29.2996
G00 X45.4946 Y29.2996
G01 F20.00
G01 Z-1.4550
G01 F30.00
G01 X45.4931 Y29.2703
G01 X45.4888 Y29.2412
G01 X45.4817 Y29.2127
G01 X45.4718 Y29.1850
G01 X45.4592 Y29.1584
G01 X45.4441 Y29.1332
G01 X45.4266 Y29.1096
G01 X45.4068 Y29.0878
G01 X45.3851 Y29.0681
G01 X45.3614 Y29.0506
G01 X45.3362 Y29.0354
G01 X45.3096 Y29.0229
G01 X45.2820 Y29.0130
G01 X45.2534 Y29.0058
G01 X45.2244 Y29.0015
G01 X45.1950 Y29.0001
G01 X45.1656 Y29.0015
G01 X45.1366 Y29.0058
G01 X45.1080 Y29.0130
G01 X45.0804 Y29.0229
G01 X45.0538 Y29.0354
G01 X45.0286 Y29.0506
G01 X45.0049 Y29.0681
G01 X44.9832 Y29.0878
G01 X44.9634 Y29.1096
G01 X44.9459 Y29.1332
G01 X44.9308 Y29.1584
G01 X44.9182 Y29.1850
G01 X44.9083 Y29.2127
G01 X44.9012 Y29.2412
G01 X44.8969 Y29.2703
G01 X44.8954 Y29.2996
G01 X44.8969 Y29.3290
G01 X44.9012 Y29.3581
G01 X44.9083 Y29.3866
G01 X44.9182 Y29.4143
G01 X44.9308 Y29.4409
G01 X44.9459 Y29.4661
G01 X44.9634 Y29.4897
G01 X44.9832 Y29.5115
G01 X45.0049 Y29.5312
G01 X45.0286 Y29.5487
G01 X45.0538 Y29.5638
G01 X45.0804 Y29.5764
G01 X45.1080 Y29.5863
G01 X45.1366 Y29.5935
G01 X45.1656 Y29.5978
G01 X45.1950 Y29.5992
G01 X45.2244 Y29.5978
G01 X45.2534 Y29.5935
G01 X45.2820 Y29.5863
G01 X45.3096 Y29.5764
G01 X45.3362 Y29.5638
G01 X45.3614 Y29.5487
G01 X45.3851 Y29.5312
G01 X45.4068 Y29.5115
G01 X45.4266 Y29.4897
G01 X45.4441 Y29.4661
G01 X45.4592 Y29.4409
G01 X45.4718 Y29.4143
G01 X45.4817 Y29.3866
G01 X45.4888 Y29.3581
G01 X45.4931 Y29.3290
G01 X45.4946 Y29.2996
G00 X45.4946 Y29.2996
G01 F20.00
G01 Z-1.9400
G01 F30.00
G01 X45.4931 Y29.2703
G01 X45.4888 Y29.2412
G01 X45.4817 Y29.2127
G01 X45.4718 Y29.1850
G01 X45.4592 Y29.1584
G01 X45.4441 Y29.1332
G01 X45.4266 Y29.1096
G01 X45.4068 Y29.0878
G01 X45.3851 Y29.0681
G01 X45.3614 Y29.0506
G01 X45.3362 Y29.0354
G01 X45.3096 Y29.0229
G01 X45.2820 Y29.0130
G01 X45.2534 Y29.0058
G01 X45.2244 Y29.0015
G01 X45.1950 Y29.0001
G01 X45.1656 Y29.0015
G01 X45.1366 Y29.0058
G01 X45.1080 Y29.0130
G01 X45.0804 Y29.0229
G01 X45.0538 Y29.0354
G01 X45.0286 Y29.0506
G01 X45.0049 Y29.0681
G01 X44.9832 Y29.0878
G01 X44.9634 Y29.1096
G01 X44.9459 Y29.1332
G01 X44.9308 Y29.1584
G01 X44.9182 Y29.1850
G01 X44.9083 Y29.2127
G01 X44.9012 Y29.2412
G01 X44.8969 Y29.2703
G01 X44.8954 Y29.2996
G01 X44.8969 Y29.3290
G01 X44.9012 Y29.3581
G01 X44.9083 Y29.3866
G01 X44.9182 Y29.4143
G01 X44.9308 Y29.4409
G01 X44.9459 Y29.4661
G01 X44.9634 Y29.4897
G01 X44.9832 Y29.5115
G01 X45.0049 Y29.5312
G01 X45.0286 Y29.5487
G01 X45.0538 Y29.5638
G01 X45.0804 Y29.5764
G01 X45.1080 Y29.5863
G01 X45.1366 Y29.5935
G01 X45.1656 Y29.5978
G01 X45.1950 Y29.5992
G01 X45.2244 Y29.5978
G01 X45.2534 Y29.5935
G01 X45.2820 Y29.5863
G01 X45.3096 Y29.5764
G01 X45.3362 Y29.5638
G01 X45.3614 Y29.5487
G01 X45.3851 Y29.5312
G01 X45.4068 Y29.5115
G01 X45.4266 Y29.4897
G01 X45.4441 Y29.4661
G01 X45.4592 Y29.4409
G01 X45.4718 Y29.4143
G01 X45.4817 Y29.3866
G01 X45.4888 Y29.3581
G01 X45.4931 Y29.3290
G01 X45.4946 Y29.2996
G00 Z1.0000
G00 X45.4946 Y16.3446
G01 F20.00
G01 Z-0.4850
G01 F30.00
G01 X45.4931 Y16.3153
G01 X45.4888 Y16.2862
G01 X45.4817 Y16.2577
G01 X45.4718 Y16.2300
G01 X45.4592 Y16.2034
G01 X45.4441 Y16.1782
G01 X45.4266 Y16.1546
G01 X45.4068 Y16.1328
G01 X45.3851 Y16.1131
G01 X45.3614 Y16.0956
G01 X45.3362 Y16.0804
G01 X45.3096 Y16.0679
G01 X45.2820 Y16.0580
G01 X45.2534 Y16.0508
G01 X45.2244 Y16.0465
G01 X45.1950 Y16.0451
G01 X45.1656 Y16.0465
G01 X45.1366 Y16.0508
G01 X45.1080 Y16.0580
G01 X45.0804 Y16.0679
G01 X45.0538 Y16.0804
G01 X45.0286 Y16.0956
G01 X45.0049 Y16.1131
G01 X44.9832 Y16.1328
G01 X44.9634 Y16.1546
G01 X44.9459 Y16.1782
G01 X44.9308 Y16.2034
G01 X44.9182 Y16.2300
G01 X44.9083 Y16.2577
G01 X44.9012 Y16.2862
G01 X44.8969 Y16.3153
G01 X44.8954 Y16.3446
G01 X44.8969 Y16.3740
G01 X44.9012 Y16.4031
G01 X44.9083 Y16.4316
G01 X44.9182 Y16.4593
G01 X44.9308 Y16.4859
G01 X44.9459 Y16.5111
G01 X44.9634 Y16.5347
G01 X44.9832 Y16.5565
G01 X45.0049 Y16.5762
G01 X45.0286 Y16.5937
G01 X45.0538 Y16.6088
G01 X45.0804 Y16.6214
G01 X45.1080 Y16.6313
G01 X45.1366 Y16.6385
G01 X45.1656 Y16.6428
G01 X45.1950 Y16.6442
G01 X45.2244 Y16.6428
G01 X45.2534 Y16.6385
G01 X45.2820 Y16.6313
G01 X45.3096 Y16.6214
G01 X45.3362 Y16.6088
G01 X45.3614 Y16.5937
G01 X45.3851 Y16.5762
G01 X45.4068 Y16.5565
G01 X45.4266 Y16.5347
G01 X45.4441 Y16.5111
G01 X45.4592 Y16.4859
G01 X45.4718 Y16.4593
G01 X45.4817 Y16.4316
G01 X45.4888 Y16.4031
G01 X45.4931 Y16.3740
G01 X45.4946 Y16.3446
G00 X45.4946 Y16.3446
G01 F20.00
G01 Z-0.9700
G01 F30.00
G01 X45.4931 Y16.3153
G01 X45.4888 Y16.2862
G01 X45.4817 Y16.2577
G01 X45.4718 Y16.2300
G01 X45.4592 Y16.2034
G01 X45.4441 Y16.1782
G01 X45.4266 Y16.1546
G01 X45.4068 Y16.1328
G01 X45.3851 Y16.1131
G01 X45.3614 Y16.0956
G01 X45.3362 Y16.0804
G01 X45.3096 Y16.0679
G01 X45.2820 Y16.0580
G01 X45.2534 Y16.0508
G01 X45.2244 Y16.0465
G01 X45.1950 Y16.0451
G01 X45.1656 Y16.0465
G01 X45.1366 Y16.0508
G01 X45.1080 Y16.0580
G01 X45.0804 Y16.0679
G01 X45.0538 Y16.0804
G01 X45.0286 Y16.0956
G01 X45.0049 Y16.1131
G01 X44.9832 Y16.1328
G01 X44.9634 Y16.1546
G01 X44.9459 Y16.1782
G01 X44.9308 Y16.2034
G01 X44.9182 Y16.2300
G01 X44.9083 Y16.2577
G01 X44.9012 Y16.2862
G01 X44.8969 Y16.3153
G01 X44.8954 Y16.3446
G01 X44.8969 Y16.3740
G01 X44.9012 Y16.4031
G01 X44.9083 Y16.4316
G01 X44.9182 Y16.4593
G01 X44.9308 Y16.4859
G01 X44.9459 Y16.5111
G01 X44.9634 Y16.5347
G01 X44.9832 Y16.5565
G01 X45.0049 Y16.5762
G01 X45.0286 Y16.5937
G01 X45.0538 Y16.6088
G01 X45.0804 Y16.6214
G01 X45.1080 Y16.6313
G01 X45.1366 Y16.6385
G01 X45.1656 Y16.6428
G01 X45.1950 Y16.6442
G01 X45.2244 Y16.6428
G01 X45.2534 Y16.6385
G01 X45.2820 Y16.6313
G01 X45.3096 Y16.6214
G01 X45.3362 Y16.6088
G01 X45.3614 Y16.5937
G01 X45.3851 Y16.5762
G01 X45.4068 Y16.5565
G01 X45.4266 Y16.5347
G01 X45.4441 Y16.5111
G01 X45.4592 Y16.4859
G01 X45.4718 Y16.4593
G01 X45.4817 Y16.4316
G01 X45.4888 Y16.4031
G01 X45.4931 Y16.3740
G01 X45.4946 Y16.3446
G00 X45.4946 Y16.3446
G01 F20.00
G01 Z-1.4550
G01 F30.00
G01 X45.4931 Y16.3153
G01 X45.4888 Y16.2862
G01 X45.4817 Y16.2577
G01 X45.4718 Y16.2300
G01 X45.4592 Y16.2034
G01 X45.4441 Y16.1782
G01 X45.4266 Y16.1546
G01 X45.4068 Y16.1328
G01 X45.3851 Y16.1131
G01 X45.3614 Y16.0956
G01 X45.3362 Y16.0804
G01 X45.3096 Y16.0679
G01 X45.2820 Y16.0580
G01 X45.2534 Y16.0508
G01 X45.2244 Y16.0465
G01 X45.1950 Y16.0451
G01 X45.1656 Y16.0465
G01 X45.1366 Y16.0508
G01 X45.1080 Y16.0580
G01 X45.0804 Y16.0679
G01 X45.0538 Y16.0804
G01 X45.0286 Y16.0956
G01 X45.0049 Y16.1131
G01 X44.9832 Y16.1328
G01 X44.9634 Y16.1546
G01 X44.9459 Y16.1782
G01 X44.9308 Y16.2034
G01 X44.9182 Y16.2300
G01 X44.9083 Y16.2577
G01 X44.9012 Y16.2862
G01 X44.8969 Y16.3153
G01 X44.8954 Y16.3446
G01 X44.8969 Y16.3740
G01 X44.9012 Y16.4031
G01 X44.9083 Y16.4316
G01 X44.9182 Y16.4593
G01 X44.9308 Y16.4859
G01 X44.9459 Y16.5111
G01 X44.9634 Y16.5347
G01 X44.9832 Y16.5565
G01 X45.0049 Y16.5762
G01 X45.0286 Y16.5937
G01 X45.0538 Y16.6088
G01 X45.0804 Y16.6214
G01 X45.1080 Y16.6313
G01 X45.1366 Y16.6385
G01 X45.1656 Y16.6428
G01 X45.1950 Y16.6442
G01 X45.2244 Y16.6428
G01 X45.2534 Y16.6385
G01 X45.2820 Y16.6313
G01 X45.3096 Y16.6214
G01 X45.3362 Y16.6088
G01 X45.3614 Y16.5937
G01 X45.3851 Y16.5762
G01 X45.4068 Y16.5565
G01 X45.4266 Y16.5347
G01 X45.4441 Y16.5111
G01 X45.4592 Y16.4859
G01 X45.4718 Y16.4593
G01 X45.4817 Y16.4316
G01 X45.4888 Y16.4031
G01 X45.4931 Y16.3740
G01 X45.4946 Y16.3446
G00 X45.4946 Y16.3446
G01 F20.00
G01 Z-1.9400
G01 F30.00
G01 X45.4931 Y16.3153
G01 X45.4888 Y16.2862
G01 X45.4817 Y16.2577
G01 X45.4718 Y16.2300
G01 X45.4592 Y16.2034
G01 X45.4441 Y16.1782
G01 X45.4266 Y16.1546
G01 X45.4068 Y16.1328
G01 X45.3851 Y16.1131
G01 X45.3614 Y16.0956
G01 X45.3362 Y16.0804
G01 X45.3096 Y16.0679
G01 X45.2820 Y16.0580
G01 X45.2534 Y16.0508
G01 X45.2244 Y16.0465
G01 X45.1950 Y16.0451
G01 X45.1656 Y16.0465
G01 X45.1366 Y16.0508
G01 X45.1080 Y16.0580
G01 X45.0804 Y16.0679
G01 X45.0538 Y16.0804
G01 X45.0286 Y16.0956
G01 X45.0049 Y16.1131
G01 X44.9832 Y16.1328
G01 X44.9634 Y16.1546
G01 X44.9459 Y16.1782
G01 X44.9308 Y16.2034
G01 X44.9182 Y16.2300
G01 X44.9083 Y16.2577
G01 X44.9012 Y16.2862
G01 X44.8969 Y16.3153
G01 X44.8954 Y16.3446
G01 X44.8969 Y16.3740
G01 X44.9012 Y16.4031
G01 X44.9083 Y16.4316
G01 X44.9182 Y16.4593
G01 X44.9308 Y16.4859
G01 X44.9459 Y16.5111
G01 X44.9634 Y16.5347
G01 X44.9832 Y16.5565
G01 X45.0049 Y16.5762
G01 X45.0286 Y16.5937
G01 X45.0538 Y16.6088
G01 X45.0804 Y16.6214
G01 X45.1080 Y16.6313
G01 X45.1366 Y16.6385
G01 X45.1656 Y16.6428
G01 X45.1950 Y16.6442
G01 X45.2244 Y16.6428
G01 X45.2534 Y16.6385
G01 X45.2820 Y16.6313
G01 X45.3096 Y16.6214
G01 X45.3362 Y16.6088
G01 X45.3614 Y16.5937
G01 X45.3851 Y16.5762
G01 X45.4068 Y16.5565
G01 X45.4266 Y16.5347
G01 X45.4441 Y16.5111
G01 X45.4592 Y16.4859
G01 X45.4718 Y16.4593
G01 X45.4817 Y16.4316
G01 X45.4888 Y16.4031
G01 X45.4931 Y16.3740
G01 X45.4946 Y16.3446
G00 Z1.0000
G00 X45.4946 Y11.2646
G01 F20.00
G01 Z-0.4850
G01 F30.00
G01 X45.4931 Y11.2353
G01 X45.4888 Y11.2062
G01 X45.4817 Y11.1777
G01 X45.4718 Y11.1500
G01 X45.4592 Y11.1234
G01 X45.4441 Y11.0982
G01 X45.4266 Y11.0746
G01 X45.4068 Y11.0528
G01 X45.3851 Y11.0331
G01 X45.3614 Y11.0156
G01 X45.3362 Y11.0004
G01 X45.3096 Y10.9879
G01 X45.2820 Y10.9780
G01 X45.2534 Y10.9708
G01 X45.2244 Y10.9665
G01 X45.1950 Y10.9651
G01 X45.1656 Y10.9665
G01 X45.1366 Y10.9708
G01 X45.1080 Y10.9780
G01 X45.0804 Y10.9879
G01 X45.0538 Y11.0004
G01 X45.0286 Y11.0156
G01 X45.0049 Y11.0331
G01 X44.9832 Y11.0528
G01 X44.9634 Y11.0746
G01 X44.9459 Y11.0982
G01 X44.9308 Y11.1234
G01 X44.9182 Y11.1500
G01 X44.9083 Y11.1777
G01 X44.9012 Y11.2062
G01 X44.8969 Y11.2353
G01 X44.8954 Y11.2646
G01 X44.8969 Y11.2940
G01 X44.9012 Y11.3231
G01 X44.9083 Y11.3516
G01 X44.9182 Y11.3793
G01 X44.9308 Y11.4059
G01 X44.9459 Y11.4311
G01 X44.9634 Y11.4547
G01 X44.9832 Y11.4765
G01 X45.0049 Y11.4962
G01 X45.0286 Y11.5137
G01 X45.0538 Y11.5288
G01 X45.0804 Y11.5414
G01 X45.1080 Y11.5513
G01 X45.1366 Y11.5585
G01 X45.1656 Y11.5628
G01 X45.1950 Y11.5642
G01 X45.2244 Y11.5628
G01 X45.2534 Y11.5585
G01 X45.2820 Y11.5513
G01 X45.3096 Y11.5414
G01 X45.3362 Y11.5288
G01 X45.3614 Y11.5137
G01 X45.3851 Y11.4962
G01 X45.4068 Y11.4765
G01 X45.4266 Y11.4547
G01 X45.4441 Y11.4311
G01 X45.4592 Y11.4059
G01 X45.4718 Y11.3793
G01 X45.4817 Y11.3516
G01 X45.4888 Y11.3231
G01 X45.4931 Y11.2940
G01 X45.4946 Y11.2646
G00 X45.4946 Y11.2646
G01 F20.00
G01 Z-0.9700
G01 F30.00
G01 X45.4931 Y11.2353
G01 X45.4888 Y11.2062
G01 X45.4817 Y11.1777
G01 X45.4718 Y11.1500
G01 X45.4592 Y11.1234
G01 X45.4441 Y11.0982
G01 X45.4266 Y11.0746
G01 X45.4068 Y11.0528
G01 X45.3851 Y11.0331
G01 X45.3614 Y11.0156
G01 X45.3362 Y11.0004
G01 X45.3096 Y10.9879
G01 X45.2820 Y10.9780
G01 X45.2534 Y10.9708
G01 X45.2244 Y10.9665
G01 X45.1950 Y10.9651
G01 X45.1656 Y10.9665
G01 X45.1366 Y10.9708
G01 X45.1080 Y10.9780
G01 X45.0804 Y10.9879
G01 X45.0538 Y11.0004
G01 X45.0286 Y11.0156
G01 X45.0049 Y11.0331
G01 X44.9832 Y11.0528
G01 X44.9634 Y11.0746
G01 X44.9459 Y11.0982
G01 X44.9308 Y11.1234
G01 X44.9182 Y11.1500
G01 X44.9083 Y11.1777
G01 X44.9012 Y11.2062
G01 X44.8969 Y11.2353
G01 X44.8954 Y11.2646
G01 X44.8969 Y11.2940
G01 X44.9012 Y11.3231
G01 X44.9083 Y11.3516
G01 X44.9182 Y11.3793
G01 X44.9308 Y11.4059
G01 X44.9459 Y11.4311
G01 X44.9634 Y11.4547
G01 X44.9832 Y11.4765
G01 X45.0049 Y11.4962
G01 X45.0286 Y11.5137
G01 X45.0538 Y11.5288
G01 X45.0804 Y11.5414
G01 X45.1080 Y11.5513
G01 X45.1366 Y11.5585
G01 X45.1656 Y11.5628
G01 X45.1950 Y11.5642
G01 X45.2244 Y11.5628
G01 X45.2534 Y11.5585
G01 X45.2820 Y11.5513
G01 X45.3096 Y11.5414
G01 X45.3362 Y11.5288
G01 X45.3614 Y11.5137
G01 X45.3851 Y11.4962
G01 X45.4068 Y11.4765
G01 X45.4266 Y11.4547
G01 X45.4441 Y11.4311
G01 X45.4592 Y11.4059
G01 X45.4718 Y11.3793
G01 X45.4817 Y11.3516
G01 X45.4888 Y11.3231
G01 X45.4931 Y11.2940
G01 X45.4946 Y11.2646
G00 X45.4946 Y11.2646
G01 F20.00
G01 Z-1.4550
G01 F30.00
G01 X45.4931 Y11.2353
G01 X45.4888 Y11.2062
G01 X45.4817 Y11.1777
G01 X45.4718 Y11.1500
G01 X45.4592 Y11.1234
G01 X45.4441 Y11.0982
G01 X45.4266 Y11.0746
G01 X45.4068 Y11.0528
G01 X45.3851 Y11.0331
G01 X45.3614 Y11.0156
G01 X45.3362 Y11.0004
G01 X45.3096 Y10.9879
G01 X45.2820 Y10.9780
G01 X45.2534 Y10.9708
G01 X45.2244 Y10.9665
G01 X45.1950 Y10.9651
G01 X45.1656 Y10.9665
G01 X45.1366 Y10.9708
G01 X45.1080 Y10.9780
G01 X45.0804 Y10.9879
G01 X45.0538 Y11.0004
G01 X45.0286 Y11.0156
G01 X45.0049 Y11.0331
G01 X44.9832 Y11.0528
G01 X44.9634 Y11.0746
G01 X44.9459 Y11.0982
G01 X44.9308 Y11.1234
G01 X44.9182 Y11.1500
G01 X44.9083 Y11.1777
G01 X44.9012 Y11.2062
G01 X44.8969 Y11.2353
G01 X44.8954 Y11.2646
G01 X44.8969 Y11.2940
G01 X44.9012 Y11.3231
G01 X44.9083 Y11.3516
G01 X44.9182 Y11.3793
G01 X44.9308 Y11.4059
G01 X44.9459 Y11.4311
G01 X44.9634 Y11.4547
G01 X44.9832 Y11.4765
G01 X45.0049 Y11.4962
G01 X45.0286 Y11.5137
G01 X45.0538 Y11.5288
G01 X45.0804 Y11.5414
G01 X45.1080 Y11.5513
G01 X45.1366 Y11.5585
G01 X45.1656 Y11.5628
G01 X45.1950 Y11.5642
G01 X45.2244 Y11.5628
G01 X45.2534 Y11.5585
G01 X45.2820 Y11.5513
G01 X45.3096 Y11.5414
G01 X45.3362 Y11.5288
G01 X45.3614 Y11.5137
G01 X45.3851 Y11.4962
G01 X45.4068 Y11.4765
G01 X45.4266 Y11.4547
G01 X45.4441 Y11.4311
G01 X45.4592 Y11.4059
G01 X45.4718 Y11.3793
G01 X45.4817 Y11.3516
G01 X45.4888 Y11.3231
G01 X45.4931 Y11.2940
G01 X45.4946 Y11.2646
G00 X45.4946 Y11.2646
G01 F20.00
G01 Z-1.9400
G01 F30.00
G01 X45.4931 Y11.2353
G01 X45.4888 Y11.2062
G01 X45.4817 Y11.1777
G01 X45.4718 Y11.1500
G01 X45.4592 Y11.1234
G01 X45.4441 Y11.0982
G01 X45.4266 Y11.0746
G01 X45.4068 Y11.0528
G01 X45.3851 Y11.0331
G01 X45.3614 Y11.0156
G01 X45.3362 Y11.0004
G01 X45.3096 Y10.9879
G01 X45.2820 Y10.9780
G01 X45.2534 Y10.9708
G01 X45.2244 Y10.9665
G01 X45.1950 Y10.9651
G01 X45.1656 Y10.9665
G01 X45.1366 Y10.9708
G01 X45.1080 Y10.9780
G01 X45.0804 Y10.9879
G01 X45.0538 Y11.0004
G01 X45.0286 Y11.0156
G01 X45.0049 Y11.0331
G01 X44.9832 Y11.0528
G01 X44.9634 Y11.0746
G01 X44.9459 Y11.0982
G01 X44.9308 Y11.1234
G01 X44.9182 Y11.1500
G01 X44.9083 Y11.1777
G01 X44.9012 Y11.2062
G01 X44.8969 Y11.2353
G01 X44.8954 Y11.2646
G01 X44.8969 Y11.2940
G01 X44.9012 Y11.3231
G01 X44.9083 Y11.3516
G01 X44.9182 Y11.3793
G01 X44.9308 Y11.4059
G01 X44.9459 Y11.4311
G01 X44.9634 Y11.4547
G01 X44.9832 Y11.4765
G01 X45.0049 Y11.4962
G01 X45.0286 Y11.5137
G01 X45.0538 Y11.5288
G01 X45.0804 Y11.5414
G01 X45.1080 Y11.5513
G01 X45.1366 Y11.5585
G01 X45.1656 Y11.5628
G01 X45.1950 Y11.5642
G01 X45.2244 Y11.5628
G01 X45.2534 Y11.5585
G01 X45.2820 Y11.5513
G01 X45.3096 Y11.5414
G01 X45.3362 Y11.5288
G01 X45.3614 Y11.5137
G01 X45.3851 Y11.4962
G01 X45.4068 Y11.4765
G01 X45.4266 Y11.4547
G01 X45.4441 Y11.4311
G01 X45.4592 Y11.4059
G01 X45.4718 Y11.3793
G01 X45.4817 Y11.3516
G01 X45.4888 Y11.3231
G01 X45.4931 Y11.2940
G01 X45.4946 Y11.2646
G00 Z1.0000
G00 X36.0496 Y12.4546
G01 F20.00
G01 Z-0.4850
G01 F30.00
G01 X36.0486 Y12.4450
G01 X36.0458 Y12.4357
G01 X36.0412 Y12.4271
G01 X36.0351 Y12.4196
G01 X36.0275 Y12.4134
G01 X36.0190 Y12.4088
G01 X36.0097 Y12.4060
G01 X36.0000 Y12.4051
G01 X35.9903 Y12.4060
G01 X35.9810 Y12.4088
G01 X35.9725 Y12.4134
G01 X35.9649 Y12.4196
G01 X35.9588 Y12.4271
G01 X35.9542 Y12.4357
G01 X35.9514 Y12.4450
G01 X35.9504 Y12.4546
G01 X35.9514 Y12.4643
G01 X35.9542 Y12.4736
G01 X35.9588 Y12.4822
G01 X35.9649 Y12.4897
G01 X35.9725 Y12.4959
G01 X35.9810 Y12.5004
G01 X35.9903 Y12.5033
G01 X36.0000 Y12.5042
G01 X36.0097 Y12.5033
G01 X36.0190 Y12.5004
G01 X36.0275 Y12.4959
G01 X36.0351 Y12.4897
G01 X36.0412 Y12.4822
G01 X36.0458 Y12.4736
G01 X36.0486 Y12.4643
G01 X36.0496 Y12.4546
G00 X36.0496 Y12.4546
G01 F20.00
G01 Z-0.9700
G01 F30.00
G01 X36.0486 Y12.4450
G01 X36.0458 Y12.4357
G01 X36.0412 Y12.4271
G01 X36.0351 Y12.4196
G01 X36.0275 Y12.4134
G01 X36.0190 Y12.4088
G01 X36.0097 Y12.4060
G01 X36.0000 Y12.4051
G01 X35.9903 Y12.4060
G01 X35.9810 Y12.4088
G01 X35.9725 Y12.4134
G01 X35.9649 Y12.4196
G01 X35.9588 Y12.4271
G01 X35.9542 Y12.4357
G01 X35.9514 Y12.4450
G01 X35.9504 Y12.4546
G01 X35.9514 Y12.4643
G01 X35.9542 Y12.4736
G01 X35.9588 Y12.4822
G01 X35.9649 Y12.4897
G01 X35.9725 Y12.4959
G01 X35.9810 Y12.5004
G01 X35.9903 Y12.5033
G01 X36.0000 Y12.5042
G01 X36.0097 Y12.5033
G01 X36.0190 Y12.5004
G01 X36.0275 Y12.4959
G01 X36.0351 Y12.4897
G01 X36.0412 Y12.4822
G01 X36.0458 Y12.4736
G01 X36.0486 Y12.4643
G01 X36.0496 Y12.4546
G00 X36.0496 Y12.4546
G01 F20.00
G01 Z-1.4550
G01 F30.00
G01 X36.0486 Y12.4450
G01 X36.0458 Y12.4357
G01 X36.0412 Y12.4271
G01 X36.0351 Y12.4196
G01 X36.0275 Y12.4134
G01 X36.0190 Y12.4088
G01 X36.0097 Y12.4060
G01 X36.0000 Y12.4051
G01 X35.9903 Y12.4060
G01 X35.9810 Y12.4088
G01 X35.9725 Y12.4134
G01 X35.9649 Y12.4196
G01 X35.9588 Y12.4271
G01 X35.9542 Y12.4357
G01 X35.9514 Y12.4450
G01 X35.9504 Y12.4546
G01 X35.9514 Y12.4643
G01 X35.9542 Y12.4736
G01 X35.9588 Y12.4822
G01 X35.9649 Y12.4897
G01 X35.9725 Y12.4959
G01 X35.9810 Y12.5004
G01 X35.9903 Y12.5033
G01 X36.0000 Y12.5042
G01 X36.0097 Y12.5033
G01 X36.0190 Y12.5004
G01 X36.0275 Y12.4959
G01 X36.0351 Y12.4897
G01 X36.0412 Y12.4822
G01 X36.0458 Y12.4736
G01 X36.0486 Y12.4643
G01 X36.0496 Y12.4546
G00 X36.0496 Y12.4546
G01 F20.00
G01 Z-1.9400
G01 F30.00
G01 X36.0486 Y12.4450
G01 X36.0458 Y12.4357
G01 X36.0412 Y12.4271
G01 X36.0351 Y12.4196
G01 X36.0275 Y12.4134
G01 X36.0190 Y12.4088
G01 X36.0097 Y12.4060
G01 X36.0000 Y12.4051
G01 X35.9903 Y12.4060
G01 X35.9810 Y12.4088
G01 X35.9725 Y12.4134
G01 X35.9649 Y12.4196
G01 X35.9588 Y12.4271
G01 X35.9542 Y12.4357
G01 X35.9514 Y12.4450
G01 X35.9504 Y12.4546
G01 X35.9514 Y12.4643
G01 X35.9542 Y12.4736
G01 X35.9588 Y12.4822
G01 X35.9649 Y12.4897
G01 X35.9725 Y12.4959
G01 X35.9810 Y12.5004
G01 X35.9903 Y12.5033
G01 X36.0000 Y12.5042
G01 X36.0097 Y12.5033
G01 X36.0190 Y12.5004
G01 X36.0275 Y12.4959
G01 X36.0351 Y12.4897
G01 X36.0412 Y12.4822
G01 X36.0458 Y12.4736
G01 X36.0486 Y12.4643
G01 X36.0496 Y12.4546
G00 Z1.0000
G00 X36.0496 Y14.9946
G01 F20.00
G01 Z-0.4850
G01 F30.00
G01 X36.0486 Y14.9850
G01 X36.0458 Y14.9757
G01 X36.0412 Y14.9671
G01 X36.0351 Y14.9596
G01 X36.0275 Y14.9534
G01 X36.0190 Y14.9488
G01 X36.0097 Y14.9460
G01 X36.0000 Y14.9451
G01 X35.9903 Y14.9460
G01 X35.9810 Y14.9488
G01 X35.9725 Y14.9534
G01 X35.9649 Y14.9596
G01 X35.9588 Y14.9671
G01 X35.9542 Y14.9757
G01 X35.9514 Y14.9850
G01 X35.9504 Y14.9946
G01 X35.9514 Y15.0043
G01 X35.9542 Y15.0136
G01 X35.9588 Y15.0222
G01 X35.9649 Y15.0297
G01 X35.9725 Y15.0359
G01 X35.9810 Y15.0404
G01 X35.9903 Y15.0433
G01 X36.0000 Y15.0442
G01 X36.0097 Y15.0433
G01 X36.0190 Y15.0404
G01 X36.0275 Y15.0359
G01 X36.0351 Y15.0297
G01 X36.0412 Y15.0222
G01 X36.0458 Y15.0136
G01 X36.0486 Y15.0043
G01 X36.0496 Y14.9946
G00 X36.0496 Y14.9946
G01 F20.00
G01 Z-0.9700
G01 F30.00
G01 X36.0486 Y14.9850
G01 X36.0458 Y14.9757
G01 X36.0412 Y14.9671
G01 X36.0351 Y14.9596
G01 X36.0275 Y14.9534
G01 X36.0190 Y14.9488
G01 X36.0097 Y14.9460
G01 X36.0000 Y14.9451
G01 X35.9903 Y14.9460
G01 X35.9810 Y14.9488
G01 X35.9725 Y14.9534
G01 X35.9649 Y14.9596
G01 X35.9588 Y14.9671
G01 X35.9542 Y14.9757
G01 X35.9514 Y14.9850
G01 X35.9504 Y14.9946
G01 X35.9514 Y15.0043
G01 X35.9542 Y15.0136
G01 X35.9588 Y15.0222
G01 X35.9649 Y15.0297
G01 X35.9725 Y15.0359
G01 X35.9810 Y15.0404
G01 X35.9903 Y15.0433
G01 X36.0000 Y15.0442
G01 X36.0097 Y15.0433
G01 X36.0190 Y15.0404
G01 X36.0275 Y15.0359
G01 X36.0351 Y15.0297
G01 X36.0412 Y15.0222
G01 X36.0458 Y15.0136
G01 X36.0486 Y15.0043
G01 X36.0496 Y14.9946
G00 X36.0496 Y14.9946
G01 F20.00
G01 Z-1.4550
G01 F30.00
G01 X36.0486 Y14.9850
G01 X36.0458 Y14.9757
G01 X36.0412 Y14.9671
G01 X36.0351 Y14.9596
G01 X36.0275 Y14.9534
G01 X36.0190 Y14.9488
G01 X36.0097 Y14.9460
G01 X36.0000 Y14.9451
G01 X35.9903 Y14.9460
G01 X35.9810 Y14.9488
G01 X35.9725 Y14.9534
G01 X35.9649 Y14.9596
G01 X35.9588 Y14.9671
G01 X35.9542 Y14.9757
G01 X35.9514 Y14.9850
G01 X35.9504 Y14.9946
G01 X35.9514 Y15.0043
G01 X35.9542 Y15.0136
G01 X35.9588 Y15.0222
G01 X35.9649 Y15.0297
G01 X35.9725 Y15.0359
G01 X35.9810 Y15.0404
G01 X35.9903 Y15.0433
G01 X36.0000 Y15.0442
G01 X36.0097 Y15.0433
G01 X36.0190 Y15.0404
G01 X36.0275 Y15.0359
G01 X36.0351 Y15.0297
G01 X36.0412 Y15.0222
G01 X36.0458 Y15.0136
G01 X36.0486 Y15.0043
G01 X36.0496 Y14.9946
G00 X36.0496 Y14.9946
G01 F20.00
G01 Z-1.9400
G01 F30.00
G01 X36.0486 Y14.9850
G01 X36.0458 Y14.9757
G01 X36.0412 Y14.9671
G01 X36.0351 Y14.9596
G01 X36.0275 Y14.9534
G01 X36.0190 Y14.9488
G01 X36.0097 Y14.9460
G01 X36.0000 Y14.9451
G01 X35.9903 Y14.9460
G01 X35.9810 Y14.9488
G01 X35.9725 Y14.9534
G01 X35.9649 Y14.9596
G01 X35.9588 Y14.9671
G01 X35.9542 Y14.9757
G01 X35.9514 Y14.9850
G01 X35.9504 Y14.9946
G01 X35.9514 Y15.0043
G01 X35.9542 Y15.0136
G01 X35.9588 Y15.0222
G01 X35.9649 Y15.0297
G01 X35.9725 Y15.0359
G01 X35.9810 Y15.0404
G01 X35.9903 Y15.0433
G01 X36.0000 Y15.0442
G01 X36.0097 Y15.0433
G01 X36.0190 Y15.0404
G01 X36.0275 Y15.0359
G01 X36.0351 Y15.0297
G01 X36.0412 Y15.0222
G01 X36.0458 Y15.0136
G01 X36.0486 Y15.0043
G01 X36.0496 Y14.9946
G00 Z1.0000
M05
G00 Z1.0000
G00 Z15.00
G00 X0.0 Y0.0


