(G-CODE GENERATED BY FLATCAM v8.994 - www.flatcam.org - Version Date: 2020/11/7)

(Name: amp-F_Cu.gbr_iso_combined_cnc)
(Type: G-code from Geometry)
(Units: MM)

(Created on Tuesday, 24 January 2023 at 12:05)

(This preprocessor is the default preprocessor used by FlatCAM.)
(It is made to work with MACH3 compatible motion controllers.)

(TOOL DIAMETER: 0.32 mm)
(Feedrate_XY: 100.0 mm/min)
(Feedrate_Z: 30.0 mm/min)
(Feedrate rapids 1500.0 mm/min)

(Z_Cut: -0.08 mm)
(Z_Move: 1.0 mm)
(Z Start: None mm)
(Z End: 15.0 mm)
(X,Y End: 0.0000, 0.0000 mm)
(Steps per circle: 64)
(Preprocessor Geometry: default)

(X range:    1.1453 ...   51.2515  mm)
(Y range:    1.4981 ...   38.2665  mm)

(Spindle Speed: 1000.0 RPM)
G21
G90
G94

G01 F100.00

M5
G00 Z15.0000
G00 X0.0000 Y0.0000
T1
M6    
(MSG, Change to Tool Dia = 0.3200)
M0
G00 Z15.0000

M03 S1000.0
G01 F100.00
G00 X2.1473 Y4.2652
G01 F30.00
G01 Z-0.0800
G01 F100.00
G01 X2.1618 Y4.5169
G01 X2.2103 Y4.7642
G01 X2.2920 Y5.0026
G01 X2.4052 Y5.2278
G01 X2.4659 Y5.3162
G01 X2.5480 Y5.4355
G01 X2.7176 Y5.6219
G01 X2.9109 Y5.7836
G01 X3.1244 Y5.9175
G01 X3.3542 Y6.0213
G01 X3.5958 Y6.0928
G01 X3.8450 Y6.1310
G01 X4.0970 Y6.1349
G01 X4.3472 Y6.1046
G01 X4.5910 Y6.0407
G01 X4.8238 Y5.9442
G01 X5.0414 Y5.8171
G01 X5.2398 Y5.6616
G01 X5.4152 Y5.4806
G01 X5.5644 Y5.2774
G01 X5.6847 Y5.0559
G01 X5.7737 Y4.8202
G01 X5.8300 Y4.5745
G01 X5.8528 Y4.3188
G01 X5.8531 Y4.2893
G01 X5.8357 Y4.0332
G01 X5.7846 Y3.7864
G01 X5.7004 Y3.5488
G01 X5.6005 Y3.3551
G01 X5.5848 Y3.3248
G01 X5.4399 Y3.1186
G01 X5.2683 Y2.9340
G01 X5.0733 Y2.7744
G01 X4.8584 Y2.6427
G01 X4.6276 Y2.5414
G01 X4.3852 Y2.4723
G01 X4.1357 Y2.4368
G01 X3.8837 Y2.4355
G01 X3.6338 Y2.4684
G01 X3.3907 Y2.5349
G01 X3.1588 Y2.6338
G01 X2.9426 Y2.7632
G01 X2.7459 Y2.9208
G01 X2.5724 Y3.1036
G01 X2.4253 Y3.3083
G01 X2.3074 Y3.5310
G01 X2.2207 Y3.7677
G01 X2.1671 Y4.0140
G01 X2.1473 Y4.2652
G00 Z1.0000
G00 X2.3076 Y4.2669
G01 F30.00
G01 Z-0.0800
G01 F100.00
G01 X2.3209 Y4.4968
G01 X2.3652 Y4.7227
G01 X2.4398 Y4.9405
G01 X2.5432 Y5.1462
G01 X2.5978 Y5.2256
G01 X2.6736 Y5.3359
G01 X2.8286 Y5.5062
G01 X3.0052 Y5.6539
G01 X3.2002 Y5.7762
G01 X3.4101 Y5.8709
G01 X3.6308 Y5.9363
G01 X3.8584 Y5.9712
G01 X4.0886 Y5.9748
G01 X4.3171 Y5.9471
G01 X4.5398 Y5.8887
G01 X4.7525 Y5.8006
G01 X4.9513 Y5.6844
G01 X5.1325 Y5.5424
G01 X5.2927 Y5.3770
G01 X5.4290 Y5.1915
G01 X5.5388 Y4.9892
G01 X5.6202 Y4.7738
G01 X5.6716 Y4.5494
G01 X5.6929 Y4.3109
G01 X5.6931 Y4.2950
G01 X5.6924 Y4.2840
G01 X5.6768 Y4.0550
G01 X5.6301 Y3.8295
G01 X5.5533 Y3.6125
G01 X5.4583 Y3.4285
G01 X5.4477 Y3.4079
G01 X5.3153 Y3.2195
G01 X5.1586 Y3.0509
G01 X4.9804 Y2.9051
G01 X4.7841 Y2.7848
G01 X4.5733 Y2.6922
G01 X4.3519 Y2.6292
G01 X4.1240 Y2.5967
G01 X3.8937 Y2.5955
G01 X3.6655 Y2.6256
G01 X3.4434 Y2.6863
G01 X3.2316 Y2.7767
G01 X3.0341 Y2.8949
G01 X2.8544 Y3.0388
G01 X2.6959 Y3.2058
G01 X2.5616 Y3.3928
G01 X2.4539 Y3.5963
G01 X2.3748 Y3.8125
G01 X2.3257 Y4.0374
G01 X2.3076 Y4.2669
G00 Z1.0000
G00 X2.4680 Y4.2686
G01 F30.00
G01 Z-0.0800
G01 F100.00
G01 X2.4800 Y4.4767
G01 X2.5201 Y4.6812
G01 X2.5864 Y4.8748
G01 X2.6816 Y5.0649
G01 X2.7993 Y5.2363
G01 X2.9396 Y5.3904
G01 X3.0995 Y5.5241
G01 X3.2739 Y5.6335
G01 X3.3157 Y5.6528
G01 X3.4660 Y5.7206
G01 X3.6658 Y5.7798
G01 X3.8685 Y5.8108
G01 X4.0764 Y5.8146
G01 X4.2876 Y5.7895
G01 X4.4887 Y5.7367
G01 X4.6812 Y5.6569
G01 X4.8579 Y5.5537
G01 X5.0255 Y5.4228
G01 X5.1702 Y5.2735
G01 X5.2924 Y5.1072
G01 X5.3912 Y4.9257
G01 X5.4668 Y4.7270
G01 X5.5130 Y4.5252
G01 X5.5330 Y4.3029
G01 X5.5327 Y4.2942
G01 X5.5182 Y4.0805
G01 X5.4755 Y3.8722
G01 X5.4061 Y3.6762
G01 X5.3105 Y3.4910
G01 X5.1927 Y3.3235
G01 X5.0488 Y3.1678
G01 X4.8904 Y3.0382
G01 X4.7093 Y2.9267
G01 X4.5224 Y2.8447
G01 X4.3180 Y2.7860
G01 X4.1122 Y2.7567
G01 X3.9038 Y2.7556
G01 X3.6972 Y2.7828
G01 X3.4962 Y2.8378
G01 X3.3069 Y2.9185
G01 X3.2606 Y2.9458
G01 X3.1289 Y3.0246
G01 X2.9626 Y3.1572
G01 X2.8195 Y3.3081
G01 X2.6979 Y3.4773
G01 X2.6004 Y3.6615
G01 X2.5288 Y3.8572
G01 X2.4844 Y4.0608
G01 X2.4680 Y4.2686
G00 Z1.0000
G00 X2.6284 Y4.2703
G01 F30.00
G01 Z-0.0800
G01 F100.00
G01 X2.6391 Y4.4566
G01 X2.6750 Y4.6397
G01 X2.7343 Y4.8128
G01 X2.8197 Y4.9834
G01 X2.9250 Y5.1367
G01 X3.0506 Y5.2747
G01 X3.1937 Y5.3944
G01 X3.3502 Y5.4925
G01 X3.5219 Y5.5703
G01 X3.7008 Y5.6233
G01 X3.8823 Y5.6511
G01 X4.0682 Y5.6544
G01 X4.2577 Y5.6319
G01 X4.4375 Y5.5847
G01 X4.6099 Y5.5133
G01 X4.7679 Y5.4210
G01 X4.9183 Y5.3035
G01 X5.0477 Y5.1700
G01 X5.1574 Y5.0206
G01 X5.2455 Y4.8588
G01 X5.3133 Y4.6805
G01 X5.3548 Y4.4992
G01 X5.3727 Y4.2990
G01 X5.3593 Y4.1021
G01 X5.3210 Y3.9151
G01 X5.2589 Y3.7399
G01 X5.1733 Y3.5741
G01 X5.0680 Y3.4242
G01 X4.9390 Y3.2847
G01 X4.7974 Y3.1688
G01 X4.6349 Y3.0688
G01 X4.4680 Y2.9955
G01 X4.2845 Y2.9428
G01 X4.1005 Y2.9166
G01 X3.9139 Y2.9156
G01 X3.7289 Y2.9400
G01 X3.5489 Y2.9892
G01 X3.3792 Y3.0616
G01 X3.2203 Y3.1564
G01 X3.0711 Y3.2754
G01 X2.9431 Y3.4103
G01 X2.8342 Y3.5618
G01 X2.7469 Y3.7267
G01 X2.6828 Y3.9019
G01 X2.6430 Y4.0843
G01 X2.6284 Y4.2703
G00 Z1.0000
G00 X2.7887 Y4.2720
G01 F30.00
G01 Z-0.0800
G01 F100.00
G01 X2.7982 Y4.4365
G01 X2.8299 Y4.5982
G01 X2.8822 Y4.7508
G01 X2.9578 Y4.9020
G01 X3.0507 Y5.0371
G01 X3.1616 Y5.1589
G01 X3.2880 Y5.2646
G01 X3.4265 Y5.3515
G01 X3.5778 Y5.4200
G01 X3.7358 Y5.4668
G01 X3.8960 Y5.4913
G01 X4.0599 Y5.4943
G01 X4.2278 Y5.4743
G01 X4.3864 Y5.4327
G01 X4.5386 Y5.3696
G01 X4.6779 Y5.2883
G01 X4.8111 Y5.1842
G01 X4.9252 Y5.0665
G01 X5.0225 Y4.9341
G01 X5.0997 Y4.7919
G01 X5.1598 Y4.6339
G01 X5.1964 Y4.4741
G01 X5.2122 Y4.2973
G01 X5.2004 Y4.1237
G01 X5.1664 Y3.9581
G01 X5.1117 Y3.8036
G01 X5.0361 Y3.6571
G01 X4.9432 Y3.5250
G01 X4.8292 Y3.4016
G01 X4.7044 Y3.2994
G01 X4.5604 Y3.2108
G01 X4.4135 Y3.1463
G01 X4.2510 Y3.0997
G01 X4.0887 Y3.0766
G01 X3.9239 Y3.0757
G01 X3.7606 Y3.0972
G01 X3.6016 Y3.1407
G01 X3.4515 Y3.2047
G01 X3.3116 Y3.2882
G01 X3.1795 Y3.3936
G01 X3.0666 Y3.5125
G01 X2.9705 Y3.6463
G01 X2.8934 Y3.7919
G01 X2.8368 Y3.9467
G01 X2.8017 Y4.1077
G01 X2.7887 Y4.2720
G00 Z1.0000
G00 X4.0550 Y7.5166
G01 F30.00
G01 Z-0.0800
G01 F100.00
G01 X4.0550 Y7.7046
G01 X4.5950 Y7.7046
G01 X4.6068 Y7.7051
G01 X4.6224 Y7.7070
G01 X4.6339 Y7.7094
G01 X4.6452 Y7.7127
G01 X4.6598 Y7.7184
G01 X4.6739 Y7.7254
G01 X4.6871 Y7.7338
G01 X4.6995 Y7.7435
G01 X4.7081 Y7.7515
G01 X4.7162 Y7.7601
G01 X4.7258 Y7.7725
G01 X4.7342 Y7.7858
G01 X4.7413 Y7.7998
G01 X4.7456 Y7.8107
G01 X4.7502 Y7.8258
G01 X4.7533 Y7.8412
G01 X4.7546 Y7.8529
G01 X4.7550 Y7.8646
G01 X4.7550 Y8.4046
G01 X4.9430 Y8.4046
G01 X4.9430 Y7.8252
G01 X4.9394 Y7.7917
G01 X4.9034 Y7.6958
G01 X4.8436 Y7.6160
G01 X4.7638 Y7.5562
G01 X4.6679 Y7.5203
G01 X4.6344 Y7.5166
G01 X4.0550 Y7.5166
G00 Z1.0000
G00 X2.2470 Y8.4046
G01 F30.00
G01 Z-0.0800
G01 F100.00
G01 X2.4350 Y8.4046
G01 X2.4350 Y7.8646
G01 X2.4354 Y7.8529
G01 X2.4374 Y7.8373
G01 X2.4398 Y7.8258
G01 X2.4431 Y7.8145
G01 X2.4487 Y7.7998
G01 X2.4558 Y7.7858
G01 X2.4642 Y7.7725
G01 X2.4738 Y7.7601
G01 X2.4819 Y7.7515
G01 X2.4905 Y7.7435
G01 X2.5029 Y7.7338
G01 X2.5161 Y7.7254
G01 X2.5302 Y7.7184
G01 X2.5411 Y7.7140
G01 X2.5561 Y7.7094
G01 X2.5715 Y7.7064
G01 X2.5832 Y7.7051
G01 X2.5950 Y7.7046
G01 X3.1350 Y7.7046
G01 X3.1350 Y7.5166
G01 X2.5556 Y7.5166
G01 X2.5221 Y7.5203
G01 X2.4262 Y7.5562
G01 X2.3464 Y7.6160
G01 X2.2866 Y7.6958
G01 X2.2506 Y7.7917
G01 X2.2470 Y7.8252
G01 X2.2470 Y8.4046
G00 Z1.0000
G00 X2.2470 Y9.3246
G01 F30.00
G01 Z-0.0800
G01 F100.00
G01 X2.2470 Y9.9041
G01 X2.2506 Y9.9375
G01 X2.2866 Y10.0335
G01 X2.3464 Y10.1133
G01 X2.4262 Y10.1730
G01 X2.5221 Y10.2090
G01 X2.5556 Y10.2126
G01 X3.1350 Y10.2126
G01 X3.1350 Y10.0246
G01 X2.5950 Y10.0246
G01 X2.5832 Y10.0242
G01 X2.5676 Y10.0223
G01 X2.5561 Y10.0198
G01 X2.5411 Y10.0153
G01 X2.5302 Y10.0109
G01 X2.5161 Y10.0039
G01 X2.5061 Y9.9977
G01 X2.4935 Y9.9883
G01 X2.4819 Y9.9778
G01 X2.4713 Y9.9661
G01 X2.4642 Y9.9568
G01 X2.4578 Y9.9469
G01 X2.4504 Y9.9330
G01 X2.4444 Y9.9185
G01 X2.4408 Y9.9073
G01 X2.4374 Y9.8920
G01 X2.4354 Y9.8764
G01 X2.4350 Y9.8646
G01 X2.4350 Y9.3246
G01 X2.2470 Y9.3246
G00 Z1.0000
G00 X4.6170 Y10.2324
G01 F30.00
G01 Z-0.0800
G01 F100.00
G01 X4.6311 Y10.2241
G01 X4.6454 Y10.2175
G01 X4.7638 Y10.1730
G01 X4.8436 Y10.1133
G01 X4.9034 Y10.0335
G01 X4.9394 Y9.9375
G01 X4.9430 Y9.9041
G01 X4.9430 Y9.3246
G01 X4.7550 Y9.3246
G01 X4.7550 Y9.8646
G01 X4.7542 Y9.8803
G01 X4.7519 Y9.8959
G01 X4.7481 Y9.9111
G01 X4.7428 Y9.9259
G01 X4.7361 Y9.9401
G01 X4.7302 Y9.9502
G01 X4.7258 Y9.9568
G01 X4.7162 Y9.9691
G01 X4.7053 Y9.9805
G01 X4.6934 Y9.9908
G01 X4.6839 Y9.9977
G01 X4.6739 Y10.0039
G01 X4.6634 Y10.0093
G01 X4.6526 Y10.0139
G01 X4.6414 Y10.0178
G01 X4.6301 Y10.0208
G01 X4.6185 Y10.0229
G01 X4.6029 Y10.0244
G01 X4.0550 Y10.0246
G01 X4.0550 Y10.2126
G01 X4.3773 Y10.2126
G01 X4.3887 Y10.2130
G01 X4.3963 Y10.2138
G01 X4.4076 Y10.2155
G01 X4.4187 Y10.2181
G01 X4.4905 Y10.2391
G01 X4.5018 Y10.2429
G01 X4.5164 Y10.2492
G01 X4.5302 Y10.2570
G01 X4.5433 Y10.2661
G01 X4.5530 Y10.2742
G01 X4.5655 Y10.2626
G01 X4.5718 Y10.2576
G01 X4.5816 Y10.2508
G01 X4.5954 Y10.2428
G01 X4.6170 Y10.2324
G00 Z1.0000
G00 X5.6465 Y9.9041
G01 F30.00
G01 Z-0.0800
G01 F100.00
G01 X5.6501 Y9.9377
G01 X5.6862 Y10.0337
G01 X5.7460 Y10.1136
G01 X5.8259 Y10.1735
G01 X5.9220 Y10.2095
G01 X5.9555 Y10.2131
G01 X5.9681 Y10.2133
G01 X5.9757 Y10.2139
G01 X5.9908 Y10.2160
G01 X6.0056 Y10.2196
G01 X6.0737 Y10.2396
G01 X6.0887 Y10.2449
G01 X6.0996 Y10.2497
G01 X6.1134 Y10.2575
G01 X6.1233 Y10.2642
G01 X6.1296 Y10.2690
G01 X6.1386 Y10.2769
G01 X6.1495 Y10.2884
G01 X6.1986 Y10.3451
G01 X6.2059 Y10.3546
G01 X6.2144 Y10.3681
G01 X6.2199 Y10.3788
G01 X6.2232 Y10.3861
G01 X6.2273 Y10.3974
G01 X6.2296 Y10.4050
G01 X6.2428 Y10.4651
G01 X6.2449 Y10.4764
G01 X6.2458 Y10.4839
G01 X6.2465 Y10.4991
G01 X6.2465 Y16.7882
G01 X6.2460 Y16.8008
G01 X6.2434 Y16.8301
G01 X6.2461 Y16.8817
G01 X6.2465 Y16.9089
G01 X6.2489 Y16.9359
G01 X6.2517 Y16.9876
G01 X6.2573 Y17.0164
G01 X6.2588 Y17.0259
G01 X6.2779 Y17.0855
G01 X6.2924 Y17.1395
G01 X6.3039 Y17.1666
G01 X6.3074 Y17.1756
G01 X6.3384 Y17.2299
G01 X6.3639 Y17.2797
G01 X6.3696 Y17.2875
G01 X6.3860 Y17.3119
G01 X6.4206 Y17.3503
G01 X6.4380 Y17.3712
G01 X6.4569 Y17.3906
G01 X6.4915 Y17.4291
G01 X6.5141 Y17.4480
G01 X6.5233 Y17.4565
G01 X7.0732 Y18.0063
G01 X7.0817 Y18.0156
G01 X7.1006 Y18.0381
G01 X7.1390 Y18.0728
G01 X7.1585 Y18.0916
G01 X7.1793 Y18.1090
G01 X7.2178 Y18.1436
G01 X7.2422 Y18.1601
G01 X7.2499 Y18.1658
G01 X7.2998 Y18.1912
G01 X7.3540 Y18.2223
G01 X7.3813 Y18.2333
G01 X7.3901 Y18.2372
G01 X7.4441 Y18.2518
G01 X7.5037 Y18.2709
G01 X7.5132 Y18.2723
G01 X7.5421 Y18.2780
G01 X7.5938 Y18.2807
G01 X7.6208 Y18.2831
G01 X7.6479 Y18.2835
G01 X7.6996 Y18.2862
G01 X7.7289 Y18.2836
G01 X7.7414 Y18.2831
G01 X15.7340 Y18.2831
G01 X15.7455 Y18.2835
G01 X15.7606 Y18.2854
G01 X15.7754 Y18.2886
G01 X15.8509 Y18.3107
G01 X15.8617 Y18.3147
G01 X15.8723 Y18.3193
G01 X15.8857 Y18.3267
G01 X15.8953 Y18.3331
G01 X15.9044 Y18.3401
G01 X15.9351 Y18.3668
G01 X15.9463 Y18.3776
G01 X16.0435 Y18.4911
G01 X16.2049 Y18.6290
G01 X16.3859 Y18.7399
G01 X16.5820 Y18.8211
G01 X16.7884 Y18.8707
G01 X17.0000 Y18.8873
G01 X17.2116 Y18.8707
G01 X17.4180 Y18.8211
G01 X17.6141 Y18.7399
G01 X17.7951 Y18.6290
G01 X17.9565 Y18.4911
G01 X18.0943 Y18.3297
G01 X18.2052 Y18.1487
G01 X18.2865 Y17.9526
G01 X18.3360 Y17.7462
G01 X18.3527 Y17.5346
G01 X18.3360 Y17.3230
G01 X18.2865 Y17.1166
G01 X18.2052 Y16.9205
G01 X18.0943 Y16.7396
G01 X17.9565 Y16.5782
G01 X17.7951 Y16.4403
G01 X17.7872 Y16.4354
G01 X17.7779 Y16.4289
G01 X17.7720 Y16.4243
G01 X17.7635 Y16.4167
G01 X17.7531 Y16.4058
G01 X17.7069 Y16.3525
G01 X17.4272 Y16.0725
G01 X17.3367 Y16.1047
G01 X17.2263 Y16.1324
G01 X17.1137 Y16.1491
G01 X17.0000 Y16.1546
G01 X16.8863 Y16.1491
G01 X16.7737 Y16.1324
G01 X16.6633 Y16.1047
G01 X16.5727 Y16.0725
G01 X16.3081 Y16.3371
G01 X16.2999 Y16.3491
G01 X16.2903 Y16.3608
G01 X16.2376 Y16.4160
G01 X16.2320 Y16.4211
G01 X16.2232 Y16.4283
G01 X16.2138 Y16.4348
G01 X16.2049 Y16.4403
G01 X16.0435 Y16.5782
G01 X15.9515 Y16.6859
G01 X15.9438 Y16.6943
G01 X15.9355 Y16.7021
G01 X15.9266 Y16.7094
G01 X15.9205 Y16.7138
G01 X15.8579 Y16.7548
G01 X15.8480 Y16.7607
G01 X15.8342 Y16.7675
G01 X15.8199 Y16.7729
G01 X15.8088 Y16.7761
G01 X15.8013 Y16.7778
G01 X15.7574 Y16.7844
G01 X15.7457 Y16.7857
G01 X15.7340 Y16.7861
G01 X8.0885 Y16.7861
G01 X8.0771 Y16.7857
G01 X8.0695 Y16.7850
G01 X8.0620 Y16.7839
G01 X8.0508 Y16.7816
G01 X7.9753 Y16.7597
G01 X7.9641 Y16.7559
G01 X7.9497 Y16.7497
G01 X7.9394 Y16.7441
G01 X7.9294 Y16.7378
G01 X7.9200 Y16.7307
G01 X7.8990 Y16.7138
G01 X7.8863 Y16.7024
G01 X7.8246 Y16.6406
G01 X7.8146 Y16.6291
G01 X7.8058 Y16.6167
G01 X7.8000 Y16.6069
G01 X7.7641 Y16.5411
G01 X7.7607 Y16.5341
G01 X7.7562 Y16.5232
G01 X7.7515 Y16.5082
G01 X7.7483 Y16.4928
G01 X7.7444 Y16.4582
G01 X7.7436 Y16.4454
G01 X7.7435 Y10.4953
G01 X7.7439 Y10.4877
G01 X7.7451 Y10.4764
G01 X7.7480 Y10.4614
G01 X7.7700 Y10.3859
G01 X7.7738 Y10.3746
G01 X7.7767 Y10.3673
G01 X7.7819 Y10.3565
G01 X7.7900 Y10.3429
G01 X7.7994 Y10.3300
G01 X7.8072 Y10.3211
G01 X7.8129 Y10.3155
G01 X7.8724 Y10.2636
G01 X7.8817 Y10.2561
G01 X7.8883 Y10.2515
G01 X7.8985 Y10.2452
G01 X7.9091 Y10.2397
G01 X7.9165 Y10.2365
G01 X7.9277 Y10.2324
G01 X7.9393 Y10.2291
G01 X8.0030 Y10.2154
G01 X8.0181 Y10.2135
G01 X8.0345 Y10.2131
G01 X8.0680 Y10.2095
G01 X8.1641 Y10.1735
G01 X8.2440 Y10.1136
G01 X8.3038 Y10.0337
G01 X8.3399 Y9.9377
G01 X8.3435 Y9.9041
G01 X8.3435 Y7.8252
G01 X8.3399 Y7.7916
G01 X8.3038 Y7.6956
G01 X8.2440 Y7.6157
G01 X8.1641 Y7.5558
G01 X8.0680 Y7.5198
G01 X8.0345 Y7.5161
G01 X5.9555 Y7.5161
G01 X5.9220 Y7.5198
G01 X5.8259 Y7.5558
G01 X5.7460 Y7.6157
G01 X5.6862 Y7.6956
G01 X5.6501 Y7.7916
G01 X5.6465 Y7.8252
G01 X5.6465 Y9.9041
G00 Z1.0000
G00 X5.9950 Y10.0246
G01 F30.00
G01 Z-0.0800
G01 F100.00
G01 X5.9793 Y10.0239
G01 X5.9638 Y10.0216
G01 X5.9486 Y10.0178
G01 X5.9338 Y10.0125
G01 X5.9196 Y10.0057
G01 X5.9061 Y9.9977
G01 X5.8935 Y9.9883
G01 X5.8847 Y9.9805
G01 X5.8738 Y9.9691
G01 X5.8665 Y9.9600
G01 X5.8578 Y9.9469
G01 X5.8504 Y9.9330
G01 X5.8444 Y9.9185
G01 X5.8398 Y9.9035
G01 X5.8367 Y9.8881
G01 X5.8352 Y9.8725
G01 X5.8350 Y7.8607
G01 X5.8362 Y7.8451
G01 X5.8381 Y7.8334
G01 X5.8419 Y7.8182
G01 X5.8472 Y7.8034
G01 X5.8521 Y7.7927
G01 X5.8598 Y7.7790
G01 X5.8665 Y7.7693
G01 X5.8764 Y7.7572
G01 X5.8876 Y7.7461
G01 X5.8966 Y7.7385
G01 X5.9029 Y7.7338
G01 X5.9161 Y7.7254
G01 X5.9302 Y7.7184
G01 X5.9448 Y7.7127
G01 X5.9599 Y7.7085
G01 X5.9754 Y7.7058
G01 X5.9832 Y7.7051
G01 X5.9950 Y7.7046
G01 X7.9989 Y7.7047
G01 X8.0146 Y7.7058
G01 X8.0262 Y7.7077
G01 X8.0377 Y7.7104
G01 X8.0526 Y7.7154
G01 X8.0669 Y7.7217
G01 X8.0773 Y7.7274
G01 X8.0903 Y7.7361
G01 X8.1024 Y7.7461
G01 X8.1136 Y7.7572
G01 X8.1211 Y7.7662
G01 X8.1258 Y7.7725
G01 X8.1342 Y7.7858
G01 X8.1413 Y7.7998
G01 X8.1469 Y7.8145
G01 X8.1511 Y7.8296
G01 X8.1538 Y7.8451
G01 X8.1550 Y7.8607
G01 X8.1550 Y9.8646
G01 X8.1548 Y9.8725
G01 X8.1538 Y9.8842
G01 X8.1526 Y9.8920
G01 X8.1502 Y9.9035
G01 X8.1469 Y9.9148
G01 X8.1428 Y9.9259
G01 X8.1396 Y9.9330
G01 X8.1342 Y9.9435
G01 X8.1280 Y9.9535
G01 X8.1211 Y9.9631
G01 X8.1136 Y9.9721
G01 X8.1053 Y9.9805
G01 X8.0965 Y9.9883
G01 X8.0871 Y9.9955
G01 X8.0773 Y10.0019
G01 X8.0669 Y10.0076
G01 X8.0598 Y10.0109
G01 X8.0489 Y10.0153
G01 X8.0377 Y10.0188
G01 X8.0262 Y10.0216
G01 X8.0107 Y10.0239
G01 X7.9950 Y10.0246
G01 X7.5552 Y10.0246
G01 X7.5552 Y16.6376
G01 X7.8920 Y16.9744
G01 X15.9848 Y16.9744
G01 X16.0355 Y16.8902
G01 X16.0985 Y16.8049
G01 X16.1084 Y16.7928
G01 X16.1798 Y16.7144
G01 X16.2582 Y16.6431
G01 X16.2703 Y16.6331
G01 X16.3555 Y16.5701
G01 X16.4532 Y16.5116
G01 X16.5561 Y16.4629
G01 X16.6558 Y16.4271
G01 X16.6708 Y16.4225
G01 X16.7737 Y16.3969
G01 X16.8863 Y16.3802
G01 X16.9921 Y16.3748
G01 X17.0079 Y16.3748
G01 X17.1059 Y16.3796
G01 X17.1176 Y16.3807
G01 X17.2186 Y16.3956
G01 X17.2340 Y16.3986
G01 X17.3367 Y16.4246
G01 X17.4366 Y16.4601
G01 X17.4511 Y16.4661
G01 X17.5468 Y16.5116
G01 X17.6378 Y16.5659
G01 X17.6509 Y16.5747
G01 X17.7359 Y16.6379
G01 X17.8146 Y16.7090
G01 X17.8257 Y16.7201
G01 X17.8967 Y16.7987
G01 X17.9600 Y16.8838
G01 X17.9687 Y16.8968
G01 X18.0230 Y16.9878
G01 X18.0685 Y17.0835
G01 X18.0745 Y17.0981
G01 X18.1101 Y17.1979
G01 X18.1360 Y17.3007
G01 X18.1391 Y17.3161
G01 X18.1544 Y17.4209
G01 X18.1598 Y17.5268
G01 X18.1598 Y17.5425
G01 X18.1544 Y17.6483
G01 X18.1391 Y17.7532
G01 X18.1360 Y17.7686
G01 X18.1101 Y17.8714
G01 X18.0745 Y17.9712
G01 X18.0685 Y17.9857
G01 X18.0230 Y18.0815
G01 X17.9645 Y18.1791
G01 X17.9015 Y18.2643
G01 X17.8916 Y18.2765
G01 X17.8202 Y18.3549
G01 X17.7418 Y18.4262
G01 X17.7297 Y18.4362
G01 X17.6445 Y18.4991
G01 X17.5468 Y18.5577
G01 X17.4511 Y18.6032
G01 X17.4366 Y18.6092
G01 X17.3367 Y18.6447
G01 X17.2340 Y18.6706
G01 X17.2186 Y18.6737
G01 X17.1137 Y18.6891
G01 X17.0079 Y18.6944
G01 X16.9961 Y18.6946
G01 X16.8941 Y18.6896
G01 X16.8785 Y18.6881
G01 X16.7737 Y18.6724
G01 X16.6708 Y18.6468
G01 X16.6558 Y18.6422
G01 X16.5561 Y18.6063
G01 X16.4602 Y18.5612
G01 X16.4463 Y18.5538
G01 X16.3555 Y18.4991
G01 X16.2703 Y18.4362
G01 X16.2582 Y18.4262
G01 X16.1798 Y18.3549
G01 X16.1084 Y18.2765
G01 X16.0985 Y18.2643
G01 X16.0355 Y18.1791
G01 X15.9848 Y18.0948
G01 X7.6600 Y18.0948
G01 X7.6090 Y18.0925
G01 X7.5923 Y18.0904
G01 X7.5507 Y18.0841
G01 X7.4974 Y18.0707
G01 X7.4529 Y18.0550
G01 X7.4384 Y18.0490
G01 X7.3959 Y18.0287
G01 X7.3488 Y18.0004
G01 X7.3046 Y17.9677
G01 X7.2639 Y17.9308
G01 X6.5989 Y17.2658
G01 X6.5645 Y17.2280
G01 X6.5571 Y17.2188
G01 X6.5337 Y17.1873
G01 X6.5250 Y17.1742
G01 X6.5009 Y17.1337
G01 X6.4806 Y17.0912
G01 X6.4746 Y17.0767
G01 X6.4589 Y17.0323
G01 X6.4473 Y16.9866
G01 X6.4448 Y16.9751
G01 X6.4375 Y16.9245
G01 X6.4348 Y16.8696
G01 X6.4348 Y10.0246
G01 X5.9950 Y10.0246
G00 Z1.0000
G00 X6.2714 Y10.1846
G01 F30.00
G01 Z-0.0800
G01 F100.00
G01 X6.2748 Y10.1886
G01 X6.2748 Y10.1846
G01 X6.2714 Y10.1846
G00 Z1.0000
G00 X7.7152 Y10.1881
G01 F30.00
G01 Z-0.0800
G01 F100.00
G01 X7.7192 Y10.1846
G01 X7.7152 Y10.1846
G01 X7.7152 Y10.1881
G00 Z1.0000
G00 X9.6046 Y11.9215
G01 F30.00
G01 Z-0.0800
G01 F100.00
G01 X9.6497 Y12.0994
G01 X9.7266 Y12.2660
G01 X9.8325 Y12.4159
G01 X9.9639 Y12.5440
G01 X10.1165 Y12.6459
G01 X10.2851 Y12.7183
G01 X10.4303 Y12.7512
G01 X10.4413 Y12.7541
G01 X10.4521 Y12.7578
G01 X10.4626 Y12.7623
G01 X10.4695 Y12.7656
G01 X10.5348 Y12.8020
G01 X10.5483 Y12.8104
G01 X10.5609 Y12.8201
G01 X10.5697 Y12.8282
G01 X10.5804 Y12.8399
G01 X10.5876 Y12.8494
G01 X10.5941 Y12.8594
G01 X10.6334 Y12.9324
G01 X10.6398 Y12.9469
G01 X10.6437 Y12.9582
G01 X10.6467 Y12.9697
G01 X10.6488 Y12.9815
G01 X10.6501 Y12.9933
G01 X10.6505 Y13.0052
G01 X10.6500 Y13.0171
G01 X10.6443 Y13.0879
G01 X10.6429 Y13.0997
G01 X10.6397 Y13.1153
G01 X10.6350 Y13.1305
G01 X10.6287 Y13.1451
G01 X10.6211 Y13.1590
G01 X10.6121 Y13.1721
G01 X10.5667 Y13.2317
G01 X10.5589 Y13.2407
G01 X10.5504 Y13.2491
G01 X10.5414 Y13.2569
G01 X10.5318 Y13.2640
G01 X10.5182 Y13.2722
G01 X10.5075 Y13.2775
G01 X10.4965 Y13.2820
G01 X10.4298 Y13.3063
G01 X10.4186 Y13.3099
G01 X10.4111 Y13.3118
G01 X10.3996 Y13.3140
G01 X10.3918 Y13.3150
G01 X10.3840 Y13.3156
G01 X10.3671 Y13.3161
G01 X9.2555 Y13.3161
G01 X9.2220 Y13.3198
G01 X9.1259 Y13.3558
G01 X9.0460 Y13.4157
G01 X8.9862 Y13.4956
G01 X8.9501 Y13.5916
G01 X8.9465 Y13.6252
G01 X8.9465 Y15.7041
G01 X8.9501 Y15.7377
G01 X8.9862 Y15.8337
G01 X9.0460 Y15.9136
G01 X9.1259 Y15.9735
G01 X9.2220 Y16.0095
G01 X9.2555 Y16.0131
G01 X11.3345 Y16.0131
G01 X11.3680 Y16.0095
G01 X11.4641 Y15.9735
G01 X11.5440 Y15.9136
G01 X11.6038 Y15.8337
G01 X11.6399 Y15.7377
G01 X11.6435 Y15.7041
G01 X11.6435 Y15.6473
G01 X11.6439 Y15.6359
G01 X11.6457 Y15.6208
G01 X11.6472 Y15.6133
G01 X11.6500 Y15.6023
G01 X11.6711 Y15.5303
G01 X11.6767 Y15.5155
G01 X11.6838 Y15.5012
G01 X11.6900 Y15.4911
G01 X11.6969 Y15.4814
G01 X11.7072 Y15.4693
G01 X11.7187 Y15.4583
G01 X11.7754 Y15.4093
G01 X11.7880 Y15.3999
G01 X11.7980 Y15.3937
G01 X11.8085 Y15.3882
G01 X11.8193 Y15.3835
G01 X11.8470 Y15.3736
G01 X11.8699 Y15.3672
G01 X11.8787 Y15.3633
G01 X11.9060 Y15.3523
G01 X11.9602 Y15.3212
G01 X12.0101 Y15.2958
G01 X12.0178 Y15.2901
G01 X12.0422 Y15.2736
G01 X12.0807 Y15.2390
G01 X12.1015 Y15.2216
G01 X12.1210 Y15.2028
G01 X12.1594 Y15.1681
G01 X12.1783 Y15.1456
G01 X12.1868 Y15.1363
G01 X12.9717 Y14.3515
G01 X12.9809 Y14.3430
G01 X13.0035 Y14.3241
G01 X13.0381 Y14.2856
G01 X13.0570 Y14.2662
G01 X13.0744 Y14.2453
G01 X13.1090 Y14.2069
G01 X13.1254 Y14.1825
G01 X13.1311 Y14.1747
G01 X13.1566 Y14.1249
G01 X13.1876 Y14.0706
G01 X13.1986 Y14.0433
G01 X13.2026 Y14.0345
G01 X13.2190 Y13.9742
G01 X13.2362 Y13.9209
G01 X13.2413 Y13.8920
G01 X13.2433 Y13.8826
G01 X13.2461 Y13.8309
G01 X13.2485 Y13.8039
G01 X13.2489 Y13.7767
G01 X13.2516 Y13.7251
G01 X13.2490 Y13.6958
G01 X13.2485 Y13.6832
G01 X13.2485 Y10.7091
G01 X13.2489 Y10.6977
G01 X13.2507 Y10.6826
G01 X13.2540 Y10.6677
G01 X13.2761 Y10.5921
G01 X13.2802 Y10.5809
G01 X13.2851 Y10.5701
G01 X13.2908 Y10.5596
G01 X13.2950 Y10.5529
G01 X13.3044 Y10.5400
G01 X13.3122 Y10.5311
G01 X13.3179 Y10.5255
G01 X13.3774 Y10.4736
G01 X13.3867 Y10.4661
G01 X13.3966 Y10.4593
G01 X13.4070 Y10.4533
G01 X13.4178 Y10.4481
G01 X13.4289 Y10.4436
G01 X13.4443 Y10.4391
G01 X13.5005 Y10.4268
G01 X13.5117 Y10.4248
G01 X13.5193 Y10.4239
G01 X13.5345 Y10.4231
G01 X23.2643 Y10.4232
G01 X23.2757 Y10.4239
G01 X23.2833 Y10.4248
G01 X23.2982 Y10.4277
G01 X23.3737 Y10.4496
G01 X23.3850 Y10.4534
G01 X23.3960 Y10.4580
G01 X23.4031 Y10.4615
G01 X23.4134 Y10.4675
G01 X23.4233 Y10.4742
G01 X23.4326 Y10.4816
G01 X23.4386 Y10.4869
G01 X23.4469 Y10.4954
G01 X23.4986 Y10.5551
G01 X23.5081 Y10.5679
G01 X23.5164 Y10.5816
G01 X23.5216 Y10.5924
G01 X23.5246 Y10.5998
G01 X23.5273 Y10.6074
G01 X23.5306 Y10.6189
G01 X23.5436 Y10.6789
G01 X23.5454 Y10.6901
G01 X23.5465 Y10.7053
G01 X23.5465 Y11.4201
G01 X23.5458 Y11.4353
G01 X23.5443 Y11.4467
G01 X23.5428 Y11.4542
G01 X23.5400 Y11.4652
G01 X23.5200 Y11.5333
G01 X23.5176 Y11.5409
G01 X23.5133 Y11.5520
G01 X23.5062 Y11.5662
G01 X23.4978 Y11.5797
G01 X23.4881 Y11.5923
G01 X23.4771 Y11.6038
G01 X23.4114 Y11.6608
G01 X23.3984 Y11.6700
G01 X23.3845 Y11.6778
G01 X23.3698 Y11.6843
G01 X23.3585 Y11.6881
G01 X23.3507 Y11.6902
G01 X23.2908 Y11.7032
G01 X23.2757 Y11.7054
G01 X23.2605 Y11.7061
G01 X18.2660 Y11.7061
G01 X18.2545 Y11.7057
G01 X18.2394 Y11.7039
G01 X18.2246 Y11.7007
G01 X18.1455 Y11.6773
G01 X18.1347 Y11.6732
G01 X18.1243 Y11.6682
G01 X18.1110 Y11.6605
G01 X18.1016 Y11.6539
G01 X18.0926 Y11.6467
G01 X18.0649 Y11.6225
G01 X18.0537 Y11.6117
G01 X17.9565 Y11.4982
G01 X17.7951 Y11.3603
G01 X17.6141 Y11.2494
G01 X17.4180 Y11.1682
G01 X17.2116 Y11.1186
G01 X17.0000 Y11.1020
G01 X16.7884 Y11.1186
G01 X16.5820 Y11.1682
G01 X16.3859 Y11.2494
G01 X16.2049 Y11.3603
G01 X16.0435 Y11.4982
G01 X15.9057 Y11.6596
G01 X15.7948 Y11.8405
G01 X15.7135 Y12.0366
G01 X15.7047 Y12.0736
G01 X15.6640 Y12.2430
G01 X15.6473 Y12.4546
G01 X15.6640 Y12.6662
G01 X15.7135 Y12.8726
G01 X15.7948 Y13.0687
G01 X15.9057 Y13.2497
G01 X16.0435 Y13.4111
G01 X16.2049 Y13.5490
G01 X16.2128 Y13.5539
G01 X16.2221 Y13.5603
G01 X16.2280 Y13.5650
G01 X16.2365 Y13.5726
G01 X16.2469 Y13.5835
G01 X16.2931 Y13.6368
G01 X16.5728 Y13.9168
G01 X16.6633 Y13.8846
G01 X16.7737 Y13.8569
G01 X16.8863 Y13.8402
G01 X17.0000 Y13.8346
G01 X17.1137 Y13.8402
G01 X17.2263 Y13.8569
G01 X17.3367 Y13.8846
G01 X17.4273 Y13.9168
G01 X17.6919 Y13.6522
G01 X17.7001 Y13.6401
G01 X17.7097 Y13.6284
G01 X17.7624 Y13.5733
G01 X17.7709 Y13.5657
G01 X17.7768 Y13.5610
G01 X17.7862 Y13.5545
G01 X17.7951 Y13.5490
G01 X17.9565 Y13.4111
G01 X18.0485 Y13.3034
G01 X18.0562 Y13.2950
G01 X18.0645 Y13.2871
G01 X18.0734 Y13.2799
G01 X18.0795 Y13.2754
G01 X18.1421 Y13.2345
G01 X18.1520 Y13.2286
G01 X18.1623 Y13.2234
G01 X18.1765 Y13.2176
G01 X18.1875 Y13.2141
G01 X18.1949 Y13.2123
G01 X18.2063 Y13.2102
G01 X18.2465 Y13.2043
G01 X18.2543 Y13.2036
G01 X18.2660 Y13.2031
G01 X23.7036 Y13.2031
G01 X23.7161 Y13.2036
G01 X23.7454 Y13.2062
G01 X23.7971 Y13.2035
G01 X23.8242 Y13.2031
G01 X23.8512 Y13.2007
G01 X23.9029 Y13.1980
G01 X23.9318 Y13.1923
G01 X23.9413 Y13.1909
G01 X24.0009 Y13.1718
G01 X24.0549 Y13.1572
G01 X24.0637 Y13.1533
G01 X24.0910 Y13.1423
G01 X24.1452 Y13.1112
G01 X24.1951 Y13.0858
G01 X24.2028 Y13.0801
G01 X24.2272 Y13.0636
G01 X24.2657 Y13.0290
G01 X24.2865 Y13.0116
G01 X24.3060 Y12.9928
G01 X24.3444 Y12.9581
G01 X24.3633 Y12.9356
G01 X24.3718 Y12.9263
G01 X24.7667 Y12.5315
G01 X24.7759 Y12.5230
G01 X24.7985 Y12.5041
G01 X24.8331 Y12.4656
G01 X24.8520 Y12.4462
G01 X24.8694 Y12.4253
G01 X24.9040 Y12.3869
G01 X24.9204 Y12.3625
G01 X24.9261 Y12.3547
G01 X24.9516 Y12.3049
G01 X24.9826 Y12.2506
G01 X24.9936 Y12.2233
G01 X24.9976 Y12.2145
G01 X25.0121 Y12.1605
G01 X25.0312 Y12.1009
G01 X25.0327 Y12.0914
G01 X25.0383 Y12.0626
G01 X25.0411 Y12.0109
G01 X25.0435 Y11.9839
G01 X25.0439 Y11.9567
G01 X25.0466 Y11.9051
G01 X25.0440 Y11.8758
G01 X25.0435 Y11.8632
G01 X25.0435 Y10.1211
G01 X25.0440 Y10.1085
G01 X25.0466 Y10.0792
G01 X25.0439 Y10.0275
G01 X25.0435 Y10.0004
G01 X25.0411 Y9.9734
G01 X25.0383 Y9.9217
G01 X25.0327 Y9.8929
G01 X25.0312 Y9.8833
G01 X25.0121 Y9.8238
G01 X24.9976 Y9.7697
G01 X24.9936 Y9.7610
G01 X24.9826 Y9.7337
G01 X24.9516 Y9.6794
G01 X24.9261 Y9.6296
G01 X24.9204 Y9.6218
G01 X24.9040 Y9.5974
G01 X24.8694 Y9.5589
G01 X24.8520 Y9.5381
G01 X24.8331 Y9.5187
G01 X24.7985 Y9.4802
G01 X24.7759 Y9.4613
G01 X24.7667 Y9.4528
G01 X24.5168 Y9.2029
G01 X24.5083 Y9.1937
G01 X24.4894 Y9.1712
G01 X24.4510 Y9.1365
G01 X24.4315 Y9.1176
G01 X24.4107 Y9.1003
G01 X24.3722 Y9.0656
G01 X24.3478 Y9.0492
G01 X24.3401 Y9.0435
G01 X24.2902 Y9.0181
G01 X24.2360 Y8.9870
G01 X24.2087 Y8.9760
G01 X24.1999 Y8.9721
G01 X24.1459 Y8.9575
G01 X24.0863 Y8.9384
G01 X24.0768 Y8.9369
G01 X24.0479 Y8.9313
G01 X23.9962 Y8.9286
G01 X23.9692 Y8.9261
G01 X23.9421 Y8.9257
G01 X23.8904 Y8.9230
G01 X23.8611 Y8.9256
G01 X23.8486 Y8.9261
G01 X12.9285 Y8.9261
G01 X12.9171 Y8.9257
G01 X12.9057 Y8.9245
G01 X12.8945 Y8.9225
G01 X12.8834 Y8.9197
G01 X12.8116 Y8.8985
G01 X12.7969 Y8.8930
G01 X12.7828 Y8.8860
G01 X12.7694 Y8.8778
G01 X12.7600 Y8.8707
G01 X12.7357 Y8.8511
G01 X12.7263 Y8.8424
G01 X12.2768 Y8.3929
G01 X12.2683 Y8.3837
G01 X12.2494 Y8.3612
G01 X12.2110 Y8.3265
G01 X12.1915 Y8.3076
G01 X12.1707 Y8.2903
G01 X12.1322 Y8.2556
G01 X12.1078 Y8.2392
G01 X12.1001 Y8.2335
G01 X12.0502 Y8.2081
G01 X11.9960 Y8.1770
G01 X11.9687 Y8.1660
G01 X11.9599 Y8.1621
G01 X11.9099 Y8.1487
G01 X11.8955 Y8.1444
G01 X11.8375 Y8.1255
G01 X11.8304 Y8.1228
G01 X11.8200 Y8.1181
G01 X11.8132 Y8.1146
G01 X11.8034 Y8.1087
G01 X11.7416 Y8.0666
G01 X11.7321 Y8.0595
G01 X11.7230 Y8.0517
G01 X11.7146 Y8.0433
G01 X11.7068 Y8.0342
G01 X11.6976 Y8.0213
G01 X11.6915 Y8.0111
G01 X11.6846 Y7.9968
G01 X11.6569 Y7.9314
G01 X11.6528 Y7.9204
G01 X11.6494 Y7.9091
G01 X11.6476 Y7.9015
G01 X11.6452 Y7.8860
G01 X11.6436 Y7.8593
G01 X11.6435 Y7.8252
G01 X11.6399 Y7.7916
G01 X11.6038 Y7.6956
G01 X11.5440 Y7.6157
G01 X11.4641 Y7.5558
G01 X11.3680 Y7.5198
G01 X11.3345 Y7.5161
G01 X9.2555 Y7.5161
G01 X9.2220 Y7.5198
G01 X9.1259 Y7.5558
G01 X9.0460 Y7.6157
G01 X8.9862 Y7.6956
G01 X8.9501 Y7.7916
G01 X8.9465 Y7.8252
G01 X8.9465 Y9.9041
G01 X8.9501 Y9.9377
G01 X8.9862 Y10.0337
G01 X9.0460 Y10.1136
G01 X9.1259 Y10.1735
G01 X9.2220 Y10.2095
G01 X9.2555 Y10.2131
G01 X10.3744 Y10.2131
G01 X10.3858 Y10.2135
G01 X10.3972 Y10.2148
G01 X10.4047 Y10.2160
G01 X10.4158 Y10.2186
G01 X10.4952 Y10.2421
G01 X10.5099 Y10.2480
G01 X10.5170 Y10.2515
G01 X10.5273 Y10.2575
G01 X10.5372 Y10.2642
G01 X10.5435 Y10.2690
G01 X10.5524 Y10.2769
G01 X10.5581 Y10.2825
G01 X10.6099 Y10.3420
G01 X10.6197 Y10.3545
G01 X10.6282 Y10.3679
G01 X10.6337 Y10.3785
G01 X10.6369 Y10.3858
G01 X10.6422 Y10.4008
G01 X10.6452 Y10.4123
G01 X10.6468 Y10.4201
G01 X10.6584 Y10.5022
G01 X10.6591 Y10.5141
G01 X10.6590 Y10.5220
G01 X10.6586 Y10.5300
G01 X10.6572 Y10.5418
G01 X10.6558 Y10.5496
G01 X10.6529 Y10.5612
G01 X10.6505 Y10.5688
G01 X10.6463 Y10.5799
G01 X10.6135 Y10.6517
G01 X10.6058 Y10.6656
G01 X10.5968 Y10.6787
G01 X10.5892 Y10.6879
G01 X10.5810 Y10.6965
G01 X10.5690 Y10.7070
G01 X10.5561 Y10.7163
G01 X10.4931 Y10.7567
G01 X10.4793 Y10.7642
G01 X10.4648 Y10.7703
G01 X10.4498 Y10.7750
G01 X10.4274 Y10.7802
G01 X10.3355 Y10.7960
G01 X10.1633 Y10.8595
G01 X10.0056 Y10.9534
G01 X9.8676 Y11.0744
G01 X9.7540 Y11.2185
G01 X9.6685 Y11.3809
G01 X9.6141 Y11.5561
G01 X9.5926 Y11.7384
G01 X9.6046 Y11.9215
G00 Z1.0000
G00 X10.9414 Y12.8400
G01 F30.00
G01 Z-0.0800
G01 F100.00
G01 X10.9465 Y12.8545
G01 X10.9534 Y12.8773
G01 X10.9564 Y12.8888
G01 X10.9615 Y12.9121
G01 X10.9637 Y12.9238
G01 X10.9671 Y12.9474
G01 X10.9693 Y12.9712
G01 X10.9704 Y12.9950
G01 X10.9705 Y13.0069
G01 X10.9698 Y13.0307
G01 X10.9622 Y13.1253
G01 X10.9591 Y13.1489
G01 X10.9572 Y13.1606
G01 X10.9522 Y13.1846
G01 X11.3068 Y13.1848
G01 X11.3186 Y13.1852
G01 X11.3420 Y13.1870
G01 X11.3654 Y13.1898
G01 X11.3886 Y13.1939
G01 X11.4002 Y13.1963
G01 X11.4230 Y13.2020
G01 X11.4456 Y13.2089
G01 X11.4677 Y13.2168
G01 X11.4787 Y13.2212
G01 X11.5002 Y13.2307
G01 X11.5108 Y13.2359
G01 X11.5213 Y13.2413
G01 X11.5418 Y13.2529
G01 X11.5617 Y13.2655
G01 X11.5714 Y13.2722
G01 X11.5903 Y13.2862
G01 X11.5995 Y13.2936
G01 X11.6198 Y13.3113
G01 X11.6198 Y12.2390
G01 X11.6022 Y12.2763
G01 X11.5916 Y12.2973
G01 X11.5800 Y12.3178
G01 X11.5472 Y12.3725
G01 X11.5346 Y12.3924
G01 X11.5279 Y12.4021
G01 X11.4830 Y12.4629
G01 X11.4759 Y12.4723
G01 X11.4609 Y12.4905
G01 X11.4023 Y12.5552
G01 X11.3856 Y12.5719
G01 X11.3297 Y12.6228
G01 X11.3209 Y12.6306
G01 X11.3027 Y12.6455
G01 X11.2325 Y12.6975
G01 X11.2228 Y12.7042
G01 X11.2029 Y12.7168
G01 X11.1380 Y12.7555
G01 X11.1277 Y12.7612
G01 X11.1066 Y12.7718
G01 X11.0383 Y12.8040
G01 X11.0165 Y12.8130
G01 X11.0055 Y12.8171
G01 X10.9414 Y12.8400
G00 Z1.0000
G00 X11.4598 Y12.7208
G01 F30.00
G01 Z-0.0800
G01 F100.00
G01 X11.4254 Y12.7517
G01 X11.4011 Y12.7716
G01 X11.3374 Y12.8191
G01 X11.3117 Y12.8372
G01 X11.2851 Y12.8540
G01 X11.2169 Y12.8947
G01 X11.1892 Y12.9096
G01 X11.1271 Y12.9391
G01 X11.1290 Y12.9601
G01 X11.1299 Y12.9759
G01 X11.1305 Y13.0077
G01 X11.1302 Y13.0246
G01 X11.2950 Y13.0246
G01 X11.3264 Y13.0254
G01 X11.3421 Y13.0264
G01 X11.3733 Y13.0295
G01 X11.4044 Y13.0341
G01 X11.4352 Y13.0402
G01 X11.4598 Y13.0463
G01 X11.4598 Y12.7208
G00 Z1.0000
G00 X11.4048 Y11.7568
G01 F30.00
G01 Z-0.0800
G01 F100.00
G01 X11.4048 Y11.7725
G01 X11.4011 Y11.8440
G01 X11.3894 Y11.9227
G01 X11.3701 Y11.9998
G01 X11.3433 Y12.0746
G01 X11.3094 Y12.1465
G01 X11.2685 Y12.2147
G01 X11.2211 Y12.2785
G01 X11.1678 Y12.3374
G01 X11.1089 Y12.3908
G01 X11.0450 Y12.4381
G01 X10.9768 Y12.4790
G01 X10.9050 Y12.5130
G01 X10.8301 Y12.5398
G01 X10.7530 Y12.5591
G01 X10.6744 Y12.5707
G01 X10.5950 Y12.5746
G01 X10.5156 Y12.5707
G01 X10.4370 Y12.5591
G01 X10.3599 Y12.5398
G01 X10.2850 Y12.5130
G01 X10.2132 Y12.4790
G01 X10.1450 Y12.4381
G01 X10.0811 Y12.3908
G01 X10.0222 Y12.3374
G01 X9.9689 Y12.2785
G01 X9.9215 Y12.2147
G01 X9.8806 Y12.1465
G01 X9.8467 Y12.0746
G01 X9.8199 Y11.9998
G01 X9.8006 Y11.9227
G01 X9.7889 Y11.8440
G01 X9.7850 Y11.7646
G01 X9.7889 Y11.6852
G01 X9.8006 Y11.6066
G01 X9.8199 Y11.5295
G01 X9.8467 Y11.4547
G01 X9.8806 Y11.3828
G01 X9.9215 Y11.3146
G01 X9.9689 Y11.2508
G01 X10.0222 Y11.1919
G01 X10.0811 Y11.1385
G01 X10.1450 Y11.0911
G01 X10.2132 Y11.0503
G01 X10.2850 Y11.0163
G01 X10.3599 Y10.9895
G01 X10.4370 Y10.9702
G01 X10.5156 Y10.9585
G01 X10.5950 Y10.9546
G01 X10.6744 Y10.9585
G01 X10.7530 Y10.9702
G01 X10.8301 Y10.9895
G01 X10.9050 Y11.0163
G01 X10.9768 Y11.0503
G01 X11.0450 Y11.0911
G01 X11.1089 Y11.1385
G01 X11.1678 Y11.1919
G01 X11.2211 Y11.2508
G01 X11.2685 Y11.3146
G01 X11.3094 Y11.3828
G01 X11.3433 Y11.4547
G01 X11.3701 Y11.5295
G01 X11.3894 Y11.6066
G01 X11.4011 Y11.6852
G01 X11.4048 Y11.7568
G00 Z1.0000
G00 X11.1390 Y10.5046
G01 F30.00
G01 Z-0.0800
G01 F100.00
G01 X11.1391 Y10.5210
G01 X11.1381 Y10.5528
G01 X11.1370 Y10.5687
G01 X11.1345 Y10.5936
G01 X11.1892 Y10.6197
G01 X11.2169 Y10.6345
G01 X11.2851 Y10.6752
G01 X11.3117 Y10.6920
G01 X11.3374 Y10.7101
G01 X11.4011 Y10.7576
G01 X11.4254 Y10.7776
G01 X11.4598 Y10.8085
G01 X11.4598 Y10.4830
G01 X11.4352 Y10.4891
G01 X11.4044 Y10.4952
G01 X11.3733 Y10.4998
G01 X11.3421 Y10.5029
G01 X11.3107 Y10.5044
G01 X11.2950 Y10.5046
G01 X11.1390 Y10.5046
G00 Z1.0000
G00 X10.9580 Y10.3446
G01 F30.00
G01 Z-0.0800
G01 F100.00
G01 X10.9623 Y10.3667
G01 X10.9641 Y10.3785
G01 X10.9758 Y10.4606
G01 X10.9770 Y10.4724
G01 X10.9787 Y10.4962
G01 X10.9790 Y10.5081
G01 X10.9789 Y10.5320
G01 X10.9775 Y10.5558
G01 X10.9764 Y10.5676
G01 X10.9733 Y10.5913
G01 X10.9691 Y10.6147
G01 X10.9665 Y10.6264
G01 X10.9605 Y10.6494
G01 X10.9533 Y10.6722
G01 X10.9464 Y10.6911
G01 X11.0165 Y10.7163
G01 X11.0383 Y10.7253
G01 X11.1066 Y10.7575
G01 X11.1277 Y10.7681
G01 X11.1380 Y10.7737
G01 X11.2029 Y10.8125
G01 X11.2129 Y10.8187
G01 X11.2325 Y10.8317
G01 X11.3027 Y10.8838
G01 X11.3209 Y10.8987
G01 X11.3297 Y10.9065
G01 X11.3856 Y10.9574
G01 X11.4023 Y10.9740
G01 X11.4609 Y11.0388
G01 X11.4685 Y11.0478
G01 X11.4830 Y11.0663
G01 X11.5279 Y11.1271
G01 X11.5346 Y11.1368
G01 X11.5472 Y11.1568
G01 X11.5800 Y11.2115
G01 X11.5916 Y11.2320
G01 X11.6022 Y11.2530
G01 X11.6198 Y11.2903
G01 X11.6198 Y10.2180
G01 X11.5995 Y10.2357
G01 X11.5809 Y10.2502
G01 X11.5714 Y10.2571
G01 X11.5518 Y10.2702
G01 X11.5418 Y10.2763
G01 X11.5213 Y10.2880
G01 X11.5108 Y10.2934
G01 X11.4895 Y10.3035
G01 X11.4787 Y10.3081
G01 X11.4567 Y10.3166
G01 X11.4343 Y10.3240
G01 X11.4230 Y10.3273
G01 X11.4002 Y10.3330
G01 X11.3886 Y10.3354
G01 X11.3654 Y10.3394
G01 X11.3538 Y10.3410
G01 X11.3303 Y10.3433
G01 X11.3068 Y10.3445
G01 X10.9580 Y10.3446
G00 Z1.0000
G00 X10.6853 Y10.1846
G01 F30.00
G01 Z-0.0800
G01 F100.00
G01 X10.7360 Y10.2433
G01 X10.7504 Y10.2623
G01 X10.7634 Y10.2822
G01 X10.7713 Y10.2961
G01 X10.7784 Y10.3103
G01 X10.7848 Y10.3248
G01 X10.7905 Y10.3396
G01 X10.7955 Y10.3547
G01 X10.7997 Y10.3701
G01 X10.8031 Y10.3856
G01 X10.8057 Y10.4013
G01 X10.8169 Y10.4794
G01 X10.8184 Y10.4952
G01 X10.8190 Y10.5111
G01 X10.8190 Y10.5270
G01 X10.8181 Y10.5429
G01 X10.8164 Y10.5587
G01 X10.8139 Y10.5744
G01 X10.8107 Y10.5899
G01 X10.8067 Y10.6053
G01 X10.8019 Y10.6205
G01 X10.7964 Y10.6354
G01 X10.7902 Y10.6500
G01 X10.7607 Y10.7146
G01 X10.7500 Y10.7359
G01 X10.7377 Y10.7563
G01 X10.7287 Y10.7694
G01 X10.7140 Y10.7882
G01 X10.7027 Y10.8008
G01 X10.7688 Y10.8106
G01 X10.7842 Y10.8133
G01 X10.7996 Y10.8167
G01 X10.8614 Y10.8322
G01 X10.8766 Y10.8364
G01 X10.8915 Y10.8413
G01 X10.9515 Y10.8628
G01 X10.9662 Y10.8685
G01 X10.9806 Y10.8748
G01 X11.0382 Y10.9021
G01 X11.0523 Y10.9092
G01 X11.0659 Y10.9169
G01 X11.1206 Y10.9497
G01 X11.1339 Y10.9581
G01 X11.1467 Y10.9672
G01 X11.1980 Y11.0052
G01 X11.2104 Y11.0148
G01 X11.2223 Y11.0251
G01 X11.2695 Y11.0679
G01 X11.2809 Y11.0787
G01 X11.2917 Y11.0901
G01 X11.3346 Y11.1374
G01 X11.3497 Y11.1554
G01 X11.3971 Y11.2193
G01 X11.4099 Y11.2390
G01 X11.4427 Y11.2937
G01 X11.4505 Y11.3074
G01 X11.4575 Y11.3214
G01 X11.4881 Y11.3862
G01 X11.4968 Y11.4081
G01 X11.5183 Y11.4682
G01 X11.5232 Y11.4831
G01 X11.5274 Y11.4982
G01 X11.5429 Y11.5601
G01 X11.5464 Y11.5754
G01 X11.5490 Y11.5909
G01 X11.5584 Y11.6540
G01 X11.5603 Y11.6696
G01 X11.5615 Y11.6852
G01 X11.5646 Y11.7489
G01 X11.5650 Y11.7646
G01 X11.5646 Y11.7803
G01 X11.5615 Y11.8441
G01 X11.5603 Y11.8597
G01 X11.5584 Y11.8753
G01 X11.5490 Y11.9384
G01 X11.5464 Y11.9539
G01 X11.5429 Y11.9692
G01 X11.5274 Y12.0311
G01 X11.5232 Y12.0462
G01 X11.5183 Y12.0611
G01 X11.4968 Y12.1212
G01 X11.4912 Y12.1358
G01 X11.4848 Y12.1502
G01 X11.4541 Y12.2149
G01 X11.4427 Y12.2356
G01 X11.4099 Y12.2903
G01 X11.3971 Y12.3100
G01 X11.3497 Y12.3739
G01 X11.3346 Y12.3919
G01 X11.2917 Y12.4392
G01 X11.2809 Y12.4505
G01 X11.2695 Y12.4614
G01 X11.2223 Y12.5042
G01 X11.2104 Y12.5145
G01 X11.1980 Y12.5241
G01 X11.1467 Y12.5621
G01 X11.1339 Y12.5712
G01 X11.1206 Y12.5796
G01 X11.0659 Y12.6124
G01 X11.0523 Y12.6201
G01 X11.0382 Y12.6272
G01 X10.9806 Y12.6544
G01 X10.9662 Y12.6608
G01 X10.9515 Y12.6665
G01 X10.8915 Y12.6879
G01 X10.8766 Y12.6929
G01 X10.8614 Y12.6971
G01 X10.7996 Y12.7126
G01 X10.7842 Y12.7160
G01 X10.7688 Y12.7187
G01 X10.6962 Y12.7293
G01 X10.7038 Y12.7381
G01 X10.7136 Y12.7506
G01 X10.7227 Y12.7635
G01 X10.7313 Y12.7770
G01 X10.7391 Y12.7908
G01 X10.7726 Y12.8534
G01 X10.7798 Y12.8676
G01 X10.7862 Y12.8821
G01 X10.7945 Y12.9044
G01 X10.7991 Y12.9197
G01 X10.8029 Y12.9351
G01 X10.8060 Y12.9507
G01 X10.8082 Y12.9664
G01 X10.8097 Y12.9822
G01 X10.8104 Y12.9981
G01 X10.8103 Y13.0140
G01 X10.8095 Y13.0299
G01 X10.8038 Y13.1006
G01 X10.8010 Y13.1243
G01 X10.7982 Y13.1400
G01 X10.7925 Y13.1631
G01 X10.7878 Y13.1783
G01 X10.7823 Y13.1932
G01 X10.7727 Y13.2150
G01 X10.7654 Y13.2291
G01 X10.7574 Y13.2428
G01 X10.7487 Y13.2562
G01 X10.7394 Y13.2691
G01 X10.6964 Y13.3255
G01 X10.6806 Y13.3446
G01 X11.3029 Y13.3447
G01 X11.3264 Y13.3462
G01 X11.3497 Y13.3494
G01 X11.3651 Y13.3524
G01 X11.3879 Y13.3584
G01 X11.4102 Y13.3661
G01 X11.4318 Y13.3754
G01 X11.4527 Y13.3862
G01 X11.4728 Y13.3986
G01 X11.4919 Y13.4124
G01 X11.5099 Y13.4275
G01 X11.5268 Y13.4440
G01 X11.5424 Y13.4616
G01 X11.5566 Y13.4804
G01 X11.5695 Y13.5001
G01 X11.5808 Y13.5208
G01 X11.5906 Y13.5422
G01 X11.5988 Y13.5643
G01 X11.6054 Y13.5869
G01 X11.6103 Y13.6099
G01 X11.6134 Y13.6327
G01 X11.7798 Y13.4663
G01 X11.7798 Y9.9730
G01 X11.6150 Y9.8082
G01 X11.6150 Y9.8646
G01 X11.6146 Y9.8803
G01 X11.6126 Y9.9038
G01 X11.6089 Y9.9271
G01 X11.6034 Y9.9500
G01 X11.5963 Y9.9724
G01 X11.5906 Y9.9871
G01 X11.5843 Y10.0015
G01 X11.5734 Y10.0224
G01 X11.5611 Y10.0424
G01 X11.5520 Y10.0553
G01 X11.5424 Y10.0676
G01 X11.5321 Y10.0795
G01 X11.5213 Y10.0909
G01 X11.5040 Y10.1069
G01 X11.4856 Y10.1217
G01 X11.4728 Y10.1307
G01 X11.4595 Y10.1391
G01 X11.4389 Y10.1505
G01 X11.4175 Y10.1603
G01 X11.4028 Y10.1659
G01 X11.3879 Y10.1709
G01 X11.3728 Y10.1750
G01 X11.3574 Y10.1785
G01 X11.3342 Y10.1822
G01 X11.3185 Y10.1838
G01 X11.3029 Y10.1845
G01 X10.6853 Y10.1846
G00 Z1.0000
G00 X13.2202 Y10.3981
G01 F30.00
G01 Z-0.0800
G01 F100.00
G01 X13.2240 Y10.3948
G01 X13.2202 Y10.3948
G01 X13.2202 Y10.3981
G00 Z1.0000
G00 X16.5915 Y13.7092
G01 F30.00
G01 Z-0.0800
G01 F100.00
G01 X16.6146 Y13.7322
G01 X16.6425 Y13.7246
G01 X16.6168 Y13.7178
G01 X16.5915 Y13.7092
G00 Z1.0000
G00 X17.3575 Y13.7246
G01 F30.00
G01 Z-0.0800
G01 F100.00
G01 X17.3756 Y13.7293
G01 X17.3856 Y13.7322
G01 X17.4088 Y13.7090
G01 X17.3832 Y13.7178
G01 X17.3575 Y13.7246
G00 Z1.0000
G00 X18.0778 Y14.5673
G01 F30.00
G01 Z-0.0800
G01 F100.00
G01 X18.1101 Y14.6579
G01 X18.1377 Y14.7683
G01 X18.1544 Y14.8809
G01 X18.1600 Y14.9946
G01 X18.1544 Y15.1083
G01 X18.1377 Y15.2209
G01 X18.1101 Y15.3314
G01 X18.0778 Y15.4219
G01 X18.2223 Y15.5664
G01 X18.2860 Y15.4125
G01 X18.3355 Y15.2062
G01 X18.3522 Y14.9946
G01 X18.3355 Y14.7831
G01 X18.2860 Y14.5768
G01 X18.2223 Y14.4229
G01 X18.0778 Y14.5673
G00 Z1.0000
G00 X17.4085 Y16.2801
G01 F30.00
G01 Z-0.0800
G01 F100.00
G01 X17.3854 Y16.2571
G01 X17.3575 Y16.2646
G01 X17.3832 Y16.2715
G01 X17.4085 Y16.2801
G00 Z1.0000
G00 X16.6425 Y16.2646
G01 F30.00
G01 Z-0.0800
G01 F100.00
G01 X16.6244 Y16.2600
G01 X16.6144 Y16.2570
G01 X16.5912 Y16.2802
G01 X16.6168 Y16.2715
G01 X16.6425 Y16.2646
G00 Z1.0000
G00 X15.6478 Y14.9946
G01 F30.00
G01 Z-0.0800
G01 F100.00
G01 X15.6645 Y15.2062
G01 X15.7140 Y15.4125
G01 X15.7777 Y15.5664
G01 X15.9222 Y15.4219
G01 X15.8899 Y15.3314
G01 X15.8623 Y15.2209
G01 X15.8456 Y15.1083
G01 X15.8400 Y14.9946
G01 X15.8456 Y14.8809
G01 X15.8623 Y14.7683
G01 X15.8899 Y14.6579
G01 X15.9222 Y14.5673
G01 X15.7777 Y14.4229
G01 X15.7140 Y14.5768
G01 X15.6645 Y14.7831
G01 X15.6478 Y14.9946
G00 Z1.0000
G00 X9.2950 Y15.8246
G01 F30.00
G01 Z-0.0800
G01 F100.00
G01 X9.2793 Y15.8239
G01 X9.2638 Y15.8216
G01 X9.2523 Y15.8188
G01 X9.2374 Y15.8139
G01 X9.2231 Y15.8076
G01 X9.2094 Y15.7998
G01 X9.1966 Y15.7908
G01 X9.1847 Y15.7805
G01 X9.1738 Y15.7691
G01 X9.1642 Y15.7568
G01 X9.1558 Y15.7435
G01 X9.1504 Y15.7330
G01 X9.1444 Y15.7185
G01 X9.1398 Y15.7035
G01 X9.1367 Y15.6881
G01 X9.1352 Y15.6725
G01 X9.1350 Y13.6607
G01 X9.1362 Y13.6451
G01 X9.1389 Y13.6296
G01 X9.1408 Y13.6220
G01 X9.1444 Y13.6107
G01 X9.1504 Y13.5962
G01 X9.1578 Y13.5824
G01 X9.1665 Y13.5693
G01 X9.1764 Y13.5572
G01 X9.1847 Y13.5488
G01 X9.1905 Y13.5435
G01 X9.2029 Y13.5338
G01 X9.2127 Y13.5274
G01 X9.2266 Y13.5200
G01 X9.2374 Y13.5154
G01 X9.2523 Y13.5104
G01 X9.2638 Y13.5077
G01 X9.2754 Y13.5058
G01 X9.2911 Y13.5047
G01 X11.2950 Y13.5046
G01 X11.3107 Y13.5054
G01 X11.3262 Y13.5077
G01 X11.3377 Y13.5104
G01 X11.3489 Y13.5140
G01 X11.3598 Y13.5184
G01 X11.3704 Y13.5235
G01 X11.3806 Y13.5295
G01 X11.3871 Y13.5338
G01 X11.3965 Y13.5410
G01 X11.4053 Y13.5488
G01 X11.4136 Y13.5572
G01 X11.4211 Y13.5662
G01 X11.4280 Y13.5757
G01 X11.4342 Y13.5858
G01 X11.4396 Y13.5962
G01 X11.4443 Y13.6071
G01 X11.4469 Y13.6145
G01 X11.4502 Y13.6258
G01 X11.4519 Y13.6334
G01 X11.4538 Y13.6451
G01 X11.4548 Y13.6568
G01 X11.4550 Y13.6646
G01 X11.4550 Y14.0174
G01 X11.9398 Y13.5326
G01 X11.9398 Y9.9067
G01 X11.4580 Y9.4248
G01 X11.4550 Y9.4248
G01 X11.4550 Y9.8646
G01 X11.4542 Y9.8803
G01 X11.4519 Y9.8959
G01 X11.4492 Y9.9073
G01 X11.4456 Y9.9185
G01 X11.4413 Y9.9295
G01 X11.4379 Y9.9366
G01 X11.4322 Y9.9469
G01 X11.4258 Y9.9568
G01 X11.4187 Y9.9661
G01 X11.4109 Y9.9750
G01 X11.4053 Y9.9805
G01 X11.3965 Y9.9883
G01 X11.3871 Y9.9955
G01 X11.3773 Y10.0019
G01 X11.3669 Y10.0076
G01 X11.3562 Y10.0125
G01 X11.3452 Y10.0166
G01 X11.3339 Y10.0198
G01 X11.3262 Y10.0216
G01 X11.3146 Y10.0234
G01 X11.3068 Y10.0242
G01 X11.2950 Y10.0246
G01 X9.2911 Y10.0246
G01 X9.2754 Y10.0234
G01 X9.2638 Y10.0216
G01 X9.2523 Y10.0188
G01 X9.2411 Y10.0153
G01 X9.2266 Y10.0093
G01 X9.2161 Y10.0039
G01 X9.2029 Y9.9955
G01 X9.1935 Y9.9883
G01 X9.1819 Y9.9778
G01 X9.1764 Y9.9721
G01 X9.1689 Y9.9631
G01 X9.1598 Y9.9502
G01 X9.1521 Y9.9366
G01 X9.1472 Y9.9259
G01 X9.1444 Y9.9185
G01 X9.1398 Y9.9035
G01 X9.1367 Y9.8881
G01 X9.1354 Y9.8764
G01 X9.1350 Y9.8686
G01 X9.1350 Y7.8607
G01 X9.1358 Y7.8490
G01 X9.1374 Y7.8373
G01 X9.1398 Y7.8258
G01 X9.1431 Y7.8145
G01 X9.1472 Y7.8034
G01 X9.1521 Y7.7927
G01 X9.1578 Y7.7824
G01 X9.1642 Y7.7725
G01 X9.1713 Y7.7631
G01 X9.1791 Y7.7543
G01 X9.1876 Y7.7461
G01 X9.1966 Y7.7385
G01 X9.2061 Y7.7316
G01 X9.2161 Y7.7254
G01 X9.2266 Y7.7200
G01 X9.2374 Y7.7154
G01 X9.2486 Y7.7115
G01 X9.2638 Y7.7077
G01 X9.2793 Y7.7054
G01 X9.2950 Y7.7046
G01 X11.2950 Y7.7046
G01 X11.3107 Y7.7054
G01 X11.3262 Y7.7077
G01 X11.3414 Y7.7115
G01 X11.3562 Y7.7168
G01 X11.3634 Y7.7200
G01 X11.3739 Y7.7254
G01 X11.3839 Y7.7316
G01 X11.3934 Y7.7385
G01 X11.4024 Y7.7461
G01 X11.4081 Y7.7515
G01 X11.4162 Y7.7601
G01 X11.4211 Y7.7662
G01 X11.4280 Y7.7757
G01 X11.4322 Y7.7824
G01 X11.4379 Y7.7927
G01 X11.4413 Y7.7998
G01 X11.4456 Y7.8107
G01 X11.4481 Y7.8182
G01 X11.4502 Y7.8258
G01 X11.4526 Y7.8373
G01 X11.4542 Y7.8490
G01 X11.4550 Y7.8646
G01 X11.4550 Y8.3044
G01 X11.6939 Y8.3045
G01 X11.7449 Y8.3071
G01 X11.7954 Y8.3145
G01 X11.8070 Y8.3169
G01 X11.8526 Y8.3286
G01 X11.9044 Y8.3471
G01 X11.9541 Y8.3706
G01 X11.9979 Y8.3967
G01 X12.0077 Y8.4034
G01 X12.0454 Y8.4316
G01 X12.0861 Y8.4685
G01 X12.7320 Y9.1144
G01 X23.9300 Y9.1144
G01 X23.9771 Y9.1166
G01 X23.9888 Y9.1176
G01 X24.0042 Y9.1198
G01 X24.0354 Y9.1245
G01 X24.0470 Y9.1269
G01 X24.0926 Y9.1386
G01 X24.1444 Y9.1571
G01 X24.1941 Y9.1806
G01 X24.2346 Y9.2046
G01 X24.2477 Y9.2134
G01 X24.2792 Y9.2368
G01 X24.2884 Y9.2441
G01 X24.3261 Y9.2785
G01 X24.6911 Y9.6435
G01 X24.7229 Y9.6783
G01 X24.7305 Y9.6873
G01 X24.7563 Y9.7220
G01 X24.7650 Y9.7350
G01 X24.7891 Y9.7756
G01 X24.8094 Y9.8181
G01 X24.8140 Y9.8289
G01 X24.8311 Y9.8770
G01 X24.8444 Y9.9304
G01 X24.8525 Y9.9847
G01 X24.8552 Y10.0357
G01 X24.8552 Y11.9446
G01 X24.8525 Y11.9995
G01 X24.8458 Y12.0462
G01 X24.8427 Y12.0616
G01 X24.8311 Y12.1073
G01 X24.8154 Y12.1517
G01 X24.8094 Y12.1662
G01 X24.7909 Y12.2052
G01 X24.7852 Y12.2155
G01 X24.7608 Y12.2559
G01 X24.7329 Y12.2938
G01 X24.7229 Y12.3060
G01 X24.6911 Y12.3408
G01 X24.1783 Y12.8535
G01 X24.1404 Y12.8877
G01 X24.1027 Y12.9159
G01 X24.0929 Y12.9226
G01 X24.0559 Y12.9448
G01 X24.0421 Y12.9522
G01 X23.9994 Y12.9722
G01 X23.9551 Y12.9883
G01 X23.9438 Y12.9918
G01 X23.9020 Y13.0024
G01 X23.8866 Y13.0054
G01 X23.8399 Y13.0121
G01 X23.7850 Y13.0148
G01 X18.0152 Y13.0148
G01 X17.9645 Y13.0991
G01 X17.9015 Y13.1843
G01 X17.8916 Y13.1965
G01 X17.8202 Y13.2749
G01 X17.7418 Y13.3462
G01 X17.7297 Y13.3562
G01 X17.6445 Y13.4191
G01 X17.5537 Y13.4738
G01 X17.5398 Y13.4812
G01 X17.4439 Y13.5263
G01 X17.3442 Y13.5622
G01 X17.3292 Y13.5668
G01 X17.2263 Y13.5924
G01 X17.1215 Y13.6081
G01 X17.1059 Y13.6096
G01 X17.0039 Y13.6146
G01 X16.9921 Y13.6144
G01 X16.8863 Y13.6091
G01 X16.7814 Y13.5937
G01 X16.7660 Y13.5906
G01 X16.6708 Y13.5668
G01 X16.6558 Y13.5622
G01 X16.5561 Y13.5263
G01 X16.4532 Y13.4777
G01 X16.3555 Y13.4191
G01 X16.2703 Y13.3562
G01 X16.2582 Y13.3462
G01 X16.1854 Y13.2803
G01 X16.1743 Y13.2692
G01 X16.1033 Y13.1905
G01 X16.0355 Y13.0991
G01 X15.9770 Y13.0015
G01 X15.9315 Y12.9057
G01 X15.9255 Y12.8912
G01 X15.8924 Y12.7988
G01 X15.8879 Y12.7838
G01 X15.8623 Y12.6809
G01 X15.8456 Y12.5683
G01 X15.8400 Y12.4546
G01 X15.8450 Y12.3488
G01 X15.8465 Y12.3331
G01 X15.8609 Y12.2361
G01 X15.8640 Y12.2207
G01 X15.8899 Y12.1179
G01 X15.9283 Y12.0107
G01 X15.9770 Y11.9078
G01 X16.0355 Y11.8102
G01 X16.1033 Y11.7187
G01 X16.1743 Y11.6401
G01 X16.1854 Y11.6290
G01 X16.2582 Y11.5631
G01 X16.2703 Y11.5531
G01 X16.3555 Y11.4901
G01 X16.4463 Y11.4355
G01 X16.4567 Y11.4298
G01 X16.5561 Y11.3829
G01 X16.6633 Y11.3446
G01 X16.7737 Y11.3169
G01 X16.8863 Y11.3002
G01 X17.0000 Y11.2946
G01 X17.1137 Y11.3002
G01 X17.2263 Y11.3169
G01 X17.3367 Y11.3446
G01 X17.4439 Y11.3829
G01 X17.5468 Y11.4316
G01 X17.6445 Y11.4901
G01 X17.7359 Y11.5579
G01 X17.8202 Y11.6344
G01 X17.8967 Y11.7187
G01 X17.9645 Y11.8102
G01 X18.0152 Y11.8944
G01 X23.5530 Y11.8944
G01 X23.7348 Y11.7126
G01 X23.7348 Y10.2717
G01 X23.6980 Y10.2348
G01 X13.0602 Y10.2348
G01 X13.0602 Y13.7686
G01 X13.0575 Y13.8195
G01 X13.0508 Y13.8662
G01 X13.0477 Y13.8816
G01 X13.0361 Y13.9273
G01 X13.0176 Y13.9790
G01 X12.9976 Y14.0217
G01 X12.9902 Y14.0355
G01 X12.9658 Y14.0759
G01 X12.9330 Y14.1200
G01 X12.8961 Y14.1608
G01 X11.9961 Y15.0608
G01 X11.9613 Y15.0926
G01 X11.9492 Y15.1025
G01 X11.9145 Y15.1282
G01 X11.9046 Y15.1346
G01 X11.8641 Y15.1587
G01 X11.8216 Y15.1790
G01 X11.8071 Y15.1850
G01 X11.7664 Y15.1995
G01 X11.7550 Y15.2028
G01 X11.7170 Y15.2124
G01 X11.7016 Y15.2154
G01 X11.6588 Y15.2217
G01 X11.6471 Y15.2227
G01 X11.6079 Y15.2246
G01 X11.4550 Y15.2248
G01 X11.4550 Y15.6646
G01 X11.4546 Y15.6764
G01 X11.4533 Y15.6881
G01 X11.4519 Y15.6959
G01 X11.4492 Y15.7073
G01 X11.4456 Y15.7185
G01 X11.4428 Y15.7259
G01 X11.4379 Y15.7366
G01 X11.4342 Y15.7435
G01 X11.4280 Y15.7535
G01 X11.4235 Y15.7600
G01 X11.4187 Y15.7661
G01 X11.4109 Y15.7750
G01 X11.4053 Y15.7805
G01 X11.3965 Y15.7883
G01 X11.3871 Y15.7955
G01 X11.3806 Y15.7998
G01 X11.3704 Y15.8057
G01 X11.3634 Y15.8093
G01 X11.3489 Y15.8153
G01 X11.3414 Y15.8178
G01 X11.3301 Y15.8208
G01 X11.3146 Y15.8234
G01 X11.3068 Y15.8242
G01 X11.2950 Y15.8246
G01 X9.2950 Y15.8246
G00 Z1.0000
G00 X4.0550 Y15.8246
G01 F30.00
G01 Z-0.0800
G01 F100.00
G01 X4.0550 Y16.0126
G01 X4.6344 Y16.0126
G01 X4.6679 Y16.0090
G01 X4.7638 Y15.9730
G01 X4.8436 Y15.9133
G01 X4.9034 Y15.8335
G01 X4.9394 Y15.7375
G01 X4.9430 Y15.7041
G01 X4.9430 Y15.1246
G01 X4.7550 Y15.1246
G01 X4.7550 Y15.6646
G01 X4.7542 Y15.6803
G01 X4.7519 Y15.6959
G01 X4.7481 Y15.7111
G01 X4.7428 Y15.7259
G01 X4.7361 Y15.7401
G01 X4.7302 Y15.7502
G01 X4.7258 Y15.7568
G01 X4.7162 Y15.7691
G01 X4.7053 Y15.7805
G01 X4.6934 Y15.7908
G01 X4.6839 Y15.7977
G01 X4.6739 Y15.8039
G01 X4.6634 Y15.8093
G01 X4.6526 Y15.8139
G01 X4.6414 Y15.8178
G01 X4.6301 Y15.8208
G01 X4.6185 Y15.8229
G01 X4.6029 Y15.8244
G01 X4.0550 Y15.8246
G00 Z1.0000
G00 X2.2470 Y15.1246
G01 F30.00
G01 Z-0.0800
G01 F100.00
G01 X2.2470 Y15.7041
G01 X2.2506 Y15.7375
G01 X2.2866 Y15.8335
G01 X2.3464 Y15.9133
G01 X2.4262 Y15.9730
G01 X2.5221 Y16.0090
G01 X2.5556 Y16.0126
G01 X3.1350 Y16.0126
G01 X3.1350 Y15.8246
G01 X2.5950 Y15.8246
G01 X2.5832 Y15.8242
G01 X2.5715 Y15.8229
G01 X2.5561 Y15.8198
G01 X2.5411 Y15.8153
G01 X2.5266 Y15.8093
G01 X2.5127 Y15.8019
G01 X2.5029 Y15.7955
G01 X2.4905 Y15.7858
G01 X2.4819 Y15.7778
G01 X2.4738 Y15.7691
G01 X2.4642 Y15.7568
G01 X2.4558 Y15.7435
G01 X2.4487 Y15.7295
G01 X2.4431 Y15.7148
G01 X2.4398 Y15.7035
G01 X2.4374 Y15.6920
G01 X2.4354 Y15.6764
G01 X2.4350 Y15.6646
G01 X2.4350 Y15.1246
G01 X2.2470 Y15.1246
G00 Z1.0000
G00 X2.2470 Y14.2046
G01 F30.00
G01 Z-0.0800
G01 F100.00
G01 X2.4350 Y14.2046
G01 X2.4350 Y13.6646
G01 X2.4354 Y13.6529
G01 X2.4367 Y13.6412
G01 X2.4398 Y13.6258
G01 X2.4444 Y13.6107
G01 X2.4504 Y13.5962
G01 X2.4578 Y13.5824
G01 X2.4642 Y13.5725
G01 X2.4738 Y13.5601
G01 X2.4819 Y13.5515
G01 X2.4905 Y13.5435
G01 X2.5029 Y13.5338
G01 X2.5161 Y13.5254
G01 X2.5302 Y13.5184
G01 X2.5448 Y13.5127
G01 X2.5561 Y13.5094
G01 X2.5676 Y13.5070
G01 X2.5832 Y13.5051
G01 X2.5950 Y13.5046
G01 X3.1350 Y13.5046
G01 X3.1350 Y13.3166
G01 X2.5556 Y13.3166
G01 X2.5221 Y13.3203
G01 X2.4262 Y13.3562
G01 X2.3464 Y13.4160
G01 X2.2866 Y13.4958
G01 X2.2506 Y13.5917
G01 X2.2470 Y13.6252
G01 X2.2470 Y14.2046
G00 Z1.0000
G00 X4.5462 Y13.2553
G01 F30.00
G01 Z-0.0800
G01 F100.00
G01 X4.5340 Y13.2645
G01 X4.5239 Y13.2708
G01 X4.5133 Y13.2763
G01 X4.5024 Y13.2811
G01 X4.4283 Y13.3081
G01 X4.4133 Y13.3123
G01 X4.3979 Y13.3151
G01 X4.3863 Y13.3161
G01 X4.3694 Y13.3166
G01 X4.0550 Y13.3166
G01 X4.0550 Y13.5046
G01 X4.6029 Y13.5048
G01 X4.6146 Y13.5058
G01 X4.6262 Y13.5077
G01 X4.6414 Y13.5115
G01 X4.6526 Y13.5154
G01 X4.6634 Y13.5200
G01 X4.6739 Y13.5254
G01 X4.6839 Y13.5316
G01 X4.6934 Y13.5385
G01 X4.7053 Y13.5488
G01 X4.7162 Y13.5601
G01 X4.7258 Y13.5725
G01 X4.7322 Y13.5824
G01 X4.7361 Y13.5892
G01 X4.7428 Y13.6034
G01 X4.7481 Y13.6182
G01 X4.7519 Y13.6334
G01 X4.7542 Y13.6490
G01 X4.7550 Y13.6646
G01 X4.7550 Y14.2046
G01 X4.9430 Y14.2046
G01 X4.9430 Y13.6252
G01 X4.9394 Y13.5917
G01 X4.9034 Y13.4958
G01 X4.8436 Y13.4160
G01 X4.7638 Y13.3562
G01 X4.6652 Y13.3193
G01 X4.6516 Y13.3150
G01 X4.6411 Y13.3106
G01 X4.6275 Y13.3037
G01 X4.5658 Y13.2685
G01 X4.5557 Y13.2622
G01 X4.5462 Y13.2553
G00 Z1.0000
G00 X3.6046 Y11.9215
G01 F30.00
G01 Z-0.0800
G01 F100.00
G01 X3.6497 Y12.0994
G01 X3.7266 Y12.2660
G01 X3.8325 Y12.4159
G01 X3.9639 Y12.5440
G01 X4.1165 Y12.6459
G01 X4.2851 Y12.7183
G01 X4.4325 Y12.7517
G01 X4.4435 Y12.7546
G01 X4.4543 Y12.7583
G01 X4.4648 Y12.7628
G01 X4.4717 Y12.7661
G01 X4.5370 Y12.8025
G01 X4.5472 Y12.8087
G01 X4.5594 Y12.8175
G01 X4.5677 Y12.8110
G01 X4.5776 Y12.8042
G01 X4.5880 Y12.7983
G01 X4.5952 Y12.7947
G01 X4.6580 Y12.7691
G01 X4.6725 Y12.7641
G01 X4.6836 Y12.7612
G01 X4.6950 Y12.7592
G01 X4.8291 Y12.7397
G01 X5.0029 Y12.6807
G01 X5.1630 Y12.5911
G01 X5.3041 Y12.4737
G01 X5.4214 Y12.3326
G01 X5.5111 Y12.1725
G01 X5.5701 Y11.9987
G01 X5.5972 Y11.8119
G01 X5.5983 Y11.7699
G01 X5.5810 Y11.5819
G01 X5.5312 Y11.4053
G01 X5.4500 Y11.2407
G01 X5.3402 Y11.0936
G01 X5.2055 Y10.9691
G01 X5.0503 Y10.8711
G01 X4.8798 Y10.8031
G01 X4.6897 Y10.7653
G01 X4.6785 Y10.7627
G01 X4.6713 Y10.7605
G01 X4.6605 Y10.7566
G01 X4.6467 Y10.7502
G01 X4.5838 Y10.7173
G01 X4.5692 Y10.7086
G01 X4.5590 Y10.7158
G01 X4.4960 Y10.7562
G01 X4.4822 Y10.7637
G01 X4.4677 Y10.7698
G01 X4.4528 Y10.7745
G01 X4.4303 Y10.7797
G01 X4.3355 Y10.7960
G01 X4.1633 Y10.8595
G01 X4.0056 Y10.9534
G01 X3.8676 Y11.0744
G01 X3.7540 Y11.2185
G01 X3.6685 Y11.3809
G01 X3.6536 Y11.4289
G01 X3.6141 Y11.5561
G01 X3.5926 Y11.7384
G01 X3.6046 Y11.9215
G00 Z1.0000
G00 X5.4048 Y11.7568
G01 F30.00
G01 Z-0.0800
G01 F100.00
G01 X5.4048 Y11.7725
G01 X5.4011 Y11.8440
G01 X5.3894 Y11.9227
G01 X5.3701 Y11.9998
G01 X5.3433 Y12.0746
G01 X5.3094 Y12.1465
G01 X5.2685 Y12.2147
G01 X5.2211 Y12.2785
G01 X5.1678 Y12.3374
G01 X5.1089 Y12.3908
G01 X5.0450 Y12.4381
G01 X4.9768 Y12.4790
G01 X4.9050 Y12.5130
G01 X4.8301 Y12.5398
G01 X4.7530 Y12.5591
G01 X4.6744 Y12.5707
G01 X4.5950 Y12.5746
G01 X4.5156 Y12.5707
G01 X4.4370 Y12.5591
G01 X4.3599 Y12.5398
G01 X4.2850 Y12.5130
G01 X4.2132 Y12.4790
G01 X4.1450 Y12.4381
G01 X4.0811 Y12.3908
G01 X4.0222 Y12.3374
G01 X3.9689 Y12.2785
G01 X3.9215 Y12.2147
G01 X3.8806 Y12.1465
G01 X3.8467 Y12.0746
G01 X3.8199 Y11.9998
G01 X3.8006 Y11.9227
G01 X3.7889 Y11.8440
G01 X3.7850 Y11.7646
G01 X3.7889 Y11.6852
G01 X3.8006 Y11.6066
G01 X3.8199 Y11.5295
G01 X3.8467 Y11.4547
G01 X3.8806 Y11.3828
G01 X3.9215 Y11.3146
G01 X3.9689 Y11.2508
G01 X4.0222 Y11.1919
G01 X4.0811 Y11.1385
G01 X4.1450 Y11.0911
G01 X4.2132 Y11.0503
G01 X4.2850 Y11.0163
G01 X4.3599 Y10.9895
G01 X4.4370 Y10.9702
G01 X4.5156 Y10.9585
G01 X4.5950 Y10.9546
G01 X4.6744 Y10.9585
G01 X4.7530 Y10.9702
G01 X4.8301 Y10.9895
G01 X4.9050 Y11.0163
G01 X4.9768 Y11.0503
G01 X5.0450 Y11.0911
G01 X5.1089 Y11.1385
G01 X5.1678 Y11.1919
G01 X5.2211 Y11.2508
G01 X5.2685 Y11.3146
G01 X5.3094 Y11.3828
G01 X5.3433 Y11.4547
G01 X5.3701 Y11.5295
G01 X5.3894 Y11.6066
G01 X5.4011 Y11.6852
G01 X5.4048 Y11.7568
G00 Z1.0000
G00 X9.8200 Y23.1728
G01 F30.00
G01 Z-0.0800
G01 F100.00
G01 X9.8200 Y23.1768
G01 X9.8235 Y23.1768
G01 X9.8200 Y23.1728
G00 Z1.0000
G00 X9.8240 Y24.6172
G01 F30.00
G01 Z-0.0800
G01 F100.00
G01 X9.8200 Y24.6172
G01 X9.8200 Y24.6206
G01 X9.8240 Y24.6172
G00 Z1.0000
G00 X7.5000 Y25.0570
G01 F30.00
G01 Z-0.0800
G01 F100.00
G01 X7.4843 Y25.0562
G01 X7.4688 Y25.0539
G01 X7.4536 Y25.0501
G01 X7.4388 Y25.0448
G01 X7.4246 Y25.0381
G01 X7.4111 Y25.0300
G01 X7.3985 Y25.0206
G01 X7.3869 Y25.0101
G01 X7.3763 Y24.9985
G01 X7.3670 Y24.9859
G01 X7.3589 Y24.9724
G01 X7.3522 Y24.9582
G01 X7.3469 Y24.9434
G01 X7.3431 Y24.9282
G01 X7.3408 Y24.9126
G01 X7.3400 Y24.8970
G01 X7.3400 Y22.8970
G01 X7.3404 Y22.8852
G01 X7.3424 Y22.8696
G01 X7.3458 Y22.8543
G01 X7.3507 Y22.8394
G01 X7.3571 Y22.8250
G01 X7.3628 Y22.8147
G01 X7.3715 Y22.8017
G01 X7.3814 Y22.7895
G01 X7.3926 Y22.7784
G01 X7.4047 Y22.7684
G01 X7.4177 Y22.7597
G01 X7.4316 Y22.7523
G01 X7.4424 Y22.7477
G01 X7.4573 Y22.7428
G01 X7.4726 Y22.7393
G01 X7.4882 Y22.7374
G01 X7.5000 Y22.7370
G01 X9.5000 Y22.7370
G01 X9.5118 Y22.7374
G01 X9.5235 Y22.7387
G01 X9.5312 Y22.7400
G01 X9.5427 Y22.7428
G01 X9.5539 Y22.7463
G01 X9.5648 Y22.7507
G01 X9.5754 Y22.7559
G01 X9.5823 Y22.7597
G01 X9.5889 Y22.7639
G01 X9.5984 Y22.7708
G01 X9.6074 Y22.7784
G01 X9.6159 Y22.7866
G01 X9.6237 Y22.7955
G01 X9.6308 Y22.8048
G01 X9.6372 Y22.8147
G01 X9.6429 Y22.8250
G01 X9.6463 Y22.8321
G01 X9.6506 Y22.8431
G01 X9.6542 Y22.8543
G01 X9.6569 Y22.8657
G01 X9.6592 Y22.8813
G01 X9.6600 Y22.8970
G01 X9.6600 Y23.3368
G01 X15.3623 Y23.3368
G01 X15.4172 Y23.3395
G01 X15.4639 Y23.3462
G01 X15.4793 Y23.3492
G01 X15.5174 Y23.3588
G01 X15.5287 Y23.3621
G01 X15.5767 Y23.3794
G01 X15.6194 Y23.3994
G01 X15.6332 Y23.4068
G01 X15.6736 Y23.4312
G01 X15.7115 Y23.4591
G01 X15.7237 Y23.4691
G01 X15.7584 Y23.5008
G01 X16.6782 Y24.4206
G01 X16.7737 Y24.3969
G01 X16.8863 Y24.3802
G01 X17.0000 Y24.3746
G01 X17.1059 Y24.3796
G01 X17.1215 Y24.3812
G01 X17.2186 Y24.3956
G01 X17.2340 Y24.3986
G01 X17.3367 Y24.4246
G01 X17.4439 Y24.4629
G01 X17.5468 Y24.5116
G01 X17.6378 Y24.5659
G01 X17.6509 Y24.5747
G01 X17.7297 Y24.6331
G01 X17.7418 Y24.6431
G01 X17.8202 Y24.7144
G01 X17.8967 Y24.7987
G01 X17.9645 Y24.8902
G01 X18.0152 Y24.9744
G01 X22.0139 Y24.9745
G01 X22.0649 Y24.9771
G01 X22.1116 Y24.9839
G01 X22.1270 Y24.9869
G01 X22.1726 Y24.9986
G01 X22.2171 Y25.0143
G01 X22.2316 Y25.0203
G01 X22.2706 Y25.0388
G01 X22.2809 Y25.0445
G01 X22.3146 Y25.0646
G01 X22.3277 Y25.0734
G01 X22.3654 Y25.1016
G01 X22.4061 Y25.1385
G01 X26.5011 Y29.2335
G01 X26.5380 Y29.2743
G01 X26.5708 Y29.3184
G01 X26.5991 Y29.3656
G01 X26.6194 Y29.4081
G01 X26.6254 Y29.4226
G01 X26.6411 Y29.4670
G01 X26.6544 Y29.5204
G01 X26.6625 Y29.5747
G01 X26.6652 Y29.6257
G01 X26.6652 Y33.1346
G01 X26.8629 Y33.1348
G01 X26.8746 Y33.1358
G01 X26.8862 Y33.1377
G01 X26.9014 Y33.1415
G01 X26.9126 Y33.1454
G01 X26.9198 Y33.1484
G01 X26.9304 Y33.1535
G01 X26.9406 Y33.1595
G01 X26.9503 Y33.1661
G01 X26.9595 Y33.1735
G01 X26.9653 Y33.1788
G01 X26.9709 Y33.1843
G01 X26.9787 Y33.1931
G01 X26.9858 Y33.2025
G01 X26.9922 Y33.2124
G01 X26.9961 Y33.2192
G01 X27.0013 Y33.2298
G01 X27.0056 Y33.2407
G01 X27.0081 Y33.2482
G01 X27.0102 Y33.2558
G01 X27.0126 Y33.2673
G01 X27.0142 Y33.2790
G01 X27.0150 Y33.2946
G01 X27.0150 Y35.0446
G01 X27.0148 Y35.0525
G01 X27.0138 Y35.0642
G01 X27.0119 Y35.0759
G01 X27.0102 Y35.0835
G01 X27.0056 Y35.0985
G01 X27.0028 Y35.1059
G01 X26.9979 Y35.1166
G01 X26.9922 Y35.1269
G01 X26.9858 Y35.1368
G01 X26.9787 Y35.1461
G01 X26.9736 Y35.1521
G01 X26.9653 Y35.1605
G01 X26.9565 Y35.1683
G01 X26.9471 Y35.1755
G01 X26.9373 Y35.1819
G01 X26.9269 Y35.1876
G01 X26.9198 Y35.1909
G01 X26.9089 Y35.1953
G01 X26.8977 Y35.1988
G01 X26.8862 Y35.2016
G01 X26.8785 Y35.2029
G01 X26.8668 Y35.2042
G01 X26.8550 Y35.2046
G01 X25.3471 Y35.2044
G01 X25.3354 Y35.2034
G01 X25.3276 Y35.2023
G01 X25.3161 Y35.1998
G01 X25.3086 Y35.1978
G01 X25.2974 Y35.1939
G01 X25.2902 Y35.1909
G01 X25.2831 Y35.1876
G01 X25.2727 Y35.1819
G01 X25.2629 Y35.1755
G01 X25.2535 Y35.1683
G01 X25.2476 Y35.1632
G01 X25.2391 Y35.1550
G01 X25.2338 Y35.1491
G01 X25.2265 Y35.1400
G01 X25.2220 Y35.1335
G01 X25.2158 Y35.1235
G01 X25.2104 Y35.1130
G01 X25.2057 Y35.1022
G01 X25.2019 Y35.0911
G01 X25.1998 Y35.0835
G01 X25.1974 Y35.0720
G01 X25.1962 Y35.0642
G01 X25.1952 Y35.0525
G01 X25.1950 Y35.0446
G01 X25.1950 Y33.2946
G01 X25.1958 Y33.2790
G01 X25.1974 Y33.2673
G01 X25.1998 Y33.2558
G01 X25.2019 Y33.2482
G01 X25.2057 Y33.2371
G01 X25.2087 Y33.2298
G01 X25.2139 Y33.2192
G01 X25.2198 Y33.2090
G01 X25.2265 Y33.1993
G01 X25.2313 Y33.1931
G01 X25.2391 Y33.1843
G01 X25.2447 Y33.1788
G01 X25.2535 Y33.1710
G01 X25.2597 Y33.1661
G01 X25.2694 Y33.1595
G01 X25.2761 Y33.1554
G01 X25.2866 Y33.1500
G01 X25.2974 Y33.1454
G01 X25.3123 Y33.1404
G01 X25.3238 Y33.1377
G01 X25.3354 Y33.1358
G01 X25.3471 Y33.1348
G01 X25.5448 Y33.1346
G01 X25.5448 Y29.8617
G01 X21.7780 Y26.0948
G01 X18.0152 Y26.0948
G01 X17.9645 Y26.1791
G01 X17.8967 Y26.2705
G01 X17.8202 Y26.3549
G01 X17.7418 Y26.4262
G01 X17.7297 Y26.4362
G01 X17.6509 Y26.4946
G01 X17.6378 Y26.5033
G01 X17.5468 Y26.5577
G01 X17.4511 Y26.6032
G01 X17.4366 Y26.6092
G01 X17.3442 Y26.6422
G01 X17.3292 Y26.6468
G01 X17.2263 Y26.6724
G01 X17.1137 Y26.6891
G01 X17.0000 Y26.6946
G01 X16.8941 Y26.6896
G01 X16.8785 Y26.6881
G01 X16.7814 Y26.6737
G01 X16.7660 Y26.6706
G01 X16.6633 Y26.6447
G01 X16.5561 Y26.6063
G01 X16.4532 Y26.5577
G01 X16.3555 Y26.4991
G01 X16.2641 Y26.4313
G01 X16.1798 Y26.3549
G01 X16.1033 Y26.2705
G01 X16.0400 Y26.1855
G01 X16.0313 Y26.1725
G01 X15.9770 Y26.0815
G01 X15.9283 Y25.9786
G01 X15.8899 Y25.8714
G01 X15.8640 Y25.7686
G01 X15.8609 Y25.7532
G01 X15.8456 Y25.6483
G01 X15.8402 Y25.5425
G01 X15.8402 Y25.5268
G01 X15.8450 Y25.4288
G01 X15.8465 Y25.4131
G01 X15.8623 Y25.3083
G01 X15.8860 Y25.2129
G01 X15.1303 Y24.4572
G01 X9.6600 Y24.4572
G01 X9.6600 Y24.8970
G01 X9.6592 Y24.9126
G01 X9.6569 Y24.9282
G01 X9.6542 Y24.9396
G01 X9.6506 Y24.9509
G01 X9.6463 Y24.9618
G01 X9.6429 Y24.9689
G01 X9.6392 Y24.9758
G01 X9.6330 Y24.9859
G01 X9.6261 Y24.9954
G01 X9.6186 Y25.0044
G01 X9.6103 Y25.0128
G01 X9.6045 Y25.0181
G01 X9.5953 Y25.0255
G01 X9.5856 Y25.0321
G01 X9.5754 Y25.0381
G01 X9.5648 Y25.0432
G01 X9.5539 Y25.0476
G01 X9.5427 Y25.0512
G01 X9.5312 Y25.0539
G01 X9.5235 Y25.0552
G01 X9.5118 Y25.0565
G01 X9.5000 Y25.0570
G01 X7.5000 Y25.0570
G00 Z1.0000
G00 X7.1515 Y24.9364
G01 F30.00
G01 Z-0.0800
G01 F100.00
G01 X7.1551 Y24.9700
G01 X7.1912 Y25.0660
G01 X7.2510 Y25.1459
G01 X7.3309 Y25.2058
G01 X7.4270 Y25.2418
G01 X7.4605 Y25.2455
G01 X9.5395 Y25.2455
G01 X9.5730 Y25.2418
G01 X9.6691 Y25.2058
G01 X9.7490 Y25.1459
G01 X9.8088 Y25.0660
G01 X9.8449 Y24.9700
G01 X9.8485 Y24.9364
G01 X9.8487 Y24.9238
G01 X9.8492 Y24.9163
G01 X9.8514 Y24.9012
G01 X9.8550 Y24.8864
G01 X9.8750 Y24.8183
G01 X9.8802 Y24.8033
G01 X9.8851 Y24.7924
G01 X9.8908 Y24.7819
G01 X9.8995 Y24.7687
G01 X9.9096 Y24.7563
G01 X9.9179 Y24.7478
G01 X9.9237 Y24.7424
G01 X9.9804 Y24.6933
G01 X9.9900 Y24.6861
G01 X10.0035 Y24.6775
G01 X10.0105 Y24.6738
G01 X10.0215 Y24.6688
G01 X10.0327 Y24.6647
G01 X10.0404 Y24.6624
G01 X10.1005 Y24.6491
G01 X10.1155 Y24.6466
G01 X10.1269 Y24.6456
G01 X10.1345 Y24.6455
G01 X14.9338 Y24.6455
G01 X14.9414 Y24.6456
G01 X14.9528 Y24.6466
G01 X14.9678 Y24.6491
G01 X14.9789 Y24.6519
G01 X15.0508 Y24.6731
G01 X15.0618 Y24.6771
G01 X15.0691 Y24.6802
G01 X15.0830 Y24.6875
G01 X15.0929 Y24.6938
G01 X15.1023 Y24.7009
G01 X15.1266 Y24.7205
G01 X15.1361 Y24.7292
G01 X15.5756 Y25.1687
G01 X15.5858 Y25.1800
G01 X15.5949 Y25.1922
G01 X15.6028 Y25.2052
G01 X15.6369 Y25.2675
G01 X15.6420 Y25.2778
G01 X15.6464 Y25.2884
G01 X15.6511 Y25.3031
G01 X15.6536 Y25.3143
G01 X15.6554 Y25.3257
G01 X15.6586 Y25.3700
G01 X15.6589 Y25.3856
G01 X15.6473 Y25.5346
G01 X15.6640 Y25.7462
G01 X15.7135 Y25.9526
G01 X15.7948 Y26.1487
G01 X15.9057 Y26.3297
G01 X16.0435 Y26.4911
G01 X16.2049 Y26.6290
G01 X16.2128 Y26.6339
G01 X16.2221 Y26.6403
G01 X16.2280 Y26.6450
G01 X16.2365 Y26.6526
G01 X16.2469 Y26.6635
G01 X16.2931 Y26.7168
G01 X16.5728 Y26.9968
G01 X16.6633 Y26.9646
G01 X16.7737 Y26.9369
G01 X16.8863 Y26.9202
G01 X17.0000 Y26.9146
G01 X17.1137 Y26.9202
G01 X17.2263 Y26.9369
G01 X17.3367 Y26.9646
G01 X17.4273 Y26.9968
G01 X17.6919 Y26.7322
G01 X17.7001 Y26.7201
G01 X17.7097 Y26.7084
G01 X17.7624 Y26.6533
G01 X17.7709 Y26.6457
G01 X17.7768 Y26.6410
G01 X17.7862 Y26.6345
G01 X17.7951 Y26.6290
G01 X17.9565 Y26.4911
G01 X18.0485 Y26.3834
G01 X18.0562 Y26.3750
G01 X18.0645 Y26.3671
G01 X18.0734 Y26.3599
G01 X18.0795 Y26.3554
G01 X18.1421 Y26.3145
G01 X18.1520 Y26.3086
G01 X18.1623 Y26.3034
G01 X18.1693 Y26.3003
G01 X18.1801 Y26.2963
G01 X18.1949 Y26.2923
G01 X18.2063 Y26.2902
G01 X18.2465 Y26.2843
G01 X18.2543 Y26.2836
G01 X18.2660 Y26.2831
G01 X21.5815 Y26.2831
G01 X21.5929 Y26.2835
G01 X21.6005 Y26.2843
G01 X21.6118 Y26.2860
G01 X21.6229 Y26.2886
G01 X21.6984 Y26.3108
G01 X21.7095 Y26.3148
G01 X21.7238 Y26.3214
G01 X21.7340 Y26.3272
G01 X21.7469 Y26.3361
G01 X21.7743 Y26.3582
G01 X21.7837 Y26.3669
G01 X25.2727 Y29.8559
G01 X25.2805 Y29.8643
G01 X25.2877 Y29.8732
G01 X25.2921 Y29.8794
G01 X25.2982 Y29.8890
G01 X25.3359 Y29.9581
G01 X25.3393 Y29.9652
G01 X25.3438 Y29.9761
G01 X25.3485 Y29.9911
G01 X25.3517 Y30.0065
G01 X25.3560 Y30.0453
G01 X25.3565 Y30.0581
G01 X25.3563 Y32.7312
G01 X25.3549 Y32.7464
G01 X25.3520 Y32.7614
G01 X25.3289 Y32.8406
G01 X25.3248 Y32.8518
G01 X25.3199 Y32.8627
G01 X25.3142 Y32.8732
G01 X25.3078 Y32.8832
G01 X25.2981 Y32.8958
G01 X25.2871 Y32.9073
G01 X25.2246 Y32.9617
G01 X25.2152 Y32.9689
G01 X25.2053 Y32.9754
G01 X25.1949 Y32.9811
G01 X25.1876 Y32.9846
G01 X25.1060 Y33.0457
G01 X25.0462 Y33.1256
G01 X25.0101 Y33.2216
G01 X25.0065 Y33.2552
G01 X25.0065 Y35.0841
G01 X25.0101 Y35.1177
G01 X25.0462 Y35.2137
G01 X25.1060 Y35.2936
G01 X25.1859 Y35.3535
G01 X25.2820 Y35.3895
G01 X25.3155 Y35.3931
G01 X26.8945 Y35.3931
G01 X26.9280 Y35.3895
G01 X27.0089 Y35.3592
G01 X27.0198 Y35.3559
G01 X27.0309 Y35.3533
G01 X27.0384 Y35.3520
G01 X27.0498 Y35.3508
G01 X27.1206 Y35.3456
G01 X27.1321 Y35.3452
G01 X27.1435 Y35.3455
G01 X27.1550 Y35.3468
G01 X27.1662 Y35.3488
G01 X27.1737 Y35.3506
G01 X27.2024 Y35.3592
G01 X27.2821 Y35.3890
G01 X27.3156 Y35.3926
G01 X27.6450 Y35.3926
G01 X27.6450 Y35.2046
G01 X27.3511 Y35.2046
G01 X27.3393 Y35.2039
G01 X27.3238 Y35.2016
G01 X27.3123 Y35.1988
G01 X27.3011 Y35.1953
G01 X27.2902 Y35.1909
G01 X27.2796 Y35.1857
G01 X27.2694 Y35.1798
G01 X27.2597 Y35.1732
G01 X27.2505 Y35.1658
G01 X27.2419 Y35.1578
G01 X27.2313 Y35.1461
G01 X27.2242 Y35.1368
G01 X27.2178 Y35.1269
G01 X27.2121 Y35.1166
G01 X27.2057 Y35.1022
G01 X27.2019 Y35.0911
G01 X27.1989 Y35.0797
G01 X27.1967 Y35.0681
G01 X27.1954 Y35.0564
G01 X27.1950 Y35.0446
G01 X27.1950 Y33.2946
G01 X27.1952 Y33.2868
G01 X27.1962 Y33.2751
G01 X27.1989 Y33.2596
G01 X27.2019 Y33.2482
G01 X27.2057 Y33.2371
G01 X27.2104 Y33.2262
G01 X27.2139 Y33.2192
G01 X27.2198 Y33.2090
G01 X27.2265 Y33.1993
G01 X27.2313 Y33.1931
G01 X27.2391 Y33.1843
G01 X27.2447 Y33.1788
G01 X27.2535 Y33.1710
G01 X27.2629 Y33.1638
G01 X27.2727 Y33.1574
G01 X27.2796 Y33.1535
G01 X27.2902 Y33.1484
G01 X27.3011 Y33.1440
G01 X27.3123 Y33.1404
G01 X27.3199 Y33.1385
G01 X27.3315 Y33.1364
G01 X27.3393 Y33.1354
G01 X27.3511 Y33.1347
G01 X27.6450 Y33.1346
G01 X27.6450 Y32.9466
G01 X27.3156 Y32.9466
G01 X27.2821 Y32.9503
G01 X27.2327 Y32.9686
G01 X27.2180 Y32.9726
G01 X27.2030 Y32.9751
G01 X27.1246 Y32.9810
G01 X27.1127 Y32.9815
G01 X27.1048 Y32.9813
G01 X27.0929 Y32.9802
G01 X27.0811 Y32.9783
G01 X27.0734 Y32.9765
G01 X27.0582 Y32.9718
G01 X27.0436 Y32.9656
G01 X26.9706 Y32.9262
G01 X26.9605 Y32.9198
G01 X26.9510 Y32.9128
G01 X26.9419 Y32.9050
G01 X26.9335 Y32.8966
G01 X26.9232 Y32.8844
G01 X26.9142 Y32.8713
G01 X26.8743 Y32.7987
G01 X26.8677 Y32.7844
G01 X26.8638 Y32.7733
G01 X26.8607 Y32.7619
G01 X26.8578 Y32.7464
G01 X26.8540 Y32.7112
G01 X26.8535 Y32.6983
G01 X26.8535 Y29.7111
G01 X26.8540 Y29.6985
G01 X26.8566 Y29.6692
G01 X26.8539 Y29.6175
G01 X26.8535 Y29.5904
G01 X26.8511 Y29.5634
G01 X26.8483 Y29.5117
G01 X26.8427 Y29.4829
G01 X26.8412 Y29.4733
G01 X26.8221 Y29.4138
G01 X26.8076 Y29.3597
G01 X26.8036 Y29.3510
G01 X26.7926 Y29.3237
G01 X26.7616 Y29.2694
G01 X26.7361 Y29.2196
G01 X26.7304 Y29.2118
G01 X26.7140 Y29.1874
G01 X26.6794 Y29.1489
G01 X26.6620 Y29.1281
G01 X26.6431 Y29.1087
G01 X26.6085 Y29.0702
G01 X26.5859 Y29.0513
G01 X26.5767 Y29.0428
G01 X22.5968 Y25.0629
G01 X22.5883 Y25.0537
G01 X22.5694 Y25.0312
G01 X22.5310 Y24.9965
G01 X22.5115 Y24.9776
G01 X22.4907 Y24.9603
G01 X22.4522 Y24.9256
G01 X22.4278 Y24.9092
G01 X22.4201 Y24.9035
G01 X22.3702 Y24.8781
G01 X22.3160 Y24.8470
G01 X22.2887 Y24.8360
G01 X22.2799 Y24.8321
G01 X22.2259 Y24.8175
G01 X22.1663 Y24.7984
G01 X22.1568 Y24.7969
G01 X22.1279 Y24.7913
G01 X22.0762 Y24.7886
G01 X22.0492 Y24.7861
G01 X22.0221 Y24.7857
G01 X21.9704 Y24.7830
G01 X21.9411 Y24.7856
G01 X21.9286 Y24.7861
G01 X18.2660 Y24.7861
G01 X18.2584 Y24.7860
G01 X18.2470 Y24.7850
G01 X18.2357 Y24.7832
G01 X18.2282 Y24.7816
G01 X18.1528 Y24.7597
G01 X18.1418 Y24.7560
G01 X18.1312 Y24.7516
G01 X18.1176 Y24.7445
G01 X18.1078 Y24.7384
G01 X18.0985 Y24.7316
G01 X18.0649 Y24.7025
G01 X18.0537 Y24.6917
G01 X17.9565 Y24.5782
G01 X17.7951 Y24.4403
G01 X17.6141 Y24.3294
G01 X17.4180 Y24.2482
G01 X17.2116 Y24.1986
G01 X17.0000 Y24.1820
G01 X16.8550 Y24.1933
G01 X16.8435 Y24.1936
G01 X16.8321 Y24.1930
G01 X16.8208 Y24.1915
G01 X16.8133 Y24.1902
G01 X16.7364 Y24.1738
G01 X16.7253 Y24.1705
G01 X16.7146 Y24.1664
G01 X16.7041 Y24.1616
G01 X16.6941 Y24.1560
G01 X16.6844 Y24.1497
G01 X16.6518 Y24.1255
G01 X16.6427 Y24.1182
G01 X16.6369 Y24.1129
G01 X15.9492 Y23.4253
G01 X15.9406 Y23.4161
G01 X15.9218 Y23.3935
G01 X15.8833 Y23.3589
G01 X15.8639 Y23.3400
G01 X15.8430 Y23.3226
G01 X15.8046 Y23.2880
G01 X15.7802 Y23.2716
G01 X15.7724 Y23.2658
G01 X15.7225 Y23.2404
G01 X15.6683 Y23.2093
G01 X15.6410 Y23.1983
G01 X15.6322 Y23.1944
G01 X15.5782 Y23.1798
G01 X15.5186 Y23.1607
G01 X15.5091 Y23.1593
G01 X15.4802 Y23.1536
G01 X15.4286 Y23.1509
G01 X15.4015 Y23.1485
G01 X15.3744 Y23.1481
G01 X15.3227 Y23.1454
G01 X15.2935 Y23.1480
G01 X15.2809 Y23.1485
G01 X10.1345 Y23.1485
G01 X10.1231 Y23.1481
G01 X10.1080 Y23.1462
G01 X10.0931 Y23.1430
G01 X10.0213 Y23.1220
G01 X10.0063 Y23.1168
G01 X9.9919 Y23.1101
G01 X9.9816 Y23.1041
G01 X9.9749 Y23.0997
G01 X9.9624 Y23.0900
G01 X9.9536 Y23.0819
G01 X9.9481 Y23.0762
G01 X9.8990 Y23.0196
G01 X9.8915 Y23.0102
G01 X9.8847 Y23.0003
G01 X9.8806 Y22.9935
G01 X9.8768 Y22.9864
G01 X9.8718 Y22.9755
G01 X9.8677 Y22.9642
G01 X9.8644 Y22.9527
G01 X9.8507 Y22.8890
G01 X9.8489 Y22.8739
G01 X9.8485 Y22.8575
G01 X9.8449 Y22.8240
G01 X9.8088 Y22.7279
G01 X9.7490 Y22.6480
G01 X9.6691 Y22.5881
G01 X9.5730 Y22.5521
G01 X9.5395 Y22.5485
G01 X7.4605 Y22.5485
G01 X7.4270 Y22.5521
G01 X7.3309 Y22.5881
G01 X7.2510 Y22.6480
G01 X7.1912 Y22.7279
G01 X7.1551 Y22.8240
G01 X7.1515 Y22.8575
G01 X7.1515 Y24.9364
G00 Z1.0000
G00 X7.9283 Y27.6747
G01 F30.00
G01 Z-0.0800
G01 F100.00
G01 X8.0727 Y27.8191
G01 X8.1633 Y27.7869
G01 X8.2737 Y27.7593
G01 X8.3863 Y27.7425
G01 X8.5000 Y27.7370
G01 X8.6137 Y27.7425
G01 X8.7263 Y27.7593
G01 X8.8367 Y27.7869
G01 X8.9273 Y27.8191
G01 X9.0717 Y27.6747
G01 X8.9178 Y27.6110
G01 X8.7115 Y27.5614
G01 X8.5000 Y27.5448
G01 X8.2885 Y27.5614
G01 X8.0822 Y27.6110
G01 X7.9283 Y27.6747
G00 Z1.0000
G00 X7.1478 Y28.8970
G01 F30.00
G01 Z-0.0800
G01 F100.00
G01 X7.1645 Y29.1085
G01 X7.2140 Y29.3148
G01 X7.2777 Y29.4687
G01 X7.4222 Y29.3243
G01 X7.3899 Y29.2337
G01 X7.3623 Y29.1233
G01 X7.3456 Y29.0107
G01 X7.3400 Y28.8970
G01 X7.3456 Y28.7833
G01 X7.3623 Y28.6707
G01 X7.3899 Y28.5602
G01 X7.4222 Y28.4697
G01 X7.2777 Y28.3252
G01 X7.2140 Y28.4791
G01 X7.1645 Y28.6854
G01 X7.1478 Y28.8970
G00 Z1.0000
G00 X7.9283 Y30.1192
G01 F30.00
G01 Z-0.0800
G01 F100.00
G01 X8.0822 Y30.1830
G01 X8.2885 Y30.2325
G01 X8.5000 Y30.2491
G01 X8.7115 Y30.2325
G01 X8.9178 Y30.1830
G01 X9.0717 Y30.1192
G01 X8.9273 Y29.9748
G01 X8.8367 Y30.0070
G01 X8.7263 Y30.0347
G01 X8.6137 Y30.0514
G01 X8.5000 Y30.0570
G01 X8.3863 Y30.0514
G01 X8.2737 Y30.0347
G01 X8.1633 Y30.0070
G01 X8.0727 Y29.9748
G01 X7.9283 Y30.1192
G00 Z1.0000
G00 X9.5778 Y29.3243
G01 F30.00
G01 Z-0.0800
G01 F100.00
G01 X9.7223 Y29.4687
G01 X9.7860 Y29.3148
G01 X9.8355 Y29.1085
G01 X9.8522 Y28.8970
G01 X9.8355 Y28.6854
G01 X9.7860 Y28.4791
G01 X9.7223 Y28.3252
G01 X9.5778 Y28.4697
G01 X9.6101 Y28.5602
G01 X9.6377 Y28.6707
G01 X9.6544 Y28.7833
G01 X9.6600 Y28.8970
G01 X9.6544 Y29.0107
G01 X9.6377 Y29.1233
G01 X9.6101 Y29.2337
G01 X9.5778 Y29.3243
G00 Z1.0000
G00 X15.6478 Y28.0746
G01 F30.00
G01 Z-0.0800
G01 F100.00
G01 X15.6645 Y28.2862
G01 X15.7140 Y28.4925
G01 X15.7777 Y28.6464
G01 X15.9222 Y28.5019
G01 X15.8899 Y28.4114
G01 X15.8623 Y28.3009
G01 X15.8456 Y28.1883
G01 X15.8400 Y28.0746
G01 X15.8456 Y27.9609
G01 X15.8623 Y27.8483
G01 X15.8899 Y27.7379
G01 X15.9222 Y27.6473
G01 X15.7777 Y27.5029
G01 X15.7140 Y27.6568
G01 X15.6645 Y27.8631
G01 X15.6478 Y28.0746
G00 Z1.0000
G00 X16.4283 Y29.2969
G01 F30.00
G01 Z-0.0800
G01 F100.00
G01 X16.5822 Y29.3606
G01 X16.7885 Y29.4102
G01 X17.0000 Y29.4268
G01 X17.2115 Y29.4102
G01 X17.4178 Y29.3606
G01 X17.5717 Y29.2969
G01 X17.4273 Y29.1525
G01 X17.3367 Y29.1847
G01 X17.2263 Y29.2124
G01 X17.1137 Y29.2291
G01 X17.0000 Y29.2346
G01 X16.8863 Y29.2291
G01 X16.7737 Y29.2124
G01 X16.6633 Y29.1847
G01 X16.5727 Y29.1525
G01 X16.4283 Y29.2969
G00 Z1.0000
G00 X18.0778 Y27.6473
G01 F30.00
G01 Z-0.0800
G01 F100.00
G01 X18.1101 Y27.7379
G01 X18.1377 Y27.8483
G01 X18.1544 Y27.9609
G01 X18.1600 Y28.0746
G01 X18.1544 Y28.1883
G01 X18.1377 Y28.3009
G01 X18.1101 Y28.4114
G01 X18.0778 Y28.5019
G01 X18.2223 Y28.6464
G01 X18.2860 Y28.4925
G01 X18.3355 Y28.2862
G01 X18.3522 Y28.0746
G01 X18.3355 Y27.8631
G01 X18.2860 Y27.6568
G01 X18.2223 Y27.5029
G01 X18.0778 Y27.6473
G00 Z1.0000
G00 X17.4088 Y26.7890
G01 F30.00
G01 Z-0.0800
G01 F100.00
G01 X17.3832 Y26.7978
G01 X17.3575 Y26.8046
G01 X17.3756 Y26.8093
G01 X17.3856 Y26.8122
G01 X17.4088 Y26.7890
G00 Z1.0000
G00 X16.6425 Y26.8046
G01 F30.00
G01 Z-0.0800
G01 F100.00
G01 X16.6168 Y26.7978
G01 X16.5915 Y26.7892
G01 X16.6146 Y26.8122
G01 X16.6425 Y26.8046
G00 Z1.0000
G00 X28.5650 Y32.9466
G01 F30.00
G01 Z-0.0800
G01 F100.00
G01 X28.5650 Y33.1346
G01 X28.8550 Y33.1346
G01 X28.8668 Y33.1351
G01 X28.8785 Y33.1364
G01 X28.8901 Y33.1385
G01 X28.9052 Y33.1427
G01 X28.9198 Y33.1484
G01 X28.9339 Y33.1554
G01 X28.9471 Y33.1638
G01 X28.9595 Y33.1735
G01 X28.9709 Y33.1843
G01 X28.9787 Y33.1931
G01 X28.9858 Y33.2025
G01 X28.9922 Y33.2124
G01 X28.9979 Y33.2227
G01 X29.0028 Y33.2334
G01 X29.0069 Y33.2445
G01 X29.0102 Y33.2558
G01 X29.0133 Y33.2712
G01 X29.0146 Y33.2829
G01 X29.0150 Y33.2946
G01 X29.0150 Y33.7096
G01 X29.2030 Y33.7096
G01 X29.2030 Y33.2552
G01 X29.1994 Y33.2217
G01 X29.1634 Y33.1258
G01 X29.1036 Y33.0460
G01 X29.0238 Y32.9862
G01 X28.9279 Y32.9503
G01 X28.8944 Y32.9466
G01 X28.5650 Y32.9466
G00 Z1.0000
G00 X28.5650 Y35.3926
G01 F30.00
G01 Z-0.0800
G01 F100.00
G01 X28.8944 Y35.3926
G01 X28.9279 Y35.3890
G01 X29.0238 Y35.3530
G01 X29.1036 Y35.2933
G01 X29.1634 Y35.2135
G01 X29.1994 Y35.1175
G01 X29.2030 Y35.0841
G01 X29.2030 Y34.6296
G01 X29.0150 Y34.6296
G01 X29.0150 Y35.0446
G01 X29.0146 Y35.0564
G01 X29.0133 Y35.0681
G01 X29.0111 Y35.0797
G01 X29.0069 Y35.0948
G01 X29.0028 Y35.1059
G01 X28.9979 Y35.1166
G01 X28.9922 Y35.1269
G01 X28.9858 Y35.1368
G01 X28.9787 Y35.1461
G01 X28.9681 Y35.1578
G01 X28.9595 Y35.1658
G01 X28.9471 Y35.1755
G01 X28.9339 Y35.1839
G01 X28.9234 Y35.1893
G01 X28.9089 Y35.1953
G01 X28.8939 Y35.1998
G01 X28.8785 Y35.2029
G01 X28.8668 Y35.2042
G01 X28.8550 Y35.2046
G01 X28.5650 Y35.2046
G01 X28.5650 Y35.3926
G00 Z1.0000
G00 X34.6473 Y28.0746
G01 F30.00
G01 Z-0.0800
G01 F100.00
G01 X34.6640 Y28.2862
G01 X34.7135 Y28.4926
G01 X34.7948 Y28.6887
G01 X34.9057 Y28.8697
G01 X34.9767 Y28.9529
G01 X35.0435 Y29.0311
G01 X35.2049 Y29.1690
G01 X35.3859 Y29.2799
G01 X35.5820 Y29.3611
G01 X35.7884 Y29.4107
G01 X36.0000 Y29.4273
G01 X36.2116 Y29.4107
G01 X36.4180 Y29.3611
G01 X36.6141 Y29.2799
G01 X36.7951 Y29.1690
G01 X36.9565 Y29.0311
G01 X37.0510 Y28.9205
G01 X37.0617 Y28.9097
G01 X37.0734 Y28.8999
G01 X37.0827 Y28.8933
G01 X37.1454 Y28.8525
G01 X37.1554 Y28.8468
G01 X37.1658 Y28.8418
G01 X37.1801 Y28.8363
G01 X37.1875 Y28.8341
G01 X37.1987 Y28.8315
G01 X37.2426 Y28.8249
G01 X37.2543 Y28.8236
G01 X37.2660 Y28.8231
G01 X43.2698 Y28.8231
G01 X43.2812 Y28.8235
G01 X43.2888 Y28.8243
G01 X43.3001 Y28.8260
G01 X43.3075 Y28.8277
G01 X43.3830 Y28.8496
G01 X43.3943 Y28.8534
G01 X43.4053 Y28.8580
G01 X43.4159 Y28.8634
G01 X43.4261 Y28.8696
G01 X43.4358 Y28.8766
G01 X43.4449 Y28.8842
G01 X43.4562 Y28.8954
G01 X43.5104 Y28.9582
G01 X43.5175 Y28.9679
G01 X43.5257 Y28.9816
G01 X43.5309 Y28.9924
G01 X43.5353 Y29.0036
G01 X43.5389 Y29.0150
G01 X43.5423 Y29.0307
G01 X43.5536 Y29.0994
G01 X43.5550 Y29.1148
G01 X43.5551 Y29.1263
G01 X43.5544 Y29.1378
G01 X43.5424 Y29.2564
G01 X43.5542 Y29.5011
G01 X43.6020 Y29.7414
G01 X43.6848 Y29.9720
G01 X43.8008 Y30.1879
G01 X43.9474 Y30.3842
G01 X44.1214 Y30.5567
G01 X44.3190 Y30.7016
G01 X44.5358 Y30.8157
G01 X44.7671 Y30.8964
G01 X45.0079 Y30.9421
G01 X45.2527 Y30.9518
G01 X45.4963 Y30.9251
G01 X45.7332 Y30.8627
G01 X45.9583 Y30.7660
G01 X46.1667 Y30.6371
G01 X46.3537 Y30.4787
G01 X46.5152 Y30.2945
G01 X46.6478 Y30.0884
G01 X46.7484 Y29.8650
G01 X46.8149 Y29.6292
G01 X46.8464 Y29.3823
G01 X46.8484 Y29.3035
G01 X46.8300 Y29.0553
G01 X46.7759 Y28.8163
G01 X46.6871 Y28.5879
G01 X46.5655 Y28.3752
G01 X46.4138 Y28.1828
G01 X46.2353 Y28.0149
G01 X46.0340 Y27.8753
G01 X45.8143 Y27.7669
G01 X45.5809 Y27.6922
G01 X45.3391 Y27.6528
G01 X45.0941 Y27.6496
G01 X44.8513 Y27.6826
G01 X44.8402 Y27.6857
G01 X44.8327 Y27.6873
G01 X44.8177 Y27.6894
G01 X44.8025 Y27.6901
G01 X44.7276 Y27.6899
G01 X44.7159 Y27.6892
G01 X44.7082 Y27.6882
G01 X44.6930 Y27.6852
G01 X44.6855 Y27.6831
G01 X44.6744 Y27.6794
G01 X44.6673 Y27.6764
G01 X44.6568 Y27.6713
G01 X44.5966 Y27.6358
G01 X44.5866 Y27.6293
G01 X44.5771 Y27.6221
G01 X44.5711 Y27.6169
G01 X44.5568 Y27.6029
G01 X44.5483 Y27.5937
G01 X44.5294 Y27.5712
G01 X44.4910 Y27.5365
G01 X44.4715 Y27.5176
G01 X44.4507 Y27.5003
G01 X44.4122 Y27.4656
G01 X44.3878 Y27.4492
G01 X44.3801 Y27.4435
G01 X44.3302 Y27.4181
G01 X44.2760 Y27.3870
G01 X44.2487 Y27.3760
G01 X44.2399 Y27.3721
G01 X44.1859 Y27.3575
G01 X44.1263 Y27.3384
G01 X44.1168 Y27.3369
G01 X44.0879 Y27.3313
G01 X44.0362 Y27.3286
G01 X44.0092 Y27.3261
G01 X43.9821 Y27.3257
G01 X43.9304 Y27.3230
G01 X43.9011 Y27.3256
G01 X43.8886 Y27.3261
G01 X37.2660 Y27.3261
G01 X37.2545 Y27.3257
G01 X37.2470 Y27.3250
G01 X37.2357 Y27.3232
G01 X37.2246 Y27.3207
G01 X37.1455 Y27.2973
G01 X37.1347 Y27.2932
G01 X37.1243 Y27.2882
G01 X37.1143 Y27.2826
G01 X37.1016 Y27.2739
G01 X37.0926 Y27.2667
G01 X37.0649 Y27.2425
G01 X37.0537 Y27.2317
G01 X36.9565 Y27.1182
G01 X36.8440 Y27.0221
G01 X36.8356 Y27.0144
G01 X36.8278 Y27.0061
G01 X36.8229 Y27.0003
G01 X36.8161 Y26.9911
G01 X36.7730 Y26.9251
G01 X36.7671 Y26.9147
G01 X36.7637 Y26.9076
G01 X36.7605 Y26.9003
G01 X36.7565 Y26.8891
G01 X36.7543 Y26.8814
G01 X36.7517 Y26.8698
G01 X36.7500 Y26.8580
G01 X36.7494 Y26.8501
G01 X36.7486 Y26.7711
G01 X36.7488 Y26.7634
G01 X36.7497 Y26.7519
G01 X36.7521 Y26.7367
G01 X36.7561 Y26.7218
G01 X36.7599 Y26.7109
G01 X36.7663 Y26.6969
G01 X36.7740 Y26.6835
G01 X36.8133 Y26.6223
G01 X36.8200 Y26.6127
G01 X36.8249 Y26.6066
G01 X36.8327 Y26.5979
G01 X36.8411 Y26.5897
G01 X36.9565 Y26.4911
G01 X37.0485 Y26.3834
G01 X37.0536 Y26.3777
G01 X37.0617 Y26.3697
G01 X37.0704 Y26.3622
G01 X37.0827 Y26.3533
G01 X37.1454 Y26.3125
G01 X37.1520 Y26.3086
G01 X37.1623 Y26.3034
G01 X37.1693 Y26.3003
G01 X37.1801 Y26.2963
G01 X37.1949 Y26.2923
G01 X37.2063 Y26.2902
G01 X37.2504 Y26.2839
G01 X37.2660 Y26.2831
G01 X43.7986 Y26.2831
G01 X43.8111 Y26.2836
G01 X43.8404 Y26.2862
G01 X43.8921 Y26.2835
G01 X43.9192 Y26.2831
G01 X43.9462 Y26.2807
G01 X43.9979 Y26.2780
G01 X44.0268 Y26.2723
G01 X44.0363 Y26.2709
G01 X44.0959 Y26.2518
G01 X44.1499 Y26.2372
G01 X44.1587 Y26.2333
G01 X44.1860 Y26.2223
G01 X44.2402 Y26.1912
G01 X44.2901 Y26.1658
G01 X44.2978 Y26.1601
G01 X44.3222 Y26.1436
G01 X44.3607 Y26.1090
G01 X44.3815 Y26.0916
G01 X44.4010 Y26.0728
G01 X44.4394 Y26.0381
G01 X44.4583 Y26.0156
G01 X44.4668 Y26.0063
G01 X44.5240 Y25.9492
G01 X44.5296 Y25.9441
G01 X44.5385 Y25.9370
G01 X44.5447 Y25.9325
G01 X44.5544 Y25.9265
G01 X44.6270 Y25.8870
G01 X44.6378 Y25.8823
G01 X44.6489 Y25.8783
G01 X44.6603 Y25.8752
G01 X44.6718 Y25.8730
G01 X44.7107 Y25.8687
G01 X44.7235 Y25.8681
G01 X46.5345 Y25.8681
G01 X46.5680 Y25.8645
G01 X46.6641 Y25.8285
G01 X46.7440 Y25.7686
G01 X46.8038 Y25.6887
G01 X46.8399 Y25.5927
G01 X46.8435 Y25.5591
G01 X46.8435 Y22.8802
G01 X46.8399 Y22.8466
G01 X46.8038 Y22.7506
G01 X46.7440 Y22.6707
G01 X46.6641 Y22.6108
G01 X46.5680 Y22.5748
G01 X46.5345 Y22.5711
G01 X43.8555 Y22.5711
G01 X43.8220 Y22.5748
G01 X43.7259 Y22.6108
G01 X43.6460 Y22.6707
G01 X43.5862 Y22.7506
G01 X43.5501 Y22.8466
G01 X43.5465 Y22.8802
G01 X43.5465 Y24.5001
G01 X43.5458 Y24.5153
G01 X43.5436 Y24.5304
G01 X43.5400 Y24.5452
G01 X43.5200 Y24.6133
G01 X43.5162 Y24.6246
G01 X43.5133 Y24.6320
G01 X43.5062 Y24.6462
G01 X43.4978 Y24.6597
G01 X43.4881 Y24.6723
G01 X43.4771 Y24.6838
G01 X43.4146 Y24.7383
G01 X43.4017 Y24.7478
G01 X43.3880 Y24.7560
G01 X43.3735 Y24.7628
G01 X43.3623 Y24.7669
G01 X43.3546 Y24.7692
G01 X43.2945 Y24.7825
G01 X43.2833 Y24.7845
G01 X43.2719 Y24.7857
G01 X43.2605 Y24.7861
G01 X37.2584 Y24.7860
G01 X37.2432 Y24.7845
G01 X37.2282 Y24.7816
G01 X37.1491 Y24.7585
G01 X37.1383 Y24.7546
G01 X37.1243 Y24.7482
G01 X37.1110 Y24.7405
G01 X37.1016 Y24.7339
G01 X37.0926 Y24.7267
G01 X37.0649 Y24.7025
G01 X37.0537 Y24.6917
G01 X36.9565 Y24.5782
G01 X36.7951 Y24.4403
G01 X36.6141 Y24.3294
G01 X36.4180 Y24.2482
G01 X36.2116 Y24.1986
G01 X36.0000 Y24.1820
G01 X35.7884 Y24.1986
G01 X35.5820 Y24.2482
G01 X35.3859 Y24.3294
G01 X35.2049 Y24.4403
G01 X35.0435 Y24.5782
G01 X34.9057 Y24.7396
G01 X34.7948 Y24.9205
G01 X34.7573 Y25.0110
G01 X34.7135 Y25.1166
G01 X34.6640 Y25.3230
G01 X34.6473 Y25.5346
G01 X34.6640 Y25.7462
G01 X34.7135 Y25.9526
G01 X34.7948 Y26.1487
G01 X34.9057 Y26.3297
G01 X35.0435 Y26.4911
G01 X35.1560 Y26.5872
G01 X35.1616 Y26.5922
G01 X35.1697 Y26.6004
G01 X35.1771 Y26.6090
G01 X35.1839 Y26.6182
G01 X35.2270 Y26.6842
G01 X35.2346 Y26.6981
G01 X35.2409 Y26.7127
G01 X35.2457 Y26.7278
G01 X35.2489 Y26.7434
G01 X35.2500 Y26.7513
G01 X35.2508 Y26.7632
G01 X35.2513 Y26.8420
G01 X35.2503 Y26.8574
G01 X35.2479 Y26.8726
G01 X35.2439 Y26.8875
G01 X35.2401 Y26.8984
G01 X35.2370 Y26.9055
G01 X35.2319 Y26.9158
G01 X35.2260 Y26.9258
G01 X35.1867 Y26.9870
G01 X35.1800 Y26.9966
G01 X35.1700 Y27.0086
G01 X35.1589 Y27.0195
G01 X35.0435 Y27.1182
G01 X34.9057 Y27.2796
G01 X34.7948 Y27.4605
G01 X34.7135 Y27.6566
G01 X34.6640 Y27.8630
G01 X34.6473 Y28.0746
G00 Z1.0000
G00 X35.4062 Y26.8966
G01 F30.00
G01 Z-0.0800
G01 F100.00
G01 X35.4805 Y26.8615
G01 X35.5022 Y26.8522
G01 X35.6093 Y26.8139
G01 X35.6244 Y26.8093
G01 X35.6425 Y26.8046
G01 X35.6244 Y26.8000
G01 X35.6093 Y26.7954
G01 X35.5022 Y26.7571
G01 X35.4805 Y26.7478
G01 X35.4060 Y26.7125
G01 X35.4091 Y26.7343
G01 X35.4107 Y26.7581
G01 X35.4114 Y26.8370
G01 X35.4111 Y26.8524
G01 X35.4101 Y26.8678
G01 X35.4084 Y26.8831
G01 X35.4062 Y26.8966
G00 Z1.0000
G00 X36.5938 Y26.7126
G01 F30.00
G01 Z-0.0800
G01 F100.00
G01 X36.5195 Y26.7478
G01 X36.4978 Y26.7571
G01 X36.3907 Y26.7954
G01 X36.3756 Y26.8000
G01 X36.3575 Y26.8046
G01 X36.3756 Y26.8093
G01 X36.3907 Y26.8139
G01 X36.4978 Y26.8522
G01 X36.5195 Y26.8615
G01 X36.5940 Y26.8967
G01 X36.5909 Y26.8750
G01 X36.5893 Y26.8512
G01 X36.5886 Y26.7723
G01 X36.5889 Y26.7569
G01 X36.5899 Y26.7415
G01 X36.5916 Y26.7262
G01 X36.5938 Y26.7126
G00 Z1.0000
G00 X37.0152 Y26.0948
G01 F30.00
G01 Z-0.0800
G01 F100.00
G01 X36.9645 Y26.1791
G01 X36.8967 Y26.2705
G01 X36.8202 Y26.3549
G01 X36.7359 Y26.4313
G01 X36.6445 Y26.4991
G01 X36.5468 Y26.5577
G01 X36.4439 Y26.6063
G01 X36.3367 Y26.6447
G01 X36.2263 Y26.6724
G01 X36.1137 Y26.6891
G01 X36.0000 Y26.6946
G01 X35.8863 Y26.6891
G01 X35.7737 Y26.6724
G01 X35.6633 Y26.6447
G01 X35.5561 Y26.6063
G01 X35.4532 Y26.5577
G01 X35.3555 Y26.4991
G01 X35.2641 Y26.4313
G01 X35.1798 Y26.3549
G01 X35.1033 Y26.2705
G01 X35.0355 Y26.1791
G01 X34.9770 Y26.0815
G01 X34.9283 Y25.9786
G01 X34.8899 Y25.8714
G01 X34.8623 Y25.7609
G01 X34.8456 Y25.6483
G01 X34.8400 Y25.5346
G01 X34.8456 Y25.4209
G01 X34.8623 Y25.3083
G01 X34.8899 Y25.1979
G01 X34.9283 Y25.0907
G01 X34.9770 Y24.9878
G01 X35.0313 Y24.8968
G01 X35.0400 Y24.8838
G01 X35.1033 Y24.7987
G01 X35.1743 Y24.7201
G01 X35.1854 Y24.7090
G01 X35.2641 Y24.6379
G01 X35.3491 Y24.5747
G01 X35.3622 Y24.5659
G01 X35.4532 Y24.5116
G01 X35.5489 Y24.4661
G01 X35.5634 Y24.4601
G01 X35.6633 Y24.4246
G01 X35.7737 Y24.3969
G01 X35.8785 Y24.3812
G01 X35.8941 Y24.3796
G01 X36.0000 Y24.3746
G01 X36.1059 Y24.3796
G01 X36.1215 Y24.3812
G01 X36.2263 Y24.3969
G01 X36.3292 Y24.4225
G01 X36.3442 Y24.4271
G01 X36.4439 Y24.4629
G01 X36.5398 Y24.5081
G01 X36.5537 Y24.5155
G01 X36.6445 Y24.5701
G01 X36.7297 Y24.6331
G01 X36.7418 Y24.6431
G01 X36.8202 Y24.7144
G01 X36.8916 Y24.7928
G01 X36.9015 Y24.8049
G01 X36.9645 Y24.8902
G01 X37.0152 Y24.9744
G01 X43.6480 Y24.9744
G01 X43.7350 Y24.8874
G01 X43.7350 Y22.9157
G01 X43.7358 Y22.9040
G01 X43.7367 Y22.8962
G01 X43.7381 Y22.8884
G01 X43.7408 Y22.8770
G01 X43.7457 Y22.8621
G01 X43.7504 Y22.8512
G01 X43.7539 Y22.8442
G01 X43.7578 Y22.8374
G01 X43.7642 Y22.8275
G01 X43.7738 Y22.8151
G01 X43.7791 Y22.8093
G01 X43.7876 Y22.8011
G01 X43.7935 Y22.7960
G01 X43.8029 Y22.7888
G01 X43.8161 Y22.7804
G01 X43.8266 Y22.7750
G01 X43.8374 Y22.7704
G01 X43.8486 Y22.7665
G01 X43.8599 Y22.7635
G01 X43.8715 Y22.7614
G01 X43.8832 Y22.7601
G01 X43.8950 Y22.7596
G01 X46.4989 Y22.7597
G01 X46.5107 Y22.7604
G01 X46.5262 Y22.7627
G01 X46.5377 Y22.7654
G01 X46.5489 Y22.7690
G01 X46.5598 Y22.7734
G01 X46.5704 Y22.7785
G01 X46.5806 Y22.7845
G01 X46.5903 Y22.7911
G01 X46.5995 Y22.7985
G01 X46.6081 Y22.8065
G01 X46.6187 Y22.8181
G01 X46.6258 Y22.8275
G01 X46.6322 Y22.8374
G01 X46.6379 Y22.8477
G01 X46.6428 Y22.8584
G01 X46.6469 Y22.8695
G01 X46.6502 Y22.8808
G01 X46.6526 Y22.8923
G01 X46.6546 Y22.9079
G01 X46.6550 Y22.9196
G01 X46.6550 Y25.5236
G01 X46.6542 Y25.5353
G01 X46.6526 Y25.5470
G01 X46.6492 Y25.5623
G01 X46.6456 Y25.5735
G01 X46.6413 Y25.5845
G01 X46.6361 Y25.5951
G01 X46.6302 Y25.6052
G01 X46.6235 Y25.6150
G01 X46.6162 Y25.6241
G01 X46.6081 Y25.6328
G01 X46.5995 Y25.6408
G01 X46.5903 Y25.6482
G01 X46.5806 Y25.6548
G01 X46.5669 Y25.6626
G01 X46.5562 Y25.6675
G01 X46.5452 Y25.6716
G01 X46.5339 Y25.6748
G01 X46.5185 Y25.6779
G01 X46.5068 Y25.6792
G01 X46.4950 Y25.6796
G01 X44.5272 Y25.6796
G01 X44.2733 Y25.9335
G01 X44.2354 Y25.9677
G01 X44.1977 Y25.9959
G01 X44.1879 Y26.0026
G01 X44.1441 Y26.0287
G01 X44.1016 Y26.0490
G01 X44.0871 Y26.0550
G01 X44.0426 Y26.0707
G01 X43.9970 Y26.0824
G01 X43.9816 Y26.0854
G01 X43.9349 Y26.0921
G01 X43.8879 Y26.0946
G01 X37.0152 Y26.0948
G00 Z1.0000
G00 X37.0152 Y28.6348
G01 F30.00
G01 Z-0.0800
G01 F100.00
G01 X36.9645 Y28.7191
G01 X36.8967 Y28.8105
G01 X36.8202 Y28.8949
G01 X36.7359 Y28.9713
G01 X36.6445 Y29.0391
G01 X36.5468 Y29.0977
G01 X36.4439 Y29.1463
G01 X36.3367 Y29.1847
G01 X36.2263 Y29.2124
G01 X36.1137 Y29.2291
G01 X36.0000 Y29.2346
G01 X35.8863 Y29.2291
G01 X35.7737 Y29.2124
G01 X35.6633 Y29.1847
G01 X35.5561 Y29.1463
G01 X35.4532 Y29.0977
G01 X35.3555 Y29.0391
G01 X35.2641 Y28.9713
G01 X35.1798 Y28.8949
G01 X35.1033 Y28.8105
G01 X35.0355 Y28.7191
G01 X34.9770 Y28.6215
G01 X34.9283 Y28.5186
G01 X34.8899 Y28.4114
G01 X34.8623 Y28.3009
G01 X34.8456 Y28.1883
G01 X34.8400 Y28.0746
G01 X34.8456 Y27.9609
G01 X34.8623 Y27.8483
G01 X34.8899 Y27.7379
G01 X34.9283 Y27.6307
G01 X34.9770 Y27.5278
G01 X35.0313 Y27.4368
G01 X35.0400 Y27.4238
G01 X35.1033 Y27.3387
G01 X35.1743 Y27.2601
G01 X35.1854 Y27.2490
G01 X35.2641 Y27.1779
G01 X35.3491 Y27.1147
G01 X35.3622 Y27.1059
G01 X35.4532 Y27.0516
G01 X35.5489 Y27.0061
G01 X35.5634 Y27.0001
G01 X35.6633 Y26.9646
G01 X35.7737 Y26.9369
G01 X35.8785 Y26.9212
G01 X35.8941 Y26.9196
G01 X36.0000 Y26.9146
G01 X36.1059 Y26.9196
G01 X36.1215 Y26.9212
G01 X36.2263 Y26.9369
G01 X36.3292 Y26.9625
G01 X36.3442 Y26.9671
G01 X36.4439 Y27.0029
G01 X36.5398 Y27.0481
G01 X36.5537 Y27.0555
G01 X36.6445 Y27.1101
G01 X36.7297 Y27.1731
G01 X36.7418 Y27.1831
G01 X36.8202 Y27.2544
G01 X36.8916 Y27.3328
G01 X36.9015 Y27.3449
G01 X36.9645 Y27.4302
G01 X37.0152 Y27.5144
G01 X43.9700 Y27.5144
G01 X44.0249 Y27.5171
G01 X44.0754 Y27.5245
G01 X44.0870 Y27.5269
G01 X44.1326 Y27.5386
G01 X44.1771 Y27.5543
G01 X44.1916 Y27.5603
G01 X44.2341 Y27.5806
G01 X44.2746 Y27.6046
G01 X44.2845 Y27.6111
G01 X44.3192 Y27.6368
G01 X44.3313 Y27.6467
G01 X44.3661 Y27.6785
G01 X44.6378 Y27.9502
G01 X44.7637 Y27.9050
G01 X44.7788 Y27.9004
G01 X44.9102 Y27.8677
G01 X45.0441 Y27.8476
G01 X45.0597 Y27.8461
G01 X45.1950 Y27.8396
G01 X45.3303 Y27.8461
G01 X45.3459 Y27.8476
G01 X45.4798 Y27.8677
G01 X45.6112 Y27.9004
G01 X45.6263 Y27.9050
G01 X45.7537 Y27.9508
G01 X45.8762 Y28.0085
G01 X45.8901 Y28.0159
G01 X46.0061 Y28.0857
G01 X46.1150 Y28.1662
G01 X46.1272 Y28.1762
G01 X46.2274 Y28.2673
G01 X46.3185 Y28.3675
G01 X46.3284 Y28.3796
G01 X46.4089 Y28.4885
G01 X46.4787 Y28.6046
G01 X46.4861 Y28.6184
G01 X46.5439 Y28.7409
G01 X46.5921 Y28.8758
G01 X46.6252 Y29.0071
G01 X46.6283 Y29.0225
G01 X46.6480 Y29.1565
G01 X46.6548 Y29.2918
G01 X46.6548 Y29.3075
G01 X46.6483 Y29.4388
G01 X46.6470 Y29.4505
G01 X46.6269 Y29.5845
G01 X46.5921 Y29.7235
G01 X46.5439 Y29.8584
G01 X46.4826 Y29.9879
G01 X46.4089 Y30.1108
G01 X46.3236 Y30.2259
G01 X46.2274 Y30.3320
G01 X46.1212 Y30.4282
G01 X46.0061 Y30.5136
G01 X45.8832 Y30.5872
G01 X45.7537 Y30.6485
G01 X45.6188 Y30.6968
G01 X45.4798 Y30.7316
G01 X45.3381 Y30.7526
G01 X45.1950 Y30.7596
G01 X45.0558 Y30.7529
G01 X45.0441 Y30.7516
G01 X44.9102 Y30.7316
G01 X44.7788 Y30.6989
G01 X44.7637 Y30.6943
G01 X44.6436 Y30.6513
G01 X44.6291 Y30.6453
G01 X44.5068 Y30.5872
G01 X44.3905 Y30.5178
G01 X44.3774 Y30.5091
G01 X44.2688 Y30.4282
G01 X44.1626 Y30.3320
G01 X44.0664 Y30.2259
G01 X43.9856 Y30.1172
G01 X43.9789 Y30.1075
G01 X43.9074 Y29.9879
G01 X43.8461 Y29.8584
G01 X43.7979 Y29.7235
G01 X43.7648 Y29.5921
G01 X43.7623 Y29.5806
G01 X43.7420 Y29.4427
G01 X43.7352 Y29.3075
G01 X43.7352 Y29.2918
G01 X43.7420 Y29.1565
G01 X43.7617 Y29.0225
G01 X43.7648 Y29.0071
G01 X43.7979 Y28.8758
G01 X43.8455 Y28.7424
G01 X43.7380 Y28.6348
G01 X37.0152 Y28.6348
G00 Z1.0000
G00 X43.6367 Y28.8599
G01 F30.00
G01 Z-0.0800
G01 F100.00
G01 X43.6448 Y28.8294
G01 X43.6567 Y28.7948
G01 X43.5809 Y28.7948
G01 X43.6263 Y28.8472
G01 X43.6367 Y28.8599
G00 Z1.0000
G00 X43.5710 Y24.8144
G01 F30.00
G01 Z-0.0800
G01 F100.00
G01 X43.5750 Y24.8144
G01 X43.5750 Y24.8110
G01 X43.5710 Y24.8144
G00 Z1.0000
G00 X46.5723 Y35.4202
G01 F30.00
G01 Z-0.0800
G01 F100.00
G01 X46.5868 Y35.6719
G01 X46.6353 Y35.9192
G01 X46.7170 Y36.1576
G01 X46.8302 Y36.3828
G01 X46.9730 Y36.5905
G01 X47.1426 Y36.7769
G01 X47.3359 Y36.9386
G01 X47.5494 Y37.0725
G01 X47.7792 Y37.1763
G01 X48.0208 Y37.2478
G01 X48.2700 Y37.2860
G01 X48.5220 Y37.2899
G01 X48.7722 Y37.2596
G01 X49.0160 Y37.1957
G01 X49.2488 Y37.0992
G01 X49.4664 Y36.9721
G01 X49.6648 Y36.8166
G01 X49.8402 Y36.6356
G01 X49.9894 Y36.4324
G01 X50.1097 Y36.2109
G01 X50.1987 Y35.9752
G01 X50.2550 Y35.7295
G01 X50.2778 Y35.4738
G01 X50.2781 Y35.4442
G01 X50.2607 Y35.1882
G01 X50.2096 Y34.9414
G01 X50.1254 Y34.7038
G01 X50.0098 Y34.4798
G01 X49.8649 Y34.2736
G01 X49.6933 Y34.0890
G01 X49.4983 Y33.9294
G01 X49.2834 Y33.7977
G01 X49.0526 Y33.6964
G01 X48.8102 Y33.6273
G01 X48.5607 Y33.5918
G01 X48.3087 Y33.5905
G01 X48.0588 Y33.6234
G01 X47.8157 Y33.6899
G01 X47.5838 Y33.7888
G01 X47.3676 Y33.9182
G01 X47.1709 Y34.0758
G01 X46.9974 Y34.2586
G01 X46.8503 Y34.4633
G01 X46.7324 Y34.6860
G01 X46.6457 Y34.9227
G01 X46.5921 Y35.1690
G01 X46.5723 Y35.4202
G00 Z1.0000
G00 X46.7326 Y35.4219
G01 F30.00
G01 Z-0.0800
G01 F100.00
G01 X46.7459 Y35.6518
G01 X46.7902 Y35.8777
G01 X46.8648 Y36.0955
G01 X46.9682 Y36.3012
G01 X47.0986 Y36.4909
G01 X47.2536 Y36.6612
G01 X47.4302 Y36.8089
G01 X47.6252 Y36.9312
G01 X47.8351 Y37.0259
G01 X48.0558 Y37.0913
G01 X48.2834 Y37.1262
G01 X48.5136 Y37.1298
G01 X48.7421 Y37.1021
G01 X48.9648 Y37.0437
G01 X49.1775 Y36.9556
G01 X49.3763 Y36.8394
G01 X49.5575 Y36.6974
G01 X49.7177 Y36.5320
G01 X49.8540 Y36.3465
G01 X49.9638 Y36.1442
G01 X50.0452 Y35.9288
G01 X50.0966 Y35.7044
G01 X50.1177 Y35.4676
G01 X50.1180 Y35.4482
G01 X50.1018 Y35.2099
G01 X50.0551 Y34.9845
G01 X49.9783 Y34.7675
G01 X49.8727 Y34.5629
G01 X49.7403 Y34.3745
G01 X49.5836 Y34.2059
G01 X49.4054 Y34.0601
G01 X49.2091 Y33.9398
G01 X48.9983 Y33.8472
G01 X48.7769 Y33.7842
G01 X48.5490 Y33.7517
G01 X48.3187 Y33.7505
G01 X48.0905 Y33.7806
G01 X47.8684 Y33.8413
G01 X47.6566 Y33.9317
G01 X47.4591 Y34.0499
G01 X47.2794 Y34.1938
G01 X47.1209 Y34.3608
G01 X46.9866 Y34.5478
G01 X46.8789 Y34.7513
G01 X46.7998 Y34.9675
G01 X46.7507 Y35.1924
G01 X46.7326 Y35.4219
G00 Z1.0000
G00 X46.8930 Y35.4236
G01 F30.00
G01 Z-0.0800
G01 F100.00
G01 X46.9050 Y35.6317
G01 X46.9451 Y35.8362
G01 X47.0126 Y36.0333
G01 X47.1063 Y36.2195
G01 X47.2222 Y36.3882
G01 X47.3650 Y36.5458
G01 X47.5245 Y36.6791
G01 X47.6989 Y36.7885
G01 X47.7407 Y36.8078
G01 X47.8910 Y36.8756
G01 X48.0908 Y36.9348
G01 X48.2935 Y36.9658
G01 X48.5014 Y36.9696
G01 X48.7126 Y36.9445
G01 X48.9137 Y36.8917
G01 X49.1062 Y36.8119
G01 X49.2862 Y36.7068
G01 X49.4502 Y36.5782
G01 X49.5952 Y36.4285
G01 X49.7174 Y36.2622
G01 X49.8162 Y36.0807
G01 X49.8918 Y35.8820
G01 X49.9382 Y35.6793
G01 X49.9578 Y35.4593
G01 X49.9580 Y35.4524
G01 X49.9429 Y35.2317
G01 X49.9014 Y35.0313
G01 X49.8308 Y34.8307
G01 X49.7355 Y34.6460
G01 X49.6178 Y34.4786
G01 X49.4734 Y34.3225
G01 X49.3154 Y34.1932
G01 X49.1343 Y34.0817
G01 X48.9474 Y33.9997
G01 X48.7430 Y33.9410
G01 X48.5372 Y33.9117
G01 X48.3288 Y33.9106
G01 X48.1222 Y33.9378
G01 X47.9212 Y33.9928
G01 X47.7295 Y34.0745
G01 X47.5539 Y34.1796
G01 X47.3876 Y34.3122
G01 X47.2445 Y34.4631
G01 X47.1229 Y34.6323
G01 X47.0254 Y34.8165
G01 X46.9538 Y35.0122
G01 X46.9094 Y35.2158
G01 X46.8930 Y35.4236
G00 Z1.0000
G00 X47.0534 Y35.4253
G01 F30.00
G01 Z-0.0800
G01 F100.00
G01 X47.0641 Y35.6116
G01 X47.1000 Y35.7947
G01 X47.1605 Y35.9712
G01 X47.2443 Y36.1379
G01 X47.3480 Y36.2887
G01 X47.4761 Y36.4301
G01 X47.6187 Y36.5494
G01 X47.7752 Y36.6475
G01 X47.9469 Y36.7253
G01 X48.1258 Y36.7783
G01 X48.3073 Y36.8061
G01 X48.4932 Y36.8094
G01 X48.6827 Y36.7869
G01 X48.8625 Y36.7397
G01 X49.0349 Y36.6683
G01 X49.1960 Y36.5742
G01 X49.3429 Y36.4590
G01 X49.4727 Y36.3250
G01 X49.5824 Y36.1756
G01 X49.6705 Y36.0138
G01 X49.7383 Y35.8355
G01 X49.7798 Y35.6542
G01 X49.7977 Y35.4540
G01 X49.7840 Y35.2535
G01 X49.7469 Y35.0743
G01 X49.6836 Y34.8943
G01 X49.5983 Y34.7291
G01 X49.4931 Y34.5794
G01 X49.3635 Y34.4393
G01 X49.2224 Y34.3238
G01 X49.0599 Y34.2238
G01 X48.8930 Y34.1505
G01 X48.7095 Y34.0978
G01 X48.5255 Y34.0716
G01 X48.3389 Y34.0706
G01 X48.1539 Y34.0950
G01 X47.9739 Y34.1442
G01 X47.8023 Y34.2174
G01 X47.6453 Y34.3114
G01 X47.4961 Y34.4304
G01 X47.3681 Y34.5653
G01 X47.2592 Y34.7168
G01 X47.1719 Y34.8817
G01 X47.1078 Y35.0569
G01 X47.0680 Y35.2393
G01 X47.0534 Y35.4253
G00 Z1.0000
G00 X47.2137 Y35.4270
G01 F30.00
G01 Z-0.0800
G01 F100.00
G01 X47.2232 Y35.5915
G01 X47.2549 Y35.7532
G01 X47.3083 Y35.9091
G01 X47.3824 Y36.0563
G01 X47.4737 Y36.1892
G01 X47.5872 Y36.3145
G01 X47.7130 Y36.4196
G01 X47.8515 Y36.5065
G01 X48.0028 Y36.5750
G01 X48.1608 Y36.6218
G01 X48.3210 Y36.6463
G01 X48.4849 Y36.6493
G01 X48.6528 Y36.6293
G01 X48.8114 Y36.5877
G01 X48.9636 Y36.5246
G01 X49.1059 Y36.4415
G01 X49.2355 Y36.3398
G01 X49.3502 Y36.2215
G01 X49.4475 Y36.0891
G01 X49.5247 Y35.9469
G01 X49.5848 Y35.7889
G01 X49.6214 Y35.6291
G01 X49.6372 Y35.4523
G01 X49.6251 Y35.2752
G01 X49.5924 Y35.1173
G01 X49.5363 Y34.9578
G01 X49.4611 Y34.8121
G01 X49.3684 Y34.6801
G01 X49.2536 Y34.5561
G01 X49.1294 Y34.4544
G01 X48.9854 Y34.3658
G01 X48.8385 Y34.3013
G01 X48.6760 Y34.2547
G01 X48.5137 Y34.2316
G01 X48.3489 Y34.2307
G01 X48.1856 Y34.2522
G01 X48.0266 Y34.2957
G01 X47.8751 Y34.3603
G01 X47.7366 Y34.4432
G01 X47.6045 Y34.5486
G01 X47.4916 Y34.6675
G01 X47.3955 Y34.8013
G01 X47.3184 Y34.9469
G01 X47.2618 Y35.1017
G01 X47.2267 Y35.2627
G01 X47.2137 Y35.4270
G00 Z1.0000
G00 X37.0152 Y15.5548
G01 F30.00
G01 Z-0.0800
G01 F100.00
G01 X36.9645 Y15.6391
G01 X36.8967 Y15.7305
G01 X36.8202 Y15.8149
G01 X36.7359 Y15.8913
G01 X36.6445 Y15.9591
G01 X36.5468 Y16.0177
G01 X36.4439 Y16.0663
G01 X36.3367 Y16.1047
G01 X36.2263 Y16.1324
G01 X36.1137 Y16.1491
G01 X36.0000 Y16.1546
G01 X35.8863 Y16.1491
G01 X35.7737 Y16.1324
G01 X35.6633 Y16.1047
G01 X35.5561 Y16.0663
G01 X35.4532 Y16.0177
G01 X35.3555 Y15.9591
G01 X35.2641 Y15.8913
G01 X35.1798 Y15.8149
G01 X35.1033 Y15.7305
G01 X35.0355 Y15.6391
G01 X34.9770 Y15.5415
G01 X34.9283 Y15.4386
G01 X34.8899 Y15.3314
G01 X34.8623 Y15.2209
G01 X34.8456 Y15.1083
G01 X34.8400 Y14.9946
G01 X34.8456 Y14.8809
G01 X34.8623 Y14.7683
G01 X34.8899 Y14.6579
G01 X34.9283 Y14.5507
G01 X34.9770 Y14.4478
G01 X35.0313 Y14.3568
G01 X35.0400 Y14.3438
G01 X35.1033 Y14.2587
G01 X35.1743 Y14.1801
G01 X35.1854 Y14.1690
G01 X35.2641 Y14.0979
G01 X35.3491 Y14.0347
G01 X35.3622 Y14.0259
G01 X35.4532 Y13.9716
G01 X35.5489 Y13.9261
G01 X35.5634 Y13.9201
G01 X35.6633 Y13.8846
G01 X35.7737 Y13.8569
G01 X35.8785 Y13.8412
G01 X35.8941 Y13.8396
G01 X36.0000 Y13.8346
G01 X36.1059 Y13.8396
G01 X36.1215 Y13.8412
G01 X36.2263 Y13.8569
G01 X36.3292 Y13.8825
G01 X36.3442 Y13.8871
G01 X36.4439 Y13.9229
G01 X36.5398 Y13.9681
G01 X36.5537 Y13.9755
G01 X36.6445 Y14.0301
G01 X36.7297 Y14.0931
G01 X36.7418 Y14.1031
G01 X36.8202 Y14.1744
G01 X36.8916 Y14.2528
G01 X36.9015 Y14.2649
G01 X36.9645 Y14.3502
G01 X37.0152 Y14.4344
G01 X43.8450 Y14.4344
G01 X43.8999 Y14.4371
G01 X43.9504 Y14.4445
G01 X43.9620 Y14.4469
G01 X44.0076 Y14.4586
G01 X44.0521 Y14.4743
G01 X44.0666 Y14.4803
G01 X44.1091 Y14.5006
G01 X44.1496 Y14.5246
G01 X44.1627 Y14.5334
G01 X44.2004 Y14.5616
G01 X44.2411 Y14.5985
G01 X44.6378 Y14.9952
G01 X44.7637 Y14.9500
G01 X44.7788 Y14.9454
G01 X44.9102 Y14.9127
G01 X45.0441 Y14.8926
G01 X45.0597 Y14.8911
G01 X45.1950 Y14.8846
G01 X45.3303 Y14.8911
G01 X45.3459 Y14.8926
G01 X45.4798 Y14.9127
G01 X45.6112 Y14.9454
G01 X45.6263 Y14.9500
G01 X45.7537 Y14.9958
G01 X45.8762 Y15.0535
G01 X45.8901 Y15.0609
G01 X46.0061 Y15.1307
G01 X46.1150 Y15.2112
G01 X46.1272 Y15.2212
G01 X46.2274 Y15.3123
G01 X46.3185 Y15.4125
G01 X46.3284 Y15.4246
G01 X46.4089 Y15.5335
G01 X46.4787 Y15.6496
G01 X46.4861 Y15.6634
G01 X46.5439 Y15.7859
G01 X46.5897 Y15.9134
G01 X46.5942 Y15.9284
G01 X46.6269 Y16.0598
G01 X46.6470 Y16.1937
G01 X46.6485 Y16.2094
G01 X46.6550 Y16.3446
G01 X46.6480 Y16.4877
G01 X46.6269 Y16.6295
G01 X46.5921 Y16.7685
G01 X46.5439 Y16.9034
G01 X46.4826 Y17.0329
G01 X46.4089 Y17.1558
G01 X46.3236 Y17.2709
G01 X46.2274 Y17.3770
G01 X46.1212 Y17.4732
G01 X46.0061 Y17.5586
G01 X45.8832 Y17.6322
G01 X45.7537 Y17.6935
G01 X45.6188 Y17.7418
G01 X45.4798 Y17.7766
G01 X45.3381 Y17.7976
G01 X45.1950 Y17.8046
G01 X45.0519 Y17.7976
G01 X44.9102 Y17.7766
G01 X44.7788 Y17.7439
G01 X44.7637 Y17.7393
G01 X44.6436 Y17.6963
G01 X44.6291 Y17.6903
G01 X44.5068 Y17.6322
G01 X44.3905 Y17.5628
G01 X44.3774 Y17.5541
G01 X44.2688 Y17.4732
G01 X44.1626 Y17.3770
G01 X44.0664 Y17.2709
G01 X43.9856 Y17.1622
G01 X43.9789 Y17.1525
G01 X43.9113 Y17.0397
G01 X43.9039 Y17.0259
G01 X43.8461 Y16.9034
G01 X43.8003 Y16.7759
G01 X43.7958 Y16.7609
G01 X43.7631 Y16.6295
G01 X43.7420 Y16.4877
G01 X43.7350 Y16.3446
G01 X43.7415 Y16.2094
G01 X43.7430 Y16.1937
G01 X43.7631 Y16.0598
G01 X43.7958 Y15.9284
G01 X43.8003 Y15.9134
G01 X43.8455 Y15.7874
G01 X43.6130 Y15.5548
G01 X37.0152 Y15.5548
G00 Z1.0000
G00 X36.3575 Y13.7246
G01 F30.00
G01 Z-0.0800
G01 F100.00
G01 X36.3756 Y13.7293
G01 X36.3907 Y13.7339
G01 X36.4978 Y13.7722
G01 X36.5195 Y13.7815
G01 X36.5940 Y13.8167
G01 X36.5909 Y13.7950
G01 X36.5893 Y13.7712
G01 X36.5886 Y13.6923
G01 X36.5889 Y13.6769
G01 X36.5899 Y13.6615
G01 X36.5916 Y13.6462
G01 X36.5938 Y13.6326
G01 X36.5195 Y13.6678
G01 X36.4978 Y13.6771
G01 X36.3907 Y13.7154
G01 X36.3756 Y13.7200
G01 X36.3575 Y13.7246
G00 Z1.0000
G00 X35.4060 Y13.6325
G01 F30.00
G01 Z-0.0800
G01 F100.00
G01 X35.4091 Y13.6543
G01 X35.4107 Y13.6781
G01 X35.4114 Y13.7570
G01 X35.4111 Y13.7724
G01 X35.4101 Y13.7878
G01 X35.4084 Y13.8031
G01 X35.4062 Y13.8166
G01 X35.4805 Y13.7815
G01 X35.5022 Y13.7722
G01 X35.6093 Y13.7339
G01 X35.6244 Y13.7293
G01 X35.6425 Y13.7246
G01 X35.6244 Y13.7200
G01 X35.6093 Y13.7154
G01 X35.5022 Y13.6771
G01 X35.4805 Y13.6678
G01 X35.4060 Y13.6325
G00 Z1.0000
G00 X34.6473 Y14.9946
G01 F30.00
G01 Z-0.0800
G01 F100.00
G01 X34.6640 Y15.2062
G01 X34.7135 Y15.4126
G01 X34.7948 Y15.6087
G01 X34.9057 Y15.7897
G01 X34.9767 Y15.8729
G01 X35.0435 Y15.9511
G01 X35.2049 Y16.0890
G01 X35.3859 Y16.1999
G01 X35.5820 Y16.2811
G01 X35.7884 Y16.3307
G01 X36.0000 Y16.3473
G01 X36.2116 Y16.3307
G01 X36.4180 Y16.2811
G01 X36.6141 Y16.1999
G01 X36.7951 Y16.0890
G01 X36.9565 Y15.9511
G01 X37.0510 Y15.8405
G01 X37.0617 Y15.8297
G01 X37.0734 Y15.8199
G01 X37.0827 Y15.8133
G01 X37.1454 Y15.7725
G01 X37.1554 Y15.7668
G01 X37.1658 Y15.7618
G01 X37.1801 Y15.7563
G01 X37.1912 Y15.7532
G01 X37.1987 Y15.7515
G01 X37.2426 Y15.7449
G01 X37.2543 Y15.7436
G01 X37.2660 Y15.7431
G01 X43.2824 Y15.7431
G01 X43.2938 Y15.7435
G01 X43.3014 Y15.7443
G01 X43.3127 Y15.7460
G01 X43.3238 Y15.7486
G01 X43.3956 Y15.7696
G01 X43.4106 Y15.7749
G01 X43.4215 Y15.7797
G01 X43.4320 Y15.7854
G01 X43.4420 Y15.7919
G01 X43.4515 Y15.7990
G01 X43.4605 Y15.8069
G01 X43.4688 Y15.8154
G01 X43.5179 Y15.8720
G01 X43.5254 Y15.8814
G01 X43.5322 Y15.8913
G01 X43.5401 Y15.9052
G01 X43.5465 Y15.9198
G01 X43.5504 Y15.9312
G01 X43.5542 Y15.9467
G01 X43.5656 Y16.0156
G01 X43.5674 Y16.0309
G01 X43.5678 Y16.0424
G01 X43.5670 Y16.0578
G01 X43.5424 Y16.3014
G01 X43.5542 Y16.5461
G01 X43.6020 Y16.7864
G01 X43.6848 Y17.0170
G01 X43.8008 Y17.2329
G01 X43.8590 Y17.3109
G01 X43.9474 Y17.4292
G01 X44.1214 Y17.6017
G01 X44.3190 Y17.7466
G01 X44.5266 Y17.8558
G01 X44.5358 Y17.8607
G01 X44.7671 Y17.9414
G01 X45.0079 Y17.9871
G01 X45.2527 Y17.9968
G01 X45.4963 Y17.9701
G01 X45.7332 Y17.9077
G01 X45.9583 Y17.8110
G01 X46.1667 Y17.6821
G01 X46.3537 Y17.5237
G01 X46.5152 Y17.3395
G01 X46.6478 Y17.1334
G01 X46.7484 Y16.9100
G01 X46.8149 Y16.6742
G01 X46.8464 Y16.4273
G01 X46.8484 Y16.3485
G01 X46.8300 Y16.1003
G01 X46.7759 Y15.8613
G01 X46.6871 Y15.6329
G01 X46.5655 Y15.4202
G01 X46.4138 Y15.2278
G01 X46.2353 Y15.0599
G01 X46.0340 Y14.9203
G01 X45.8143 Y14.8119
G01 X45.5809 Y14.7372
G01 X45.3391 Y14.6978
G01 X45.0941 Y14.6946
G01 X44.8513 Y14.7276
G01 X44.8402 Y14.7307
G01 X44.8327 Y14.7323
G01 X44.8177 Y14.7344
G01 X44.8025 Y14.7351
G01 X44.7237 Y14.7348
G01 X44.7159 Y14.7342
G01 X44.7044 Y14.7326
G01 X44.6930 Y14.7302
G01 X44.6855 Y14.7281
G01 X44.6708 Y14.7229
G01 X44.6602 Y14.7181
G01 X44.6534 Y14.7144
G01 X44.5932 Y14.6787
G01 X44.5834 Y14.6720
G01 X44.5740 Y14.6645
G01 X44.5653 Y14.6564
G01 X44.4318 Y14.5229
G01 X44.4233 Y14.5137
G01 X44.4044 Y14.4912
G01 X44.3660 Y14.4565
G01 X44.3465 Y14.4376
G01 X44.3257 Y14.4203
G01 X44.2872 Y14.3856
G01 X44.2628 Y14.3692
G01 X44.2551 Y14.3635
G01 X44.2052 Y14.3381
