(G-CODE GENERATED BY FLATCAM v8.994 - www.flatcam.org - Version Date: 2020/11/7)

(Name: 25om_resistor-Edge_Cuts.gbr_cutout_cnc)
(Type: G-code from Geometry)
(Units: MM)

(Created on Wednesday, 01 February 2023 at 13:15)

(This preprocessor is the default preprocessor used by FlatCAM.)
(It is made to work with MACH3 compatible motion controllers.)

(TOOL DIAMETER: 0.7 mm)
(Feedrate_XY: 30.0 mm/min)
(Feedrate_Z: 15.0 mm/min)
(Feedrate rapids 1500.0 mm/min)

(Z_Cut: -1.94 mm)
(DepthPerCut: 0.5 mm <=>4 passes)
(Z_Move: 1.0 mm)
(Z Start: None mm)
(Z End: 15.0 mm)
(X,Y End: 0.0000, 0.0000 mm)
(Steps per circle: 64)
(Preprocessor Geometry: default)

(X range:    0.6870 ...   23.3870  mm)
(Y range:    1.0130 ...   26.2870  mm)

(Spindle Speed: 1000.0 RPM)
G21
G90
G94

G01 F30.00

M5
G00 Z15.0000
G00 X0.0000 Y0.0000
T1
M6    
(MSG, Change to Tool Dia = 0.7000)
M0
G00 Z15.0000

M03 S1000.0
G01 F30.00
G00 X1.0870 Y26.2870
G01 F15.00
G01 Z-0.5000
G01 F30.00
G01 X22.9870 Y26.2870
G01 X23.0091 Y26.2864
G01 X23.0433 Y26.2830
G01 X23.0818 Y26.2756
G01 X23.1194 Y26.2644
G01 X23.1558 Y26.2496
G01 X23.1905 Y26.2313
G01 X23.2272 Y26.2068
G01 X23.2574 Y26.1817
G01 X23.2850 Y26.1538
G01 X23.3097 Y26.1233
G01 X23.3313 Y26.0905
G01 X23.3496 Y26.0558
G01 X23.3628 Y26.0241
G01 X23.3744 Y25.9866
G01 X23.3823 Y25.9481
G01 X23.3864 Y25.9091
G01 X23.3870 Y25.8870
G01 X23.3870 Y1.4130
G01 X23.3864 Y1.3909
G01 X23.3830 Y1.3567
G01 X23.3756 Y1.3182
G01 X23.3644 Y1.2806
G01 X23.3496 Y1.2442
G01 X23.3313 Y1.2095
G01 X23.3068 Y1.1728
G01 X23.2817 Y1.1426
G01 X23.2538 Y1.1150
G01 X23.2233 Y1.0903
G01 X23.1905 Y1.0687
G01 X23.1602 Y1.0525
G01 X23.1241 Y1.0372
G01 X23.0866 Y1.0256
G01 X23.0481 Y1.0177
G01 X23.0091 Y1.0136
G01 X22.9870 Y1.0130
G01 X1.0870 Y1.0130
G01 X1.0649 Y1.0136
G01 X1.0307 Y1.0170
G01 X0.9922 Y1.0244
G01 X0.9546 Y1.0356
G01 X0.9182 Y1.0504
G01 X0.8835 Y1.0687
G01 X0.8507 Y1.0903
G01 X0.8166 Y1.1183
G01 X0.7890 Y1.1462
G01 X0.7643 Y1.1767
G01 X0.7427 Y1.2095
G01 X0.7244 Y1.2442
G01 X0.7112 Y1.2759
G01 X0.6996 Y1.3134
G01 X0.6917 Y1.3519
G01 X0.6876 Y1.3909
G01 X0.6870 Y1.4130
G01 X0.6870 Y25.8870
G01 X0.6876 Y25.9091
G01 X0.6917 Y25.9481
G01 X0.6996 Y25.9866
G01 X0.7112 Y26.0241
G01 X0.7265 Y26.0602
G01 X0.7452 Y26.0947
G01 X0.7672 Y26.1272
G01 X0.7923 Y26.1574
G01 X0.8202 Y26.1850
G01 X0.8507 Y26.2097
G01 X0.8835 Y26.2313
G01 X0.9182 Y26.2496
G01 X0.9546 Y26.2644
G01 X0.9922 Y26.2756
G01 X1.0307 Y26.2830
G01 X1.0649 Y26.2864
G01 X1.0870 Y26.2870
G00 X1.0870 Y26.2870
G01 F15.00
G01 Z-1.0000
G01 F30.00
G01 X1.0649 Y26.2864
G01 X1.0307 Y26.2830
G01 X0.9922 Y26.2756
G01 X0.9546 Y26.2644
G01 X0.9182 Y26.2496
G01 X0.8835 Y26.2313
G01 X0.8507 Y26.2097
G01 X0.8202 Y26.1850
G01 X0.7923 Y26.1574
G01 X0.7672 Y26.1272
G01 X0.7452 Y26.0947
G01 X0.7265 Y26.0602
G01 X0.7112 Y26.0241
G01 X0.6996 Y25.9866
G01 X0.6917 Y25.9481
G01 X0.6876 Y25.9091
G01 X0.6870 Y25.8870
G01 X0.6870 Y1.4130
G01 X0.6876 Y1.3909
G01 X0.6917 Y1.3519
G01 X0.6996 Y1.3134
G01 X0.7112 Y1.2759
G01 X0.7244 Y1.2442
G01 X0.7427 Y1.2095
G01 X0.7643 Y1.1767
G01 X0.7890 Y1.1462
G01 X0.8166 Y1.1183
G01 X0.8507 Y1.0903
G01 X0.8835 Y1.0687
G01 X0.9182 Y1.0504
G01 X0.9546 Y1.0356
G01 X0.9922 Y1.0244
G01 X1.0307 Y1.0170
G01 X1.0649 Y1.0136
G01 X1.0870 Y1.0130
G01 X22.9870 Y1.0130
G01 X23.0091 Y1.0136
G01 X23.0481 Y1.0177
G01 X23.0866 Y1.0256
G01 X23.1241 Y1.0372
G01 X23.1602 Y1.0525
G01 X23.1905 Y1.0687
G01 X23.2233 Y1.0903
G01 X23.2538 Y1.1150
G01 X23.2817 Y1.1426
G01 X23.3068 Y1.1728
G01 X23.3313 Y1.2095
G01 X23.3496 Y1.2442
G01 X23.3644 Y1.2806
G01 X23.3756 Y1.3182
G01 X23.3830 Y1.3567
G01 X23.3864 Y1.3909
G01 X23.3870 Y1.4130
G01 X23.3870 Y25.8870
G01 X23.3864 Y25.9091
G01 X23.3823 Y25.9481
G01 X23.3744 Y25.9866
G01 X23.3628 Y26.0241
G01 X23.3496 Y26.0558
G01 X23.3313 Y26.0905
G01 X23.3097 Y26.1233
G01 X23.2850 Y26.1538
G01 X23.2574 Y26.1817
G01 X23.2272 Y26.2068
G01 X23.1905 Y26.2313
G01 X23.1558 Y26.2496
G01 X23.1194 Y26.2644
G01 X23.0818 Y26.2756
G01 X23.0433 Y26.2830
G01 X23.0091 Y26.2864
G01 X22.9870 Y26.2870
G01 X1.0870 Y26.2870
G00 X1.0870 Y26.2870
G01 F15.00
G01 Z-1.5000
G01 F30.00
G01 X22.9870 Y26.2870
G01 X23.0091 Y26.2864
G01 X23.0433 Y26.2830
G01 X23.0818 Y26.2756
G01 X23.1194 Y26.2644
G01 X23.1558 Y26.2496
G01 X23.1905 Y26.2313
G01 X23.2272 Y26.2068
G01 X23.2574 Y26.1817
G01 X23.2850 Y26.1538
G01 X23.3097 Y26.1233
G01 X23.3313 Y26.0905
G01 X23.3496 Y26.0558
G01 X23.3628 Y26.0241
G01 X23.3744 Y25.9866
G01 X23.3823 Y25.9481
G01 X23.3864 Y25.9091
G01 X23.3870 Y25.8870
G01 X23.3870 Y1.4130
G01 X23.3864 Y1.3909
G01 X23.3830 Y1.3567
G01 X23.3756 Y1.3182
G01 X23.3644 Y1.2806
G01 X23.3496 Y1.2442
G01 X23.3313 Y1.2095
G01 X23.3068 Y1.1728
G01 X23.2817 Y1.1426
G01 X23.2538 Y1.1150
G01 X23.2233 Y1.0903
G01 X23.1905 Y1.0687
G01 X23.1602 Y1.0525
G01 X23.1241 Y1.0372
G01 X23.0866 Y1.0256
G01 X23.0481 Y1.0177
G01 X23.0091 Y1.0136
G01 X22.9870 Y1.0130
G01 X1.0870 Y1.0130
G01 X1.0649 Y1.0136
G01 X1.0307 Y1.0170
G01 X0.9922 Y1.0244
G01 X0.9546 Y1.0356
G01 X0.9182 Y1.0504
G01 X0.8835 Y1.0687
G01 X0.8507 Y1.0903
G01 X0.8166 Y1.1183
G01 X0.7890 Y1.1462
G01 X0.7643 Y1.1767
G01 X0.7427 Y1.2095
G01 X0.7244 Y1.2442
G01 X0.7112 Y1.2759
G01 X0.6996 Y1.3134
G01 X0.6917 Y1.3519
G01 X0.6876 Y1.3909
G01 X0.6870 Y1.4130
G01 X0.6870 Y25.8870
G01 X0.6876 Y25.9091
G01 X0.6917 Y25.9481
G01 X0.6996 Y25.9866
G01 X0.7112 Y26.0241
G01 X0.7265 Y26.0602
G01 X0.7452 Y26.0947
G01 X0.7672 Y26.1272
G01 X0.7923 Y26.1574
G01 X0.8202 Y26.1850
G01 X0.8507 Y26.2097
G01 X0.8835 Y26.2313
G01 X0.9182 Y26.2496
G01 X0.9546 Y26.2644
G01 X0.9922 Y26.2756
G01 X1.0307 Y26.2830
G01 X1.0649 Y26.2864
G01 X1.0870 Y26.2870
G00 X1.0870 Y26.2870
G01 F15.00
G01 Z-1.9400
G01 F30.00
G01 X1.0649 Y26.2864
G01 X1.0307 Y26.2830
G01 X0.9922 Y26.2756
G01 X0.9546 Y26.2644
G01 X0.9182 Y26.2496
G01 X0.8835 Y26.2313
G01 X0.8507 Y26.2097
G01 X0.8202 Y26.1850
G01 X0.7923 Y26.1574
G01 X0.7672 Y26.1272
G01 X0.7452 Y26.0947
G01 X0.7265 Y26.0602
G01 X0.7112 Y26.0241
G01 X0.6996 Y25.9866
G01 X0.6917 Y25.9481
G01 X0.6876 Y25.9091
G01 X0.6870 Y25.8870
G01 X0.6870 Y1.4130
G01 X0.6876 Y1.3909
G01 X0.6917 Y1.3519
G01 X0.6996 Y1.3134
G01 X0.7112 Y1.2759
G01 X0.7244 Y1.2442
G01 X0.7427 Y1.2095
G01 X0.7643 Y1.1767
G01 X0.7890 Y1.1462
G01 X0.8166 Y1.1183
G01 X0.8507 Y1.0903
G01 X0.8835 Y1.0687
G01 X0.9182 Y1.0504
G01 X0.9546 Y1.0356
G01 X0.9922 Y1.0244
G01 X1.0307 Y1.0170
G01 X1.0649 Y1.0136
G01 X1.0870 Y1.0130
G01 X22.9870 Y1.0130
G01 X23.0091 Y1.0136
G01 X23.0481 Y1.0177
G01 X23.0866 Y1.0256
G01 X23.1241 Y1.0372
G01 X23.1602 Y1.0525
G01 X23.1905 Y1.0687
G01 X23.2233 Y1.0903
G01 X23.2538 Y1.1150
G01 X23.2817 Y1.1426
G01 X23.3068 Y1.1728
G01 X23.3313 Y1.2095
G01 X23.3496 Y1.2442
G01 X23.3644 Y1.2806
G01 X23.3756 Y1.3182
G01 X23.3830 Y1.3567
G01 X23.3864 Y1.3909
G01 X23.3870 Y1.4130
G01 X23.3870 Y25.8870
G01 X23.3864 Y25.9091
G01 X23.3823 Y25.9481
G01 X23.3744 Y25.9866
G01 X23.3628 Y26.0241
G01 X23.3496 Y26.0558
G01 X23.3313 Y26.0905
G01 X23.3097 Y26.1233
G01 X23.2850 Y26.1538
G01 X23.2574 Y26.1817
G01 X23.2272 Y26.2068
G01 X23.1905 Y26.2313
G01 X23.1558 Y26.2496
G01 X23.1194 Y26.2644
G01 X23.0818 Y26.2756
G01 X23.0433 Y26.2830
G01 X23.0091 Y26.2864
G01 X22.9870 Y26.2870
G01 X1.0870 Y26.2870
G00 Z1.0000
M05
G00 Z1.0000
G00 Z15.00
G00 X0.0 Y0.0


