(G-CODE GENERATED BY FLATCAM v8.994 - www.flatcam.org - Version Date: 2020/11/7)

(Name: 25om_resistor-PTH-drl.gbr_inverted_iso_combined_cnc)
(Type: G-code from Geometry)
(Units: MM)

(Created on Wednesday, 01 February 2023 at 13:09)

(This preprocessor is the default preprocessor used by FlatCAM.)
(It is made to work with MACH3 compatible motion controllers.)

(TOOL DIAMETER: 0.7 mm)
(Feedrate_XY: 30.0 mm/min)
(Feedrate_Z: 15.0 mm/min)
(Feedrate rapids 1500.0 mm/min)

(Z_Cut: -1.94 mm)
(DepthPerCut: 0.485 mm <=>4 passes)
(Z_Move: 1.0 mm)
(Z Start: None mm)
(Z End: 15.0 mm)
(X,Y End: 0.0000, 0.0000 mm)
(Steps per circle: 64)
(Preprocessor Geometry: default)

(X range:    2.2894 ...   21.7926  mm)
(Y range:    5.3924 ...   18.3666  mm)

(Spindle Speed: 1000.0 RPM)
G21
G90
G94

G01 F30.00

M5
G00 Z15.0000
G00 X0.0000 Y0.0000
T1
M6    
(MSG, Change to Tool Dia = 0.7000)
M0
G00 Z15.0000

M03 S1000.0
G01 F30.00
G00 X2.3890 Y5.3924
G01 F15.00
G01 Z-0.4850
G01 F30.00
G01 X2.3792 Y5.3929
G01 X2.3696 Y5.3943
G01 X2.3601 Y5.3967
G01 X2.3509 Y5.4000
G01 X2.3421 Y5.4042
G01 X2.3337 Y5.4092
G01 X2.3258 Y5.4150
G01 X2.3186 Y5.4216
G01 X2.3120 Y5.4288
G01 X2.3062 Y5.4367
G01 X2.3012 Y5.4451
G01 X2.2970 Y5.4539
G01 X2.2937 Y5.4631
G01 X2.2913 Y5.4726
G01 X2.2899 Y5.4822
G01 X2.2894 Y5.4920
G01 X2.2899 Y5.5018
G01 X2.2913 Y5.5114
G01 X2.2937 Y5.5209
G01 X2.2970 Y5.5301
G01 X2.3012 Y5.5389
G01 X2.3062 Y5.5473
G01 X2.3120 Y5.5552
G01 X2.3186 Y5.5624
G01 X2.3258 Y5.5690
G01 X2.3337 Y5.5748
G01 X2.3421 Y5.5798
G01 X2.3509 Y5.5840
G01 X2.3601 Y5.5873
G01 X2.3696 Y5.5897
G01 X2.3792 Y5.5911
G01 X2.3890 Y5.5916
G01 X2.3988 Y5.5911
G01 X2.4084 Y5.5897
G01 X2.4179 Y5.5873
G01 X2.4271 Y5.5840
G01 X2.4359 Y5.5798
G01 X2.4443 Y5.5748
G01 X2.4522 Y5.5690
G01 X2.4594 Y5.5624
G01 X2.4660 Y5.5552
G01 X2.4718 Y5.5473
G01 X2.4768 Y5.5389
G01 X2.4810 Y5.5301
G01 X2.4843 Y5.5209
G01 X2.4867 Y5.5114
G01 X2.4881 Y5.5018
G01 X2.4886 Y5.4920
G01 X2.4881 Y5.4822
G01 X2.4867 Y5.4726
G01 X2.4843 Y5.4631
G01 X2.4810 Y5.4539
G01 X2.4768 Y5.4451
G01 X2.4718 Y5.4367
G01 X2.4660 Y5.4288
G01 X2.4594 Y5.4216
G01 X2.4522 Y5.4150
G01 X2.4443 Y5.4092
G01 X2.4359 Y5.4042
G01 X2.4271 Y5.4000
G01 X2.4179 Y5.3967
G01 X2.4084 Y5.3943
G01 X2.3988 Y5.3929
G01 X2.3890 Y5.3924
G00 X2.3890 Y5.3924
G01 F15.00
G01 Z-0.9700
G01 F30.00
G01 X2.3792 Y5.3929
G01 X2.3696 Y5.3943
G01 X2.3601 Y5.3967
G01 X2.3509 Y5.4000
G01 X2.3421 Y5.4042
G01 X2.3337 Y5.4092
G01 X2.3258 Y5.4150
G01 X2.3186 Y5.4216
G01 X2.3120 Y5.4288
G01 X2.3062 Y5.4367
G01 X2.3012 Y5.4451
G01 X2.2970 Y5.4539
G01 X2.2937 Y5.4631
G01 X2.2913 Y5.4726
G01 X2.2899 Y5.4822
G01 X2.2894 Y5.4920
G01 X2.2899 Y5.5018
G01 X2.2913 Y5.5114
G01 X2.2937 Y5.5209
G01 X2.2970 Y5.5301
G01 X2.3012 Y5.5389
G01 X2.3062 Y5.5473
G01 X2.3120 Y5.5552
G01 X2.3186 Y5.5624
G01 X2.3258 Y5.5690
G01 X2.3337 Y5.5748
G01 X2.3421 Y5.5798
G01 X2.3509 Y5.5840
G01 X2.3601 Y5.5873
G01 X2.3696 Y5.5897
G01 X2.3792 Y5.5911
G01 X2.3890 Y5.5916
G01 X2.3988 Y5.5911
G01 X2.4084 Y5.5897
G01 X2.4179 Y5.5873
G01 X2.4271 Y5.5840
G01 X2.4359 Y5.5798
G01 X2.4443 Y5.5748
G01 X2.4522 Y5.5690
G01 X2.4594 Y5.5624
G01 X2.4660 Y5.5552
G01 X2.4718 Y5.5473
G01 X2.4768 Y5.5389
G01 X2.4810 Y5.5301
G01 X2.4843 Y5.5209
G01 X2.4867 Y5.5114
G01 X2.4881 Y5.5018
G01 X2.4886 Y5.4920
G01 X2.4881 Y5.4822
G01 X2.4867 Y5.4726
G01 X2.4843 Y5.4631
G01 X2.4810 Y5.4539
G01 X2.4768 Y5.4451
G01 X2.4718 Y5.4367
G01 X2.4660 Y5.4288
G01 X2.4594 Y5.4216
G01 X2.4522 Y5.4150
G01 X2.4443 Y5.4092
G01 X2.4359 Y5.4042
G01 X2.4271 Y5.4000
G01 X2.4179 Y5.3967
G01 X2.4084 Y5.3943
G01 X2.3988 Y5.3929
G01 X2.3890 Y5.3924
G00 X2.3890 Y5.3924
G01 F15.00
G01 Z-1.4550
G01 F30.00
G01 X2.3792 Y5.3929
G01 X2.3696 Y5.3943
G01 X2.3601 Y5.3967
G01 X2.3509 Y5.4000
G01 X2.3421 Y5.4042
G01 X2.3337 Y5.4092
G01 X2.3258 Y5.4150
G01 X2.3186 Y5.4216
G01 X2.3120 Y5.4288
G01 X2.3062 Y5.4367
G01 X2.3012 Y5.4451
G01 X2.2970 Y5.4539
G01 X2.2937 Y5.4631
G01 X2.2913 Y5.4726
G01 X2.2899 Y5.4822
G01 X2.2894 Y5.4920
G01 X2.2899 Y5.5018
G01 X2.2913 Y5.5114
G01 X2.2937 Y5.5209
G01 X2.2970 Y5.5301
G01 X2.3012 Y5.5389
G01 X2.3062 Y5.5473
G01 X2.3120 Y5.5552
G01 X2.3186 Y5.5624
G01 X2.3258 Y5.5690
G01 X2.3337 Y5.5748
G01 X2.3421 Y5.5798
G01 X2.3509 Y5.5840
G01 X2.3601 Y5.5873
G01 X2.3696 Y5.5897
G01 X2.3792 Y5.5911
G01 X2.3890 Y5.5916
G01 X2.3988 Y5.5911
G01 X2.4084 Y5.5897
G01 X2.4179 Y5.5873
G01 X2.4271 Y5.5840
G01 X2.4359 Y5.5798
G01 X2.4443 Y5.5748
G01 X2.4522 Y5.5690
G01 X2.4594 Y5.5624
G01 X2.4660 Y5.5552
G01 X2.4718 Y5.5473
G01 X2.4768 Y5.5389
G01 X2.4810 Y5.5301
G01 X2.4843 Y5.5209
G01 X2.4867 Y5.5114
G01 X2.4881 Y5.5018
G01 X2.4886 Y5.4920
G01 X2.4881 Y5.4822
G01 X2.4867 Y5.4726
G01 X2.4843 Y5.4631
G01 X2.4810 Y5.4539
G01 X2.4768 Y5.4451
G01 X2.4718 Y5.4367
G01 X2.4660 Y5.4288
G01 X2.4594 Y5.4216
G01 X2.4522 Y5.4150
G01 X2.4443 Y5.4092
G01 X2.4359 Y5.4042
G01 X2.4271 Y5.4000
G01 X2.4179 Y5.3967
G01 X2.4084 Y5.3943
G01 X2.3988 Y5.3929
G01 X2.3890 Y5.3924
G00 X2.3890 Y5.3924
G01 F15.00
G01 Z-1.9400
G01 F30.00
G01 X2.3792 Y5.3929
G01 X2.3696 Y5.3943
G01 X2.3601 Y5.3967
G01 X2.3509 Y5.4000
G01 X2.3421 Y5.4042
G01 X2.3337 Y5.4092
G01 X2.3258 Y5.4150
G01 X2.3186 Y5.4216
G01 X2.3120 Y5.4288
G01 X2.3062 Y5.4367
G01 X2.3012 Y5.4451
G01 X2.2970 Y5.4539
G01 X2.2937 Y5.4631
G01 X2.2913 Y5.4726
G01 X2.2899 Y5.4822
G01 X2.2894 Y5.4920
G01 X2.2899 Y5.5018
G01 X2.2913 Y5.5114
G01 X2.2937 Y5.5209
G01 X2.2970 Y5.5301
G01 X2.3012 Y5.5389
G01 X2.3062 Y5.5473
G01 X2.3120 Y5.5552
G01 X2.3186 Y5.5624
G01 X2.3258 Y5.5690
G01 X2.3337 Y5.5748
G01 X2.3421 Y5.5798
G01 X2.3509 Y5.5840
G01 X2.3601 Y5.5873
G01 X2.3696 Y5.5897
G01 X2.3792 Y5.5911
G01 X2.3890 Y5.5916
G01 X2.3988 Y5.5911
G01 X2.4084 Y5.5897
G01 X2.4179 Y5.5873
G01 X2.4271 Y5.5840
G01 X2.4359 Y5.5798
G01 X2.4443 Y5.5748
G01 X2.4522 Y5.5690
G01 X2.4594 Y5.5624
G01 X2.4660 Y5.5552
G01 X2.4718 Y5.5473
G01 X2.4768 Y5.5389
G01 X2.4810 Y5.5301
G01 X2.4843 Y5.5209
G01 X2.4867 Y5.5114
G01 X2.4881 Y5.5018
G01 X2.4886 Y5.4920
G01 X2.4881 Y5.4822
G01 X2.4867 Y5.4726
G01 X2.4843 Y5.4631
G01 X2.4810 Y5.4539
G01 X2.4768 Y5.4451
G01 X2.4718 Y5.4367
G01 X2.4660 Y5.4288
G01 X2.4594 Y5.4216
G01 X2.4522 Y5.4150
G01 X2.4443 Y5.4092
G01 X2.4359 Y5.4042
G01 X2.4271 Y5.4000
G01 X2.4179 Y5.3967
G01 X2.4084 Y5.3943
G01 X2.3988 Y5.3929
G01 X2.3890 Y5.3924
G00 Z1.0000
G00 X2.3890 Y8.5924
G01 F15.00
G01 Z-0.4850
G01 F30.00
G01 X2.3792 Y8.5929
G01 X2.3696 Y8.5943
G01 X2.3601 Y8.5967
G01 X2.3509 Y8.6000
G01 X2.3421 Y8.6042
G01 X2.3337 Y8.6092
G01 X2.3258 Y8.6150
G01 X2.3186 Y8.6216
G01 X2.3120 Y8.6288
G01 X2.3062 Y8.6367
G01 X2.3012 Y8.6451
G01 X2.2970 Y8.6539
G01 X2.2937 Y8.6631
G01 X2.2913 Y8.6726
G01 X2.2899 Y8.6822
G01 X2.2894 Y8.6920
G01 X2.2899 Y8.7018
G01 X2.2913 Y8.7114
G01 X2.2937 Y8.7209
G01 X2.2970 Y8.7301
G01 X2.3012 Y8.7389
G01 X2.3062 Y8.7473
G01 X2.3120 Y8.7552
G01 X2.3186 Y8.7624
G01 X2.3258 Y8.7690
G01 X2.3337 Y8.7748
G01 X2.3421 Y8.7798
G01 X2.3509 Y8.7840
G01 X2.3601 Y8.7873
G01 X2.3696 Y8.7897
G01 X2.3792 Y8.7911
G01 X2.3890 Y8.7916
G01 X2.3988 Y8.7911
G01 X2.4084 Y8.7897
G01 X2.4179 Y8.7873
G01 X2.4271 Y8.7840
G01 X2.4359 Y8.7798
G01 X2.4443 Y8.7748
G01 X2.4522 Y8.7690
G01 X2.4594 Y8.7624
G01 X2.4660 Y8.7552
G01 X2.4718 Y8.7473
G01 X2.4768 Y8.7389
G01 X2.4810 Y8.7301
G01 X2.4843 Y8.7209
G01 X2.4867 Y8.7114
G01 X2.4881 Y8.7018
G01 X2.4886 Y8.6920
G01 X2.4881 Y8.6822
G01 X2.4867 Y8.6726
G01 X2.4843 Y8.6631
G01 X2.4810 Y8.6539
G01 X2.4768 Y8.6451
G01 X2.4718 Y8.6367
G01 X2.4660 Y8.6288
G01 X2.4594 Y8.6216
G01 X2.4522 Y8.6150
G01 X2.4443 Y8.6092
G01 X2.4359 Y8.6042
G01 X2.4271 Y8.6000
G01 X2.4179 Y8.5967
G01 X2.4084 Y8.5943
G01 X2.3988 Y8.5929
G01 X2.3890 Y8.5924
G00 X2.3890 Y8.5924
G01 F15.00
G01 Z-0.9700
G01 F30.00
G01 X2.3792 Y8.5929
G01 X2.3696 Y8.5943
G01 X2.3601 Y8.5967
G01 X2.3509 Y8.6000
G01 X2.3421 Y8.6042
G01 X2.3337 Y8.6092
G01 X2.3258 Y8.6150
G01 X2.3186 Y8.6216
G01 X2.3120 Y8.6288
G01 X2.3062 Y8.6367
G01 X2.3012 Y8.6451
G01 X2.2970 Y8.6539
G01 X2.2937 Y8.6631
G01 X2.2913 Y8.6726
G01 X2.2899 Y8.6822
G01 X2.2894 Y8.6920
G01 X2.2899 Y8.7018
G01 X2.2913 Y8.7114
G01 X2.2937 Y8.7209
G01 X2.2970 Y8.7301
G01 X2.3012 Y8.7389
G01 X2.3062 Y8.7473
G01 X2.3120 Y8.7552
G01 X2.3186 Y8.7624
G01 X2.3258 Y8.7690
G01 X2.3337 Y8.7748
G01 X2.3421 Y8.7798
G01 X2.3509 Y8.7840
G01 X2.3601 Y8.7873
G01 X2.3696 Y8.7897
G01 X2.3792 Y8.7911
G01 X2.3890 Y8.7916
G01 X2.3988 Y8.7911
G01 X2.4084 Y8.7897
G01 X2.4179 Y8.7873
G01 X2.4271 Y8.7840
G01 X2.4359 Y8.7798
G01 X2.4443 Y8.7748
G01 X2.4522 Y8.7690
G01 X2.4594 Y8.7624
G01 X2.4660 Y8.7552
G01 X2.4718 Y8.7473
G01 X2.4768 Y8.7389
G01 X2.4810 Y8.7301
G01 X2.4843 Y8.7209
G01 X2.4867 Y8.7114
G01 X2.4881 Y8.7018
G01 X2.4886 Y8.6920
G01 X2.4881 Y8.6822
G01 X2.4867 Y8.6726
G01 X2.4843 Y8.6631
G01 X2.4810 Y8.6539
G01 X2.4768 Y8.6451
G01 X2.4718 Y8.6367
G01 X2.4660 Y8.6288
G01 X2.4594 Y8.6216
G01 X2.4522 Y8.6150
G01 X2.4443 Y8.6092
G01 X2.4359 Y8.6042
G01 X2.4271 Y8.6000
G01 X2.4179 Y8.5967
G01 X2.4084 Y8.5943
G01 X2.3988 Y8.5929
G01 X2.3890 Y8.5924
G00 X2.3890 Y8.5924
G01 F15.00
G01 Z-1.4550
G01 F30.00
G01 X2.3792 Y8.5929
G01 X2.3696 Y8.5943
G01 X2.3601 Y8.5967
G01 X2.3509 Y8.6000
G01 X2.3421 Y8.6042
G01 X2.3337 Y8.6092
G01 X2.3258 Y8.6150
G01 X2.3186 Y8.6216
G01 X2.3120 Y8.6288
G01 X2.3062 Y8.6367
G01 X2.3012 Y8.6451
G01 X2.2970 Y8.6539
G01 X2.2937 Y8.6631
G01 X2.2913 Y8.6726
G01 X2.2899 Y8.6822
G01 X2.2894 Y8.6920
G01 X2.2899 Y8.7018
G01 X2.2913 Y8.7114
G01 X2.2937 Y8.7209
G01 X2.2970 Y8.7301
G01 X2.3012 Y8.7389
G01 X2.3062 Y8.7473
G01 X2.3120 Y8.7552
G01 X2.3186 Y8.7624
G01 X2.3258 Y8.7690
G01 X2.3337 Y8.7748
G01 X2.3421 Y8.7798
G01 X2.3509 Y8.7840
G01 X2.3601 Y8.7873
G01 X2.3696 Y8.7897
G01 X2.3792 Y8.7911
G01 X2.3890 Y8.7916
G01 X2.3988 Y8.7911
G01 X2.4084 Y8.7897
G01 X2.4179 Y8.7873
G01 X2.4271 Y8.7840
G01 X2.4359 Y8.7798
G01 X2.4443 Y8.7748
G01 X2.4522 Y8.7690
G01 X2.4594 Y8.7624
G01 X2.4660 Y8.7552
G01 X2.4718 Y8.7473
G01 X2.4768 Y8.7389
G01 X2.4810 Y8.7301
G01 X2.4843 Y8.7209
G01 X2.4867 Y8.7114
G01 X2.4881 Y8.7018
G01 X2.4886 Y8.6920
G01 X2.4881 Y8.6822
G01 X2.4867 Y8.6726
G01 X2.4843 Y8.6631
G01 X2.4810 Y8.6539
G01 X2.4768 Y8.6451
G01 X2.4718 Y8.6367
G01 X2.4660 Y8.6288
G01 X2.4594 Y8.6216
G01 X2.4522 Y8.6150
G01 X2.4443 Y8.6092
G01 X2.4359 Y8.6042
G01 X2.4271 Y8.6000
G01 X2.4179 Y8.5967
G01 X2.4084 Y8.5943
G01 X2.3988 Y8.5929
G01 X2.3890 Y8.5924
G00 X2.3890 Y8.5924
G01 F15.00
G01 Z-1.9400
G01 F30.00
G01 X2.3792 Y8.5929
G01 X2.3696 Y8.5943
G01 X2.3601 Y8.5967
G01 X2.3509 Y8.6000
G01 X2.3421 Y8.6042
G01 X2.3337 Y8.6092
G01 X2.3258 Y8.6150
G01 X2.3186 Y8.6216
G01 X2.3120 Y8.6288
G01 X2.3062 Y8.6367
G01 X2.3012 Y8.6451
G01 X2.2970 Y8.6539
G01 X2.2937 Y8.6631
G01 X2.2913 Y8.6726
G01 X2.2899 Y8.6822
G01 X2.2894 Y8.6920
G01 X2.2899 Y8.7018
G01 X2.2913 Y8.7114
G01 X2.2937 Y8.7209
G01 X2.2970 Y8.7301
G01 X2.3012 Y8.7389
G01 X2.3062 Y8.7473
G01 X2.3120 Y8.7552
G01 X2.3186 Y8.7624
G01 X2.3258 Y8.7690
G01 X2.3337 Y8.7748
G01 X2.3421 Y8.7798
G01 X2.3509 Y8.7840
G01 X2.3601 Y8.7873
G01 X2.3696 Y8.7897
G01 X2.3792 Y8.7911
G01 X2.3890 Y8.7916
G01 X2.3988 Y8.7911
G01 X2.4084 Y8.7897
G01 X2.4179 Y8.7873
G01 X2.4271 Y8.7840
G01 X2.4359 Y8.7798
G01 X2.4443 Y8.7748
G01 X2.4522 Y8.7690
G01 X2.4594 Y8.7624
G01 X2.4660 Y8.7552
G01 X2.4718 Y8.7473
G01 X2.4768 Y8.7389
G01 X2.4810 Y8.7301
G01 X2.4843 Y8.7209
G01 X2.4867 Y8.7114
G01 X2.4881 Y8.7018
G01 X2.4886 Y8.6920
G01 X2.4881 Y8.6822
G01 X2.4867 Y8.6726
G01 X2.4843 Y8.6631
G01 X2.4810 Y8.6539
G01 X2.4768 Y8.6451
G01 X2.4718 Y8.6367
G01 X2.4660 Y8.6288
G01 X2.4594 Y8.6216
G01 X2.4522 Y8.6150
G01 X2.4443 Y8.6092
G01 X2.4359 Y8.6042
G01 X2.4271 Y8.6000
G01 X2.4179 Y8.5967
G01 X2.4084 Y8.5943
G01 X2.3988 Y8.5929
G01 X2.3890 Y8.5924
G00 Z1.0000
G00 X2.3890 Y11.7924
G01 F15.00
G01 Z-0.4850
G01 F30.00
G01 X2.3792 Y11.7929
G01 X2.3696 Y11.7943
G01 X2.3601 Y11.7967
G01 X2.3509 Y11.8000
G01 X2.3421 Y11.8042
G01 X2.3337 Y11.8092
G01 X2.3258 Y11.8150
G01 X2.3186 Y11.8216
G01 X2.3120 Y11.8288
G01 X2.3062 Y11.8367
G01 X2.3012 Y11.8451
G01 X2.2970 Y11.8539
G01 X2.2937 Y11.8631
G01 X2.2913 Y11.8726
G01 X2.2899 Y11.8822
G01 X2.2894 Y11.8920
G01 X2.2899 Y11.9018
G01 X2.2913 Y11.9114
G01 X2.2937 Y11.9209
G01 X2.2970 Y11.9301
G01 X2.3012 Y11.9389
G01 X2.3062 Y11.9473
G01 X2.3120 Y11.9552
G01 X2.3186 Y11.9624
G01 X2.3258 Y11.9690
G01 X2.3337 Y11.9748
G01 X2.3421 Y11.9798
G01 X2.3509 Y11.9840
G01 X2.3601 Y11.9873
G01 X2.3696 Y11.9897
G01 X2.3792 Y11.9911
G01 X2.3890 Y11.9916
G01 X2.3988 Y11.9911
G01 X2.4084 Y11.9897
G01 X2.4179 Y11.9873
G01 X2.4271 Y11.9840
G01 X2.4359 Y11.9798
G01 X2.4443 Y11.9748
G01 X2.4522 Y11.9690
G01 X2.4594 Y11.9624
G01 X2.4660 Y11.9552
G01 X2.4718 Y11.9473
G01 X2.4768 Y11.9389
G01 X2.4810 Y11.9301
G01 X2.4843 Y11.9209
G01 X2.4867 Y11.9114
G01 X2.4881 Y11.9018
G01 X2.4886 Y11.8920
G01 X2.4881 Y11.8822
G01 X2.4867 Y11.8726
G01 X2.4843 Y11.8631
G01 X2.4810 Y11.8539
G01 X2.4768 Y11.8451
G01 X2.4718 Y11.8367
G01 X2.4660 Y11.8288
G01 X2.4594 Y11.8216
G01 X2.4522 Y11.8150
G01 X2.4443 Y11.8092
G01 X2.4359 Y11.8042
G01 X2.4271 Y11.8000
G01 X2.4179 Y11.7967
G01 X2.4084 Y11.7943
G01 X2.3988 Y11.7929
G01 X2.3890 Y11.7924
G00 X2.3890 Y11.7924
G01 F15.00
G01 Z-0.9700
G01 F30.00
G01 X2.3792 Y11.7929
G01 X2.3696 Y11.7943
G01 X2.3601 Y11.7967
G01 X2.3509 Y11.8000
G01 X2.3421 Y11.8042
G01 X2.3337 Y11.8092
G01 X2.3258 Y11.8150
G01 X2.3186 Y11.8216
G01 X2.3120 Y11.8288
G01 X2.3062 Y11.8367
G01 X2.3012 Y11.8451
G01 X2.2970 Y11.8539
G01 X2.2937 Y11.8631
G01 X2.2913 Y11.8726
G01 X2.2899 Y11.8822
G01 X2.2894 Y11.8920
G01 X2.2899 Y11.9018
G01 X2.2913 Y11.9114
G01 X2.2937 Y11.9209
G01 X2.2970 Y11.9301
G01 X2.3012 Y11.9389
G01 X2.3062 Y11.9473
G01 X2.3120 Y11.9552
G01 X2.3186 Y11.9624
G01 X2.3258 Y11.9690
G01 X2.3337 Y11.9748
G01 X2.3421 Y11.9798
G01 X2.3509 Y11.9840
G01 X2.3601 Y11.9873
G01 X2.3696 Y11.9897
G01 X2.3792 Y11.9911
G01 X2.3890 Y11.9916
G01 X2.3988 Y11.9911
G01 X2.4084 Y11.9897
G01 X2.4179 Y11.9873
G01 X2.4271 Y11.9840
G01 X2.4359 Y11.9798
G01 X2.4443 Y11.9748
G01 X2.4522 Y11.9690
G01 X2.4594 Y11.9624
G01 X2.4660 Y11.9552
G01 X2.4718 Y11.9473
G01 X2.4768 Y11.9389
G01 X2.4810 Y11.9301
G01 X2.4843 Y11.9209
G01 X2.4867 Y11.9114
G01 X2.4881 Y11.9018
G01 X2.4886 Y11.8920
G01 X2.4881 Y11.8822
G01 X2.4867 Y11.8726
G01 X2.4843 Y11.8631
G01 X2.4810 Y11.8539
G01 X2.4768 Y11.8451
G01 X2.4718 Y11.8367
G01 X2.4660 Y11.8288
G01 X2.4594 Y11.8216
G01 X2.4522 Y11.8150
G01 X2.4443 Y11.8092
G01 X2.4359 Y11.8042
G01 X2.4271 Y11.8000
G01 X2.4179 Y11.7967
G01 X2.4084 Y11.7943
G01 X2.3988 Y11.7929
G01 X2.3890 Y11.7924
G00 X2.3890 Y11.7924
G01 F15.00
G01 Z-1.4550
G01 F30.00
G01 X2.3792 Y11.7929
G01 X2.3696 Y11.7943
G01 X2.3601 Y11.7967
G01 X2.3509 Y11.8000
G01 X2.3421 Y11.8042
G01 X2.3337 Y11.8092
G01 X2.3258 Y11.8150
G01 X2.3186 Y11.8216
G01 X2.3120 Y11.8288
G01 X2.3062 Y11.8367
G01 X2.3012 Y11.8451
G01 X2.2970 Y11.8539
G01 X2.2937 Y11.8631
G01 X2.2913 Y11.8726
G01 X2.2899 Y11.8822
G01 X2.2894 Y11.8920
G01 X2.2899 Y11.9018
G01 X2.2913 Y11.9114
G01 X2.2937 Y11.9209
G01 X2.2970 Y11.9301
G01 X2.3012 Y11.9389
G01 X2.3062 Y11.9473
G01 X2.3120 Y11.9552
G01 X2.3186 Y11.9624
G01 X2.3258 Y11.9690
G01 X2.3337 Y11.9748
G01 X2.3421 Y11.9798
G01 X2.3509 Y11.9840
G01 X2.3601 Y11.9873
G01 X2.3696 Y11.9897
G01 X2.3792 Y11.9911
G01 X2.3890 Y11.9916
G01 X2.3988 Y11.9911
G01 X2.4084 Y11.9897
G01 X2.4179 Y11.9873
G01 X2.4271 Y11.9840
G01 X2.4359 Y11.9798
G01 X2.4443 Y11.9748
G01 X2.4522 Y11.9690
G01 X2.4594 Y11.9624
G01 X2.4660 Y11.9552
G01 X2.4718 Y11.9473
G01 X2.4768 Y11.9389
G01 X2.4810 Y11.9301
G01 X2.4843 Y11.9209
G01 X2.4867 Y11.9114
G01 X2.4881 Y11.9018
G01 X2.4886 Y11.8920
G01 X2.4881 Y11.8822
G01 X2.4867 Y11.8726
G01 X2.4843 Y11.8631
G01 X2.4810 Y11.8539
G01 X2.4768 Y11.8451
G01 X2.4718 Y11.8367
G01 X2.4660 Y11.8288
G01 X2.4594 Y11.8216
G01 X2.4522 Y11.8150
G01 X2.4443 Y11.8092
G01 X2.4359 Y11.8042
G01 X2.4271 Y11.8000
G01 X2.4179 Y11.7967
G01 X2.4084 Y11.7943
G01 X2.3988 Y11.7929
G01 X2.3890 Y11.7924
G00 X2.3890 Y11.7924
G01 F15.00
G01 Z-1.9400
G01 F30.00
G01 X2.3792 Y11.7929
G01 X2.3696 Y11.7943
G01 X2.3601 Y11.7967
G01 X2.3509 Y11.8000
G01 X2.3421 Y11.8042
G01 X2.3337 Y11.8092
G01 X2.3258 Y11.8150
G01 X2.3186 Y11.8216
G01 X2.3120 Y11.8288
G01 X2.3062 Y11.8367
G01 X2.3012 Y11.8451
G01 X2.2970 Y11.8539
G01 X2.2937 Y11.8631
G01 X2.2913 Y11.8726
G01 X2.2899 Y11.8822
G01 X2.2894 Y11.8920
G01 X2.2899 Y11.9018
G01 X2.2913 Y11.9114
G01 X2.2937 Y11.9209
G01 X2.2970 Y11.9301
G01 X2.3012 Y11.9389
G01 X2.3062 Y11.9473
G01 X2.3120 Y11.9552
G01 X2.3186 Y11.9624
G01 X2.3258 Y11.9690
G01 X2.3337 Y11.9748
G01 X2.3421 Y11.9798
G01 X2.3509 Y11.9840
G01 X2.3601 Y11.9873
G01 X2.3696 Y11.9897
G01 X2.3792 Y11.9911
G01 X2.3890 Y11.9916
G01 X2.3988 Y11.9911
G01 X2.4084 Y11.9897
G01 X2.4179 Y11.9873
G01 X2.4271 Y11.9840
G01 X2.4359 Y11.9798
G01 X2.4443 Y11.9748
G01 X2.4522 Y11.9690
G01 X2.4594 Y11.9624
G01 X2.4660 Y11.9552
G01 X2.4718 Y11.9473
G01 X2.4768 Y11.9389
G01 X2.4810 Y11.9301
G01 X2.4843 Y11.9209
G01 X2.4867 Y11.9114
G01 X2.4881 Y11.9018
G01 X2.4886 Y11.8920
G01 X2.4881 Y11.8822
G01 X2.4867 Y11.8726
G01 X2.4843 Y11.8631
G01 X2.4810 Y11.8539
G01 X2.4768 Y11.8451
G01 X2.4718 Y11.8367
G01 X2.4660 Y11.8288
G01 X2.4594 Y11.8216
G01 X2.4522 Y11.8150
G01 X2.4443 Y11.8092
G01 X2.4359 Y11.8042
G01 X2.4271 Y11.8000
G01 X2.4179 Y11.7967
G01 X2.4084 Y11.7943
G01 X2.3988 Y11.7929
G01 X2.3890 Y11.7924
G00 Z1.0000
G00 X2.3890 Y14.9924
G01 F15.00
G01 Z-0.4850
G01 F30.00
G01 X2.3792 Y14.9929
G01 X2.3696 Y14.9943
G01 X2.3601 Y14.9967
G01 X2.3509 Y15.0000
G01 X2.3421 Y15.0042
G01 X2.3337 Y15.0092
G01 X2.3258 Y15.0150
G01 X2.3186 Y15.0216
G01 X2.3120 Y15.0288
G01 X2.3062 Y15.0367
G01 X2.3012 Y15.0451
G01 X2.2970 Y15.0539
G01 X2.2937 Y15.0631
G01 X2.2913 Y15.0726
G01 X2.2899 Y15.0822
G01 X2.2894 Y15.0920
G01 X2.2899 Y15.1018
G01 X2.2913 Y15.1114
G01 X2.2937 Y15.1209
G01 X2.2970 Y15.1301
G01 X2.3012 Y15.1389
G01 X2.3062 Y15.1473
G01 X2.3120 Y15.1552
G01 X2.3186 Y15.1624
G01 X2.3258 Y15.1690
G01 X2.3337 Y15.1748
G01 X2.3421 Y15.1798
G01 X2.3509 Y15.1840
G01 X2.3601 Y15.1873
G01 X2.3696 Y15.1897
G01 X2.3792 Y15.1911
G01 X2.3890 Y15.1916
G01 X2.3988 Y15.1911
G01 X2.4084 Y15.1897
G01 X2.4179 Y15.1873
G01 X2.4271 Y15.1840
G01 X2.4359 Y15.1798
G01 X2.4443 Y15.1748
G01 X2.4522 Y15.1690
G01 X2.4594 Y15.1624
G01 X2.4660 Y15.1552
G01 X2.4718 Y15.1473
G01 X2.4768 Y15.1389
G01 X2.4810 Y15.1301
G01 X2.4843 Y15.1209
G01 X2.4867 Y15.1114
G01 X2.4881 Y15.1018
G01 X2.4886 Y15.0920
G01 X2.4881 Y15.0822
G01 X2.4867 Y15.0726
G01 X2.4843 Y15.0631
G01 X2.4810 Y15.0539
G01 X2.4768 Y15.0451
G01 X2.4718 Y15.0367
G01 X2.4660 Y15.0288
G01 X2.4594 Y15.0216
G01 X2.4522 Y15.0150
G01 X2.4443 Y15.0092
G01 X2.4359 Y15.0042
G01 X2.4271 Y15.0000
G01 X2.4179 Y14.9967
G01 X2.4084 Y14.9943
G01 X2.3988 Y14.9929
G01 X2.3890 Y14.9924
G00 X2.3890 Y14.9924
G01 F15.00
G01 Z-0.9700
G01 F30.00
G01 X2.3792 Y14.9929
G01 X2.3696 Y14.9943
G01 X2.3601 Y14.9967
G01 X2.3509 Y15.0000
G01 X2.3421 Y15.0042
G01 X2.3337 Y15.0092
G01 X2.3258 Y15.0150
G01 X2.3186 Y15.0216
G01 X2.3120 Y15.0288
G01 X2.3062 Y15.0367
G01 X2.3012 Y15.0451
G01 X2.2970 Y15.0539
G01 X2.2937 Y15.0631
G01 X2.2913 Y15.0726
G01 X2.2899 Y15.0822
G01 X2.2894 Y15.0920
G01 X2.2899 Y15.1018
G01 X2.2913 Y15.1114
G01 X2.2937 Y15.1209
G01 X2.2970 Y15.1301
G01 X2.3012 Y15.1389
G01 X2.3062 Y15.1473
G01 X2.3120 Y15.1552
G01 X2.3186 Y15.1624
G01 X2.3258 Y15.1690
G01 X2.3337 Y15.1748
G01 X2.3421 Y15.1798
G01 X2.3509 Y15.1840
G01 X2.3601 Y15.1873
G01 X2.3696 Y15.1897
G01 X2.3792 Y15.1911
G01 X2.3890 Y15.1916
G01 X2.3988 Y15.1911
G01 X2.4084 Y15.1897
G01 X2.4179 Y15.1873
G01 X2.4271 Y15.1840
G01 X2.4359 Y15.1798
G01 X2.4443 Y15.1748
G01 X2.4522 Y15.1690
G01 X2.4594 Y15.1624
G01 X2.4660 Y15.1552
G01 X2.4718 Y15.1473
G01 X2.4768 Y15.1389
G01 X2.4810 Y15.1301
G01 X2.4843 Y15.1209
G01 X2.4867 Y15.1114
G01 X2.4881 Y15.1018
G01 X2.4886 Y15.0920
G01 X2.4881 Y15.0822
G01 X2.4867 Y15.0726
G01 X2.4843 Y15.0631
G01 X2.4810 Y15.0539
G01 X2.4768 Y15.0451
G01 X2.4718 Y15.0367
G01 X2.4660 Y15.0288
G01 X2.4594 Y15.0216
G01 X2.4522 Y15.0150
G01 X2.4443 Y15.0092
G01 X2.4359 Y15.0042
G01 X2.4271 Y15.0000
G01 X2.4179 Y14.9967
G01 X2.4084 Y14.9943
G01 X2.3988 Y14.9929
G01 X2.3890 Y14.9924
G00 X2.3890 Y14.9924
G01 F15.00
G01 Z-1.4550
G01 F30.00
G01 X2.3792 Y14.9929
G01 X2.3696 Y14.9943
G01 X2.3601 Y14.9967
G01 X2.3509 Y15.0000
G01 X2.3421 Y15.0042
G01 X2.3337 Y15.0092
G01 X2.3258 Y15.0150
G01 X2.3186 Y15.0216
G01 X2.3120 Y15.0288
G01 X2.3062 Y15.0367
G01 X2.3012 Y15.0451
G01 X2.2970 Y15.0539
G01 X2.2937 Y15.0631
G01 X2.2913 Y15.0726
G01 X2.2899 Y15.0822
G01 X2.2894 Y15.0920
G01 X2.2899 Y15.1018
G01 X2.2913 Y15.1114
G01 X2.2937 Y15.1209
G01 X2.2970 Y15.1301
G01 X2.3012 Y15.1389
G01 X2.3062 Y15.1473
G01 X2.3120 Y15.1552
G01 X2.3186 Y15.1624
G01 X2.3258 Y15.1690
G01 X2.3337 Y15.1748
G01 X2.3421 Y15.1798
G01 X2.3509 Y15.1840
G01 X2.3601 Y15.1873
G01 X2.3696 Y15.1897
G01 X2.3792 Y15.1911
G01 X2.3890 Y15.1916
G01 X2.3988 Y15.1911
G01 X2.4084 Y15.1897
G01 X2.4179 Y15.1873
G01 X2.4271 Y15.1840
G01 X2.4359 Y15.1798
G01 X2.4443 Y15.1748
G01 X2.4522 Y15.1690
G01 X2.4594 Y15.1624
G01 X2.4660 Y15.1552
G01 X2.4718 Y15.1473
G01 X2.4768 Y15.1389
G01 X2.4810 Y15.1301
G01 X2.4843 Y15.1209
G01 X2.4867 Y15.1114
G01 X2.4881 Y15.1018
G01 X2.4886 Y15.0920
G01 X2.4881 Y15.0822
G01 X2.4867 Y15.0726
G01 X2.4843 Y15.0631
G01 X2.4810 Y15.0539
G01 X2.4768 Y15.0451
G01 X2.4718 Y15.0367
G01 X2.4660 Y15.0288
G01 X2.4594 Y15.0216
G01 X2.4522 Y15.0150
G01 X2.4443 Y15.0092
G01 X2.4359 Y15.0042
G01 X2.4271 Y15.0000
G01 X2.4179 Y14.9967
G01 X2.4084 Y14.9943
G01 X2.3988 Y14.9929
G01 X2.3890 Y14.9924
G00 X2.3890 Y14.9924
G01 F15.00
G01 Z-1.9400
G01 F30.00
G01 X2.3792 Y14.9929
G01 X2.3696 Y14.9943
G01 X2.3601 Y14.9967
G01 X2.3509 Y15.0000
G01 X2.3421 Y15.0042
G01 X2.3337 Y15.0092
G01 X2.3258 Y15.0150
G01 X2.3186 Y15.0216
G01 X2.3120 Y15.0288
G01 X2.3062 Y15.0367
G01 X2.3012 Y15.0451
G01 X2.2970 Y15.0539
G01 X2.2937 Y15.0631
G01 X2.2913 Y15.0726
G01 X2.2899 Y15.0822
G01 X2.2894 Y15.0920
G01 X2.2899 Y15.1018
G01 X2.2913 Y15.1114
G01 X2.2937 Y15.1209
G01 X2.2970 Y15.1301
G01 X2.3012 Y15.1389
G01 X2.3062 Y15.1473
G01 X2.3120 Y15.1552
G01 X2.3186 Y15.1624
G01 X2.3258 Y15.1690
G01 X2.3337 Y15.1748
G01 X2.3421 Y15.1798
G01 X2.3509 Y15.1840
G01 X2.3601 Y15.1873
G01 X2.3696 Y15.1897
G01 X2.3792 Y15.1911
G01 X2.3890 Y15.1916
G01 X2.3988 Y15.1911
G01 X2.4084 Y15.1897
G01 X2.4179 Y15.1873
G01 X2.4271 Y15.1840
G01 X2.4359 Y15.1798
G01 X2.4443 Y15.1748
G01 X2.4522 Y15.1690
G01 X2.4594 Y15.1624
G01 X2.4660 Y15.1552
G01 X2.4718 Y15.1473
G01 X2.4768 Y15.1389
G01 X2.4810 Y15.1301
G01 X2.4843 Y15.1209
G01 X2.4867 Y15.1114
G01 X2.4881 Y15.1018
G01 X2.4886 Y15.0920
G01 X2.4881 Y15.0822
G01 X2.4867 Y15.0726
G01 X2.4843 Y15.0631
G01 X2.4810 Y15.0539
G01 X2.4768 Y15.0451
G01 X2.4718 Y15.0367
G01 X2.4660 Y15.0288
G01 X2.4594 Y15.0216
G01 X2.4522 Y15.0150
G01 X2.4443 Y15.0092
G01 X2.4359 Y15.0042
G01 X2.4271 Y15.0000
G01 X2.4179 Y14.9967
G01 X2.4084 Y14.9943
G01 X2.3988 Y14.9929
G01 X2.3890 Y14.9924
G00 Z1.0000
G00 X2.3890 Y18.1424
G01 F15.00
G01 Z-0.4850
G01 F30.00
G01 X2.3792 Y18.1429
G01 X2.3696 Y18.1443
G01 X2.3601 Y18.1467
G01 X2.3509 Y18.1500
G01 X2.3421 Y18.1542
G01 X2.3337 Y18.1592
G01 X2.3258 Y18.1650
G01 X2.3186 Y18.1716
G01 X2.3120 Y18.1788
G01 X2.3062 Y18.1867
G01 X2.3012 Y18.1951
G01 X2.2970 Y18.2039
G01 X2.2937 Y18.2131
G01 X2.2913 Y18.2226
G01 X2.2899 Y18.2322
G01 X2.2894 Y18.2420
G01 X2.2899 Y18.2518
G01 X2.2913 Y18.2614
G01 X2.2937 Y18.2709
G01 X2.2970 Y18.2801
G01 X2.3012 Y18.2889
G01 X2.3062 Y18.2973
G01 X2.3120 Y18.3052
G01 X2.3186 Y18.3124
G01 X2.3258 Y18.3190
G01 X2.3337 Y18.3248
G01 X2.3421 Y18.3298
G01 X2.3509 Y18.3340
G01 X2.3601 Y18.3373
G01 X2.3696 Y18.3397
G01 X2.3792 Y18.3411
G01 X2.3890 Y18.3416
G01 X2.3988 Y18.3411
G01 X2.4084 Y18.3397
G01 X2.4179 Y18.3373
G01 X2.4271 Y18.3340
G01 X2.4359 Y18.3298
G01 X2.4443 Y18.3248
G01 X2.4522 Y18.3190
G01 X2.4594 Y18.3124
G01 X2.4660 Y18.3052
G01 X2.4718 Y18.2973
G01 X2.4768 Y18.2889
G01 X2.4810 Y18.2801
G01 X2.4843 Y18.2709
G01 X2.4867 Y18.2614
G01 X2.4881 Y18.2518
G01 X2.4886 Y18.2420
G01 X2.4881 Y18.2322
G01 X2.4867 Y18.2226
G01 X2.4843 Y18.2131
G01 X2.4810 Y18.2039
G01 X2.4768 Y18.1951
G01 X2.4718 Y18.1867
G01 X2.4660 Y18.1788
G01 X2.4594 Y18.1716
G01 X2.4522 Y18.1650
G01 X2.4443 Y18.1592
G01 X2.4359 Y18.1542
G01 X2.4271 Y18.1500
G01 X2.4179 Y18.1467
G01 X2.4084 Y18.1443
G01 X2.3988 Y18.1429
G01 X2.3890 Y18.1424
G00 X2.3890 Y18.1424
G01 F15.00
G01 Z-0.9700
G01 F30.00
G01 X2.3792 Y18.1429
G01 X2.3696 Y18.1443
G01 X2.3601 Y18.1467
G01 X2.3509 Y18.1500
G01 X2.3421 Y18.1542
G01 X2.3337 Y18.1592
G01 X2.3258 Y18.1650
G01 X2.3186 Y18.1716
G01 X2.3120 Y18.1788
G01 X2.3062 Y18.1867
G01 X2.3012 Y18.1951
G01 X2.2970 Y18.2039
G01 X2.2937 Y18.2131
G01 X2.2913 Y18.2226
G01 X2.2899 Y18.2322
G01 X2.2894 Y18.2420
G01 X2.2899 Y18.2518
G01 X2.2913 Y18.2614
G01 X2.2937 Y18.2709
G01 X2.2970 Y18.2801
G01 X2.3012 Y18.2889
G01 X2.3062 Y18.2973
G01 X2.3120 Y18.3052
G01 X2.3186 Y18.3124
G01 X2.3258 Y18.3190
G01 X2.3337 Y18.3248
G01 X2.3421 Y18.3298
G01 X2.3509 Y18.3340
G01 X2.3601 Y18.3373
G01 X2.3696 Y18.3397
G01 X2.3792 Y18.3411
G01 X2.3890 Y18.3416
G01 X2.3988 Y18.3411
G01 X2.4084 Y18.3397
G01 X2.4179 Y18.3373
G01 X2.4271 Y18.3340
G01 X2.4359 Y18.3298
G01 X2.4443 Y18.3248
G01 X2.4522 Y18.3190
G01 X2.4594 Y18.3124
G01 X2.4660 Y18.3052
G01 X2.4718 Y18.2973
G01 X2.4768 Y18.2889
G01 X2.4810 Y18.2801
G01 X2.4843 Y18.2709
G01 X2.4867 Y18.2614
G01 X2.4881 Y18.2518
G01 X2.4886 Y18.2420
G01 X2.4881 Y18.2322
G01 X2.4867 Y18.2226
G01 X2.4843 Y18.2131
G01 X2.4810 Y18.2039
G01 X2.4768 Y18.1951
G01 X2.4718 Y18.1867
G01 X2.4660 Y18.1788
G01 X2.4594 Y18.1716
G01 X2.4522 Y18.1650
G01 X2.4443 Y18.1592
G01 X2.4359 Y18.1542
G01 X2.4271 Y18.1500
G01 X2.4179 Y18.1467
G01 X2.4084 Y18.1443
G01 X2.3988 Y18.1429
G01 X2.3890 Y18.1424
G00 X2.3890 Y18.1424
G01 F15.00
G01 Z-1.4550
G01 F30.00
G01 X2.3792 Y18.1429
G01 X2.3696 Y18.1443
G01 X2.3601 Y18.1467
G01 X2.3509 Y18.1500
G01 X2.3421 Y18.1542
G01 X2.3337 Y18.1592
G01 X2.3258 Y18.1650
G01 X2.3186 Y18.1716
G01 X2.3120 Y18.1788
G01 X2.3062 Y18.1867
G01 X2.3012 Y18.1951
G01 X2.2970 Y18.2039
G01 X2.2937 Y18.2131
G01 X2.2913 Y18.2226
G01 X2.2899 Y18.2322
G01 X2.2894 Y18.2420
G01 X2.2899 Y18.2518
G01 X2.2913 Y18.2614
G01 X2.2937 Y18.2709
G01 X2.2970 Y18.2801
G01 X2.3012 Y18.2889
G01 X2.3062 Y18.2973
G01 X2.3120 Y18.3052
G01 X2.3186 Y18.3124
G01 X2.3258 Y18.3190
G01 X2.3337 Y18.3248
G01 X2.3421 Y18.3298
G01 X2.3509 Y18.3340
G01 X2.3601 Y18.3373
G01 X2.3696 Y18.3397
G01 X2.3792 Y18.3411
G01 X2.3890 Y18.3416
G01 X2.3988 Y18.3411
G01 X2.4084 Y18.3397
G01 X2.4179 Y18.3373
G01 X2.4271 Y18.3340
G01 X2.4359 Y18.3298
G01 X2.4443 Y18.3248
G01 X2.4522 Y18.3190
G01 X2.4594 Y18.3124
G01 X2.4660 Y18.3052
G01 X2.4718 Y18.2973
G01 X2.4768 Y18.2889
G01 X2.4810 Y18.2801
G01 X2.4843 Y18.2709
G01 X2.4867 Y18.2614
G01 X2.4881 Y18.2518
G01 X2.4886 Y18.2420
G01 X2.4881 Y18.2322
G01 X2.4867 Y18.2226
G01 X2.4843 Y18.2131
G01 X2.4810 Y18.2039
G01 X2.4768 Y18.1951
G01 X2.4718 Y18.1867
G01 X2.4660 Y18.1788
G01 X2.4594 Y18.1716
G01 X2.4522 Y18.1650
G01 X2.4443 Y18.1592
G01 X2.4359 Y18.1542
G01 X2.4271 Y18.1500
G01 X2.4179 Y18.1467
G01 X2.4084 Y18.1443
G01 X2.3988 Y18.1429
G01 X2.3890 Y18.1424
G00 X2.3890 Y18.1424
G01 F15.00
G01 Z-1.9400
G01 F30.00
G01 X2.3792 Y18.1429
G01 X2.3696 Y18.1443
G01 X2.3601 Y18.1467
G01 X2.3509 Y18.1500
G01 X2.3421 Y18.1542
G01 X2.3337 Y18.1592
G01 X2.3258 Y18.1650
G01 X2.3186 Y18.1716
G01 X2.3120 Y18.1788
G01 X2.3062 Y18.1867
G01 X2.3012 Y18.1951
G01 X2.2970 Y18.2039
G01 X2.2937 Y18.2131
G01 X2.2913 Y18.2226
G01 X2.2899 Y18.2322
G01 X2.2894 Y18.2420
G01 X2.2899 Y18.2518
G01 X2.2913 Y18.2614
G01 X2.2937 Y18.2709
G01 X2.2970 Y18.2801
G01 X2.3012 Y18.2889
G01 X2.3062 Y18.2973
G01 X2.3120 Y18.3052
G01 X2.3186 Y18.3124
G01 X2.3258 Y18.3190
G01 X2.3337 Y18.3248
G01 X2.3421 Y18.3298
G01 X2.3509 Y18.3340
G01 X2.3601 Y18.3373
G01 X2.3696 Y18.3397
G01 X2.3792 Y18.3411
G01 X2.3890 Y18.3416
G01 X2.3988 Y18.3411
G01 X2.4084 Y18.3397
G01 X2.4179 Y18.3373
G01 X2.4271 Y18.3340
G01 X2.4359 Y18.3298
G01 X2.4443 Y18.3248
G01 X2.4522 Y18.3190
G01 X2.4594 Y18.3124
G01 X2.4660 Y18.3052
G01 X2.4718 Y18.2973
G01 X2.4768 Y18.2889
G01 X2.4810 Y18.2801
G01 X2.4843 Y18.2709
G01 X2.4867 Y18.2614
G01 X2.4881 Y18.2518
G01 X2.4886 Y18.2420
G01 X2.4881 Y18.2322
G01 X2.4867 Y18.2226
G01 X2.4843 Y18.2131
G01 X2.4810 Y18.2039
G01 X2.4768 Y18.1951
G01 X2.4718 Y18.1867
G01 X2.4660 Y18.1788
G01 X2.4594 Y18.1716
G01 X2.4522 Y18.1650
G01 X2.4443 Y18.1592
G01 X2.4359 Y18.1542
G01 X2.4271 Y18.1500
G01 X2.4179 Y18.1467
G01 X2.4084 Y18.1443
G01 X2.3988 Y18.1429
G01 X2.3890 Y18.1424
G00 Z1.0000
G00 X10.0090 Y18.1424
G01 F15.00
G01 Z-0.4850
G01 F30.00
G01 X9.9992 Y18.1429
G01 X9.9896 Y18.1443
G01 X9.9801 Y18.1467
G01 X9.9709 Y18.1500
G01 X9.9621 Y18.1542
G01 X9.9537 Y18.1592
G01 X9.9458 Y18.1650
G01 X9.9386 Y18.1716
G01 X9.9320 Y18.1788
G01 X9.9262 Y18.1867
G01 X9.9212 Y18.1951
G01 X9.9170 Y18.2039
G01 X9.9137 Y18.2131
G01 X9.9113 Y18.2226
G01 X9.9099 Y18.2322
G01 X9.9094 Y18.2420
G01 X9.9099 Y18.2518
G01 X9.9113 Y18.2614
G01 X9.9137 Y18.2709
G01 X9.9170 Y18.2801
G01 X9.9212 Y18.2889
G01 X9.9262 Y18.2973
G01 X9.9320 Y18.3052
G01 X9.9386 Y18.3124
G01 X9.9458 Y18.3190
G01 X9.9537 Y18.3248
G01 X9.9621 Y18.3298
G01 X9.9709 Y18.3340
G01 X9.9801 Y18.3373
G01 X9.9896 Y18.3397
G01 X9.9992 Y18.3411
G01 X10.0090 Y18.3416
G01 X10.0188 Y18.3411
G01 X10.0284 Y18.3397
G01 X10.0379 Y18.3373
G01 X10.0471 Y18.3340
G01 X10.0559 Y18.3298
G01 X10.0643 Y18.3248
G01 X10.0722 Y18.3190
G01 X10.0794 Y18.3124
G01 X10.0860 Y18.3052
G01 X10.0918 Y18.2973
G01 X10.0968 Y18.2889
G01 X10.1010 Y18.2801
G01 X10.1043 Y18.2709
G01 X10.1067 Y18.2614
G01 X10.1081 Y18.2518
G01 X10.1086 Y18.2420
G01 X10.1081 Y18.2322
G01 X10.1067 Y18.2226
G01 X10.1043 Y18.2131
G01 X10.1010 Y18.2039
G01 X10.0968 Y18.1951
G01 X10.0918 Y18.1867
G01 X10.0860 Y18.1788
G01 X10.0794 Y18.1716
G01 X10.0722 Y18.1650
G01 X10.0643 Y18.1592
G01 X10.0559 Y18.1542
G01 X10.0471 Y18.1500
G01 X10.0379 Y18.1467
G01 X10.0284 Y18.1443
G01 X10.0188 Y18.1429
G01 X10.0090 Y18.1424
G00 X10.0090 Y18.1424
G01 F15.00
G01 Z-0.9700
G01 F30.00
G01 X9.9992 Y18.1429
G01 X9.9896 Y18.1443
G01 X9.9801 Y18.1467
G01 X9.9709 Y18.1500
G01 X9.9621 Y18.1542
G01 X9.9537 Y18.1592
G01 X9.9458 Y18.1650
G01 X9.9386 Y18.1716
G01 X9.9320 Y18.1788
G01 X9.9262 Y18.1867
G01 X9.9212 Y18.1951
G01 X9.9170 Y18.2039
G01 X9.9137 Y18.2131
G01 X9.9113 Y18.2226
G01 X9.9099 Y18.2322
G01 X9.9094 Y18.2420
G01 X9.9099 Y18.2518
G01 X9.9113 Y18.2614
G01 X9.9137 Y18.2709
G01 X9.9170 Y18.2801
G01 X9.9212 Y18.2889
G01 X9.9262 Y18.2973
G01 X9.9320 Y18.3052
G01 X9.9386 Y18.3124
G01 X9.9458 Y18.3190
G01 X9.9537 Y18.3248
G01 X9.9621 Y18.3298
G01 X9.9709 Y18.3340
G01 X9.9801 Y18.3373
G01 X9.9896 Y18.3397
G01 X9.9992 Y18.3411
G01 X10.0090 Y18.3416
G01 X10.0188 Y18.3411
G01 X10.0284 Y18.3397
G01 X10.0379 Y18.3373
G01 X10.0471 Y18.3340
G01 X10.0559 Y18.3298
G01 X10.0643 Y18.3248
G01 X10.0722 Y18.3190
G01 X10.0794 Y18.3124
G01 X10.0860 Y18.3052
G01 X10.0918 Y18.2973
G01 X10.0968 Y18.2889
G01 X10.1010 Y18.2801
G01 X10.1043 Y18.2709
G01 X10.1067 Y18.2614
G01 X10.1081 Y18.2518
G01 X10.1086 Y18.2420
G01 X10.1081 Y18.2322
G01 X10.1067 Y18.2226
G01 X10.1043 Y18.2131
G01 X10.1010 Y18.2039
G01 X10.0968 Y18.1951
G01 X10.0918 Y18.1867
G01 X10.0860 Y18.1788
G01 X10.0794 Y18.1716
G01 X10.0722 Y18.1650
G01 X10.0643 Y18.1592
G01 X10.0559 Y18.1542
G01 X10.0471 Y18.1500
G01 X10.0379 Y18.1467
G01 X10.0284 Y18.1443
G01 X10.0188 Y18.1429
G01 X10.0090 Y18.1424
G00 X10.0090 Y18.1424
G01 F15.00
G01 Z-1.4550
G01 F30.00
G01 X9.9992 Y18.1429
G01 X9.9896 Y18.1443
G01 X9.9801 Y18.1467
G01 X9.9709 Y18.1500
G01 X9.9621 Y18.1542
G01 X9.9537 Y18.1592
G01 X9.9458 Y18.1650
G01 X9.9386 Y18.1716
G01 X9.9320 Y18.1788
G01 X9.9262 Y18.1867
G01 X9.9212 Y18.1951
G01 X9.9170 Y18.2039
G01 X9.9137 Y18.2131
G01 X9.9113 Y18.2226
G01 X9.9099 Y18.2322
G01 X9.9094 Y18.2420
G01 X9.9099 Y18.2518
G01 X9.9113 Y18.2614
G01 X9.9137 Y18.2709
G01 X9.9170 Y18.2801
G01 X9.9212 Y18.2889
G01 X9.9262 Y18.2973
G01 X9.9320 Y18.3052
G01 X9.9386 Y18.3124
G01 X9.9458 Y18.3190
G01 X9.9537 Y18.3248
G01 X9.9621 Y18.3298
G01 X9.9709 Y18.3340
G01 X9.9801 Y18.3373
G01 X9.9896 Y18.3397
G01 X9.9992 Y18.3411
G01 X10.0090 Y18.3416
G01 X10.0188 Y18.3411
G01 X10.0284 Y18.3397
G01 X10.0379 Y18.3373
G01 X10.0471 Y18.3340
G01 X10.0559 Y18.3298
G01 X10.0643 Y18.3248
G01 X10.0722 Y18.3190
G01 X10.0794 Y18.3124
G01 X10.0860 Y18.3052
G01 X10.0918 Y18.2973
G01 X10.0968 Y18.2889
G01 X10.1010 Y18.2801
G01 X10.1043 Y18.2709
G01 X10.1067 Y18.2614
G01 X10.1081 Y18.2518
G01 X10.1086 Y18.2420
G01 X10.1081 Y18.2322
G01 X10.1067 Y18.2226
G01 X10.1043 Y18.2131
G01 X10.1010 Y18.2039
G01 X10.0968 Y18.1951
G01 X10.0918 Y18.1867
G01 X10.0860 Y18.1788
G01 X10.0794 Y18.1716
G01 X10.0722 Y18.1650
G01 X10.0643 Y18.1592
G01 X10.0559 Y18.1542
G01 X10.0471 Y18.1500
G01 X10.0379 Y18.1467
G01 X10.0284 Y18.1443
G01 X10.0188 Y18.1429
G01 X10.0090 Y18.1424
G00 X10.0090 Y18.1424
G01 F15.00
G01 Z-1.9400
G01 F30.00
G01 X9.9992 Y18.1429
G01 X9.9896 Y18.1443
G01 X9.9801 Y18.1467
G01 X9.9709 Y18.1500
G01 X9.9621 Y18.1542
G01 X9.9537 Y18.1592
G01 X9.9458 Y18.1650
G01 X9.9386 Y18.1716
G01 X9.9320 Y18.1788
G01 X9.9262 Y18.1867
G01 X9.9212 Y18.1951
G01 X9.9170 Y18.2039
G01 X9.9137 Y18.2131
G01 X9.9113 Y18.2226
G01 X9.9099 Y18.2322
G01 X9.9094 Y18.2420
G01 X9.9099 Y18.2518
G01 X9.9113 Y18.2614
G01 X9.9137 Y18.2709
G01 X9.9170 Y18.2801
G01 X9.9212 Y18.2889
G01 X9.9262 Y18.2973
G01 X9.9320 Y18.3052
G01 X9.9386 Y18.3124
G01 X9.9458 Y18.3190
G01 X9.9537 Y18.3248
G01 X9.9621 Y18.3298
G01 X9.9709 Y18.3340
G01 X9.9801 Y18.3373
G01 X9.9896 Y18.3397
G01 X9.9992 Y18.3411
G01 X10.0090 Y18.3416
G01 X10.0188 Y18.3411
G01 X10.0284 Y18.3397
G01 X10.0379 Y18.3373
G01 X10.0471 Y18.3340
G01 X10.0559 Y18.3298
G01 X10.0643 Y18.3248
G01 X10.0722 Y18.3190
G01 X10.0794 Y18.3124
G01 X10.0860 Y18.3052
G01 X10.0918 Y18.2973
G01 X10.0968 Y18.2889
G01 X10.1010 Y18.2801
G01 X10.1043 Y18.2709
G01 X10.1067 Y18.2614
G01 X10.1081 Y18.2518
G01 X10.1086 Y18.2420
G01 X10.1081 Y18.2322
G01 X10.1067 Y18.2226
G01 X10.1043 Y18.2131
G01 X10.1010 Y18.2039
G01 X10.0968 Y18.1951
G01 X10.0918 Y18.1867
G01 X10.0860 Y18.1788
G01 X10.0794 Y18.1716
G01 X10.0722 Y18.1650
G01 X10.0643 Y18.1592
G01 X10.0559 Y18.1542
G01 X10.0471 Y18.1500
G01 X10.0379 Y18.1467
G01 X10.0284 Y18.1443
G01 X10.0188 Y18.1429
G01 X10.0090 Y18.1424
G00 Z1.0000
G00 X10.0090 Y14.9924
G01 F15.00
G01 Z-0.4850
G01 F30.00
G01 X9.9992 Y14.9929
G01 X9.9896 Y14.9943
G01 X9.9801 Y14.9967
G01 X9.9709 Y15.0000
G01 X9.9621 Y15.0042
G01 X9.9537 Y15.0092
G01 X9.9458 Y15.0150
G01 X9.9386 Y15.0216
G01 X9.9320 Y15.0288
G01 X9.9262 Y15.0367
G01 X9.9212 Y15.0451
G01 X9.9170 Y15.0539
G01 X9.9137 Y15.0631
G01 X9.9113 Y15.0726
G01 X9.9099 Y15.0822
G01 X9.9094 Y15.0920
G01 X9.9099 Y15.1018
G01 X9.9113 Y15.1114
G01 X9.9137 Y15.1209
G01 X9.9170 Y15.1301
G01 X9.9212 Y15.1389
G01 X9.9262 Y15.1473
G01 X9.9320 Y15.1552
G01 X9.9386 Y15.1624
G01 X9.9458 Y15.1690
G01 X9.9537 Y15.1748
G01 X9.9621 Y15.1798
G01 X9.9709 Y15.1840
G01 X9.9801 Y15.1873
G01 X9.9896 Y15.1897
G01 X9.9992 Y15.1911
G01 X10.0090 Y15.1916
G01 X10.0188 Y15.1911
G01 X10.0284 Y15.1897
G01 X10.0379 Y15.1873
G01 X10.0471 Y15.1840
G01 X10.0559 Y15.1798
G01 X10.0643 Y15.1748
G01 X10.0722 Y15.1690
G01 X10.0794 Y15.1624
G01 X10.0860 Y15.1552
G01 X10.0918 Y15.1473
G01 X10.0968 Y15.1389
G01 X10.1010 Y15.1301
G01 X10.1043 Y15.1209
G01 X10.1067 Y15.1114
G01 X10.1081 Y15.1018
G01 X10.1086 Y15.0920
G01 X10.1081 Y15.0822
G01 X10.1067 Y15.0726
G01 X10.1043 Y15.0631
G01 X10.1010 Y15.0539
G01 X10.0968 Y15.0451
G01 X10.0918 Y15.0367
G01 X10.0860 Y15.0288
G01 X10.0794 Y15.0216
G01 X10.0722 Y15.0150
G01 X10.0643 Y15.0092
G01 X10.0559 Y15.0042
G01 X10.0471 Y15.0000
G01 X10.0379 Y14.9967
G01 X10.0284 Y14.9943
G01 X10.0188 Y14.9929
G01 X10.0090 Y14.9924
G00 X10.0090 Y14.9924
G01 F15.00
G01 Z-0.9700
G01 F30.00
G01 X9.9992 Y14.9929
G01 X9.9896 Y14.9943
G01 X9.9801 Y14.9967
G01 X9.9709 Y15.0000
G01 X9.9621 Y15.0042
G01 X9.9537 Y15.0092
G01 X9.9458 Y15.0150
G01 X9.9386 Y15.0216
G01 X9.9320 Y15.0288
G01 X9.9262 Y15.0367
G01 X9.9212 Y15.0451
G01 X9.9170 Y15.0539
G01 X9.9137 Y15.0631
G01 X9.9113 Y15.0726
G01 X9.9099 Y15.0822
G01 X9.9094 Y15.0920
G01 X9.9099 Y15.1018
G01 X9.9113 Y15.1114
G01 X9.9137 Y15.1209
G01 X9.9170 Y15.1301
G01 X9.9212 Y15.1389
G01 X9.9262 Y15.1473
G01 X9.9320 Y15.1552
G01 X9.9386 Y15.1624
G01 X9.9458 Y15.1690
G01 X9.9537 Y15.1748
G01 X9.9621 Y15.1798
G01 X9.9709 Y15.1840
G01 X9.9801 Y15.1873
G01 X9.9896 Y15.1897
G01 X9.9992 Y15.1911
G01 X10.0090 Y15.1916
G01 X10.0188 Y15.1911
G01 X10.0284 Y15.1897
G01 X10.0379 Y15.1873
G01 X10.0471 Y15.1840
G01 X10.0559 Y15.1798
G01 X10.0643 Y15.1748
G01 X10.0722 Y15.1690
G01 X10.0794 Y15.1624
G01 X10.0860 Y15.1552
G01 X10.0918 Y15.1473
G01 X10.0968 Y15.1389
G01 X10.1010 Y15.1301
G01 X10.1043 Y15.1209
G01 X10.1067 Y15.1114
G01 X10.1081 Y15.1018
G01 X10.1086 Y15.0920
G01 X10.1081 Y15.0822
G01 X10.1067 Y15.0726
G01 X10.1043 Y15.0631
G01 X10.1010 Y15.0539
G01 X10.0968 Y15.0451
G01 X10.0918 Y15.0367
G01 X10.0860 Y15.0288
G01 X10.0794 Y15.0216
G01 X10.0722 Y15.0150
G01 X10.0643 Y15.0092
G01 X10.0559 Y15.0042
G01 X10.0471 Y15.0000
G01 X10.0379 Y14.9967
G01 X10.0284 Y14.9943
G01 X10.0188 Y14.9929
G01 X10.0090 Y14.9924
G00 X10.0090 Y14.9924
G01 F15.00
G01 Z-1.4550
G01 F30.00
G01 X9.9992 Y14.9929
G01 X9.9896 Y14.9943
G01 X9.9801 Y14.9967
G01 X9.9709 Y15.0000
G01 X9.9621 Y15.0042
G01 X9.9537 Y15.0092
G01 X9.9458 Y15.0150
G01 X9.9386 Y15.0216
G01 X9.9320 Y15.0288
G01 X9.9262 Y15.0367
G01 X9.9212 Y15.0451
G01 X9.9170 Y15.0539
G01 X9.9137 Y15.0631
G01 X9.9113 Y15.0726
G01 X9.9099 Y15.0822
G01 X9.9094 Y15.0920
G01 X9.9099 Y15.1018
G01 X9.9113 Y15.1114
G01 X9.9137 Y15.1209
G01 X9.9170 Y15.1301
G01 X9.9212 Y15.1389
G01 X9.9262 Y15.1473
G01 X9.9320 Y15.1552
G01 X9.9386 Y15.1624
G01 X9.9458 Y15.1690
G01 X9.9537 Y15.1748
G01 X9.9621 Y15.1798
G01 X9.9709 Y15.1840
G01 X9.9801 Y15.1873
G01 X9.9896 Y15.1897
G01 X9.9992 Y15.1911
G01 X10.0090 Y15.1916
G01 X10.0188 Y15.1911
G01 X10.0284 Y15.1897
G01 X10.0379 Y15.1873
G01 X10.0471 Y15.1840
G01 X10.0559 Y15.1798
G01 X10.0643 Y15.1748
G01 X10.0722 Y15.1690
G01 X10.0794 Y15.1624
G01 X10.0860 Y15.1552
G01 X10.0918 Y15.1473
G01 X10.0968 Y15.1389
G01 X10.1010 Y15.1301
G01 X10.1043 Y15.1209
G01 X10.1067 Y15.1114
G01 X10.1081 Y15.1018
G01 X10.1086 Y15.0920
G01 X10.1081 Y15.0822
G01 X10.1067 Y15.0726
G01 X10.1043 Y15.0631
G01 X10.1010 Y15.0539
G01 X10.0968 Y15.0451
G01 X10.0918 Y15.0367
G01 X10.0860 Y15.0288
G01 X10.0794 Y15.0216
G01 X10.0722 Y15.0150
G01 X10.0643 Y15.0092
G01 X10.0559 Y15.0042
G01 X10.0471 Y15.0000
G01 X10.0379 Y14.9967
G01 X10.0284 Y14.9943
G01 X10.0188 Y14.9929
G01 X10.0090 Y14.9924
G00 X10.0090 Y14.9924
G01 F15.00
G01 Z-1.9400
G01 F30.00
G01 X9.9992 Y14.9929
G01 X9.9896 Y14.9943
G01 X9.9801 Y14.9967
G01 X9.9709 Y15.0000
G01 X9.9621 Y15.0042
G01 X9.9537 Y15.0092
G01 X9.9458 Y15.0150
G01 X9.9386 Y15.0216
G01 X9.9320 Y15.0288
G01 X9.9262 Y15.0367
G01 X9.9212 Y15.0451
G01 X9.9170 Y15.0539
G01 X9.9137 Y15.0631
G01 X9.9113 Y15.0726
G01 X9.9099 Y15.0822
G01 X9.9094 Y15.0920
G01 X9.9099 Y15.1018
G01 X9.9113 Y15.1114
G01 X9.9137 Y15.1209
G01 X9.9170 Y15.1301
G01 X9.9212 Y15.1389
G01 X9.9262 Y15.1473
G01 X9.9320 Y15.1552
G01 X9.9386 Y15.1624
G01 X9.9458 Y15.1690
G01 X9.9537 Y15.1748
G01 X9.9621 Y15.1798
G01 X9.9709 Y15.1840
G01 X9.9801 Y15.1873
G01 X9.9896 Y15.1897
G01 X9.9992 Y15.1911
G01 X10.0090 Y15.1916
G01 X10.0188 Y15.1911
G01 X10.0284 Y15.1897
G01 X10.0379 Y15.1873
G01 X10.0471 Y15.1840
G01 X10.0559 Y15.1798
G01 X10.0643 Y15.1748
G01 X10.0722 Y15.1690
G01 X10.0794 Y15.1624
G01 X10.0860 Y15.1552
G01 X10.0918 Y15.1473
G01 X10.0968 Y15.1389
G01 X10.1010 Y15.1301
G01 X10.1043 Y15.1209
G01 X10.1067 Y15.1114
G01 X10.1081 Y15.1018
G01 X10.1086 Y15.0920
G01 X10.1081 Y15.0822
G01 X10.1067 Y15.0726
G01 X10.1043 Y15.0631
G01 X10.1010 Y15.0539
G01 X10.0968 Y15.0451
G01 X10.0918 Y15.0367
G01 X10.0860 Y15.0288
G01 X10.0794 Y15.0216
G01 X10.0722 Y15.0150
G01 X10.0643 Y15.0092
G01 X10.0559 Y15.0042
G01 X10.0471 Y15.0000
G01 X10.0379 Y14.9967
G01 X10.0284 Y14.9943
G01 X10.0188 Y14.9929
G01 X10.0090 Y14.9924
G00 Z1.0000
G00 X10.0090 Y11.7924
G01 F15.00
G01 Z-0.4850
G01 F30.00
G01 X9.9992 Y11.7929
G01 X9.9896 Y11.7943
G01 X9.9801 Y11.7967
G01 X9.9709 Y11.8000
G01 X9.9621 Y11.8042
G01 X9.9537 Y11.8092
G01 X9.9458 Y11.8150
G01 X9.9386 Y11.8216
G01 X9.9320 Y11.8288
G01 X9.9262 Y11.8367
G01 X9.9212 Y11.8451
G01 X9.9170 Y11.8539
G01 X9.9137 Y11.8631
G01 X9.9113 Y11.8726
G01 X9.9099 Y11.8822
G01 X9.9094 Y11.8920
G01 X9.9099 Y11.9018
G01 X9.9113 Y11.9114
G01 X9.9137 Y11.9209
G01 X9.9170 Y11.9301
G01 X9.9212 Y11.9389
G01 X9.9262 Y11.9473
G01 X9.9320 Y11.9552
G01 X9.9386 Y11.9624
G01 X9.9458 Y11.9690
G01 X9.9537 Y11.9748
G01 X9.9621 Y11.9798
G01 X9.9709 Y11.9840
G01 X9.9801 Y11.9873
G01 X9.9896 Y11.9897
G01 X9.9992 Y11.9911
G01 X10.0090 Y11.9916
G01 X10.0188 Y11.9911
G01 X10.0284 Y11.9897
G01 X10.0379 Y11.9873
G01 X10.0471 Y11.9840
G01 X10.0559 Y11.9798
G01 X10.0643 Y11.9748
G01 X10.0722 Y11.9690
G01 X10.0794 Y11.9624
G01 X10.0860 Y11.9552
G01 X10.0918 Y11.9473
G01 X10.0968 Y11.9389
G01 X10.1010 Y11.9301
G01 X10.1043 Y11.9209
G01 X10.1067 Y11.9114
G01 X10.1081 Y11.9018
G01 X10.1086 Y11.8920
G01 X10.1081 Y11.8822
G01 X10.1067 Y11.8726
G01 X10.1043 Y11.8631
G01 X10.1010 Y11.8539
G01 X10.0968 Y11.8451
G01 X10.0918 Y11.8367
G01 X10.0860 Y11.8288
G01 X10.0794 Y11.8216
G01 X10.0722 Y11.8150
G01 X10.0643 Y11.8092
G01 X10.0559 Y11.8042
G01 X10.0471 Y11.8000
G01 X10.0379 Y11.7967
G01 X10.0284 Y11.7943
G01 X10.0188 Y11.7929
G01 X10.0090 Y11.7924
G00 X10.0090 Y11.7924
G01 F15.00
G01 Z-0.9700
G01 F30.00
G01 X9.9992 Y11.7929
G01 X9.9896 Y11.7943
G01 X9.9801 Y11.7967
G01 X9.9709 Y11.8000
G01 X9.9621 Y11.8042
G01 X9.9537 Y11.8092
G01 X9.9458 Y11.8150
G01 X9.9386 Y11.8216
G01 X9.9320 Y11.8288
G01 X9.9262 Y11.8367
G01 X9.9212 Y11.8451
G01 X9.9170 Y11.8539
G01 X9.9137 Y11.8631
G01 X9.9113 Y11.8726
G01 X9.9099 Y11.8822
G01 X9.9094 Y11.8920
G01 X9.9099 Y11.9018
G01 X9.9113 Y11.9114
G01 X9.9137 Y11.9209
G01 X9.9170 Y11.9301
G01 X9.9212 Y11.9389
G01 X9.9262 Y11.9473
G01 X9.9320 Y11.9552
G01 X9.9386 Y11.9624
G01 X9.9458 Y11.9690
G01 X9.9537 Y11.9748
G01 X9.9621 Y11.9798
G01 X9.9709 Y11.9840
G01 X9.9801 Y11.9873
G01 X9.9896 Y11.9897
G01 X9.9992 Y11.9911
G01 X10.0090 Y11.9916
G01 X10.0188 Y11.9911
G01 X10.0284 Y11.9897
G01 X10.0379 Y11.9873
G01 X10.0471 Y11.9840
G01 X10.0559 Y11.9798
G01 X10.0643 Y11.9748
G01 X10.0722 Y11.9690
G01 X10.0794 Y11.9624
G01 X10.0860 Y11.9552
G01 X10.0918 Y11.9473
G01 X10.0968 Y11.9389
G01 X10.1010 Y11.9301
G01 X10.1043 Y11.9209
G01 X10.1067 Y11.9114
G01 X10.1081 Y11.9018
G01 X10.1086 Y11.8920
G01 X10.1081 Y11.8822
G01 X10.1067 Y11.8726
G01 X10.1043 Y11.8631
G01 X10.1010 Y11.8539
G01 X10.0968 Y11.8451
G01 X10.0918 Y11.8367
G01 X10.0860 Y11.8288
G01 X10.0794 Y11.8216
G01 X10.0722 Y11.8150
G01 X10.0643 Y11.8092
G01 X10.0559 Y11.8042
G01 X10.0471 Y11.8000
G01 X10.0379 Y11.7967
G01 X10.0284 Y11.7943
G01 X10.0188 Y11.7929
G01 X10.0090 Y11.7924
G00 X10.0090 Y11.7924
G01 F15.00
G01 Z-1.4550
G01 F30.00
G01 X9.9992 Y11.7929
G01 X9.9896 Y11.7943
G01 X9.9801 Y11.7967
G01 X9.9709 Y11.8000
G01 X9.9621 Y11.8042
G01 X9.9537 Y11.8092
G01 X9.9458 Y11.8150
G01 X9.9386 Y11.8216
G01 X9.9320 Y11.8288
G01 X9.9262 Y11.8367
G01 X9.9212 Y11.8451
G01 X9.9170 Y11.8539
G01 X9.9137 Y11.8631
G01 X9.9113 Y11.8726
G01 X9.9099 Y11.8822
G01 X9.9094 Y11.8920
G01 X9.9099 Y11.9018
G01 X9.9113 Y11.9114
G01 X9.9137 Y11.9209
G01 X9.9170 Y11.9301
G01 X9.9212 Y11.9389
G01 X9.9262 Y11.9473
G01 X9.9320 Y11.9552
G01 X9.9386 Y11.9624
G01 X9.9458 Y11.9690
G01 X9.9537 Y11.9748
G01 X9.9621 Y11.9798
G01 X9.9709 Y11.9840
G01 X9.9801 Y11.9873
G01 X9.9896 Y11.9897
G01 X9.9992 Y11.9911
G01 X10.0090 Y11.9916
G01 X10.0188 Y11.9911
G01 X10.0284 Y11.9897
G01 X10.0379 Y11.9873
G01 X10.0471 Y11.9840
G01 X10.0559 Y11.9798
G01 X10.0643 Y11.9748
G01 X10.0722 Y11.9690
G01 X10.0794 Y11.9624
G01 X10.0860 Y11.9552
G01 X10.0918 Y11.9473
G01 X10.0968 Y11.9389
G01 X10.1010 Y11.9301
G01 X10.1043 Y11.9209
G01 X10.1067 Y11.9114
G01 X10.1081 Y11.9018
G01 X10.1086 Y11.8920
G01 X10.1081 Y11.8822
G01 X10.1067 Y11.8726
G01 X10.1043 Y11.8631
G01 X10.1010 Y11.8539
G01 X10.0968 Y11.8451
G01 X10.0918 Y11.8367
G01 X10.0860 Y11.8288
G01 X10.0794 Y11.8216
G01 X10.0722 Y11.8150
G01 X10.0643 Y11.8092
G01 X10.0559 Y11.8042
G01 X10.0471 Y11.8000
G01 X10.0379 Y11.7967
G01 X10.0284 Y11.7943
G01 X10.0188 Y11.7929
G01 X10.0090 Y11.7924
G00 X10.0090 Y11.7924
G01 F15.00
G01 Z-1.9400
G01 F30.00
G01 X9.9992 Y11.7929
G01 X9.9896 Y11.7943
G01 X9.9801 Y11.7967
G01 X9.9709 Y11.8000
G01 X9.9621 Y11.8042
G01 X9.9537 Y11.8092
G01 X9.9458 Y11.8150
G01 X9.9386 Y11.8216
G01 X9.9320 Y11.8288
G01 X9.9262 Y11.8367
G01 X9.9212 Y11.8451
G01 X9.9170 Y11.8539
G01 X9.9137 Y11.8631
G01 X9.9113 Y11.8726
G01 X9.9099 Y11.8822
G01 X9.9094 Y11.8920
G01 X9.9099 Y11.9018
G01 X9.9113 Y11.9114
G01 X9.9137 Y11.9209
G01 X9.9170 Y11.9301
G01 X9.9212 Y11.9389
G01 X9.9262 Y11.9473
G01 X9.9320 Y11.9552
G01 X9.9386 Y11.9624
G01 X9.9458 Y11.9690
G01 X9.9537 Y11.9748
G01 X9.9621 Y11.9798
G01 X9.9709 Y11.9840
G01 X9.9801 Y11.9873
G01 X9.9896 Y11.9897
G01 X9.9992 Y11.9911
G01 X10.0090 Y11.9916
G01 X10.0188 Y11.9911
G01 X10.0284 Y11.9897
G01 X10.0379 Y11.9873
G01 X10.0471 Y11.9840
G01 X10.0559 Y11.9798
G01 X10.0643 Y11.9748
G01 X10.0722 Y11.9690
G01 X10.0794 Y11.9624
G01 X10.0860 Y11.9552
G01 X10.0918 Y11.9473
G01 X10.0968 Y11.9389
G01 X10.1010 Y11.9301
G01 X10.1043 Y11.9209
G01 X10.1067 Y11.9114
G01 X10.1081 Y11.9018
G01 X10.1086 Y11.8920
G01 X10.1081 Y11.8822
G01 X10.1067 Y11.8726
G01 X10.1043 Y11.8631
G01 X10.1010 Y11.8539
G01 X10.0968 Y11.8451
G01 X10.0918 Y11.8367
G01 X10.0860 Y11.8288
G01 X10.0794 Y11.8216
G01 X10.0722 Y11.8150
G01 X10.0643 Y11.8092
G01 X10.0559 Y11.8042
G01 X10.0471 Y11.8000
G01 X10.0379 Y11.7967
G01 X10.0284 Y11.7943
G01 X10.0188 Y11.7929
G01 X10.0090 Y11.7924
G00 Z1.0000
G00 X10.0090 Y8.5924
G01 F15.00
G01 Z-0.4850
G01 F30.00
G01 X9.9992 Y8.5929
G01 X9.9896 Y8.5943
G01 X9.9801 Y8.5967
G01 X9.9709 Y8.6000
G01 X9.9621 Y8.6042
G01 X9.9537 Y8.6092
G01 X9.9458 Y8.6150
G01 X9.9386 Y8.6216
G01 X9.9320 Y8.6288
G01 X9.9262 Y8.6367
G01 X9.9212 Y8.6451
G01 X9.9170 Y8.6539
G01 X9.9137 Y8.6631
G01 X9.9113 Y8.6726
G01 X9.9099 Y8.6822
G01 X9.9094 Y8.6920
G01 X9.9099 Y8.7018
G01 X9.9113 Y8.7114
G01 X9.9137 Y8.7209
G01 X9.9170 Y8.7301
G01 X9.9212 Y8.7389
G01 X9.9262 Y8.7473
G01 X9.9320 Y8.7552
G01 X9.9386 Y8.7624
G01 X9.9458 Y8.7690
G01 X9.9537 Y8.7748
G01 X9.9621 Y8.7798
G01 X9.9709 Y8.7840
G01 X9.9801 Y8.7873
G01 X9.9896 Y8.7897
G01 X9.9992 Y8.7911
G01 X10.0090 Y8.7916
G01 X10.0188 Y8.7911
G01 X10.0284 Y8.7897
G01 X10.0379 Y8.7873
G01 X10.0471 Y8.7840
G01 X10.0559 Y8.7798
G01 X10.0643 Y8.7748
G01 X10.0722 Y8.7690
G01 X10.0794 Y8.7624
G01 X10.0860 Y8.7552
G01 X10.0918 Y8.7473
G01 X10.0968 Y8.7389
G01 X10.1010 Y8.7301
G01 X10.1043 Y8.7209
G01 X10.1067 Y8.7114
G01 X10.1081 Y8.7018
G01 X10.1086 Y8.6920
G01 X10.1081 Y8.6822
G01 X10.1067 Y8.6726
G01 X10.1043 Y8.6631
G01 X10.1010 Y8.6539
G01 X10.0968 Y8.6451
G01 X10.0918 Y8.6367
G01 X10.0860 Y8.6288
G01 X10.0794 Y8.6216
G01 X10.0722 Y8.6150
G01 X10.0643 Y8.6092
G01 X10.0559 Y8.6042
G01 X10.0471 Y8.6000
G01 X10.0379 Y8.5967
G01 X10.0284 Y8.5943
G01 X10.0188 Y8.5929
G01 X10.0090 Y8.5924
G00 X10.0090 Y8.5924
G01 F15.00
G01 Z-0.9700
G01 F30.00
G01 X9.9992 Y8.5929
G01 X9.9896 Y8.5943
G01 X9.9801 Y8.5967
G01 X9.9709 Y8.6000
G01 X9.9621 Y8.6042
G01 X9.9537 Y8.6092
G01 X9.9458 Y8.6150
G01 X9.9386 Y8.6216
G01 X9.9320 Y8.6288
G01 X9.9262 Y8.6367
G01 X9.9212 Y8.6451
G01 X9.9170 Y8.6539
G01 X9.9137 Y8.6631
G01 X9.9113 Y8.6726
G01 X9.9099 Y8.6822
G01 X9.9094 Y8.6920
G01 X9.9099 Y8.7018
G01 X9.9113 Y8.7114
G01 X9.9137 Y8.7209
G01 X9.9170 Y8.7301
G01 X9.9212 Y8.7389
G01 X9.9262 Y8.7473
G01 X9.9320 Y8.7552
G01 X9.9386 Y8.7624
G01 X9.9458 Y8.7690
G01 X9.9537 Y8.7748
G01 X9.9621 Y8.7798
G01 X9.9709 Y8.7840
G01 X9.9801 Y8.7873
G01 X9.9896 Y8.7897
G01 X9.9992 Y8.7911
G01 X10.0090 Y8.7916
G01 X10.0188 Y8.7911
G01 X10.0284 Y8.7897
G01 X10.0379 Y8.7873
G01 X10.0471 Y8.7840
G01 X10.0559 Y8.7798
G01 X10.0643 Y8.7748
G01 X10.0722 Y8.7690
G01 X10.0794 Y8.7624
G01 X10.0860 Y8.7552
G01 X10.0918 Y8.7473
G01 X10.0968 Y8.7389
G01 X10.1010 Y8.7301
G01 X10.1043 Y8.7209
G01 X10.1067 Y8.7114
G01 X10.1081 Y8.7018
G01 X10.1086 Y8.6920
G01 X10.1081 Y8.6822
G01 X10.1067 Y8.6726
G01 X10.1043 Y8.6631
G01 X10.1010 Y8.6539
G01 X10.0968 Y8.6451
G01 X10.0918 Y8.6367
G01 X10.0860 Y8.6288
G01 X10.0794 Y8.6216
G01 X10.0722 Y8.6150
G01 X10.0643 Y8.6092
G01 X10.0559 Y8.6042
G01 X10.0471 Y8.6000
G01 X10.0379 Y8.5967
G01 X10.0284 Y8.5943
G01 X10.0188 Y8.5929
G01 X10.0090 Y8.5924
G00 X10.0090 Y8.5924
G01 F15.00
G01 Z-1.4550
G01 F30.00
G01 X9.9992 Y8.5929
G01 X9.9896 Y8.5943
G01 X9.9801 Y8.5967
G01 X9.9709 Y8.6000
G01 X9.9621 Y8.6042
G01 X9.9537 Y8.6092
G01 X9.9458 Y8.6150
G01 X9.9386 Y8.6216
G01 X9.9320 Y8.6288
G01 X9.9262 Y8.6367
G01 X9.9212 Y8.6451
G01 X9.9170 Y8.6539
G01 X9.9137 Y8.6631
G01 X9.9113 Y8.6726
G01 X9.9099 Y8.6822
G01 X9.9094 Y8.6920
G01 X9.9099 Y8.7018
G01 X9.9113 Y8.7114
G01 X9.9137 Y8.7209
G01 X9.9170 Y8.7301
G01 X9.9212 Y8.7389
G01 X9.9262 Y8.7473
G01 X9.9320 Y8.7552
G01 X9.9386 Y8.7624
G01 X9.9458 Y8.7690
G01 X9.9537 Y8.7748
G01 X9.9621 Y8.7798
G01 X9.9709 Y8.7840
G01 X9.9801 Y8.7873
G01 X9.9896 Y8.7897
G01 X9.9992 Y8.7911
G01 X10.0090 Y8.7916
G01 X10.0188 Y8.7911
G01 X10.0284 Y8.7897
G01 X10.0379 Y8.7873
G01 X10.0471 Y8.7840
G01 X10.0559 Y8.7798
G01 X10.0643 Y8.7748
G01 X10.0722 Y8.7690
G01 X10.0794 Y8.7624
G01 X10.0860 Y8.7552
G01 X10.0918 Y8.7473
G01 X10.0968 Y8.7389
G01 X10.1010 Y8.7301
G01 X10.1043 Y8.7209
G01 X10.1067 Y8.7114
G01 X10.1081 Y8.7018
G01 X10.1086 Y8.6920
G01 X10.1081 Y8.6822
G01 X10.1067 Y8.6726
G01 X10.1043 Y8.6631
G01 X10.1010 Y8.6539
G01 X10.0968 Y8.6451
G01 X10.0918 Y8.6367
G01 X10.0860 Y8.6288
G01 X10.0794 Y8.6216
G01 X10.0722 Y8.6150
G01 X10.0643 Y8.6092
G01 X10.0559 Y8.6042
G01 X10.0471 Y8.6000
G01 X10.0379 Y8.5967
G01 X10.0284 Y8.5943
G01 X10.0188 Y8.5929
G01 X10.0090 Y8.5924
G00 X10.0090 Y8.5924
G01 F15.00
G01 Z-1.9400
G01 F30.00
G01 X9.9992 Y8.5929
G01 X9.9896 Y8.5943
G01 X9.9801 Y8.5967
G01 X9.9709 Y8.6000
G01 X9.9621 Y8.6042
G01 X9.9537 Y8.6092
G01 X9.9458 Y8.6150
G01 X9.9386 Y8.6216
G01 X9.9320 Y8.6288
G01 X9.9262 Y8.6367
G01 X9.9212 Y8.6451
G01 X9.9170 Y8.6539
G01 X9.9137 Y8.6631
G01 X9.9113 Y8.6726
G01 X9.9099 Y8.6822
G01 X9.9094 Y8.6920
G01 X9.9099 Y8.7018
G01 X9.9113 Y8.7114
G01 X9.9137 Y8.7209
G01 X9.9170 Y8.7301
G01 X9.9212 Y8.7389
G01 X9.9262 Y8.7473
G01 X9.9320 Y8.7552
G01 X9.9386 Y8.7624
G01 X9.9458 Y8.7690
G01 X9.9537 Y8.7748
G01 X9.9621 Y8.7798
G01 X9.9709 Y8.7840
G01 X9.9801 Y8.7873
G01 X9.9896 Y8.7897
G01 X9.9992 Y8.7911
G01 X10.0090 Y8.7916
G01 X10.0188 Y8.7911
G01 X10.0284 Y8.7897
G01 X10.0379 Y8.7873
G01 X10.0471 Y8.7840
G01 X10.0559 Y8.7798
G01 X10.0643 Y8.7748
G01 X10.0722 Y8.7690
G01 X10.0794 Y8.7624
G01 X10.0860 Y8.7552
G01 X10.0918 Y8.7473
G01 X10.0968 Y8.7389
G01 X10.1010 Y8.7301
G01 X10.1043 Y8.7209
G01 X10.1067 Y8.7114
G01 X10.1081 Y8.7018
G01 X10.1086 Y8.6920
G01 X10.1081 Y8.6822
G01 X10.1067 Y8.6726
G01 X10.1043 Y8.6631
G01 X10.1010 Y8.6539
G01 X10.0968 Y8.6451
G01 X10.0918 Y8.6367
G01 X10.0860 Y8.6288
G01 X10.0794 Y8.6216
G01 X10.0722 Y8.6150
G01 X10.0643 Y8.6092
G01 X10.0559 Y8.6042
G01 X10.0471 Y8.6000
G01 X10.0379 Y8.5967
G01 X10.0284 Y8.5943
G01 X10.0188 Y8.5929
G01 X10.0090 Y8.5924
G00 Z1.0000
G00 X10.0090 Y5.3924
G01 F15.00
G01 Z-0.4850
G01 F30.00
G01 X9.9992 Y5.3929
G01 X9.9896 Y5.3943
G01 X9.9801 Y5.3967
G01 X9.9709 Y5.4000
G01 X9.9621 Y5.4042
G01 X9.9537 Y5.4092
G01 X9.9458 Y5.4150
G01 X9.9386 Y5.4216
G01 X9.9320 Y5.4288
G01 X9.9262 Y5.4367
G01 X9.9212 Y5.4451
G01 X9.9170 Y5.4539
G01 X9.9137 Y5.4631
G01 X9.9113 Y5.4726
G01 X9.9099 Y5.4822
G01 X9.9094 Y5.4920
G01 X9.9099 Y5.5018
G01 X9.9113 Y5.5114
G01 X9.9137 Y5.5209
G01 X9.9170 Y5.5301
G01 X9.9212 Y5.5389
G01 X9.9262 Y5.5473
G01 X9.9320 Y5.5552
G01 X9.9386 Y5.5624
G01 X9.9458 Y5.5690
G01 X9.9537 Y5.5748
G01 X9.9621 Y5.5798
G01 X9.9709 Y5.5840
G01 X9.9801 Y5.5873
G01 X9.9896 Y5.5897
G01 X9.9992 Y5.5911
G01 X10.0090 Y5.5916
G01 X10.0188 Y5.5911
G01 X10.0284 Y5.5897
G01 X10.0379 Y5.5873
G01 X10.0471 Y5.5840
G01 X10.0559 Y5.5798
G01 X10.0643 Y5.5748
G01 X10.0722 Y5.5690
G01 X10.0794 Y5.5624
G01 X10.0860 Y5.5552
G01 X10.0918 Y5.5473
G01 X10.0968 Y5.5389
G01 X10.1010 Y5.5301
G01 X10.1043 Y5.5209
G01 X10.1067 Y5.5114
G01 X10.1081 Y5.5018
G01 X10.1086 Y5.4920
G01 X10.1081 Y5.4822
G01 X10.1067 Y5.4726
G01 X10.1043 Y5.4631
G01 X10.1010 Y5.4539
G01 X10.0968 Y5.4451
G01 X10.0918 Y5.4367
G01 X10.0860 Y5.4288
G01 X10.0794 Y5.4216
G01 X10.0722 Y5.4150
G01 X10.0643 Y5.4092
G01 X10.0559 Y5.4042
G01 X10.0471 Y5.4000
G01 X10.0379 Y5.3967
G01 X10.0284 Y5.3943
G01 X10.0188 Y5.3929
G01 X10.0090 Y5.3924
G00 X10.0090 Y5.3924
G01 F15.00
G01 Z-0.9700
G01 F30.00
G01 X9.9992 Y5.3929
G01 X9.9896 Y5.3943
G01 X9.9801 Y5.3967
G01 X9.9709 Y5.4000
G01 X9.9621 Y5.4042
G01 X9.9537 Y5.4092
G01 X9.9458 Y5.4150
G01 X9.9386 Y5.4216
G01 X9.9320 Y5.4288
G01 X9.9262 Y5.4367
G01 X9.9212 Y5.4451
G01 X9.9170 Y5.4539
G01 X9.9137 Y5.4631
G01 X9.9113 Y5.4726
G01 X9.9099 Y5.4822
G01 X9.9094 Y5.4920
G01 X9.9099 Y5.5018
G01 X9.9113 Y5.5114
G01 X9.9137 Y5.5209
G01 X9.9170 Y5.5301
G01 X9.9212 Y5.5389
G01 X9.9262 Y5.5473
G01 X9.9320 Y5.5552
G01 X9.9386 Y5.5624
G01 X9.9458 Y5.5690
G01 X9.9537 Y5.5748
G01 X9.9621 Y5.5798
G01 X9.9709 Y5.5840
G01 X9.9801 Y5.5873
G01 X9.9896 Y5.5897
G01 X9.9992 Y5.5911
G01 X10.0090 Y5.5916
G01 X10.0188 Y5.5911
G01 X10.0284 Y5.5897
G01 X10.0379 Y5.5873
G01 X10.0471 Y5.5840
G01 X10.0559 Y5.5798
G01 X10.0643 Y5.5748
G01 X10.0722 Y5.5690
G01 X10.0794 Y5.5624
G01 X10.0860 Y5.5552
G01 X10.0918 Y5.5473
G01 X10.0968 Y5.5389
G01 X10.1010 Y5.5301
G01 X10.1043 Y5.5209
G01 X10.1067 Y5.5114
G01 X10.1081 Y5.5018
G01 X10.1086 Y5.4920
G01 X10.1081 Y5.4822
G01 X10.1067 Y5.4726
G01 X10.1043 Y5.4631
G01 X10.1010 Y5.4539
G01 X10.0968 Y5.4451
G01 X10.0918 Y5.4367
G01 X10.0860 Y5.4288
G01 X10.0794 Y5.4216
G01 X10.0722 Y5.4150
G01 X10.0643 Y5.4092
G01 X10.0559 Y5.4042
G01 X10.0471 Y5.4000
G01 X10.0379 Y5.3967
G01 X10.0284 Y5.3943
G01 X10.0188 Y5.3929
G01 X10.0090 Y5.3924
G00 X10.0090 Y5.3924
G01 F15.00
G01 Z-1.4550
G01 F30.00
G01 X9.9992 Y5.3929
G01 X9.9896 Y5.3943
G01 X9.9801 Y5.3967
G01 X9.9709 Y5.4000
G01 X9.9621 Y5.4042
G01 X9.9537 Y5.4092
G01 X9.9458 Y5.4150
G01 X9.9386 Y5.4216
G01 X9.9320 Y5.4288
G01 X9.9262 Y5.4367
G01 X9.9212 Y5.4451
G01 X9.9170 Y5.4539
G01 X9.9137 Y5.4631
G01 X9.9113 Y5.4726
G01 X9.9099 Y5.4822
G01 X9.9094 Y5.4920
G01 X9.9099 Y5.5018
G01 X9.9113 Y5.5114
G01 X9.9137 Y5.5209
G01 X9.9170 Y5.5301
G01 X9.9212 Y5.5389
G01 X9.9262 Y5.5473
G01 X9.9320 Y5.5552
G01 X9.9386 Y5.5624
G01 X9.9458 Y5.5690
G01 X9.9537 Y5.5748
G01 X9.9621 Y5.5798
G01 X9.9709 Y5.5840
G01 X9.9801 Y5.5873
G01 X9.9896 Y5.5897
G01 X9.9992 Y5.5911
G01 X10.0090 Y5.5916
G01 X10.0188 Y5.5911
G01 X10.0284 Y5.5897
G01 X10.0379 Y5.5873
G01 X10.0471 Y5.5840
G01 X10.0559 Y5.5798
G01 X10.0643 Y5.5748
G01 X10.0722 Y5.5690
G01 X10.0794 Y5.5624
G01 X10.0860 Y5.5552
G01 X10.0918 Y5.5473
G01 X10.0968 Y5.5389
G01 X10.1010 Y5.5301
G01 X10.1043 Y5.5209
G01 X10.1067 Y5.5114
G01 X10.1081 Y5.5018
G01 X10.1086 Y5.4920
G01 X10.1081 Y5.4822
G01 X10.1067 Y5.4726
G01 X10.1043 Y5.4631
G01 X10.1010 Y5.4539
G01 X10.0968 Y5.4451
G01 X10.0918 Y5.4367
G01 X10.0860 Y5.4288
G01 X10.0794 Y5.4216
G01 X10.0722 Y5.4150
G01 X10.0643 Y5.4092
G01 X10.0559 Y5.4042
G01 X10.0471 Y5.4000
G01 X10.0379 Y5.3967
G01 X10.0284 Y5.3943
G01 X10.0188 Y5.3929
G01 X10.0090 Y5.3924
G00 X10.0090 Y5.3924
G01 F15.00
G01 Z-1.9400
G01 F30.00
G01 X9.9992 Y5.3929
G01 X9.9896 Y5.3943
G01 X9.9801 Y5.3967
G01 X9.9709 Y5.4000
G01 X9.9621 Y5.4042
G01 X9.9537 Y5.4092
G01 X9.9458 Y5.4150
G01 X9.9386 Y5.4216
G01 X9.9320 Y5.4288
G01 X9.9262 Y5.4367
G01 X9.9212 Y5.4451
G01 X9.9170 Y5.4539
G01 X9.9137 Y5.4631
G01 X9.9113 Y5.4726
G01 X9.9099 Y5.4822
G01 X9.9094 Y5.4920
G01 X9.9099 Y5.5018
G01 X9.9113 Y5.5114
G01 X9.9137 Y5.5209
G01 X9.9170 Y5.5301
G01 X9.9212 Y5.5389
G01 X9.9262 Y5.5473
G01 X9.9320 Y5.5552
G01 X9.9386 Y5.5624
G01 X9.9458 Y5.5690
G01 X9.9537 Y5.5748
G01 X9.9621 Y5.5798
G01 X9.9709 Y5.5840
G01 X9.9801 Y5.5873
G01 X9.9896 Y5.5897
G01 X9.9992 Y5.5911
G01 X10.0090 Y5.5916
G01 X10.0188 Y5.5911
G01 X10.0284 Y5.5897
G01 X10.0379 Y5.5873
G01 X10.0471 Y5.5840
G01 X10.0559 Y5.5798
G01 X10.0643 Y5.5748
G01 X10.0722 Y5.5690
G01 X10.0794 Y5.5624
G01 X10.0860 Y5.5552
G01 X10.0918 Y5.5473
G01 X10.0968 Y5.5389
G01 X10.1010 Y5.5301
G01 X10.1043 Y5.5209
G01 X10.1067 Y5.5114
G01 X10.1081 Y5.5018
G01 X10.1086 Y5.4920
G01 X10.1081 Y5.4822
G01 X10.1067 Y5.4726
G01 X10.1043 Y5.4631
G01 X10.1010 Y5.4539
G01 X10.0968 Y5.4451
G01 X10.0918 Y5.4367
G01 X10.0860 Y5.4288
G01 X10.0794 Y5.4216
G01 X10.0722 Y5.4150
G01 X10.0643 Y5.4092
G01 X10.0559 Y5.4042
G01 X10.0471 Y5.4000
G01 X10.0379 Y5.3967
G01 X10.0284 Y5.3943
G01 X10.0188 Y5.3929
G01 X10.0090 Y5.3924
G00 Z1.0000
G00 X14.0730 Y5.4174
G01 F15.00
G01 Z-0.4850
G01 F30.00
G01 X14.0632 Y5.4179
G01 X14.0536 Y5.4193
G01 X14.0441 Y5.4217
G01 X14.0349 Y5.4250
G01 X14.0261 Y5.4292
G01 X14.0177 Y5.4342
G01 X14.0098 Y5.4400
G01 X14.0026 Y5.4466
G01 X13.9960 Y5.4538
G01 X13.9902 Y5.4617
G01 X13.9852 Y5.4701
G01 X13.9810 Y5.4789
G01 X13.9777 Y5.4881
G01 X13.9753 Y5.4976
G01 X13.9739 Y5.5072
G01 X13.9734 Y5.5170
G01 X13.9739 Y5.5268
G01 X13.9753 Y5.5364
G01 X13.9777 Y5.5459
G01 X13.9810 Y5.5551
G01 X13.9852 Y5.5639
G01 X13.9902 Y5.5723
G01 X13.9960 Y5.5802
G01 X14.0026 Y5.5874
G01 X14.0098 Y5.5940
G01 X14.0177 Y5.5998
G01 X14.0261 Y5.6048
G01 X14.0349 Y5.6090
G01 X14.0441 Y5.6123
G01 X14.0536 Y5.6147
G01 X14.0632 Y5.6161
G01 X14.0730 Y5.6166
G01 X14.0828 Y5.6161
G01 X14.0924 Y5.6147
G01 X14.1019 Y5.6123
G01 X14.1111 Y5.6090
G01 X14.1199 Y5.6048
G01 X14.1283 Y5.5998
G01 X14.1362 Y5.5940
G01 X14.1434 Y5.5874
G01 X14.1500 Y5.5802
G01 X14.1558 Y5.5723
G01 X14.1608 Y5.5639
G01 X14.1650 Y5.5551
G01 X14.1683 Y5.5459
G01 X14.1707 Y5.5364
G01 X14.1721 Y5.5268
G01 X14.1726 Y5.5170
G01 X14.1721 Y5.5072
G01 X14.1707 Y5.4976
G01 X14.1683 Y5.4881
G01 X14.1650 Y5.4789
G01 X14.1608 Y5.4701
G01 X14.1558 Y5.4617
G01 X14.1500 Y5.4538
G01 X14.1434 Y5.4466
G01 X14.1362 Y5.4400
G01 X14.1283 Y5.4342
G01 X14.1199 Y5.4292
G01 X14.1111 Y5.4250
G01 X14.1019 Y5.4217
G01 X14.0924 Y5.4193
G01 X14.0828 Y5.4179
G01 X14.0730 Y5.4174
G00 X14.0730 Y5.4174
G01 F15.00
G01 Z-0.9700
G01 F30.00
G01 X14.0632 Y5.4179
G01 X14.0536 Y5.4193
G01 X14.0441 Y5.4217
G01 X14.0349 Y5.4250
G01 X14.0261 Y5.4292
G01 X14.0177 Y5.4342
G01 X14.0098 Y5.4400
G01 X14.0026 Y5.4466
G01 X13.9960 Y5.4538
G01 X13.9902 Y5.4617
G01 X13.9852 Y5.4701
G01 X13.9810 Y5.4789
G01 X13.9777 Y5.4881
G01 X13.9753 Y5.4976
G01 X13.9739 Y5.5072
G01 X13.9734 Y5.5170
G01 X13.9739 Y5.5268
G01 X13.9753 Y5.5364
G01 X13.9777 Y5.5459
G01 X13.9810 Y5.5551
G01 X13.9852 Y5.5639
G01 X13.9902 Y5.5723
G01 X13.9960 Y5.5802
G01 X14.0026 Y5.5874
G01 X14.0098 Y5.5940
G01 X14.0177 Y5.5998
G01 X14.0261 Y5.6048
G01 X14.0349 Y5.6090
G01 X14.0441 Y5.6123
G01 X14.0536 Y5.6147
G01 X14.0632 Y5.6161
G01 X14.0730 Y5.6166
G01 X14.0828 Y5.6161
G01 X14.0924 Y5.6147
G01 X14.1019 Y5.6123
G01 X14.1111 Y5.6090
G01 X14.1199 Y5.6048
G01 X14.1283 Y5.5998
G01 X14.1362 Y5.5940
G01 X14.1434 Y5.5874
G01 X14.1500 Y5.5802
G01 X14.1558 Y5.5723
G01 X14.1608 Y5.5639
G01 X14.1650 Y5.5551
G01 X14.1683 Y5.5459
G01 X14.1707 Y5.5364
G01 X14.1721 Y5.5268
G01 X14.1726 Y5.5170
G01 X14.1721 Y5.5072
G01 X14.1707 Y5.4976
G01 X14.1683 Y5.4881
G01 X14.1650 Y5.4789
G01 X14.1608 Y5.4701
G01 X14.1558 Y5.4617
G01 X14.1500 Y5.4538
G01 X14.1434 Y5.4466
G01 X14.1362 Y5.4400
G01 X14.1283 Y5.4342
G01 X14.1199 Y5.4292
G01 X14.1111 Y5.4250
G01 X14.1019 Y5.4217
G01 X14.0924 Y5.4193
G01 X14.0828 Y5.4179
G01 X14.0730 Y5.4174
G00 X14.0730 Y5.4174
G01 F15.00
G01 Z-1.4550
G01 F30.00
G01 X14.0632 Y5.4179
G01 X14.0536 Y5.4193
G01 X14.0441 Y5.4217
G01 X14.0349 Y5.4250
G01 X14.0261 Y5.4292
G01 X14.0177 Y5.4342
G01 X14.0098 Y5.4400
G01 X14.0026 Y5.4466
G01 X13.9960 Y5.4538
G01 X13.9902 Y5.4617
G01 X13.9852 Y5.4701
G01 X13.9810 Y5.4789
G01 X13.9777 Y5.4881
G01 X13.9753 Y5.4976
G01 X13.9739 Y5.5072
G01 X13.9734 Y5.5170
G01 X13.9739 Y5.5268
G01 X13.9753 Y5.5364
G01 X13.9777 Y5.5459
G01 X13.9810 Y5.5551
G01 X13.9852 Y5.5639
G01 X13.9902 Y5.5723
G01 X13.9960 Y5.5802
G01 X14.0026 Y5.5874
G01 X14.0098 Y5.5940
G01 X14.0177 Y5.5998
G01 X14.0261 Y5.6048
G01 X14.0349 Y5.6090
G01 X14.0441 Y5.6123
G01 X14.0536 Y5.6147
G01 X14.0632 Y5.6161
G01 X14.0730 Y5.6166
G01 X14.0828 Y5.6161
G01 X14.0924 Y5.6147
G01 X14.1019 Y5.6123
G01 X14.1111 Y5.6090
G01 X14.1199 Y5.6048
G01 X14.1283 Y5.5998
G01 X14.1362 Y5.5940
G01 X14.1434 Y5.5874
G01 X14.1500 Y5.5802
G01 X14.1558 Y5.5723
G01 X14.1608 Y5.5639
G01 X14.1650 Y5.5551
G01 X14.1683 Y5.5459
G01 X14.1707 Y5.5364
G01 X14.1721 Y5.5268
G01 X14.1726 Y5.5170
G01 X14.1721 Y5.5072
G01 X14.1707 Y5.4976
G01 X14.1683 Y5.4881
G01 X14.1650 Y5.4789
G01 X14.1608 Y5.4701
G01 X14.1558 Y5.4617
G01 X14.1500 Y5.4538
G01 X14.1434 Y5.4466
G01 X14.1362 Y5.4400
G01 X14.1283 Y5.4342
G01 X14.1199 Y5.4292
G01 X14.1111 Y5.4250
G01 X14.1019 Y5.4217
G01 X14.0924 Y5.4193
G01 X14.0828 Y5.4179
G01 X14.0730 Y5.4174
G00 X14.0730 Y5.4174
G01 F15.00
G01 Z-1.9400
G01 F30.00
G01 X14.0632 Y5.4179
G01 X14.0536 Y5.4193
G01 X14.0441 Y5.4217
G01 X14.0349 Y5.4250
G01 X14.0261 Y5.4292
G01 X14.0177 Y5.4342
G01 X14.0098 Y5.4400
G01 X14.0026 Y5.4466
G01 X13.9960 Y5.4538
G01 X13.9902 Y5.4617
G01 X13.9852 Y5.4701
G01 X13.9810 Y5.4789
G01 X13.9777 Y5.4881
G01 X13.9753 Y5.4976
G01 X13.9739 Y5.5072
G01 X13.9734 Y5.5170
G01 X13.9739 Y5.5268
G01 X13.9753 Y5.5364
G01 X13.9777 Y5.5459
G01 X13.9810 Y5.5551
G01 X13.9852 Y5.5639
G01 X13.9902 Y5.5723
G01 X13.9960 Y5.5802
G01 X14.0026 Y5.5874
G01 X14.0098 Y5.5940
G01 X14.0177 Y5.5998
G01 X14.0261 Y5.6048
G01 X14.0349 Y5.6090
G01 X14.0441 Y5.6123
G01 X14.0536 Y5.6147
G01 X14.0632 Y5.6161
G01 X14.0730 Y5.6166
G01 X14.0828 Y5.6161
G01 X14.0924 Y5.6147
G01 X14.1019 Y5.6123
G01 X14.1111 Y5.6090
G01 X14.1199 Y5.6048
G01 X14.1283 Y5.5998
G01 X14.1362 Y5.5940
G01 X14.1434 Y5.5874
G01 X14.1500 Y5.5802
G01 X14.1558 Y5.5723
G01 X14.1608 Y5.5639
G01 X14.1650 Y5.5551
G01 X14.1683 Y5.5459
G01 X14.1707 Y5.5364
G01 X14.1721 Y5.5268
G01 X14.1726 Y5.5170
G01 X14.1721 Y5.5072
G01 X14.1707 Y5.4976
G01 X14.1683 Y5.4881
G01 X14.1650 Y5.4789
G01 X14.1608 Y5.4701
G01 X14.1558 Y5.4617
G01 X14.1500 Y5.4538
G01 X14.1434 Y5.4466
G01 X14.1362 Y5.4400
G01 X14.1283 Y5.4342
G01 X14.1199 Y5.4292
G01 X14.1111 Y5.4250
G01 X14.1019 Y5.4217
G01 X14.0924 Y5.4193
G01 X14.0828 Y5.4179
G01 X14.0730 Y5.4174
G00 Z1.0000
G00 X14.0730 Y8.6174
G01 F15.00
G01 Z-0.4850
G01 F30.00
G01 X14.0632 Y8.6179
G01 X14.0536 Y8.6193
G01 X14.0441 Y8.6217
G01 X14.0349 Y8.6250
G01 X14.0261 Y8.6292
G01 X14.0177 Y8.6342
G01 X14.0098 Y8.6400
G01 X14.0026 Y8.6466
G01 X13.9960 Y8.6538
G01 X13.9902 Y8.6617
G01 X13.9852 Y8.6701
G01 X13.9810 Y8.6789
G01 X13.9777 Y8.6881
G01 X13.9753 Y8.6976
G01 X13.9739 Y8.7072
G01 X13.9734 Y8.7170
G01 X13.9739 Y8.7268
G01 X13.9753 Y8.7364
G01 X13.9777 Y8.7459
G01 X13.9810 Y8.7551
G01 X13.9852 Y8.7639
G01 X13.9902 Y8.7723
G01 X13.9960 Y8.7802
G01 X14.0026 Y8.7874
G01 X14.0098 Y8.7940
G01 X14.0177 Y8.7998
G01 X14.0261 Y8.8048
G01 X14.0349 Y8.8090
G01 X14.0441 Y8.8123
G01 X14.0536 Y8.8147
G01 X14.0632 Y8.8161
G01 X14.0730 Y8.8166
G01 X14.0828 Y8.8161
G01 X14.0924 Y8.8147
G01 X14.1019 Y8.8123
G01 X14.1111 Y8.8090
G01 X14.1199 Y8.8048
G01 X14.1283 Y8.7998
G01 X14.1362 Y8.7940
G01 X14.1434 Y8.7874
G01 X14.1500 Y8.7802
G01 X14.1558 Y8.7723
G01 X14.1608 Y8.7639
G01 X14.1650 Y8.7551
G01 X14.1683 Y8.7459
G01 X14.1707 Y8.7364
G01 X14.1721 Y8.7268
G01 X14.1726 Y8.7170
G01 X14.1721 Y8.7072
G01 X14.1707 Y8.6976
G01 X14.1683 Y8.6881
G01 X14.1650 Y8.6789
G01 X14.1608 Y8.6701
G01 X14.1558 Y8.6617
G01 X14.1500 Y8.6538
G01 X14.1434 Y8.6466
G01 X14.1362 Y8.6400
G01 X14.1283 Y8.6342
G01 X14.1199 Y8.6292
G01 X14.1111 Y8.6250
G01 X14.1019 Y8.6217
G01 X14.0924 Y8.6193
G01 X14.0828 Y8.6179
G01 X14.0730 Y8.6174
G00 X14.0730 Y8.6174
G01 F15.00
G01 Z-0.9700
G01 F30.00
G01 X14.0632 Y8.6179
G01 X14.0536 Y8.6193
G01 X14.0441 Y8.6217
G01 X14.0349 Y8.6250
G01 X14.0261 Y8.6292
G01 X14.0177 Y8.6342
G01 X14.0098 Y8.6400
G01 X14.0026 Y8.6466
G01 X13.9960 Y8.6538
G01 X13.9902 Y8.6617
G01 X13.9852 Y8.6701
G01 X13.9810 Y8.6789
G01 X13.9777 Y8.6881
G01 X13.9753 Y8.6976
G01 X13.9739 Y8.7072
G01 X13.9734 Y8.7170
G01 X13.9739 Y8.7268
G01 X13.9753 Y8.7364
G01 X13.9777 Y8.7459
G01 X13.9810 Y8.7551
G01 X13.9852 Y8.7639
G01 X13.9902 Y8.7723
G01 X13.9960 Y8.7802
G01 X14.0026 Y8.7874
G01 X14.0098 Y8.7940
G01 X14.0177 Y8.7998
G01 X14.0261 Y8.8048
G01 X14.0349 Y8.8090
G01 X14.0441 Y8.8123
G01 X14.0536 Y8.8147
G01 X14.0632 Y8.8161
G01 X14.0730 Y8.8166
G01 X14.0828 Y8.8161
G01 X14.0924 Y8.8147
G01 X14.1019 Y8.8123
G01 X14.1111 Y8.8090
G01 X14.1199 Y8.8048
G01 X14.1283 Y8.7998
G01 X14.1362 Y8.7940
G01 X14.1434 Y8.7874
G01 X14.1500 Y8.7802
G01 X14.1558 Y8.7723
G01 X14.1608 Y8.7639
G01 X14.1650 Y8.7551
G01 X14.1683 Y8.7459
G01 X14.1707 Y8.7364
G01 X14.1721 Y8.7268
G01 X14.1726 Y8.7170
G01 X14.1721 Y8.7072
G01 X14.1707 Y8.6976
G01 X14.1683 Y8.6881
G01 X14.1650 Y8.6789
G01 X14.1608 Y8.6701
G01 X14.1558 Y8.6617
G01 X14.1500 Y8.6538
G01 X14.1434 Y8.6466
G01 X14.1362 Y8.6400
G01 X14.1283 Y8.6342
G01 X14.1199 Y8.6292
G01 X14.1111 Y8.6250
G01 X14.1019 Y8.6217
G01 X14.0924 Y8.6193
G01 X14.0828 Y8.6179
G01 X14.0730 Y8.6174
G00 X14.0730 Y8.6174
G01 F15.00
G01 Z-1.4550
G01 F30.00
G01 X14.0632 Y8.6179
G01 X14.0536 Y8.6193
G01 X14.0441 Y8.6217
G01 X14.0349 Y8.6250
G01 X14.0261 Y8.6292
G01 X14.0177 Y8.6342
G01 X14.0098 Y8.6400
G01 X14.0026 Y8.6466
G01 X13.9960 Y8.6538
G01 X13.9902 Y8.6617
G01 X13.9852 Y8.6701
G01 X13.9810 Y8.6789
G01 X13.9777 Y8.6881
G01 X13.9753 Y8.6976
G01 X13.9739 Y8.7072
G01 X13.9734 Y8.7170
G01 X13.9739 Y8.7268
G01 X13.9753 Y8.7364
G01 X13.9777 Y8.7459
G01 X13.9810 Y8.7551
G01 X13.9852 Y8.7639
G01 X13.9902 Y8.7723
G01 X13.9960 Y8.7802
G01 X14.0026 Y8.7874
G01 X14.0098 Y8.7940
G01 X14.0177 Y8.7998
G01 X14.0261 Y8.8048
G01 X14.0349 Y8.8090
G01 X14.0441 Y8.8123
G01 X14.0536 Y8.8147
G01 X14.0632 Y8.8161
G01 X14.0730 Y8.8166
G01 X14.0828 Y8.8161
G01 X14.0924 Y8.8147
G01 X14.1019 Y8.8123
G01 X14.1111 Y8.8090
G01 X14.1199 Y8.8048
G01 X14.1283 Y8.7998
G01 X14.1362 Y8.7940
G01 X14.1434 Y8.7874
G01 X14.1500 Y8.7802
G01 X14.1558 Y8.7723
G01 X14.1608 Y8.7639
G01 X14.1650 Y8.7551
G01 X14.1683 Y8.7459
G01 X14.1707 Y8.7364
G01 X14.1721 Y8.7268
G01 X14.1726 Y8.7170
G01 X14.1721 Y8.7072
G01 X14.1707 Y8.6976
G01 X14.1683 Y8.6881
G01 X14.1650 Y8.6789
G01 X14.1608 Y8.6701
G01 X14.1558 Y8.6617
G01 X14.1500 Y8.6538
G01 X14.1434 Y8.6466
G01 X14.1362 Y8.6400
G01 X14.1283 Y8.6342
G01 X14.1199 Y8.6292
G01 X14.1111 Y8.6250
G01 X14.1019 Y8.6217
G01 X14.0924 Y8.6193
G01 X14.0828 Y8.6179
G01 X14.0730 Y8.6174
G00 X14.0730 Y8.6174
G01 F15.00
G01 Z-1.9400
G01 F30.00
G01 X14.0632 Y8.6179
G01 X14.0536 Y8.6193
G01 X14.0441 Y8.6217
G01 X14.0349 Y8.6250
G01 X14.0261 Y8.6292
G01 X14.0177 Y8.6342
G01 X14.0098 Y8.6400
G01 X14.0026 Y8.6466
G01 X13.9960 Y8.6538
G01 X13.9902 Y8.6617
G01 X13.9852 Y8.6701
G01 X13.9810 Y8.6789
G01 X13.9777 Y8.6881
G01 X13.9753 Y8.6976
G01 X13.9739 Y8.7072
G01 X13.9734 Y8.7170
G01 X13.9739 Y8.7268
G01 X13.9753 Y8.7364
G01 X13.9777 Y8.7459
G01 X13.9810 Y8.7551
G01 X13.9852 Y8.7639
G01 X13.9902 Y8.7723
G01 X13.9960 Y8.7802
G01 X14.0026 Y8.7874
G01 X14.0098 Y8.7940
G01 X14.0177 Y8.7998
G01 X14.0261 Y8.8048
G01 X14.0349 Y8.8090
G01 X14.0441 Y8.8123
G01 X14.0536 Y8.8147
G01 X14.0632 Y8.8161
G01 X14.0730 Y8.8166
G01 X14.0828 Y8.8161
G01 X14.0924 Y8.8147
G01 X14.1019 Y8.8123
G01 X14.1111 Y8.8090
G01 X14.1199 Y8.8048
G01 X14.1283 Y8.7998
G01 X14.1362 Y8.7940
G01 X14.1434 Y8.7874
G01 X14.1500 Y8.7802
G01 X14.1558 Y8.7723
G01 X14.1608 Y8.7639
G01 X14.1650 Y8.7551
G01 X14.1683 Y8.7459
G01 X14.1707 Y8.7364
G01 X14.1721 Y8.7268
G01 X14.1726 Y8.7170
G01 X14.1721 Y8.7072
G01 X14.1707 Y8.6976
G01 X14.1683 Y8.6881
G01 X14.1650 Y8.6789
G01 X14.1608 Y8.6701
G01 X14.1558 Y8.6617
G01 X14.1500 Y8.6538
G01 X14.1434 Y8.6466
G01 X14.1362 Y8.6400
G01 X14.1283 Y8.6342
G01 X14.1199 Y8.6292
G01 X14.1111 Y8.6250
G01 X14.1019 Y8.6217
G01 X14.0924 Y8.6193
G01 X14.0828 Y8.6179
G01 X14.0730 Y8.6174
G00 Z1.0000
G00 X14.0730 Y11.8174
G01 F15.00
G01 Z-0.4850
G01 F30.00
G01 X14.0632 Y11.8179
G01 X14.0536 Y11.8193
G01 X14.0441 Y11.8217
G01 X14.0349 Y11.8250
G01 X14.0261 Y11.8292
G01 X14.0177 Y11.8342
G01 X14.0098 Y11.8400
G01 X14.0026 Y11.8466
G01 X13.9960 Y11.8538
G01 X13.9902 Y11.8617
G01 X13.9852 Y11.8701
G01 X13.9810 Y11.8789
G01 X13.9777 Y11.8881
G01 X13.9753 Y11.8976
G01 X13.9739 Y11.9072
G01 X13.9734 Y11.9170
G01 X13.9739 Y11.9268
G01 X13.9753 Y11.9364
G01 X13.9777 Y11.9459
G01 X13.9810 Y11.9551
G01 X13.9852 Y11.9639
G01 X13.9902 Y11.9723
G01 X13.9960 Y11.9802
G01 X14.0026 Y11.9874
G01 X14.0098 Y11.9940
G01 X14.0177 Y11.9998
G01 X14.0261 Y12.0048
G01 X14.0349 Y12.0090
G01 X14.0441 Y12.0123
G01 X14.0536 Y12.0147
G01 X14.0632 Y12.0161
G01 X14.0730 Y12.0166
G01 X14.0828 Y12.0161
G01 X14.0924 Y12.0147
G01 X14.1019 Y12.0123
G01 X14.1111 Y12.0090
G01 X14.1199 Y12.0048
G01 X14.1283 Y11.9998
G01 X14.1362 Y11.9940
G01 X14.1434 Y11.9874
G01 X14.1500 Y11.9802
G01 X14.1558 Y11.9723
G01 X14.1608 Y11.9639
G01 X14.1650 Y11.9551
G01 X14.1683 Y11.9459
G01 X14.1707 Y11.9364
G01 X14.1721 Y11.9268
G01 X14.1726 Y11.9170
G01 X14.1721 Y11.9072
G01 X14.1707 Y11.8976
G01 X14.1683 Y11.8881
G01 X14.1650 Y11.8789
G01 X14.1608 Y11.8701
G01 X14.1558 Y11.8617
G01 X14.1500 Y11.8538
G01 X14.1434 Y11.8466
G01 X14.1362 Y11.8400
G01 X14.1283 Y11.8342
G01 X14.1199 Y11.8292
G01 X14.1111 Y11.8250
G01 X14.1019 Y11.8217
G01 X14.0924 Y11.8193
G01 X14.0828 Y11.8179
G01 X14.0730 Y11.8174
G00 X14.0730 Y11.8174
G01 F15.00
G01 Z-0.9700
G01 F30.00
G01 X14.0632 Y11.8179
G01 X14.0536 Y11.8193
G01 X14.0441 Y11.8217
G01 X14.0349 Y11.8250
G01 X14.0261 Y11.8292
G01 X14.0177 Y11.8342
G01 X14.0098 Y11.8400
G01 X14.0026 Y11.8466
G01 X13.9960 Y11.8538
G01 X13.9902 Y11.8617
G01 X13.9852 Y11.8701
G01 X13.9810 Y11.8789
G01 X13.9777 Y11.8881
G01 X13.9753 Y11.8976
G01 X13.9739 Y11.9072
G01 X13.9734 Y11.9170
G01 X13.9739 Y11.9268
G01 X13.9753 Y11.9364
G01 X13.9777 Y11.9459
G01 X13.9810 Y11.9551
G01 X13.9852 Y11.9639
G01 X13.9902 Y11.9723
G01 X13.9960 Y11.9802
G01 X14.0026 Y11.9874
G01 X14.0098 Y11.9940
G01 X14.0177 Y11.9998
G01 X14.0261 Y12.0048
G01 X14.0349 Y12.0090
G01 X14.0441 Y12.0123
G01 X14.0536 Y12.0147
G01 X14.0632 Y12.0161
G01 X14.0730 Y12.0166
G01 X14.0828 Y12.0161
G01 X14.0924 Y12.0147
G01 X14.1019 Y12.0123
G01 X14.1111 Y12.0090
G01 X14.1199 Y12.0048
G01 X14.1283 Y11.9998
G01 X14.1362 Y11.9940
G01 X14.1434 Y11.9874
G01 X14.1500 Y11.9802
G01 X14.1558 Y11.9723
G01 X14.1608 Y11.9639
G01 X14.1650 Y11.9551
G01 X14.1683 Y11.9459
G01 X14.1707 Y11.9364
G01 X14.1721 Y11.9268
G01 X14.1726 Y11.9170
G01 X14.1721 Y11.9072
G01 X14.1707 Y11.8976
G01 X14.1683 Y11.8881
G01 X14.1650 Y11.8789
G01 X14.1608 Y11.8701
G01 X14.1558 Y11.8617
G01 X14.1500 Y11.8538
G01 X14.1434 Y11.8466
G01 X14.1362 Y11.8400
G01 X14.1283 Y11.8342
G01 X14.1199 Y11.8292
G01 X14.1111 Y11.8250
G01 X14.1019 Y11.8217
G01 X14.0924 Y11.8193
G01 X14.0828 Y11.8179
G01 X14.0730 Y11.8174
G00 X14.0730 Y11.8174
G01 F15.00
G01 Z-1.4550
G01 F30.00
G01 X14.0632 Y11.8179
G01 X14.0536 Y11.8193
G01 X14.0441 Y11.8217
G01 X14.0349 Y11.8250
G01 X14.0261 Y11.8292
G01 X14.0177 Y11.8342
G01 X14.0098 Y11.8400
G01 X14.0026 Y11.8466
G01 X13.9960 Y11.8538
G01 X13.9902 Y11.8617
G01 X13.9852 Y11.8701
G01 X13.9810 Y11.8789
G01 X13.9777 Y11.8881
G01 X13.9753 Y11.8976
G01 X13.9739 Y11.9072
G01 X13.9734 Y11.9170
G01 X13.9739 Y11.9268
G01 X13.9753 Y11.9364
G01 X13.9777 Y11.9459
G01 X13.9810 Y11.9551
G01 X13.9852 Y11.9639
G01 X13.9902 Y11.9723
G01 X13.9960 Y11.9802
G01 X14.0026 Y11.9874
G01 X14.0098 Y11.9940
G01 X14.0177 Y11.9998
G01 X14.0261 Y12.0048
G01 X14.0349 Y12.0090
G01 X14.0441 Y12.0123
G01 X14.0536 Y12.0147
G01 X14.0632 Y12.0161
G01 X14.0730 Y12.0166
G01 X14.0828 Y12.0161
G01 X14.0924 Y12.0147
G01 X14.1019 Y12.0123
G01 X14.1111 Y12.0090
G01 X14.1199 Y12.0048
G01 X14.1283 Y11.9998
G01 X14.1362 Y11.9940
G01 X14.1434 Y11.9874
G01 X14.1500 Y11.9802
G01 X14.1558 Y11.9723
G01 X14.1608 Y11.9639
G01 X14.1650 Y11.9551
G01 X14.1683 Y11.9459
G01 X14.1707 Y11.9364
G01 X14.1721 Y11.9268
G01 X14.1726 Y11.9170
G01 X14.1721 Y11.9072
G01 X14.1707 Y11.8976
G01 X14.1683 Y11.8881
G01 X14.1650 Y11.8789
G01 X14.1608 Y11.8701
G01 X14.1558 Y11.8617
G01 X14.1500 Y11.8538
G01 X14.1434 Y11.8466
G01 X14.1362 Y11.8400
G01 X14.1283 Y11.8342
G01 X14.1199 Y11.8292
G01 X14.1111 Y11.8250
G01 X14.1019 Y11.8217
G01 X14.0924 Y11.8193
G01 X14.0828 Y11.8179
G01 X14.0730 Y11.8174
G00 X14.0730 Y11.8174
G01 F15.00
G01 Z-1.9400
G01 F30.00
G01 X14.0632 Y11.8179
G01 X14.0536 Y11.8193
G01 X14.0441 Y11.8217
G01 X14.0349 Y11.8250
G01 X14.0261 Y11.8292
G01 X14.0177 Y11.8342
G01 X14.0098 Y11.8400
G01 X14.0026 Y11.8466
G01 X13.9960 Y11.8538
G01 X13.9902 Y11.8617
G01 X13.9852 Y11.8701
G01 X13.9810 Y11.8789
G01 X13.9777 Y11.8881
G01 X13.9753 Y11.8976
G01 X13.9739 Y11.9072
G01 X13.9734 Y11.9170
G01 X13.9739 Y11.9268
G01 X13.9753 Y11.9364
G01 X13.9777 Y11.9459
G01 X13.9810 Y11.9551
G01 X13.9852 Y11.9639
G01 X13.9902 Y11.9723
G01 X13.9960 Y11.9802
G01 X14.0026 Y11.9874
G01 X14.0098 Y11.9940
G01 X14.0177 Y11.9998
G01 X14.0261 Y12.0048
G01 X14.0349 Y12.0090
G01 X14.0441 Y12.0123
G01 X14.0536 Y12.0147
G01 X14.0632 Y12.0161
G01 X14.0730 Y12.0166
G01 X14.0828 Y12.0161
G01 X14.0924 Y12.0147
G01 X14.1019 Y12.0123
G01 X14.1111 Y12.0090
G01 X14.1199 Y12.0048
G01 X14.1283 Y11.9998
G01 X14.1362 Y11.9940
G01 X14.1434 Y11.9874
G01 X14.1500 Y11.9802
G01 X14.1558 Y11.9723
G01 X14.1608 Y11.9639
G01 X14.1650 Y11.9551
G01 X14.1683 Y11.9459
G01 X14.1707 Y11.9364
G01 X14.1721 Y11.9268
G01 X14.1726 Y11.9170
G01 X14.1721 Y11.9072
G01 X14.1707 Y11.8976
G01 X14.1683 Y11.8881
G01 X14.1650 Y11.8789
G01 X14.1608 Y11.8701
G01 X14.1558 Y11.8617
G01 X14.1500 Y11.8538
G01 X14.1434 Y11.8466
G01 X14.1362 Y11.8400
G01 X14.1283 Y11.8342
G01 X14.1199 Y11.8292
G01 X14.1111 Y11.8250
G01 X14.1019 Y11.8217
G01 X14.0924 Y11.8193
G01 X14.0828 Y11.8179
G01 X14.0730 Y11.8174
G00 Z1.0000
G00 X14.0730 Y15.0174
G01 F15.00
G01 Z-0.4850
G01 F30.00
G01 X14.0632 Y15.0179
G01 X14.0536 Y15.0193
G01 X14.0441 Y15.0217
G01 X14.0349 Y15.0250
G01 X14.0261 Y15.0292
G01 X14.0177 Y15.0342
G01 X14.0098 Y15.0400
G01 X14.0026 Y15.0466
G01 X13.9960 Y15.0538
G01 X13.9902 Y15.0617
G01 X13.9852 Y15.0701
G01 X13.9810 Y15.0789
G01 X13.9777 Y15.0881
G01 X13.9753 Y15.0976
G01 X13.9739 Y15.1072
G01 X13.9734 Y15.1170
G01 X13.9739 Y15.1268
G01 X13.9753 Y15.1364
G01 X13.9777 Y15.1459
G01 X13.9810 Y15.1551
G01 X13.9852 Y15.1639
G01 X13.9902 Y15.1723
G01 X13.9960 Y15.1802
G01 X14.0026 Y15.1874
G01 X14.0098 Y15.1940
G01 X14.0177 Y15.1998
G01 X14.0261 Y15.2048
G01 X14.0349 Y15.2090
G01 X14.0441 Y15.2123
G01 X14.0536 Y15.2147
G01 X14.0632 Y15.2161
G01 X14.0730 Y15.2166
G01 X14.0828 Y15.2161
G01 X14.0924 Y15.2147
G01 X14.1019 Y15.2123
G01 X14.1111 Y15.2090
G01 X14.1199 Y15.2048
G01 X14.1283 Y15.1998
G01 X14.1362 Y15.1940
G01 X14.1434 Y15.1874
G01 X14.1500 Y15.1802
G01 X14.1558 Y15.1723
G01 X14.1608 Y15.1639
G01 X14.1650 Y15.1551
G01 X14.1683 Y15.1459
G01 X14.1707 Y15.1364
G01 X14.1721 Y15.1268
G01 X14.1726 Y15.1170
G01 X14.1721 Y15.1072
G01 X14.1707 Y15.0976
G01 X14.1683 Y15.0881
G01 X14.1650 Y15.0789
G01 X14.1608 Y15.0701
G01 X14.1558 Y15.0617
G01 X14.1500 Y15.0538
G01 X14.1434 Y15.0466
G01 X14.1362 Y15.0400
G01 X14.1283 Y15.0342
G01 X14.1199 Y15.0292
G01 X14.1111 Y15.0250
G01 X14.1019 Y15.0217
G01 X14.0924 Y15.0193
G01 X14.0828 Y15.0179
G01 X14.0730 Y15.0174
G00 X14.0730 Y15.0174
G01 F15.00
G01 Z-0.9700
G01 F30.00
G01 X14.0632 Y15.0179
G01 X14.0536 Y15.0193
G01 X14.0441 Y15.0217
G01 X14.0349 Y15.0250
G01 X14.0261 Y15.0292
G01 X14.0177 Y15.0342
G01 X14.0098 Y15.0400
G01 X14.0026 Y15.0466
G01 X13.9960 Y15.0538
G01 X13.9902 Y15.0617
G01 X13.9852 Y15.0701
G01 X13.9810 Y15.0789
G01 X13.9777 Y15.0881
G01 X13.9753 Y15.0976
G01 X13.9739 Y15.1072
G01 X13.9734 Y15.1170
G01 X13.9739 Y15.1268
G01 X13.9753 Y15.1364
G01 X13.9777 Y15.1459
G01 X13.9810 Y15.1551
G01 X13.9852 Y15.1639
G01 X13.9902 Y15.1723
G01 X13.9960 Y15.1802
G01 X14.0026 Y15.1874
G01 X14.0098 Y15.1940
G01 X14.0177 Y15.1998
G01 X14.0261 Y15.2048
G01 X14.0349 Y15.2090
G01 X14.0441 Y15.2123
G01 X14.0536 Y15.2147
G01 X14.0632 Y15.2161
G01 X14.0730 Y15.2166
G01 X14.0828 Y15.2161
G01 X14.0924 Y15.2147
G01 X14.1019 Y15.2123
G01 X14.1111 Y15.2090
G01 X14.1199 Y15.2048
G01 X14.1283 Y15.1998
G01 X14.1362 Y15.1940
G01 X14.1434 Y15.1874
G01 X14.1500 Y15.1802
G01 X14.1558 Y15.1723
G01 X14.1608 Y15.1639
G01 X14.1650 Y15.1551
G01 X14.1683 Y15.1459
G01 X14.1707 Y15.1364
G01 X14.1721 Y15.1268
G01 X14.1726 Y15.1170
G01 X14.1721 Y15.1072
G01 X14.1707 Y15.0976
G01 X14.1683 Y15.0881
G01 X14.1650 Y15.0789
G01 X14.1608 Y15.0701
G01 X14.1558 Y15.0617
G01 X14.1500 Y15.0538
G01 X14.1434 Y15.0466
G01 X14.1362 Y15.0400
G01 X14.1283 Y15.0342
G01 X14.1199 Y15.0292
G01 X14.1111 Y15.0250
G01 X14.1019 Y15.0217
G01 X14.0924 Y15.0193
G01 X14.0828 Y15.0179
G01 X14.0730 Y15.0174
G00 X14.0730 Y15.0174
G01 F15.00
G01 Z-1.4550
G01 F30.00
G01 X14.0632 Y15.0179
G01 X14.0536 Y15.0193
G01 X14.0441 Y15.0217
G01 X14.0349 Y15.0250
G01 X14.0261 Y15.0292
G01 X14.0177 Y15.0342
G01 X14.0098 Y15.0400
G01 X14.0026 Y15.0466
G01 X13.9960 Y15.0538
G01 X13.9902 Y15.0617
G01 X13.9852 Y15.0701
G01 X13.9810 Y15.0789
G01 X13.9777 Y15.0881
G01 X13.9753 Y15.0976
G01 X13.9739 Y15.1072
G01 X13.9734 Y15.1170
G01 X13.9739 Y15.1268
G01 X13.9753 Y15.1364
G01 X13.9777 Y15.1459
G01 X13.9810 Y15.1551
G01 X13.9852 Y15.1639
G01 X13.9902 Y15.1723
G01 X13.9960 Y15.1802
G01 X14.0026 Y15.1874
G01 X14.0098 Y15.1940
G01 X14.0177 Y15.1998
G01 X14.0261 Y15.2048
G01 X14.0349 Y15.2090
G01 X14.0441 Y15.2123
G01 X14.0536 Y15.2147
G01 X14.0632 Y15.2161
G01 X14.0730 Y15.2166
G01 X14.0828 Y15.2161
G01 X14.0924 Y15.2147
G01 X14.1019 Y15.2123
G01 X14.1111 Y15.2090
G01 X14.1199 Y15.2048
G01 X14.1283 Y15.1998
G01 X14.1362 Y15.1940
G01 X14.1434 Y15.1874
G01 X14.1500 Y15.1802
G01 X14.1558 Y15.1723
G01 X14.1608 Y15.1639
G01 X14.1650 Y15.1551
G01 X14.1683 Y15.1459
G01 X14.1707 Y15.1364
G01 X14.1721 Y15.1268
G01 X14.1726 Y15.1170
G01 X14.1721 Y15.1072
G01 X14.1707 Y15.0976
G01 X14.1683 Y15.0881
G01 X14.1650 Y15.0789
G01 X14.1608 Y15.0701
G01 X14.1558 Y15.0617
G01 X14.1500 Y15.0538
G01 X14.1434 Y15.0466
G01 X14.1362 Y15.0400
G01 X14.1283 Y15.0342
G01 X14.1199 Y15.0292
G01 X14.1111 Y15.0250
G01 X14.1019 Y15.0217
G01 X14.0924 Y15.0193
G01 X14.0828 Y15.0179
G01 X14.0730 Y15.0174
G00 X14.0730 Y15.0174
G01 F15.00
G01 Z-1.9400
G01 F30.00
G01 X14.0632 Y15.0179
G01 X14.0536 Y15.0193
G01 X14.0441 Y15.0217
G01 X14.0349 Y15.0250
G01 X14.0261 Y15.0292
G01 X14.0177 Y15.0342
G01 X14.0098 Y15.0400
G01 X14.0026 Y15.0466
G01 X13.9960 Y15.0538
G01 X13.9902 Y15.0617
G01 X13.9852 Y15.0701
G01 X13.9810 Y15.0789
G01 X13.9777 Y15.0881
G01 X13.9753 Y15.0976
G01 X13.9739 Y15.1072
G01 X13.9734 Y15.1170
G01 X13.9739 Y15.1268
G01 X13.9753 Y15.1364
G01 X13.9777 Y15.1459
G01 X13.9810 Y15.1551
G01 X13.9852 Y15.1639
G01 X13.9902 Y15.1723
G01 X13.9960 Y15.1802
G01 X14.0026 Y15.1874
G01 X14.0098 Y15.1940
G01 X14.0177 Y15.1998
G01 X14.0261 Y15.2048
G01 X14.0349 Y15.2090
G01 X14.0441 Y15.2123
G01 X14.0536 Y15.2147
G01 X14.0632 Y15.2161
G01 X14.0730 Y15.2166
G01 X14.0828 Y15.2161
G01 X14.0924 Y15.2147
G01 X14.1019 Y15.2123
G01 X14.1111 Y15.2090
G01 X14.1199 Y15.2048
G01 X14.1283 Y15.1998
G01 X14.1362 Y15.1940
G01 X14.1434 Y15.1874
G01 X14.1500 Y15.1802
G01 X14.1558 Y15.1723
G01 X14.1608 Y15.1639
G01 X14.1650 Y15.1551
G01 X14.1683 Y15.1459
G01 X14.1707 Y15.1364
G01 X14.1721 Y15.1268
G01 X14.1726 Y15.1170
G01 X14.1721 Y15.1072
G01 X14.1707 Y15.0976
G01 X14.1683 Y15.0881
G01 X14.1650 Y15.0789
G01 X14.1608 Y15.0701
G01 X14.1558 Y15.0617
G01 X14.1500 Y15.0538
G01 X14.1434 Y15.0466
G01 X14.1362 Y15.0400
G01 X14.1283 Y15.0342
G01 X14.1199 Y15.0292
G01 X14.1111 Y15.0250
G01 X14.1019 Y15.0217
G01 X14.0924 Y15.0193
G01 X14.0828 Y15.0179
G01 X14.0730 Y15.0174
G00 Z1.0000
G00 X14.0730 Y18.1674
G01 F15.00
G01 Z-0.4850
G01 F30.00
G01 X14.0632 Y18.1679
G01 X14.0536 Y18.1693
G01 X14.0441 Y18.1717
G01 X14.0349 Y18.1750
G01 X14.0261 Y18.1792
G01 X14.0177 Y18.1842
G01 X14.0098 Y18.1900
G01 X14.0026 Y18.1966
G01 X13.9960 Y18.2038
G01 X13.9902 Y18.2117
G01 X13.9852 Y18.2201
G01 X13.9810 Y18.2289
G01 X13.9777 Y18.2381
G01 X13.9753 Y18.2476
G01 X13.9739 Y18.2572
G01 X13.9734 Y18.2670
G01 X13.9739 Y18.2768
G01 X13.9753 Y18.2864
G01 X13.9777 Y18.2959
G01 X13.9810 Y18.3051
G01 X13.9852 Y18.3139
G01 X13.9902 Y18.3223
G01 X13.9960 Y18.3302
G01 X14.0026 Y18.3374
G01 X14.0098 Y18.3440
G01 X14.0177 Y18.3498
G01 X14.0261 Y18.3548
G01 X14.0349 Y18.3590
G01 X14.0441 Y18.3623
G01 X14.0536 Y18.3647
G01 X14.0632 Y18.3661
G01 X14.0730 Y18.3666
G01 X14.0828 Y18.3661
G01 X14.0924 Y18.3647
G01 X14.1019 Y18.3623
G01 X14.1111 Y18.3590
G01 X14.1199 Y18.3548
G01 X14.1283 Y18.3498
G01 X14.1362 Y18.3440
G01 X14.1434 Y18.3374
G01 X14.1500 Y18.3302
G01 X14.1558 Y18.3223
G01 X14.1608 Y18.3139
G01 X14.1650 Y18.3051
G01 X14.1683 Y18.2959
G01 X14.1707 Y18.2864
G01 X14.1721 Y18.2768
G01 X14.1726 Y18.2670
G01 X14.1721 Y18.2572
G01 X14.1707 Y18.2476
G01 X14.1683 Y18.2381
G01 X14.1650 Y18.2289
G01 X14.1608 Y18.2201
G01 X14.1558 Y18.2117
G01 X14.1500 Y18.2038
G01 X14.1434 Y18.1966
G01 X14.1362 Y18.1900
G01 X14.1283 Y18.1842
G01 X14.1199 Y18.1792
G01 X14.1111 Y18.1750
G01 X14.1019 Y18.1717
G01 X14.0924 Y18.1693
G01 X14.0828 Y18.1679
G01 X14.0730 Y18.1674
G00 X14.0730 Y18.1674
G01 F15.00
G01 Z-0.9700
G01 F30.00
G01 X14.0632 Y18.1679
G01 X14.0536 Y18.1693
G01 X14.0441 Y18.1717
G01 X14.0349 Y18.1750
G01 X14.0261 Y18.1792
G01 X14.0177 Y18.1842
G01 X14.0098 Y18.1900
G01 X14.0026 Y18.1966
G01 X13.9960 Y18.2038
G01 X13.9902 Y18.2117
G01 X13.9852 Y18.2201
G01 X13.9810 Y18.2289
G01 X13.9777 Y18.2381
G01 X13.9753 Y18.2476
G01 X13.9739 Y18.2572
G01 X13.9734 Y18.2670
G01 X13.9739 Y18.2768
G01 X13.9753 Y18.2864
G01 X13.9777 Y18.2959
G01 X13.9810 Y18.3051
G01 X13.9852 Y18.3139
G01 X13.9902 Y18.3223
G01 X13.9960 Y18.3302
G01 X14.0026 Y18.3374
G01 X14.0098 Y18.3440
G01 X14.0177 Y18.3498
G01 X14.0261 Y18.3548
G01 X14.0349 Y18.3590
G01 X14.0441 Y18.3623
G01 X14.0536 Y18.3647
G01 X14.0632 Y18.3661
G01 X14.0730 Y18.3666
G01 X14.0828 Y18.3661
G01 X14.0924 Y18.3647
G01 X14.1019 Y18.3623
G01 X14.1111 Y18.3590
G01 X14.1199 Y18.3548
G01 X14.1283 Y18.3498
G01 X14.1362 Y18.3440
G01 X14.1434 Y18.3374
G01 X14.1500 Y18.3302
G01 X14.1558 Y18.3223
G01 X14.1608 Y18.3139
G01 X14.1650 Y18.3051
G01 X14.1683 Y18.2959
G01 X14.1707 Y18.2864
G01 X14.1721 Y18.2768
G01 X14.1726 Y18.2670
G01 X14.1721 Y18.2572
G01 X14.1707 Y18.2476
G01 X14.1683 Y18.2381
G01 X14.1650 Y18.2289
G01 X14.1608 Y18.2201
G01 X14.1558 Y18.2117
G01 X14.1500 Y18.2038
G01 X14.1434 Y18.1966
G01 X14.1362 Y18.1900
G01 X14.1283 Y18.1842
G01 X14.1199 Y18.1792
G01 X14.1111 Y18.1750
G01 X14.1019 Y18.1717
G01 X14.0924 Y18.1693
G01 X14.0828 Y18.1679
G01 X14.0730 Y18.1674
G00 X14.0730 Y18.1674
G01 F15.00
G01 Z-1.4550
G01 F30.00
G01 X14.0632 Y18.1679
G01 X14.0536 Y18.1693
G01 X14.0441 Y18.1717
G01 X14.0349 Y18.1750
G01 X14.0261 Y18.1792
G01 X14.0177 Y18.1842
G01 X14.0098 Y18.1900
G01 X14.0026 Y18.1966
G01 X13.9960 Y18.2038
G01 X13.9902 Y18.2117
G01 X13.9852 Y18.2201
G01 X13.9810 Y18.2289
G01 X13.9777 Y18.2381
G01 X13.9753 Y18.2476
G01 X13.9739 Y18.2572
G01 X13.9734 Y18.2670
G01 X13.9739 Y18.2768
G01 X13.9753 Y18.2864
G01 X13.9777 Y18.2959
G01 X13.9810 Y18.3051
G01 X13.9852 Y18.3139
G01 X13.9902 Y18.3223
G01 X13.9960 Y18.3302
G01 X14.0026 Y18.3374
G01 X14.0098 Y18.3440
G01 X14.0177 Y18.3498
G01 X14.0261 Y18.3548
G01 X14.0349 Y18.3590
G01 X14.0441 Y18.3623
G01 X14.0536 Y18.3647
G01 X14.0632 Y18.3661
G01 X14.0730 Y18.3666
G01 X14.0828 Y18.3661
G01 X14.0924 Y18.3647
G01 X14.1019 Y18.3623
G01 X14.1111 Y18.3590
G01 X14.1199 Y18.3548
G01 X14.1283 Y18.3498
G01 X14.1362 Y18.3440
G01 X14.1434 Y18.3374
G01 X14.1500 Y18.3302
G01 X14.1558 Y18.3223
G01 X14.1608 Y18.3139
G01 X14.1650 Y18.3051
G01 X14.1683 Y18.2959
G01 X14.1707 Y18.2864
G01 X14.1721 Y18.2768
G01 X14.1726 Y18.2670
G01 X14.1721 Y18.2572
G01 X14.1707 Y18.2476
G01 X14.1683 Y18.2381
G01 X14.1650 Y18.2289
G01 X14.1608 Y18.2201
G01 X14.1558 Y18.2117
G01 X14.1500 Y18.2038
G01 X14.1434 Y18.1966
G01 X14.1362 Y18.1900
G01 X14.1283 Y18.1842
G01 X14.1199 Y18.1792
G01 X14.1111 Y18.1750
G01 X14.1019 Y18.1717
G01 X14.0924 Y18.1693
G01 X14.0828 Y18.1679
G01 X14.0730 Y18.1674
G00 X14.0730 Y18.1674
G01 F15.00
G01 Z-1.9400
G01 F30.00
G01 X14.0632 Y18.1679
G01 X14.0536 Y18.1693
G01 X14.0441 Y18.1717
G01 X14.0349 Y18.1750
G01 X14.0261 Y18.1792
G01 X14.0177 Y18.1842
G01 X14.0098 Y18.1900
G01 X14.0026 Y18.1966
G01 X13.9960 Y18.2038
G01 X13.9902 Y18.2117
G01 X13.9852 Y18.2201
G01 X13.9810 Y18.2289
G01 X13.9777 Y18.2381
G01 X13.9753 Y18.2476
G01 X13.9739 Y18.2572
G01 X13.9734 Y18.2670
G01 X13.9739 Y18.2768
G01 X13.9753 Y18.2864
G01 X13.9777 Y18.2959
G01 X13.9810 Y18.3051
G01 X13.9852 Y18.3139
G01 X13.9902 Y18.3223
G01 X13.9960 Y18.3302
G01 X14.0026 Y18.3374
G01 X14.0098 Y18.3440
G01 X14.0177 Y18.3498
G01 X14.0261 Y18.3548
G01 X14.0349 Y18.3590
G01 X14.0441 Y18.3623
G01 X14.0536 Y18.3647
G01 X14.0632 Y18.3661
G01 X14.0730 Y18.3666
G01 X14.0828 Y18.3661
G01 X14.0924 Y18.3647
G01 X14.1019 Y18.3623
G01 X14.1111 Y18.3590
G01 X14.1199 Y18.3548
G01 X14.1283 Y18.3498
G01 X14.1362 Y18.3440
G01 X14.1434 Y18.3374
G01 X14.1500 Y18.3302
G01 X14.1558 Y18.3223
G01 X14.1608 Y18.3139
G01 X14.1650 Y18.3051
G01 X14.1683 Y18.2959
G01 X14.1707 Y18.2864
G01 X14.1721 Y18.2768
G01 X14.1726 Y18.2670
G01 X14.1721 Y18.2572
G01 X14.1707 Y18.2476
G01 X14.1683 Y18.2381
G01 X14.1650 Y18.2289
G01 X14.1608 Y18.2201
G01 X14.1558 Y18.2117
G01 X14.1500 Y18.2038
G01 X14.1434 Y18.1966
G01 X14.1362 Y18.1900
G01 X14.1283 Y18.1842
G01 X14.1199 Y18.1792
G01 X14.1111 Y18.1750
G01 X14.1019 Y18.1717
G01 X14.0924 Y18.1693
G01 X14.0828 Y18.1679
G01 X14.0730 Y18.1674
G00 Z1.0000
G00 X21.6930 Y18.1674
G01 F15.00
G01 Z-0.4850
G01 F30.00
G01 X21.6832 Y18.1679
G01 X21.6736 Y18.1693
G01 X21.6641 Y18.1717
G01 X21.6549 Y18.1750
G01 X21.6461 Y18.1792
G01 X21.6377 Y18.1842
G01 X21.6298 Y18.1900
G01 X21.6226 Y18.1966
G01 X21.6160 Y18.2038
G01 X21.6102 Y18.2117
G01 X21.6052 Y18.2201
G01 X21.6010 Y18.2289
G01 X21.5977 Y18.2381
G01 X21.5953 Y18.2476
G01 X21.5939 Y18.2572
G01 X21.5934 Y18.2670
G01 X21.5939 Y18.2768
G01 X21.5953 Y18.2864
G01 X21.5977 Y18.2959
G01 X21.6010 Y18.3051
G01 X21.6052 Y18.3139
G01 X21.6102 Y18.3223
G01 X21.6160 Y18.3302
G01 X21.6226 Y18.3374
G01 X21.6298 Y18.3440
G01 X21.6377 Y18.3498
G01 X21.6461 Y18.3548
G01 X21.6549 Y18.3590
G01 X21.6641 Y18.3623
G01 X21.6736 Y18.3647
G01 X21.6832 Y18.3661
G01 X21.6930 Y18.3666
G01 X21.7028 Y18.3661
G01 X21.7124 Y18.3647
G01 X21.7219 Y18.3623
G01 X21.7311 Y18.3590
G01 X21.7399 Y18.3548
G01 X21.7483 Y18.3498
G01 X21.7562 Y18.3440
G01 X21.7634 Y18.3374
G01 X21.7700 Y18.3302
G01 X21.7758 Y18.3223
G01 X21.7808 Y18.3139
G01 X21.7850 Y18.3051
G01 X21.7883 Y18.2959
G01 X21.7907 Y18.2864
G01 X21.7921 Y18.2768
G01 X21.7926 Y18.2670
G01 X21.7921 Y18.2572
G01 X21.7907 Y18.2476
G01 X21.7883 Y18.2381
G01 X21.7850 Y18.2289
G01 X21.7808 Y18.2201
G01 X21.7758 Y18.2117
G01 X21.7700 Y18.2038
G01 X21.7634 Y18.1966
G01 X21.7562 Y18.1900
G01 X21.7483 Y18.1842
G01 X21.7399 Y18.1792
G01 X21.7311 Y18.1750
G01 X21.7219 Y18.1717
G01 X21.7124 Y18.1693
G01 X21.7028 Y18.1679
G01 X21.6930 Y18.1674
G00 X21.6930 Y18.1674
G01 F15.00
G01 Z-0.9700
G01 F30.00
G01 X21.6832 Y18.1679
G01 X21.6736 Y18.1693
G01 X21.6641 Y18.1717
G01 X21.6549 Y18.1750
G01 X21.6461 Y18.1792
G01 X21.6377 Y18.1842
G01 X21.6298 Y18.1900
G01 X21.6226 Y18.1966
G01 X21.6160 Y18.2038
G01 X21.6102 Y18.2117
G01 X21.6052 Y18.2201
G01 X21.6010 Y18.2289
G01 X21.5977 Y18.2381
G01 X21.5953 Y18.2476
G01 X21.5939 Y18.2572
G01 X21.5934 Y18.2670
G01 X21.5939 Y18.2768
G01 X21.5953 Y18.2864
G01 X21.5977 Y18.2959
G01 X21.6010 Y18.3051
G01 X21.6052 Y18.3139
G01 X21.6102 Y18.3223
G01 X21.6160 Y18.3302
G01 X21.6226 Y18.3374
G01 X21.6298 Y18.3440
G01 X21.6377 Y18.3498
G01 X21.6461 Y18.3548
G01 X21.6549 Y18.3590
G01 X21.6641 Y18.3623
G01 X21.6736 Y18.3647
G01 X21.6832 Y18.3661
G01 X21.6930 Y18.3666
G01 X21.7028 Y18.3661
G01 X21.7124 Y18.3647
G01 X21.7219 Y18.3623
G01 X21.7311 Y18.3590
G01 X21.7399 Y18.3548
G01 X21.7483 Y18.3498
G01 X21.7562 Y18.3440
G01 X21.7634 Y18.3374
G01 X21.7700 Y18.3302
G01 X21.7758 Y18.3223
G01 X21.7808 Y18.3139
G01 X21.7850 Y18.3051
G01 X21.7883 Y18.2959
G01 X21.7907 Y18.2864
G01 X21.7921 Y18.2768
G01 X21.7926 Y18.2670
G01 X21.7921 Y18.2572
G01 X21.7907 Y18.2476
G01 X21.7883 Y18.2381
G01 X21.7850 Y18.2289
G01 X21.7808 Y18.2201
G01 X21.7758 Y18.2117
G01 X21.7700 Y18.2038
G01 X21.7634 Y18.1966
G01 X21.7562 Y18.1900
G01 X21.7483 Y18.1842
G01 X21.7399 Y18.1792
G01 X21.7311 Y18.1750
G01 X21.7219 Y18.1717
G01 X21.7124 Y18.1693
G01 X21.7028 Y18.1679
G01 X21.6930 Y18.1674
G00 X21.6930 Y18.1674
G01 F15.00
G01 Z-1.4550
G01 F30.00
G01 X21.6832 Y18.1679
G01 X21.6736 Y18.1693
G01 X21.6641 Y18.1717
G01 X21.6549 Y18.1750
G01 X21.6461 Y18.1792
G01 X21.6377 Y18.1842
G01 X21.6298 Y18.1900
G01 X21.6226 Y18.1966
G01 X21.6160 Y18.2038
G01 X21.6102 Y18.2117
G01 X21.6052 Y18.2201
G01 X21.6010 Y18.2289
G01 X21.5977 Y18.2381
G01 X21.5953 Y18.2476
G01 X21.5939 Y18.2572
G01 X21.5934 Y18.2670
G01 X21.5939 Y18.2768
G01 X21.5953 Y18.2864
G01 X21.5977 Y18.2959
G01 X21.6010 Y18.3051
G01 X21.6052 Y18.3139
G01 X21.6102 Y18.3223
G01 X21.6160 Y18.3302
G01 X21.6226 Y18.3374
G01 X21.6298 Y18.3440
G01 X21.6377 Y18.3498
G01 X21.6461 Y18.3548
G01 X21.6549 Y18.3590
G01 X21.6641 Y18.3623
G01 X21.6736 Y18.3647
G01 X21.6832 Y18.3661
G01 X21.6930 Y18.3666
G01 X21.7028 Y18.3661
G01 X21.7124 Y18.3647
G01 X21.7219 Y18.3623
G01 X21.7311 Y18.3590
G01 X21.7399 Y18.3548
G01 X21.7483 Y18.3498
G01 X21.7562 Y18.3440
G01 X21.7634 Y18.3374
G01 X21.7700 Y18.3302
G01 X21.7758 Y18.3223
G01 X21.7808 Y18.3139
G01 X21.7850 Y18.3051
G01 X21.7883 Y18.2959
G01 X21.7907 Y18.2864
G01 X21.7921 Y18.2768
G01 X21.7926 Y18.2670
G01 X21.7921 Y18.2572
G01 X21.7907 Y18.2476
G01 X21.7883 Y18.2381
G01 X21.7850 Y18.2289
G01 X21.7808 Y18.2201
G01 X21.7758 Y18.2117
G01 X21.7700 Y18.2038
G01 X21.7634 Y18.1966
G01 X21.7562 Y18.1900
G01 X21.7483 Y18.1842
G01 X21.7399 Y18.1792
G01 X21.7311 Y18.1750
G01 X21.7219 Y18.1717
G01 X21.7124 Y18.1693
G01 X21.7028 Y18.1679
G01 X21.6930 Y18.1674
G00 X21.6930 Y18.1674
G01 F15.00
G01 Z-1.9400
G01 F30.00
G01 X21.6832 Y18.1679
G01 X21.6736 Y18.1693
G01 X21.6641 Y18.1717
G01 X21.6549 Y18.1750
G01 X21.6461 Y18.1792
G01 X21.6377 Y18.1842
G01 X21.6298 Y18.1900
G01 X21.6226 Y18.1966
G01 X21.6160 Y18.2038
G01 X21.6102 Y18.2117
G01 X21.6052 Y18.2201
G01 X21.6010 Y18.2289
G01 X21.5977 Y18.2381
G01 X21.5953 Y18.2476
G01 X21.5939 Y18.2572
G01 X21.5934 Y18.2670
G01 X21.5939 Y18.2768
G01 X21.5953 Y18.2864
G01 X21.5977 Y18.2959
G01 X21.6010 Y18.3051
G01 X21.6052 Y18.3139
G01 X21.6102 Y18.3223
G01 X21.6160 Y18.3302
G01 X21.6226 Y18.3374
G01 X21.6298 Y18.3440
G01 X21.6377 Y18.3498
G01 X21.6461 Y18.3548
G01 X21.6549 Y18.3590
G01 X21.6641 Y18.3623
G01 X21.6736 Y18.3647
G01 X21.6832 Y18.3661
G01 X21.6930 Y18.3666
G01 X21.7028 Y18.3661
G01 X21.7124 Y18.3647
G01 X21.7219 Y18.3623
G01 X21.7311 Y18.3590
G01 X21.7399 Y18.3548
G01 X21.7483 Y18.3498
G01 X21.7562 Y18.3440
G01 X21.7634 Y18.3374
G01 X21.7700 Y18.3302
G01 X21.7758 Y18.3223
G01 X21.7808 Y18.3139
G01 X21.7850 Y18.3051
G01 X21.7883 Y18.2959
G01 X21.7907 Y18.2864
G01 X21.7921 Y18.2768
G01 X21.7926 Y18.2670
G01 X21.7921 Y18.2572
G01 X21.7907 Y18.2476
G01 X21.7883 Y18.2381
G01 X21.7850 Y18.2289
G01 X21.7808 Y18.2201
G01 X21.7758 Y18.2117
G01 X21.7700 Y18.2038
G01 X21.7634 Y18.1966
G01 X21.7562 Y18.1900
G01 X21.7483 Y18.1842
G01 X21.7399 Y18.1792
G01 X21.7311 Y18.1750
G01 X21.7219 Y18.1717
G01 X21.7124 Y18.1693
G01 X21.7028 Y18.1679
G01 X21.6930 Y18.1674
G00 Z1.0000
G00 X21.6930 Y15.0174
G01 F15.00
G01 Z-0.4850
G01 F30.00
G01 X21.6832 Y15.0179
G01 X21.6736 Y15.0193
G01 X21.6641 Y15.0217
G01 X21.6549 Y15.0250
G01 X21.6461 Y15.0292
G01 X21.6377 Y15.0342
G01 X21.6298 Y15.0400
G01 X21.6226 Y15.0466
G01 X21.6160 Y15.0538
G01 X21.6102 Y15.0617
G01 X21.6052 Y15.0701
G01 X21.6010 Y15.0789
G01 X21.5977 Y15.0881
G01 X21.5953 Y15.0976
G01 X21.5939 Y15.1072
G01 X21.5934 Y15.1170
G01 X21.5939 Y15.1268
G01 X21.5953 Y15.1364
G01 X21.5977 Y15.1459
G01 X21.6010 Y15.1551
G01 X21.6052 Y15.1639
G01 X21.6102 Y15.1723
G01 X21.6160 Y15.1802
G01 X21.6226 Y15.1874
G01 X21.6298 Y15.1940
G01 X21.6377 Y15.1998
G01 X21.6461 Y15.2048
G01 X21.6549 Y15.2090
G01 X21.6641 Y15.2123
G01 X21.6736 Y15.2147
G01 X21.6832 Y15.2161
G01 X21.6930 Y15.2166
G01 X21.7028 Y15.2161
G01 X21.7124 Y15.2147
G01 X21.7219 Y15.2123
G01 X21.7311 Y15.2090
G01 X21.7399 Y15.2048
G01 X21.7483 Y15.1998
G01 X21.7562 Y15.1940
G01 X21.7634 Y15.1874
G01 X21.7700 Y15.1802
G01 X21.7758 Y15.1723
G01 X21.7808 Y15.1639
G01 X21.7850 Y15.1551
G01 X21.7883 Y15.1459
G01 X21.7907 Y15.1364
G01 X21.7921 Y15.1268
G01 X21.7926 Y15.1170
G01 X21.7921 Y15.1072
G01 X21.7907 Y15.0976
G01 X21.7883 Y15.0881
G01 X21.7850 Y15.0789
G01 X21.7808 Y15.0701
G01 X21.7758 Y15.0617
G01 X21.7700 Y15.0538
G01 X21.7634 Y15.0466
G01 X21.7562 Y15.0400
G01 X21.7483 Y15.0342
G01 X21.7399 Y15.0292
G01 X21.7311 Y15.0250
G01 X21.7219 Y15.0217
G01 X21.7124 Y15.0193
G01 X21.7028 Y15.0179
G01 X21.6930 Y15.0174
G00 X21.6930 Y15.0174
G01 F15.00
G01 Z-0.9700
G01 F30.00
G01 X21.6832 Y15.0179
G01 X21.6736 Y15.0193
G01 X21.6641 Y15.0217
G01 X21.6549 Y15.0250
G01 X21.6461 Y15.0292
G01 X21.6377 Y15.0342
G01 X21.6298 Y15.0400
G01 X21.6226 Y15.0466
G01 X21.6160 Y15.0538
G01 X21.6102 Y15.0617
G01 X21.6052 Y15.0701
G01 X21.6010 Y15.0789
G01 X21.5977 Y15.0881
G01 X21.5953 Y15.0976
G01 X21.5939 Y15.1072
G01 X21.5934 Y15.1170
G01 X21.5939 Y15.1268
G01 X21.5953 Y15.1364
G01 X21.5977 Y15.1459
G01 X21.6010 Y15.1551
G01 X21.6052 Y15.1639
G01 X21.6102 Y15.1723
G01 X21.6160 Y15.1802
G01 X21.6226 Y15.1874
G01 X21.6298 Y15.1940
G01 X21.6377 Y15.1998
G01 X21.6461 Y15.2048
G01 X21.6549 Y15.2090
G01 X21.6641 Y15.2123
G01 X21.6736 Y15.2147
G01 X21.6832 Y15.2161
G01 X21.6930 Y15.2166
G01 X21.7028 Y15.2161
G01 X21.7124 Y15.2147
G01 X21.7219 Y15.2123
G01 X21.7311 Y15.2090
G01 X21.7399 Y15.2048
G01 X21.7483 Y15.1998
G01 X21.7562 Y15.1940
G01 X21.7634 Y15.1874
G01 X21.7700 Y15.1802
G01 X21.7758 Y15.1723
G01 X21.7808 Y15.1639
G01 X21.7850 Y15.1551
G01 X21.7883 Y15.1459
G01 X21.7907 Y15.1364
G01 X21.7921 Y15.1268
G01 X21.7926 Y15.1170
G01 X21.7921 Y15.1072
G01 X21.7907 Y15.0976
G01 X21.7883 Y15.0881
G01 X21.7850 Y15.0789
G01 X21.7808 Y15.0701
G01 X21.7758 Y15.0617
G01 X21.7700 Y15.0538
G01 X21.7634 Y15.0466
G01 X21.7562 Y15.0400
G01 X21.7483 Y15.0342
G01 X21.7399 Y15.0292
G01 X21.7311 Y15.0250
G01 X21.7219 Y15.0217
G01 X21.7124 Y15.0193
G01 X21.7028 Y15.0179
G01 X21.6930 Y15.0174
G00 X21.6930 Y15.0174
G01 F15.00
G01 Z-1.4550
G01 F30.00
G01 X21.6832 Y15.0179
G01 X21.6736 Y15.0193
G01 X21.6641 Y15.0217
G01 X21.6549 Y15.0250
G01 X21.6461 Y15.0292
G01 X21.6377 Y15.0342
G01 X21.6298 Y15.0400
G01 X21.6226 Y15.0466
G01 X21.6160 Y15.0538
G01 X21.6102 Y15.0617
G01 X21.6052 Y15.0701
G01 X21.6010 Y15.0789
G01 X21.5977 Y15.0881
G01 X21.5953 Y15.0976
G01 X21.5939 Y15.1072
G01 X21.5934 Y15.1170
G01 X21.5939 Y15.1268
G01 X21.5953 Y15.1364
G01 X21.5977 Y15.1459
G01 X21.6010 Y15.1551
G01 X21.6052 Y15.1639
G01 X21.6102 Y15.1723
G01 X21.6160 Y15.1802
G01 X21.6226 Y15.1874
G01 X21.6298 Y15.1940
G01 X21.6377 Y15.1998
G01 X21.6461 Y15.2048
G01 X21.6549 Y15.2090
G01 X21.6641 Y15.2123
G01 X21.6736 Y15.2147
G01 X21.6832 Y15.2161
G01 X21.6930 Y15.2166
G01 X21.7028 Y15.2161
G01 X21.7124 Y15.2147
G01 X21.7219 Y15.2123
G01 X21.7311 Y15.2090
G01 X21.7399 Y15.2048
G01 X21.7483 Y15.1998
G01 X21.7562 Y15.1940
G01 X21.7634 Y15.1874
G01 X21.7700 Y15.1802
G01 X21.7758 Y15.1723
G01 X21.7808 Y15.1639
G01 X21.7850 Y15.1551
G01 X21.7883 Y15.1459
G01 X21.7907 Y15.1364
G01 X21.7921 Y15.1268
G01 X21.7926 Y15.1170
G01 X21.7921 Y15.1072
G01 X21.7907 Y15.0976
G01 X21.7883 Y15.0881
G01 X21.7850 Y15.0789
G01 X21.7808 Y15.0701
G01 X21.7758 Y15.0617
G01 X21.7700 Y15.0538
G01 X21.7634 Y15.0466
G01 X21.7562 Y15.0400
G01 X21.7483 Y15.0342
G01 X21.7399 Y15.0292
G01 X21.7311 Y15.0250
G01 X21.7219 Y15.0217
G01 X21.7124 Y15.0193
G01 X21.7028 Y15.0179
G01 X21.6930 Y15.0174
G00 X21.6930 Y15.0174
G01 F15.00
G01 Z-1.9400
G01 F30.00
G01 X21.6832 Y15.0179
G01 X21.6736 Y15.0193
G01 X21.6641 Y15.0217
G01 X21.6549 Y15.0250
G01 X21.6461 Y15.0292
G01 X21.6377 Y15.0342
G01 X21.6298 Y15.0400
G01 X21.6226 Y15.0466
G01 X21.6160 Y15.0538
G01 X21.6102 Y15.0617
G01 X21.6052 Y15.0701
G01 X21.6010 Y15.0789
G01 X21.5977 Y15.0881
G01 X21.5953 Y15.0976
G01 X21.5939 Y15.1072
G01 X21.5934 Y15.1170
G01 X21.5939 Y15.1268
G01 X21.5953 Y15.1364
G01 X21.5977 Y15.1459
G01 X21.6010 Y15.1551
G01 X21.6052 Y15.1639
G01 X21.6102 Y15.1723
G01 X21.6160 Y15.1802
G01 X21.6226 Y15.1874
G01 X21.6298 Y15.1940
G01 X21.6377 Y15.1998
G01 X21.6461 Y15.2048
G01 X21.6549 Y15.2090
G01 X21.6641 Y15.2123
G01 X21.6736 Y15.2147
G01 X21.6832 Y15.2161
G01 X21.6930 Y15.2166
G01 X21.7028 Y15.2161
G01 X21.7124 Y15.2147
G01 X21.7219 Y15.2123
G01 X21.7311 Y15.2090
G01 X21.7399 Y15.2048
G01 X21.7483 Y15.1998
G01 X21.7562 Y15.1940
G01 X21.7634 Y15.1874
G01 X21.7700 Y15.1802
G01 X21.7758 Y15.1723
G01 X21.7808 Y15.1639
G01 X21.7850 Y15.1551
G01 X21.7883 Y15.1459
G01 X21.7907 Y15.1364
G01 X21.7921 Y15.1268
G01 X21.7926 Y15.1170
G01 X21.7921 Y15.1072
G01 X21.7907 Y15.0976
G01 X21.7883 Y15.0881
G01 X21.7850 Y15.0789
G01 X21.7808 Y15.0701
G01 X21.7758 Y15.0617
G01 X21.7700 Y15.0538
G01 X21.7634 Y15.0466
G01 X21.7562 Y15.0400
G01 X21.7483 Y15.0342
G01 X21.7399 Y15.0292
G01 X21.7311 Y15.0250
G01 X21.7219 Y15.0217
G01 X21.7124 Y15.0193
G01 X21.7028 Y15.0179
G01 X21.6930 Y15.0174
G00 Z1.0000
G00 X21.6930 Y11.8174
G01 F15.00
G01 Z-0.4850
G01 F30.00
G01 X21.6832 Y11.8179
G01 X21.6736 Y11.8193
G01 X21.6641 Y11.8217
G01 X21.6549 Y11.8250
G01 X21.6461 Y11.8292
G01 X21.6377 Y11.8342
G01 X21.6298 Y11.8400
G01 X21.6226 Y11.8466
G01 X21.6160 Y11.8538
G01 X21.6102 Y11.8617
G01 X21.6052 Y11.8701
G01 X21.6010 Y11.8789
G01 X21.5977 Y11.8881
G01 X21.5953 Y11.8976
G01 X21.5939 Y11.9072
G01 X21.5934 Y11.9170
G01 X21.5939 Y11.9268
G01 X21.5953 Y11.9364
G01 X21.5977 Y11.9459
G01 X21.6010 Y11.9551
G01 X21.6052 Y11.9639
G01 X21.6102 Y11.9723
G01 X21.6160 Y11.9802
G01 X21.6226 Y11.9874
G01 X21.6298 Y11.9940
G01 X21.6377 Y11.9998
G01 X21.6461 Y12.0048
G01 X21.6549 Y12.0090
G01 X21.6641 Y12.0123
G01 X21.6736 Y12.0147
G01 X21.6832 Y12.0161
G01 X21.6930 Y12.0166
G01 X21.7028 Y12.0161
G01 X21.7124 Y12.0147
G01 X21.7219 Y12.0123
G01 X21.7311 Y12.0090
G01 X21.7399 Y12.0048
G01 X21.7483 Y11.9998
G01 X21.7562 Y11.9940
G01 X21.7634 Y11.9874
G01 X21.7700 Y11.9802
G01 X21.7758 Y11.9723
G01 X21.7808 Y11.9639
G01 X21.7850 Y11.9551
G01 X21.7883 Y11.9459
G01 X21.7907 Y11.9364
G01 X21.7921 Y11.9268
G01 X21.7926 Y11.9170
G01 X21.7921 Y11.9072
G01 X21.7907 Y11.8976
G01 X21.7883 Y11.8881
G01 X21.7850 Y11.8789
G01 X21.7808 Y11.8701
G01 X21.7758 Y11.8617
G01 X21.7700 Y11.8538
G01 X21.7634 Y11.8466
G01 X21.7562 Y11.8400
G01 X21.7483 Y11.8342
G01 X21.7399 Y11.8292
G01 X21.7311 Y11.8250
G01 X21.7219 Y11.8217
G01 X21.7124 Y11.8193
G01 X21.7028 Y11.8179
G01 X21.6930 Y11.8174
G00 X21.6930 Y11.8174
G01 F15.00
G01 Z-0.9700
G01 F30.00
G01 X21.6832 Y11.8179
G01 X21.6736 Y11.8193
G01 X21.6641 Y11.8217
G01 X21.6549 Y11.8250
G01 X21.6461 Y11.8292
G01 X21.6377 Y11.8342
G01 X21.6298 Y11.8400
G01 X21.6226 Y11.8466
G01 X21.6160 Y11.8538
G01 X21.6102 Y11.8617
G01 X21.6052 Y11.8701
G01 X21.6010 Y11.8789
G01 X21.5977 Y11.8881
G01 X21.5953 Y11.8976
G01 X21.5939 Y11.9072
G01 X21.5934 Y11.9170
G01 X21.5939 Y11.9268
G01 X21.5953 Y11.9364
G01 X21.5977 Y11.9459
G01 X21.6010 Y11.9551
G01 X21.6052 Y11.9639
G01 X21.6102 Y11.9723
G01 X21.6160 Y11.9802
G01 X21.6226 Y11.9874
G01 X21.6298 Y11.9940
G01 X21.6377 Y11.9998
G01 X21.6461 Y12.0048
G01 X21.6549 Y12.0090
G01 X21.6641 Y12.0123
G01 X21.6736 Y12.0147
G01 X21.6832 Y12.0161
G01 X21.6930 Y12.0166
G01 X21.7028 Y12.0161
G01 X21.7124 Y12.0147
G01 X21.7219 Y12.0123
G01 X21.7311 Y12.0090
G01 X21.7399 Y12.0048
G01 X21.7483 Y11.9998
G01 X21.7562 Y11.9940
G01 X21.7634 Y11.9874
G01 X21.7700 Y11.9802
G01 X21.7758 Y11.9723
G01 X21.7808 Y11.9639
G01 X21.7850 Y11.9551
G01 X21.7883 Y11.9459
G01 X21.7907 Y11.9364
G01 X21.7921 Y11.9268
G01 X21.7926 Y11.9170
G01 X21.7921 Y11.9072
G01 X21.7907 Y11.8976
G01 X21.7883 Y11.8881
G01 X21.7850 Y11.8789
G01 X21.7808 Y11.8701
G01 X21.7758 Y11.8617
G01 X21.7700 Y11.8538
