(G-CODE GENERATED BY FLATCAM v8.994 - www.flatcam.org - Version Date: 2020/11/7)

(Name: Combo_Gerber_iso_combined_cnc)
(Type: G-code from Geometry)
(Units: MM)

(Created on Wednesday, 01 February 2023 at 12:18)

(This preprocessor is the default preprocessor used by FlatCAM.)
(It is made to work with MACH3 compatible motion controllers.)

(TOOL DIAMETER: 0.32 mm)
(Feedrate_XY: 100.0 mm/min)
(Feedrate_Z: 30.0 mm/min)
(Feedrate rapids 1500.0 mm/min)

(Z_Cut: -0.08 mm)
(Z_Move: 1.0 mm)
(Z Start: None mm)
(Z End: 15.0 mm)
(X,Y End: 0.0000, 0.0000 mm)
(Steps per circle: 64)
(Preprocessor Geometry: default)

(X range:    0.8770 ...   23.1970  mm)
(Y range:    1.2030 ...   26.0970  mm)

(Spindle Speed: 1000.0 RPM)
G21
G90
G94

G01 F100.00

M5
G00 Z15.0000
G00 X0.0000 Y0.0000
T1
M6    
(MSG, Change to Tool Dia = 0.3200)
M0
G00 Z15.0000

M03 S1000.0
G01 F100.00
G00 X2.5309 Y2.4870
G01 F30.00
G01 Z-0.0800
G01 F100.00
G01 X2.1610 Y2.4870
G01 X2.1610 Y2.8569
G01 X2.5309 Y2.4870
G00 Z1.0000
G00 X3.2262 Y2.1990
G01 F30.00
G01 Z-0.0800
G01 F100.00
G01 X1.8730 Y2.1990
G01 X1.8730 Y3.5522
G01 X3.2262 Y2.1990
G00 Z1.0000
G00 X3.9215 Y1.9110
G01 F30.00
G01 Z-0.0800
G01 F100.00
G01 X1.5850 Y1.9110
G01 X1.5850 Y4.2475
G01 X3.9215 Y1.9110
G00 Z1.0000
G00 X4.7098 Y1.6230
G01 F30.00
G01 Z-0.0800
G01 F100.00
G01 X1.2970 Y1.6230
G01 X1.2970 Y5.1027
G01 X1.3140 Y5.0552
G01 X1.3184 Y5.0443
G01 X1.3637 Y4.9484
G01 X1.3694 Y4.9381
G01 X1.4219 Y4.8506
G01 X1.4286 Y4.8408
G01 X1.4919 Y4.7558
G01 X1.5684 Y4.6714
G01 X4.3962 Y1.8437
G01 X4.4778 Y1.7699
G01 X4.5660 Y1.7043
G01 X4.5759 Y1.6979
G01 X4.6635 Y1.6454
G01 X4.6740 Y1.6400
G01 X4.7098 Y1.6230
G00 Z1.0000
G00 X4.7015 Y11.8920
G01 F30.00
G01 Z-0.0800
G01 F100.00
G01 X4.7011 Y11.9242
G01 X4.6999 Y11.9564
G01 X4.6951 Y12.0544
G01 X4.6931 Y12.0866
G01 X4.6904 Y12.1187
G01 X4.6868 Y12.1507
G01 X4.6825 Y12.1826
G01 X4.6681 Y12.2797
G01 X4.6630 Y12.3115
G01 X4.6571 Y12.3431
G01 X4.6504 Y12.3746
G01 X4.6430 Y12.4060
G01 X4.6191 Y12.5012
G01 X4.6109 Y12.5324
G01 X4.6019 Y12.5633
G01 X4.5922 Y12.5940
G01 X4.5817 Y12.6244
G01 X4.5486 Y12.7169
G01 X4.5374 Y12.7471
G01 X4.5255 Y12.7770
G01 X4.5128 Y12.8066
G01 X4.4994 Y12.8358
G01 X4.4574 Y12.9246
G01 X4.4433 Y12.9535
G01 X4.4284 Y12.9821
G01 X4.4129 Y13.0103
G01 X4.3967 Y13.0381
G01 X4.3462 Y13.1224
G01 X4.3293 Y13.1498
G01 X4.3118 Y13.1768
G01 X4.2936 Y13.2033
G01 X4.2747 Y13.2294
G01 X4.2162 Y13.3083
G01 X4.1967 Y13.3339
G01 X4.1766 Y13.3590
G01 X4.1559 Y13.3837
G01 X4.1345 Y13.4078
G01 X4.0579 Y13.4920
G01 X4.1345 Y13.5762
G01 X4.1559 Y13.6003
G01 X4.1766 Y13.6250
G01 X4.1967 Y13.6501
G01 X4.2162 Y13.6757
G01 X4.2747 Y13.7546
G01 X4.2936 Y13.7807
G01 X4.3118 Y13.8072
G01 X4.3293 Y13.8342
G01 X4.3462 Y13.8616
G01 X4.3967 Y13.9459
G01 X4.4129 Y13.9737
G01 X4.4284 Y14.0019
G01 X4.4433 Y14.0305
G01 X4.4574 Y14.0594
G01 X4.4994 Y14.1482
G01 X4.5128 Y14.1774
G01 X4.5255 Y14.2070
G01 X4.5374 Y14.2369
G01 X4.5486 Y14.2671
G01 X4.5817 Y14.3596
G01 X4.5922 Y14.3900
G01 X4.6019 Y14.4207
G01 X4.6109 Y14.4516
G01 X4.6191 Y14.4828
G01 X4.6430 Y14.5780
G01 X4.6504 Y14.6094
G01 X4.6571 Y14.6409
G01 X4.6630 Y14.6725
G01 X4.6681 Y14.7043
G01 X4.6825 Y14.8014
G01 X4.6868 Y14.8333
G01 X4.6904 Y14.8653
G01 X4.6931 Y14.8974
G01 X4.6951 Y14.9296
G01 X4.6999 Y15.0276
G01 X4.7011 Y15.0598
G01 X4.7015 Y15.0920
G01 X4.7015 Y17.2841
G01 X7.0424 Y19.6250
G01 X8.1571 Y19.6250
G01 X8.1233 Y19.5794
G01 X8.1044 Y19.5533
G01 X8.0862 Y19.5268
G01 X8.0687 Y19.4998
G01 X8.0518 Y19.4724
G01 X8.0013 Y19.3881
G01 X7.9851 Y19.3603
G01 X7.9696 Y19.3321
G01 X7.9547 Y19.3035
G01 X7.9406 Y19.2746
G01 X7.8986 Y19.1858
G01 X7.8852 Y19.1566
G01 X7.8725 Y19.1270
G01 X7.8606 Y19.0971
G01 X7.8494 Y19.0669
G01 X7.8163 Y18.9744
G01 X7.8058 Y18.9440
G01 X7.7961 Y18.9133
G01 X7.7871 Y18.8824
G01 X7.7789 Y18.8512
G01 X7.7550 Y18.7560
G01 X7.7476 Y18.7246
G01 X7.7409 Y18.6931
G01 X7.7350 Y18.6615
G01 X7.7299 Y18.6297
G01 X7.7155 Y18.5326
G01 X7.7112 Y18.5007
G01 X7.7076 Y18.4687
G01 X7.7049 Y18.4366
G01 X7.7029 Y18.4044
G01 X7.6981 Y18.3064
G01 X7.6969 Y18.2742
G01 X7.6965 Y18.2420
G01 X7.6965 Y8.6920
G01 X7.6969 Y8.6598
G01 X7.6981 Y8.6276
G01 X7.7029 Y8.5296
G01 X7.7049 Y8.4974
G01 X7.7076 Y8.4653
G01 X7.7112 Y8.4333
G01 X7.7155 Y8.4014
G01 X7.7299 Y8.3043
G01 X7.7350 Y8.2725
G01 X7.7409 Y8.2409
G01 X7.7476 Y8.2094
G01 X7.7550 Y8.1780
G01 X7.7789 Y8.0828
G01 X7.7871 Y8.0516
G01 X7.7961 Y8.0207
G01 X7.8058 Y7.9900
G01 X7.8163 Y7.9596
G01 X7.8494 Y7.8671
G01 X7.8606 Y7.8369
G01 X7.8725 Y7.8070
G01 X7.8852 Y7.7774
G01 X7.8986 Y7.7482
G01 X7.9406 Y7.6594
G01 X7.9547 Y7.6305
G01 X7.9696 Y7.6019
G01 X7.9851 Y7.5737
G01 X8.0013 Y7.5459
G01 X8.0518 Y7.4616
G01 X8.0687 Y7.4342
G01 X8.0862 Y7.4072
G01 X8.1044 Y7.3807
G01 X8.1233 Y7.3546
G01 X8.1818 Y7.2757
G01 X8.2013 Y7.2501
G01 X8.2214 Y7.2250
G01 X8.2421 Y7.2003
G01 X8.2635 Y7.1762
G01 X8.3401 Y7.0920
G01 X8.2635 Y7.0078
G01 X8.2421 Y6.9837
G01 X8.2214 Y6.9590
G01 X8.2013 Y6.9339
G01 X8.1818 Y6.9083
G01 X8.1233 Y6.8294
G01 X8.1044 Y6.8033
G01 X8.0862 Y6.7768
G01 X8.0687 Y6.7498
G01 X8.0518 Y6.7224
G01 X8.0013 Y6.6381
G01 X7.9851 Y6.6103
G01 X7.9696 Y6.5821
G01 X7.9547 Y6.5535
G01 X7.9406 Y6.5246
G01 X7.8986 Y6.4358
G01 X7.8852 Y6.4066
G01 X7.8725 Y6.3770
G01 X7.8606 Y6.3471
G01 X7.8494 Y6.3169
G01 X7.8163 Y6.2244
G01 X7.8058 Y6.1940
G01 X7.7961 Y6.1633
G01 X7.7871 Y6.1324
G01 X7.7789 Y6.1012
G01 X7.7550 Y6.0060
G01 X7.7476 Y5.9746
G01 X7.7409 Y5.9431
G01 X7.7350 Y5.9115
G01 X7.7299 Y5.8797
G01 X7.7155 Y5.7826
G01 X7.7112 Y5.7507
G01 X7.7076 Y5.7187
G01 X7.7049 Y5.6866
G01 X7.7029 Y5.6544
G01 X7.6981 Y5.5564
G01 X7.6969 Y5.5242
G01 X7.6965 Y5.4920
G01 X7.6969 Y5.4598
G01 X7.6981 Y5.4276
G01 X7.7029 Y5.3296
G01 X7.7049 Y5.2974
G01 X7.7076 Y5.2653
G01 X7.7112 Y5.2333
G01 X7.7155 Y5.2014
G01 X7.7299 Y5.1043
G01 X7.7350 Y5.0725
G01 X7.7409 Y5.0409
G01 X7.7476 Y5.0094
G01 X7.7547 Y4.9795
G01 X6.1719 Y4.9795
G01 X4.7015 Y6.4499
G01 X4.7015 Y11.8920
G00 Z1.0000
G00 X4.9895 Y11.8920
G01 F30.00
G01 Z-0.0800
G01 F100.00
G01 X4.9890 Y11.9313
G01 X4.9876 Y11.9705
G01 X4.9828 Y12.0686
G01 X4.9803 Y12.1078
G01 X4.9770 Y12.1469
G01 X4.9726 Y12.1859
G01 X4.9674 Y12.2248
G01 X4.9530 Y12.3220
G01 X4.9467 Y12.3607
G01 X4.9395 Y12.3993
G01 X4.9314 Y12.4377
G01 X4.9223 Y12.4760
G01 X4.8985 Y12.5712
G01 X4.8885 Y12.6092
G01 X4.8775 Y12.6469
G01 X4.8657 Y12.6843
G01 X4.8529 Y12.7215
G01 X4.8198 Y12.8139
G01 X4.8061 Y12.8507
G01 X4.7915 Y12.8872
G01 X4.7761 Y12.9233
G01 X4.7597 Y12.9590
G01 X4.7177 Y13.0477
G01 X4.7005 Y13.0830
G01 X4.6824 Y13.1179
G01 X4.6635 Y13.1523
G01 X4.6437 Y13.1862
G01 X4.5933 Y13.2704
G01 X4.5727 Y13.3038
G01 X4.5512 Y13.3368
G01 X4.5290 Y13.3691
G01 X4.5060 Y13.4010
G01 X4.4383 Y13.4920
G01 X4.5060 Y13.5830
G01 X4.5290 Y13.6149
G01 X4.5512 Y13.6472
G01 X4.5727 Y13.6802
G01 X4.5933 Y13.7136
G01 X4.6437 Y13.7978
G01 X4.6635 Y13.8317
G01 X4.6824 Y13.8661
G01 X4.7005 Y13.9010
G01 X4.7177 Y13.9363
G01 X4.7597 Y14.0250
G01 X4.7761 Y14.0607
G01 X4.7915 Y14.0968
G01 X4.8061 Y14.1333
G01 X4.8198 Y14.1701
G01 X4.8529 Y14.2625
G01 X4.8657 Y14.2997
G01 X4.8775 Y14.3371
G01 X4.8885 Y14.3748
G01 X4.8985 Y14.4128
G01 X4.9223 Y14.5080
G01 X4.9314 Y14.5463
G01 X4.9395 Y14.5847
G01 X4.9467 Y14.6233
G01 X4.9530 Y14.6620
G01 X4.9674 Y14.7592
G01 X4.9726 Y14.7981
G01 X4.9770 Y14.8371
G01 X4.9803 Y14.8762
G01 X4.9828 Y14.9154
G01 X4.9876 Y15.0135
G01 X4.9890 Y15.0527
G01 X4.9895 Y15.0920
G01 X4.9895 Y17.1648
G01 X7.1617 Y19.3370
G01 X7.6515 Y19.3370
G01 X7.6219 Y19.2733
G01 X7.6065 Y19.2372
G01 X7.5919 Y19.2007
G01 X7.5782 Y19.1639
G01 X7.5451 Y19.0715
G01 X7.5323 Y19.0343
G01 X7.5205 Y18.9969
G01 X7.5095 Y18.9592
G01 X7.4995 Y18.9212
G01 X7.4757 Y18.8260
G01 X7.4666 Y18.7877
G01 X7.4585 Y18.7493
G01 X7.4513 Y18.7107
G01 X7.4450 Y18.6720
G01 X7.4306 Y18.5748
G01 X7.4254 Y18.5359
G01 X7.4210 Y18.4969
G01 X7.4177 Y18.4578
G01 X7.4152 Y18.4186
G01 X7.4104 Y18.3205
G01 X7.4090 Y18.2813
G01 X7.4085 Y18.2420
G01 X7.4085 Y8.6920
G01 X7.4090 Y8.6527
G01 X7.4104 Y8.6135
G01 X7.4152 Y8.5154
G01 X7.4177 Y8.4762
G01 X7.4210 Y8.4371
G01 X7.4254 Y8.3981
G01 X7.4306 Y8.3592
G01 X7.4450 Y8.2620
G01 X7.4513 Y8.2233
G01 X7.4585 Y8.1847
G01 X7.4666 Y8.1463
G01 X7.4757 Y8.1080
G01 X7.4995 Y8.0128
G01 X7.5095 Y7.9748
G01 X7.5205 Y7.9371
G01 X7.5323 Y7.8997
G01 X7.5451 Y7.8625
G01 X7.5782 Y7.7701
G01 X7.5919 Y7.7333
G01 X7.6065 Y7.6968
G01 X7.6219 Y7.6607
G01 X7.6383 Y7.6250
G01 X7.6803 Y7.5363
G01 X7.6975 Y7.5010
G01 X7.7156 Y7.4661
G01 X7.7345 Y7.4317
G01 X7.7543 Y7.3978
G01 X7.8047 Y7.3136
G01 X7.8253 Y7.2802
G01 X7.8468 Y7.2472
G01 X7.8690 Y7.2149
G01 X7.8920 Y7.1830
G01 X7.9597 Y7.0920
G01 X7.8920 Y7.0010
G01 X7.8690 Y6.9691
G01 X7.8468 Y6.9368
G01 X7.8253 Y6.9038
G01 X7.8047 Y6.8704
G01 X7.7543 Y6.7862
G01 X7.7345 Y6.7523
G01 X7.7156 Y6.7179
G01 X7.6975 Y6.6830
G01 X7.6803 Y6.6477
G01 X7.6383 Y6.5590
G01 X7.6219 Y6.5233
G01 X7.6065 Y6.4872
G01 X7.5919 Y6.4507
G01 X7.5782 Y6.4139
G01 X7.5451 Y6.3215
G01 X7.5323 Y6.2843
G01 X7.5205 Y6.2469
G01 X7.5095 Y6.2092
G01 X7.4995 Y6.1712
G01 X7.4757 Y6.0760
G01 X7.4666 Y6.0377
G01 X7.4585 Y5.9993
G01 X7.4513 Y5.9607
G01 X7.4450 Y5.9220
G01 X7.4306 Y5.8248
G01 X7.4254 Y5.7859
G01 X7.4210 Y5.7469
G01 X7.4177 Y5.7078
G01 X7.4152 Y5.6686
G01 X7.4104 Y5.5705
G01 X7.4090 Y5.5313
G01 X7.4085 Y5.4920
G01 X7.4090 Y5.4527
G01 X7.4104 Y5.4135
G01 X7.4152 Y5.3154
G01 X7.4184 Y5.2675
G01 X6.2912 Y5.2675
G01 X4.9895 Y6.5692
G01 X4.9895 Y11.8920
G00 Z1.0000
G00 X5.2775 Y11.8920
G01 F30.00
G01 Z-0.0800
G01 F100.00
G01 X5.2769 Y11.9383
G01 X5.2752 Y11.9846
G01 X5.2704 Y12.0827
G01 X5.2676 Y12.1290
G01 X5.2636 Y12.1751
G01 X5.2585 Y12.2212
G01 X5.2522 Y12.2671
G01 X5.2378 Y12.3642
G01 X5.2305 Y12.4100
G01 X5.2220 Y12.4555
G01 X5.2124 Y12.5009
G01 X5.2017 Y12.5459
G01 X5.1778 Y12.6412
G01 X5.1660 Y12.6860
G01 X5.1531 Y12.7305
G01 X5.1391 Y12.7747
G01 X5.1241 Y12.8185
G01 X5.0910 Y12.9109
G01 X5.0748 Y12.9544
G01 X5.0576 Y12.9974
G01 X5.0394 Y13.0400
G01 X5.0201 Y13.0821
G01 X4.9781 Y13.1709
G01 X4.9578 Y13.2125
G01 X4.9364 Y13.2536
G01 X4.9141 Y13.2942
G01 X4.8908 Y13.3343
G01 X4.8403 Y13.4185
G01 X4.8160 Y13.4579
G01 X4.7938 Y13.4920
G01 X4.8160 Y13.5261
G01 X4.8403 Y13.5655
G01 X4.8908 Y13.6497
G01 X4.9141 Y13.6898
G01 X4.9364 Y13.7304
G01 X4.9578 Y13.7715
G01 X4.9781 Y13.8131
G01 X5.0201 Y13.9019
G01 X5.0394 Y13.9440
G01 X5.0576 Y13.9866
G01 X5.0748 Y14.0296
G01 X5.0910 Y14.0731
G01 X5.1241 Y14.1655
G01 X5.1391 Y14.2093
G01 X5.1531 Y14.2535
G01 X5.1660 Y14.2980
G01 X5.1778 Y14.3428
G01 X5.2017 Y14.4381
G01 X5.2124 Y14.4831
G01 X5.2220 Y14.5285
G01 X5.2305 Y14.5740
G01 X5.2378 Y14.6198
G01 X5.2522 Y14.7169
G01 X5.2585 Y14.7628
G01 X5.2636 Y14.8089
G01 X5.2676 Y14.8550
G01 X5.2704 Y14.9013
G01 X5.2752 Y14.9994
G01 X5.2769 Y15.0457
G01 X5.2775 Y15.0920
G01 X5.2775 Y17.0455
G01 X7.2192 Y18.9872
G01 X7.1963 Y18.8959
G01 X7.1856 Y18.8509
G01 X7.1760 Y18.8055
G01 X7.1675 Y18.7600
G01 X7.1602 Y18.7142
G01 X7.1458 Y18.6171
G01 X7.1395 Y18.5712
G01 X7.1344 Y18.5251
G01 X7.1304 Y18.4790
G01 X7.1276 Y18.4327
G01 X7.1228 Y18.3346
G01 X7.1211 Y18.2883
G01 X7.1205 Y18.2420
G01 X7.1205 Y8.6920
G01 X7.1211 Y8.6457
G01 X7.1228 Y8.5994
G01 X7.1276 Y8.5013
G01 X7.1304 Y8.4550
G01 X7.1344 Y8.4089
G01 X7.1395 Y8.3628
G01 X7.1458 Y8.3169
G01 X7.1602 Y8.2198
G01 X7.1675 Y8.1740
G01 X7.1760 Y8.1285
G01 X7.1856 Y8.0831
G01 X7.1963 Y8.0381
G01 X7.2202 Y7.9428
G01 X7.2320 Y7.8980
G01 X7.2449 Y7.8535
G01 X7.2589 Y7.8093
G01 X7.2739 Y7.7655
G01 X7.3070 Y7.6731
G01 X7.3232 Y7.6296
G01 X7.3404 Y7.5866
G01 X7.3586 Y7.5440
G01 X7.3779 Y7.5019
G01 X7.4199 Y7.4131
G01 X7.4402 Y7.3715
G01 X7.4616 Y7.3304
G01 X7.4839 Y7.2898
G01 X7.5072 Y7.2497
G01 X7.5577 Y7.1655
G01 X7.5820 Y7.1261
G01 X7.6042 Y7.0920
G01 X7.5820 Y7.0579
G01 X7.5577 Y7.0185
G01 X7.5072 Y6.9343
G01 X7.4839 Y6.8942
G01 X7.4616 Y6.8536
G01 X7.4402 Y6.8125
G01 X7.4199 Y6.7709
G01 X7.3779 Y6.6821
G01 X7.3586 Y6.6400
G01 X7.3404 Y6.5974
G01 X7.3232 Y6.5544
G01 X7.3070 Y6.5109
G01 X7.2739 Y6.4185
G01 X7.2589 Y6.3747
G01 X7.2449 Y6.3305
G01 X7.2320 Y6.2860
G01 X7.2202 Y6.2412
G01 X7.1963 Y6.1459
G01 X7.1856 Y6.1009
G01 X7.1760 Y6.0555
G01 X7.1675 Y6.0100
G01 X7.1602 Y5.9642
G01 X7.1458 Y5.8671
G01 X7.1395 Y5.8212
G01 X7.1344 Y5.7751
G01 X7.1304 Y5.7290
G01 X7.1276 Y5.6827
G01 X7.1228 Y5.5846
G01 X7.1217 Y5.5555
G01 X6.4105 Y5.5555
G01 X5.2775 Y6.6885
G01 X5.2775 Y11.8920
G00 Z1.0000
G00 X5.5655 Y11.8920
G01 F30.00
G01 Z-0.0800
G01 F100.00
G01 X5.5648 Y11.9454
G01 X5.5629 Y11.9988
G01 X5.5581 Y12.0968
G01 X5.5548 Y12.1501
G01 X5.5502 Y12.2034
G01 X5.5443 Y12.2564
G01 X5.5371 Y12.3094
G01 X5.5227 Y12.4065
G01 X5.5142 Y12.4592
G01 X5.5045 Y12.5117
G01 X5.4934 Y12.5640
G01 X5.4811 Y12.6159
G01 X5.4572 Y12.7112
G01 X5.4436 Y12.7628
G01 X5.4287 Y12.8141
G01 X5.4126 Y12.8650
G01 X5.3952 Y12.9155
G01 X5.3621 Y13.0079
G01 X5.3435 Y13.0580
G01 X5.3237 Y13.1076
G01 X5.3027 Y13.1567
G01 X5.2804 Y13.2052
G01 X5.2384 Y13.2940
G01 X5.2150 Y13.3420
G01 X5.1904 Y13.3894
G01 X5.1647 Y13.4362
G01 X5.1320 Y13.4920
G01 X5.1647 Y13.5478
G01 X5.1904 Y13.5946
G01 X5.2150 Y13.6420
G01 X5.2384 Y13.6900
G01 X5.2804 Y13.7788
G01 X5.3027 Y13.8273
G01 X5.3237 Y13.8764
G01 X5.3435 Y13.9260
G01 X5.3621 Y13.9761
G01 X5.3952 Y14.0685
G01 X5.4126 Y14.1190
G01 X5.4287 Y14.1699
G01 X5.4436 Y14.2212
G01 X5.4572 Y14.2728
G01 X5.4811 Y14.3681
G01 X5.4934 Y14.4200
G01 X5.5045 Y14.4723
G01 X5.5142 Y14.5248
G01 X5.5227 Y14.5775
G01 X5.5371 Y14.6746
G01 X5.5443 Y14.7276
G01 X5.5502 Y14.7806
G01 X5.5548 Y14.8339
G01 X5.5581 Y14.8872
G01 X5.5629 Y14.9852
G01 X5.5648 Y15.0386
G01 X5.5655 Y15.0920
G01 X5.5655 Y16.9263
G01 X6.8325 Y18.1933
G01 X6.8325 Y8.6920
G01 X6.8332 Y8.6386
G01 X6.8351 Y8.5852
G01 X6.8399 Y8.4872
G01 X6.8432 Y8.4339
G01 X6.8478 Y8.3806
G01 X6.8537 Y8.3276
G01 X6.8609 Y8.2746
G01 X6.8753 Y8.1775
G01 X6.8838 Y8.1248
G01 X6.8935 Y8.0723
G01 X6.9046 Y8.0200
G01 X6.9169 Y7.9681
G01 X6.9408 Y7.8728
G01 X6.9544 Y7.8212
G01 X6.9693 Y7.7699
G01 X6.9854 Y7.7190
G01 X7.0028 Y7.6685
G01 X7.0359 Y7.5761
G01 X7.0545 Y7.5260
G01 X7.0743 Y7.4764
G01 X7.0953 Y7.4273
G01 X7.1176 Y7.3788
G01 X7.1596 Y7.2900
G01 X7.1830 Y7.2420
G01 X7.2076 Y7.1946
G01 X7.2333 Y7.1478
G01 X7.2660 Y7.0920
G01 X7.2333 Y7.0362
G01 X7.2076 Y6.9894
G01 X7.1830 Y6.9420
G01 X7.1596 Y6.8940
G01 X7.1176 Y6.8052
G01 X7.0953 Y6.7567
G01 X7.0743 Y6.7076
G01 X7.0545 Y6.6580
G01 X7.0359 Y6.6079
G01 X7.0028 Y6.5155
G01 X6.9854 Y6.4650
G01 X6.9693 Y6.4141
G01 X6.9544 Y6.3628
G01 X6.9408 Y6.3112
G01 X6.9169 Y6.2159
G01 X6.9046 Y6.1640
G01 X6.8935 Y6.1117
G01 X6.8838 Y6.0592
G01 X6.8753 Y6.0065
G01 X6.8609 Y5.9094
G01 X6.8537 Y5.8564
G01 X6.8522 Y5.8435
G01 X6.5297 Y5.8435
G01 X5.5655 Y6.8077
G01 X5.5655 Y11.8920
G00 Z1.0000
G00 X5.8535 Y11.8920
G01 F30.00
G01 Z-0.0800
G01 F100.00
G01 X5.8528 Y11.9525
G01 X5.8505 Y12.0129
G01 X5.8457 Y12.1110
G01 X5.8420 Y12.1713
G01 X5.8368 Y12.2316
G01 X5.8302 Y12.2917
G01 X5.8220 Y12.3516
G01 X5.8076 Y12.4487
G01 X5.7980 Y12.5084
G01 X5.7869 Y12.5679
G01 X5.7744 Y12.6271
G01 X5.7604 Y12.6859
G01 X5.7366 Y12.7811
G01 X5.7212 Y12.8396
G01 X5.7043 Y12.8977
G01 X5.6861 Y12.9553
G01 X5.6664 Y13.0125
G01 X5.6333 Y13.1050
G01 X5.6122 Y13.1617
G01 X5.5898 Y13.2178
G01 X5.5660 Y13.2734
G01 X5.5408 Y13.3284
G01 X5.4988 Y13.4171
G01 X5.4723 Y13.4715
G01 X5.4616 Y13.4920
G01 X5.4723 Y13.5125
G01 X5.4988 Y13.5669
G01 X5.5408 Y13.6556
G01 X5.5660 Y13.7106
G01 X5.5898 Y13.7662
G01 X5.6122 Y13.8223
G01 X5.6333 Y13.8790
G01 X5.6664 Y13.9715
G01 X5.6861 Y14.0287
G01 X5.7043 Y14.0863
G01 X5.7212 Y14.1444
G01 X5.7366 Y14.2029
G01 X5.7604 Y14.2981
G01 X5.7744 Y14.3569
G01 X5.7869 Y14.4161
G01 X5.7980 Y14.4756
G01 X5.8076 Y14.5353
G01 X5.8220 Y14.6324
G01 X5.8302 Y14.6923
G01 X5.8368 Y14.7524
G01 X5.8420 Y14.8127
G01 X5.8457 Y14.8730
G01 X5.8505 Y14.9711
G01 X5.8528 Y15.0315
G01 X5.8535 Y15.0920
G01 X5.8535 Y16.8070
G01 X6.5445 Y17.4980
G01 X6.5445 Y8.6920
G01 X6.5452 Y8.6315
G01 X6.5475 Y8.5711
G01 X6.5523 Y8.4730
G01 X6.5560 Y8.4127
G01 X6.5612 Y8.3524
G01 X6.5678 Y8.2923
G01 X6.5760 Y8.2324
G01 X6.5904 Y8.1353
G01 X6.6000 Y8.0756
G01 X6.6111 Y8.0161
G01 X6.6236 Y7.9569
G01 X6.6376 Y7.8981
G01 X6.6614 Y7.8029
G01 X6.6768 Y7.7444
G01 X6.6937 Y7.6863
G01 X6.7119 Y7.6287
G01 X6.7316 Y7.5715
G01 X6.7647 Y7.4790
G01 X6.7858 Y7.4223
G01 X6.8082 Y7.3662
G01 X6.8320 Y7.3106
G01 X6.8572 Y7.2556
G01 X6.8992 Y7.1669
G01 X6.9257 Y7.1125
G01 X6.9364 Y7.0920
G01 X6.9257 Y7.0715
G01 X6.8992 Y7.0171
G01 X6.8572 Y6.9284
G01 X6.8320 Y6.8734
G01 X6.8082 Y6.8178
G01 X6.7858 Y6.7617
G01 X6.7647 Y6.7050
G01 X6.7316 Y6.6125
G01 X6.7119 Y6.5553
G01 X6.6937 Y6.4977
G01 X6.6768 Y6.4396
G01 X6.6614 Y6.3811
G01 X6.6376 Y6.2859
G01 X6.6236 Y6.2271
G01 X6.6113 Y6.1692
G01 X5.8535 Y6.9270
G01 X5.8535 Y11.8920
G00 Z1.0000
G00 X6.1415 Y11.8920
G01 F30.00
G01 Z-0.0800
G01 F100.00
G01 X6.1407 Y11.9595
G01 X6.1382 Y12.0270
G01 X6.1334 Y12.1251
G01 X6.1292 Y12.1925
G01 X6.1234 Y12.2598
G01 X6.1160 Y12.3269
G01 X6.1069 Y12.3939
G01 X6.0925 Y12.4910
G01 X6.0818 Y12.5577
G01 X6.0694 Y12.6241
G01 X6.0554 Y12.6902
G01 X6.0398 Y12.7559
G01 X6.0159 Y12.8511
G01 X5.9987 Y12.9164
G01 X5.9799 Y12.9813
G01 X5.9595 Y13.0457
G01 X5.9375 Y13.1096
G01 X5.9045 Y13.2020
G01 X5.8809 Y13.2653
G01 X5.8559 Y13.3280
G01 X5.8292 Y13.3901
G01 X5.8011 Y13.4515
G01 X5.7820 Y13.4920
G01 X5.8011 Y13.5325
G01 X5.8292 Y13.5939
G01 X5.8559 Y13.6560
G01 X5.8809 Y13.7187
G01 X5.9045 Y13.7820
G01 X5.9375 Y13.8744
G01 X5.9595 Y13.9383
G01 X5.9799 Y14.0027
G01 X5.9987 Y14.0676
G01 X6.0159 Y14.1329
G01 X6.0398 Y14.2281
G01 X6.0554 Y14.2938
G01 X6.0694 Y14.3599
G01 X6.0818 Y14.4263
G01 X6.0925 Y14.4930
G01 X6.1069 Y14.5901
G01 X6.1160 Y14.6571
G01 X6.1234 Y14.7242
G01 X6.1292 Y14.7915
G01 X6.1334 Y14.8589
G01 X6.1382 Y14.9570
G01 X6.1407 Y15.0245
G01 X6.1415 Y15.0920
G01 X6.1415 Y16.6877
G01 X6.2565 Y16.8027
G01 X6.2565 Y8.6920
G01 X6.2573 Y8.6245
G01 X6.2598 Y8.5570
G01 X6.2646 Y8.4589
G01 X6.2688 Y8.3915
G01 X6.2746 Y8.3242
G01 X6.2820 Y8.2571
G01 X6.2911 Y8.1901
G01 X6.3055 Y8.0930
G01 X6.3162 Y8.0263
G01 X6.3286 Y7.9599
G01 X6.3426 Y7.8938
G01 X6.3582 Y7.8281
G01 X6.3821 Y7.7329
G01 X6.3993 Y7.6676
G01 X6.4181 Y7.6027
G01 X6.4385 Y7.5383
G01 X6.4605 Y7.4744
G01 X6.4935 Y7.3820
G01 X6.5171 Y7.3187
G01 X6.5421 Y7.2560
G01 X6.5688 Y7.1939
G01 X6.5969 Y7.1325
G01 X6.6160 Y7.0920
G01 X6.5969 Y7.0515
G01 X6.5688 Y6.9901
G01 X6.5421 Y6.9280
G01 X6.5171 Y6.8653
G01 X6.4935 Y6.8020
G01 X6.4652 Y6.7227
G01 X6.1415 Y7.0463
G01 X6.1415 Y11.8920
G00 Z1.0000
G00 X4.4135 Y11.8920
G01 F30.00
G01 Z-0.0800
G01 F100.00
G01 X4.4132 Y11.9171
G01 X4.4123 Y11.9422
G01 X4.4074 Y12.0403
G01 X4.4059 Y12.0654
G01 X4.4038 Y12.0904
G01 X4.4010 Y12.1154
G01 X4.3976 Y12.1403
G01 X4.3792 Y12.2623
G01 X4.3746 Y12.2870
G01 X4.3694 Y12.3115
G01 X4.3636 Y12.3360
G01 X4.3397 Y12.4312
G01 X4.3333 Y12.4555
G01 X4.3263 Y12.4797
G01 X4.3187 Y12.5036
G01 X4.3106 Y12.5274
G01 X4.2775 Y12.6199
G01 X4.2687 Y12.6434
G01 X4.2594 Y12.6667
G01 X4.2495 Y12.6898
G01 X4.2390 Y12.7127
G01 X4.1860 Y12.8240
G01 X4.1744 Y12.8463
G01 X4.1623 Y12.8684
G01 X4.1497 Y12.8901
G01 X4.0992 Y12.9743
G01 X4.0860 Y12.9957
G01 X4.0723 Y13.0168
G01 X4.0581 Y13.0375
G01 X4.0434 Y13.0578
G01 X3.9849 Y13.1367
G01 X3.9697 Y13.1567
G01 X3.9540 Y13.1763
G01 X3.9378 Y13.1956
G01 X3.9211 Y13.2144
G01 X3.8552 Y13.2871
G01 X3.8381 Y13.3055
G01 X3.8205 Y13.3235
G01 X3.8025 Y13.3411
G01 X3.7114 Y13.4241
G01 X3.6926 Y13.4408
G01 X3.6733 Y13.4570
G01 X3.6537 Y13.4727
G01 X3.6282 Y13.4920
G01 X3.6537 Y13.5113
G01 X3.6733 Y13.5270
G01 X3.6926 Y13.5432
G01 X3.7114 Y13.5599
G01 X3.8025 Y13.6429
G01 X3.8205 Y13.6605
G01 X3.8381 Y13.6785
G01 X3.8552 Y13.6969
G01 X3.9378 Y13.7884
G01 X3.9540 Y13.8077
G01 X3.9697 Y13.8273
G01 X4.0434 Y13.9262
G01 X4.0581 Y13.9465
G01 X4.0723 Y13.9672
G01 X4.0860 Y13.9883
G01 X4.1497 Y14.0939
G01 X4.1623 Y14.1156
G01 X4.1744 Y14.1377
G01 X4.1860 Y14.1600
G01 X4.1970 Y14.1826
G01 X4.2390 Y14.2713
G01 X4.2495 Y14.2942
G01 X4.2594 Y14.3173
G01 X4.2687 Y14.3406
G01 X4.2775 Y14.3641
G01 X4.3106 Y14.4566
G01 X4.3187 Y14.4804
G01 X4.3263 Y14.5043
G01 X4.3333 Y14.5285
G01 X4.3397 Y14.5528
G01 X4.3636 Y14.6480
G01 X4.3694 Y14.6725
G01 X4.3746 Y14.6970
G01 X4.3792 Y14.7217
G01 X4.3832 Y14.7466
G01 X4.3976 Y14.8437
G01 X4.4010 Y14.8686
G01 X4.4038 Y14.8936
G01 X4.4059 Y14.9186
G01 X4.4074 Y14.9437
G01 X4.4132 Y15.0669
G01 X4.4135 Y15.0920
G01 X4.4135 Y17.4034
G01 X6.9231 Y19.9130
G01 X8.8663 Y19.9130
G01 X8.8432 Y19.8964
G01 X8.7443 Y19.8227
G01 X8.7247 Y19.8070
G01 X8.7054 Y19.7908
G01 X8.6866 Y19.7741
G01 X8.6139 Y19.7082
G01 X8.5955 Y19.6911
G01 X8.5775 Y19.6735
G01 X8.5599 Y19.6555
G01 X8.5428 Y19.6371
G01 X8.4769 Y19.5644
G01 X8.4602 Y19.5456
G01 X8.4440 Y19.5263
G01 X8.4283 Y19.5067
G01 X8.3546 Y19.4078
G01 X8.3399 Y19.3875
G01 X8.3257 Y19.3668
G01 X8.3120 Y19.3457
G01 X8.2988 Y19.3243
G01 X8.2483 Y19.2401
G01 X8.2357 Y19.2184
G01 X8.2236 Y19.1963
G01 X8.2120 Y19.1740
G01 X8.2010 Y19.1514
G01 X8.1590 Y19.0627
G01 X8.1485 Y19.0398
G01 X8.1386 Y19.0167
G01 X8.1293 Y18.9934
G01 X8.0874 Y18.8774
G01 X8.0793 Y18.8536
G01 X8.0717 Y18.8297
G01 X8.0647 Y18.8055
G01 X8.0583 Y18.7812
G01 X8.0344 Y18.6860
G01 X8.0286 Y18.6615
G01 X8.0234 Y18.6370
G01 X8.0188 Y18.6123
G01 X8.0148 Y18.5874
G01 X8.0004 Y18.4903
G01 X7.9970 Y18.4654
G01 X7.9942 Y18.4404
G01 X7.9921 Y18.4154
G01 X7.9857 Y18.2922
G01 X7.9848 Y18.2671
G01 X7.9845 Y18.2420
G01 X7.9845 Y8.6920
G01 X7.9848 Y8.6669
G01 X7.9857 Y8.6418
G01 X7.9921 Y8.5186
G01 X7.9942 Y8.4936
G01 X7.9970 Y8.4686
G01 X8.0004 Y8.4437
G01 X8.0148 Y8.3466
G01 X8.0188 Y8.3217
G01 X8.0234 Y8.2970
G01 X8.0286 Y8.2725
G01 X8.0344 Y8.2480
G01 X8.0583 Y8.1528
G01 X8.0647 Y8.1285
G01 X8.0717 Y8.1043
G01 X8.0793 Y8.0804
G01 X8.0874 Y8.0566
G01 X8.1205 Y7.9641
G01 X8.1293 Y7.9406
G01 X8.1386 Y7.9173
G01 X8.1485 Y7.8942
G01 X8.1590 Y7.8713
G01 X8.2010 Y7.7826
G01 X8.2120 Y7.7600
G01 X8.2236 Y7.7377
G01 X8.2357 Y7.7156
G01 X8.2483 Y7.6939
G01 X8.2988 Y7.6097
G01 X8.3120 Y7.5883
G01 X8.3257 Y7.5672
G01 X8.3399 Y7.5465
G01 X8.3546 Y7.5262
G01 X8.4131 Y7.4473
G01 X8.4283 Y7.4273
G01 X8.4440 Y7.4077
G01 X8.4602 Y7.3884
G01 X8.4769 Y7.3696
G01 X8.5599 Y7.2785
G01 X8.5775 Y7.2605
G01 X8.5955 Y7.2429
G01 X8.6866 Y7.1599
G01 X8.7054 Y7.1432
G01 X8.7247 Y7.1270
G01 X8.7443 Y7.1113
G01 X8.7698 Y7.0920
G01 X8.7443 Y7.0727
G01 X8.7247 Y7.0570
G01 X8.7054 Y7.0408
G01 X8.6866 Y7.0241
G01 X8.5955 Y6.9411
G01 X8.5775 Y6.9235
G01 X8.5599 Y6.9055
G01 X8.4769 Y6.8144
G01 X8.4602 Y6.7956
G01 X8.4440 Y6.7763
G01 X8.4283 Y6.7567
G01 X8.4131 Y6.7367
G01 X8.3546 Y6.6578
G01 X8.3399 Y6.6375
G01 X8.3257 Y6.6168
G01 X8.3120 Y6.5957
G01 X8.2988 Y6.5743
G01 X8.2483 Y6.4901
G01 X8.2357 Y6.4684
G01 X8.2236 Y6.4463
G01 X8.2120 Y6.4240
G01 X8.2010 Y6.4014
G01 X8.1485 Y6.2898
G01 X8.1386 Y6.2667
G01 X8.1293 Y6.2434
G01 X8.0874 Y6.1274
G01 X8.0793 Y6.1036
G01 X8.0717 Y6.0797
G01 X8.0647 Y6.0555
G01 X8.0583 Y6.0312
G01 X8.0344 Y5.9360
G01 X8.0286 Y5.9115
G01 X8.0234 Y5.8870
G01 X8.0188 Y5.8623
G01 X8.0148 Y5.8374
G01 X8.0004 Y5.7403
G01 X7.9970 Y5.7154
G01 X7.9942 Y5.6904
G01 X7.9921 Y5.6654
G01 X7.9906 Y5.6403
G01 X7.9857 Y5.5422
G01 X7.9848 Y5.5171
G01 X7.9845 Y5.4920
G01 X7.9848 Y5.4669
G01 X7.9857 Y5.4418
G01 X7.9921 Y5.3186
G01 X7.9942 Y5.2936
G01 X7.9970 Y5.2686
G01 X8.0004 Y5.2437
G01 X8.0188 Y5.1217
G01 X8.0234 Y5.0970
G01 X8.0286 Y5.0725
G01 X8.0583 Y4.9528
G01 X8.0647 Y4.9285
G01 X8.0717 Y4.9043
G01 X8.0793 Y4.8804
G01 X8.0874 Y4.8566
G01 X8.1293 Y4.7406
G01 X8.1386 Y4.7173
G01 X8.1497 Y4.6915
G01 X6.0526 Y4.6915
G01 X4.4135 Y6.3306
G01 X4.4135 Y11.8920
G00 Z1.0000
G00 X4.1255 Y11.8920
G01 F30.00
G01 Z-0.0800
G01 F100.00
G01 X4.1246 Y11.9281
G01 X4.1198 Y12.0262
G01 X4.1171 Y12.0622
G01 X4.1127 Y12.0981
G01 X4.0983 Y12.1952
G01 X4.0921 Y12.2308
G01 X4.0884 Y12.2484
G01 X4.0604 Y12.3613
G01 X4.0507 Y12.3961
G01 X4.0394 Y12.4304
G01 X4.0000 Y12.5398
G01 X3.9862 Y12.5731
G01 X3.9787 Y12.5896
G01 X3.9367 Y12.6783
G01 X3.9205 Y12.7106
G01 X3.9027 Y12.7420
G01 X3.8522 Y12.8262
G01 X3.8328 Y12.8567
G01 X3.8120 Y12.8863
G01 X3.7426 Y12.9795
G01 X3.7313 Y12.9936
G01 X3.7077 Y13.0210
G01 X3.6418 Y13.0937
G01 X3.6169 Y13.1199
G01 X3.5907 Y13.1448
G01 X3.5180 Y13.2107
G01 X3.4906 Y13.2343
G01 X3.4621 Y13.2566
G01 X3.3686 Y13.3256
G01 X3.3386 Y13.3457
G01 X3.3232 Y13.3552
G01 X3.2390 Y13.4057
G01 X3.2076 Y13.4235
G01 X3.1753 Y13.4397
G01 X3.0866 Y13.4817
G01 X3.0636 Y13.4920
G01 X3.0866 Y13.5023
G01 X3.1753 Y13.5443
G01 X3.1915 Y13.5522
G01 X3.2234 Y13.5693
G01 X3.3386 Y13.6383
G01 X3.3537 Y13.6482
G01 X3.3833 Y13.6690
G01 X3.4621 Y13.7274
G01 X3.4906 Y13.7497
G01 X3.5180 Y13.7733
G01 X3.5907 Y13.8392
G01 X3.6040 Y13.8515
G01 X3.6295 Y13.8770
G01 X3.7197 Y13.9766
G01 X3.7426 Y14.0045
G01 X3.7536 Y14.0189
G01 X3.8120 Y14.0977
G01 X3.8328 Y14.1273
G01 X3.8522 Y14.1578
G01 X3.9027 Y14.2420
G01 X3.9205 Y14.2734
G01 X3.9367 Y14.3057
G01 X3.9787 Y14.3944
G01 X3.9933 Y14.4275
G01 X4.0063 Y14.4612
G01 X4.0453 Y14.5707
G01 X4.0558 Y14.6053
G01 X4.0604 Y14.6227
G01 X4.0842 Y14.7180
G01 X4.0921 Y14.7532
G01 X4.0983 Y14.7888
G01 X4.1127 Y14.8859
G01 X4.1151 Y14.9038
G01 X4.1187 Y14.9398
G01 X4.1253 Y15.0739
G01 X4.1255 Y17.5227
G01 X6.8038 Y20.2010
G01 X11.5370 Y20.2010
G01 X11.5731 Y20.2019
G01 X11.6091 Y20.2045
G01 X11.6450 Y20.2090
G01 X11.6806 Y20.2151
G01 X11.6983 Y20.2189
G01 X11.7158 Y20.2231
G01 X11.7506 Y20.2327
G01 X11.7850 Y20.2440
G01 X11.8187 Y20.2570
G01 X11.8353 Y20.2641
G01 X11.8679 Y20.2796
G01 X11.8998 Y20.2966
G01 X11.9308 Y20.3152
G01 X11.9608 Y20.3353
G01 X11.9898 Y20.3568
G01 X12.0177 Y20.3797
G01 X12.0370 Y20.3970
G01 X12.0563 Y20.3797
G01 X12.0842 Y20.3568
G01 X12.1132 Y20.3353
G01 X12.1432 Y20.3152
G01 X12.1586 Y20.3057
G01 X12.1901 Y20.2879
G01 X12.2223 Y20.2717
G01 X12.2553 Y20.2570
G01 X12.2890 Y20.2440
G01 X12.3061 Y20.2381
G01 X12.3407 Y20.2277
G01 X12.3757 Y20.2189
G01 X12.4112 Y20.2118
G01 X12.4290 Y20.2090
G01 X12.4649 Y20.2045
G01 X12.5009 Y20.2019
G01 X12.5370 Y20.2010
G01 X17.3032 Y20.2010
G01 X19.9565 Y17.5477
G01 X19.9567 Y15.0989
G01 X19.9633 Y14.9648
G01 X19.9649 Y14.9468
G01 X19.9693 Y14.9109
G01 X19.9837 Y14.8138
G01 X19.9899 Y14.7782
G01 X19.9978 Y14.7430
G01 X20.0216 Y14.6477
G01 X20.0262 Y14.6303
G01 X20.0367 Y14.5957
G01 X20.0757 Y14.4862
G01 X20.0887 Y14.4525
G01 X20.1033 Y14.4194
G01 X20.1453 Y14.3307
G01 X20.1615 Y14.2984
G01 X20.1793 Y14.2670
G01 X20.2298 Y14.1828
G01 X20.2492 Y14.1523
G01 X20.2700 Y14.1227
G01 X20.3284 Y14.0439
G01 X20.3507 Y14.0154
G01 X20.3623 Y14.0016
G01 X20.4525 Y13.9020
G01 X20.4780 Y13.8765
G01 X20.4913 Y13.8642
G01 X20.5640 Y13.7983
G01 X20.5914 Y13.7747
G01 X20.6199 Y13.7524
G01 X20.6987 Y13.6940
G01 X20.7283 Y13.6732
G01 X20.7434 Y13.6633
G01 X20.8586 Y13.5943
G01 X20.8905 Y13.5772
G01 X20.9067 Y13.5693
G01 X20.9954 Y13.5273
G01 X21.0184 Y13.5170
G01 X20.9954 Y13.5067
G01 X20.9067 Y13.4647
G01 X20.8744 Y13.4485
G01 X20.8430 Y13.4307
G01 X20.7588 Y13.3802
G01 X20.7434 Y13.3707
G01 X20.7134 Y13.3506
G01 X20.6199 Y13.2816
G01 X20.6055 Y13.2706
G01 X20.5776 Y13.2477
G01 X20.4780 Y13.1575
G01 X20.4651 Y13.1449
G01 X20.4402 Y13.1187
G01 X20.3623 Y13.0324
G01 X20.3394 Y13.0045
G01 X20.2594 Y12.8966
G01 X20.2492 Y12.8817
G01 X20.2298 Y12.8512
G01 X20.1703 Y12.7514
G01 X20.1532 Y12.7195
G01 X20.1453 Y12.7033
G01 X20.1033 Y12.6146
G01 X20.0887 Y12.5815
G01 X20.0757 Y12.5478
G01 X20.0426 Y12.4554
G01 X20.0313 Y12.4211
G01 X20.0216 Y12.3863
G01 X19.9936 Y12.2734
G01 X19.9866 Y12.2380
G01 X19.9693 Y12.1231
G01 X19.9649 Y12.0872
G01 X19.9622 Y12.0512
G01 X19.9574 Y11.9531
G01 X19.9565 Y11.9170
G01 X19.9565 Y10.4514
G01 X19.8648 Y10.4467
G01 X19.8288 Y10.4431
G01 X19.7138 Y10.4263
G01 X19.6782 Y10.4201
G01 X19.6430 Y10.4122
G01 X19.5477 Y10.3884
G01 X19.5129 Y10.3787
G01 X19.4786 Y10.3674
G01 X19.3692 Y10.3280
G01 X19.3359 Y10.3142
G01 X19.2307 Y10.2647
G01 X19.1984 Y10.2485
G01 X19.1670 Y10.2307
G01 X19.0828 Y10.1802
G01 X19.0523 Y10.1608
G01 X19.0227 Y10.1400
G01 X18.9439 Y10.0816
G01 X18.9154 Y10.0593
G01 X18.8880 Y10.0357
G01 X18.8153 Y9.9698
G01 X18.7891 Y9.9449
G01 X16.0977 Y7.2535
G01 X15.0067 Y7.2535
G01 X15.0226 Y7.2633
G01 X15.0526 Y7.2834
G01 X15.1461 Y7.3524
G01 X15.1746 Y7.3747
G01 X15.2020 Y7.3983
G01 X15.2747 Y7.4642
G01 X15.3009 Y7.4891
G01 X15.3258 Y7.5153
G01 X15.3917 Y7.5880
G01 X15.4153 Y7.6154
G01 X15.4376 Y7.6439
G01 X15.5066 Y7.7374
G01 X15.5168 Y7.7523
G01 X15.5362 Y7.7828
G01 X15.5867 Y7.8670
G01 X15.6045 Y7.8984
G01 X15.6207 Y7.9307
G01 X15.6627 Y8.0194
G01 X15.6702 Y8.0359
G01 X15.6840 Y8.0692
G01 X15.7293 Y8.1957
G01 X15.7398 Y8.2303
G01 X15.7444 Y8.2477
G01 X15.7682 Y8.3430
G01 X15.7761 Y8.3782
G01 X15.7823 Y8.4138
G01 X15.7967 Y8.5109
G01 X15.8011 Y8.5468
G01 X15.8027 Y8.5648
G01 X15.8086 Y8.6809
G01 X15.8095 Y8.7170
G01 X15.8095 Y18.2670
G01 X15.8086 Y18.3031
G01 X15.8038 Y18.4012
G01 X15.8011 Y18.4372
G01 X15.7967 Y18.4731
G01 X15.7823 Y18.5702
G01 X15.7761 Y18.6058
G01 X15.7724 Y18.6234
G01 X15.7444 Y18.7363
G01 X15.7347 Y18.7711
G01 X15.7234 Y18.8054
G01 X15.6903 Y18.8978
G01 X15.6840 Y18.9148
G01 X15.6702 Y18.9481
G01 X15.6207 Y19.0533
G01 X15.6045 Y19.0856
G01 X15.5867 Y19.1170
G01 X15.5362 Y19.2012
G01 X15.5168 Y19.2317
G01 X15.5066 Y19.2466
G01 X15.4266 Y19.3545
G01 X15.4153 Y19.3686
G01 X15.3917 Y19.3960
G01 X15.3258 Y19.4687
G01 X15.3009 Y19.4949
G01 X15.2747 Y19.5198
G01 X15.1884 Y19.5977
G01 X15.1605 Y19.6206
G01 X15.1461 Y19.6316
G01 X15.0673 Y19.6900
G01 X15.0377 Y19.7108
G01 X15.0072 Y19.7302
G01 X14.9230 Y19.7807
G01 X14.8916 Y19.7985
G01 X14.8755 Y19.8068
G01 X14.7541 Y19.8642
G01 X14.7208 Y19.8780
G01 X14.7038 Y19.8843
G01 X14.6114 Y19.9174
G01 X14.5771 Y19.9287
G01 X14.5423 Y19.9384
G01 X14.4294 Y19.9664
G01 X14.4118 Y19.9701
G01 X14.3762 Y19.9763
G01 X14.2791 Y19.9907
G01 X14.2432 Y19.9951
G01 X14.2072 Y19.9978
G01 X14.1091 Y20.0026
G01 X14.0730 Y20.0035
G01 X14.0549 Y20.0033
G01 X13.9388 Y19.9978
G01 X13.9028 Y19.9951
G01 X13.8669 Y19.9907
G01 X13.7698 Y19.9763
G01 X13.7342 Y19.9701
G01 X13.6990 Y19.9622
G01 X13.5863 Y19.9338
G01 X13.5689 Y19.9287
G01 X13.5346 Y19.9174
G01 X13.4422 Y19.8843
G01 X13.4085 Y19.8713
G01 X13.3754 Y19.8567
G01 X13.2867 Y19.8147
G01 X13.2705 Y19.8068
G01 X13.2386 Y19.7897
G01 X13.1234 Y19.7207
G01 X13.1083 Y19.7108
G01 X13.0787 Y19.6900
G01 X12.9999 Y19.6316
G01 X12.9714 Y19.6093
G01 X12.9440 Y19.5857
G01 X12.8713 Y19.5198
G01 X12.8580 Y19.5075
G01 X12.8325 Y19.4820
G01 X12.7423 Y19.3824
G01 X12.7307 Y19.3686
G01 X12.7084 Y19.3401
G01 X12.6500 Y19.2613
G01 X12.6292 Y19.2317
G01 X12.6098 Y19.2012
G01 X12.5593 Y19.1170
G01 X12.5415 Y19.0856
G01 X12.5332 Y19.0695
G01 X12.4833 Y18.9646
G01 X12.4687 Y18.9315
G01 X12.4557 Y18.8978
G01 X12.4226 Y18.8054
G01 X12.4113 Y18.7711
G01 X12.4016 Y18.7363
G01 X12.3778 Y18.6410
G01 X12.3699 Y18.6058
G01 X12.3637 Y18.5702
G01 X12.3493 Y18.4731
G01 X12.3449 Y18.4372
G01 X12.3433 Y18.4192
G01 X12.3374 Y18.3031
G01 X12.3365 Y18.2670
G01 X12.3365 Y8.7170
G01 X12.3374 Y8.6809
G01 X12.3433 Y8.5648
G01 X12.3449 Y8.5468
G01 X12.3493 Y8.5109
G01 X12.3637 Y8.4138
G01 X12.3699 Y8.3782
G01 X12.3778 Y8.3430
G01 X12.4016 Y8.2477
G01 X12.4062 Y8.2303
G01 X12.4167 Y8.1957
G01 X12.4557 Y8.0862
G01 X12.4687 Y8.0525
G01 X12.4833 Y8.0194
G01 X12.5253 Y7.9307
G01 X12.5415 Y7.8984
G01 X12.5503 Y7.8826
G01 X12.6193 Y7.7674
G01 X12.6292 Y7.7523
G01 X12.6500 Y7.7227
G01 X12.7084 Y7.6439
G01 X12.7307 Y7.6154
G01 X12.7543 Y7.5880
G01 X12.8325 Y7.5020
G01 X12.8580 Y7.4765
G01 X12.9440 Y7.3983
G01 X12.9714 Y7.3747
G01 X12.9855 Y7.3634
G01 X13.0934 Y7.2834
G01 X13.1234 Y7.2633
G01 X13.1810 Y7.2285
G01 X10.9427 Y7.2285
G01 X10.9586 Y7.2383
G01 X10.9886 Y7.2584
G01 X11.0821 Y7.3274
G01 X11.1106 Y7.3497
G01 X11.1380 Y7.3733
G01 X11.2107 Y7.4392
G01 X11.2369 Y7.4641
G01 X11.2618 Y7.4903
G01 X11.3277 Y7.5630
G01 X11.3513 Y7.5904
G01 X11.3736 Y7.6189
G01 X11.4426 Y7.7124
G01 X11.4627 Y7.7424
G01 X11.4722 Y7.7578
G01 X11.5227 Y7.8420
G01 X11.5405 Y7.8734
G01 X11.5567 Y7.9057
G01 X11.5987 Y7.9944
G01 X11.6062 Y8.0109
G01 X11.6200 Y8.0442
G01 X11.6653 Y8.1707
G01 X11.6707 Y8.1879
G01 X11.6804 Y8.2227
G01 X11.7042 Y8.3180
G01 X11.7121 Y8.3532
G01 X11.7183 Y8.3888
G01 X11.7327 Y8.4859
G01 X11.7371 Y8.5218
G01 X11.7387 Y8.5398
G01 X11.7446 Y8.6559
G01 X11.7455 Y8.6920
G01 X11.7455 Y18.2420
G01 X11.7446 Y18.2781
G01 X11.7398 Y18.3762
G01 X11.7371 Y18.4122
G01 X11.7327 Y18.4481
G01 X11.7183 Y18.5452
G01 X11.7121 Y18.5808
G01 X11.7084 Y18.5984
G01 X11.6804 Y18.7113
G01 X11.6707 Y18.7461
G01 X11.6594 Y18.7804
G01 X11.6200 Y18.8898
G01 X11.6133 Y18.9065
G01 X11.5987 Y18.9396
G01 X11.5567 Y19.0283
G01 X11.5405 Y19.0606
G01 X11.5227 Y19.0920
G01 X11.4722 Y19.1762
G01 X11.4627 Y19.1916
G01 X11.4426 Y19.2216
G01 X11.3736 Y19.3151
G01 X11.3513 Y19.3436
G01 X11.3277 Y19.3710
G01 X11.2495 Y19.4570
G01 X11.2369 Y19.4699
G01 X11.2107 Y19.4948
G01 X11.1380 Y19.5607
G01 X11.1106 Y19.5843
G01 X11.0821 Y19.6066
G01 X11.0033 Y19.6650
G01 X10.9737 Y19.6858
G01 X10.9586 Y19.6957
G01 X10.8590 Y19.7557
G01 X10.8276 Y19.7735
G01 X10.7953 Y19.7897
G01 X10.7066 Y19.8317
G01 X10.6735 Y19.8463
G01 X10.6398 Y19.8593
G01 X10.5474 Y19.8924
G01 X10.5131 Y19.9037
G01 X10.4783 Y19.9134
G01 X10.3654 Y19.9414
G01 X10.3300 Y19.9484
G01 X10.3122 Y19.9513
G01 X10.2151 Y19.9657
G01 X10.1792 Y19.9701
G01 X10.1432 Y19.9728
G01 X10.0451 Y19.9776
G01 X10.0271 Y19.9783
G01 X9.9909 Y19.9783
G01 X9.8748 Y19.9728
G01 X9.8388 Y19.9701
G01 X9.8029 Y19.9657
G01 X9.6880 Y19.9484
G01 X9.6702 Y19.9451
G01 X9.6350 Y19.9372
G01 X9.5397 Y19.9134
G01 X9.5049 Y19.9037
G01 X9.4706 Y19.8924
G01 X9.3782 Y19.8593
G01 X9.3612 Y19.8530
G01 X9.3279 Y19.8392
G01 X9.2227 Y19.7897
G01 X9.1904 Y19.7735
G01 X9.1590 Y19.7557
G01 X9.0594 Y19.6957
G01 X9.0294 Y19.6756
G01 X9.0147 Y19.6650
G01 X8.9215 Y19.5956
G01 X8.8936 Y19.5727
G01 X8.8800 Y19.5607
G01 X8.8073 Y19.4948
G01 X8.7811 Y19.4699
G01 X8.7562 Y19.4437
G01 X8.6903 Y19.3710
G01 X8.6667 Y19.3436
G01 X8.6554 Y19.3295
G01 X8.5860 Y19.2363
G01 X8.5652 Y19.2067
G01 X8.5458 Y19.1762
G01 X8.4953 Y19.0920
G01 X8.4775 Y19.0606
G01 X8.4613 Y19.0283
G01 X8.4193 Y18.9396
G01 X8.4047 Y18.9065
G01 X8.3917 Y18.8728
G01 X8.3527 Y18.7633
G01 X8.3422 Y18.7287
G01 X8.3376 Y18.7113
G01 X8.3138 Y18.6160
G01 X8.3059 Y18.5808
G01 X8.2997 Y18.5452
G01 X8.2853 Y18.4481
G01 X8.2809 Y18.4122
G01 X8.2793 Y18.3942
G01 X8.2727 Y18.2601
G01 X8.2725 Y8.6920
G01 X8.2734 Y8.6559
G01 X8.2782 Y8.5578
G01 X8.2809 Y8.5218
G01 X8.2853 Y8.4859
G01 X8.3026 Y8.3710
G01 X8.3096 Y8.3356
G01 X8.3138 Y8.3180
G01 X8.3376 Y8.2227
G01 X8.3473 Y8.1879
G01 X8.3586 Y8.1536
G01 X8.3917 Y8.0612
G01 X8.3980 Y8.0442
G01 X8.4118 Y8.0109
G01 X8.4613 Y7.9057
G01 X8.4775 Y7.8734
G01 X8.4953 Y7.8420
G01 X8.5553 Y7.7424
G01 X8.5754 Y7.7124
G01 X8.5860 Y7.6977
G01 X8.6444 Y7.6189
G01 X8.6667 Y7.5904
G01 X8.6903 Y7.5630
G01 X8.7562 Y7.4903
G01 X8.7811 Y7.4641
G01 X8.7940 Y7.4515
G01 X8.8800 Y7.3733
G01 X8.9074 Y7.3497
G01 X8.9359 Y7.3274
G01 X9.0294 Y7.2584
G01 X9.0594 Y7.2383
G01 X9.0748 Y7.2288
G01 X9.1590 Y7.1783
G01 X9.1904 Y7.1605
G01 X9.2227 Y7.1443
G01 X9.3114 Y7.1023
G01 X9.3344 Y7.0920
G01 X9.3114 Y7.0817
G01 X9.2227 Y7.0397
G01 X9.1904 Y7.0235
G01 X9.1746 Y7.0147
G01 X9.0594 Y6.9457
G01 X9.0443 Y6.9358
G01 X9.0147 Y6.9150
G01 X8.9359 Y6.8566
G01 X8.9074 Y6.8343
G01 X8.8800 Y6.8107
G01 X8.8073 Y6.7448
G01 X8.7811 Y6.7199
G01 X8.7685 Y6.7070
G01 X8.6783 Y6.6074
G01 X8.6667 Y6.5936
G01 X8.6444 Y6.5651
G01 X8.5860 Y6.4863
G01 X8.5652 Y6.4567
G01 X8.5458 Y6.4262
G01 X8.4953 Y6.3420
G01 X8.4775 Y6.3106
G01 X8.4613 Y6.2783
G01 X8.4193 Y6.1896
G01 X8.4047 Y6.1565
G01 X8.3917 Y6.1228
G01 X8.3527 Y6.0133
G01 X8.3473 Y5.9961
G01 X8.3376 Y5.9613
G01 X8.3138 Y5.8660
G01 X8.3059 Y5.8308
G01 X8.2997 Y5.7952
G01 X8.2853 Y5.6981
G01 X8.2809 Y5.6622
G01 X8.2793 Y5.6442
G01 X8.2734 Y5.5281
G01 X8.2725 Y5.4920
G01 X8.2727 Y5.4739
G01 X8.2782 Y5.3578
G01 X8.2809 Y5.3218
G01 X8.2853 Y5.2859
G01 X8.2997 Y5.1888
G01 X8.3059 Y5.1532
G01 X8.3138 Y5.1180
G01 X8.3376 Y5.0227
G01 X8.3473 Y4.9879
G01 X8.3586 Y4.9536
G01 X8.3980 Y4.8442
G01 X8.4118 Y4.8109
G01 X8.4193 Y4.7944
G01 X8.4613 Y4.7057
G01 X8.4775 Y4.6734
G01 X8.4953 Y4.6420
G01 X8.5458 Y4.5578
G01 X8.5652 Y4.5273
G01 X8.5754 Y4.5124
G01 X8.6444 Y4.4189
G01 X8.6562 Y4.4035
G01 X5.9333 Y4.4035
G01 X4.1255 Y6.2113
G01 X4.1255 Y11.8920
G00 Z1.0000
G00 X3.8375 Y11.8920
G01 F30.00
G01 Z-0.0800
G01 F100.00
G01 X3.8370 Y11.9140
G01 X3.8321 Y12.0120
G01 X3.8305 Y12.0340
G01 X3.8278 Y12.0558
G01 X3.8134 Y12.1529
G01 X3.8097 Y12.1746
G01 X3.8048 Y12.1960
G01 X3.7810 Y12.2913
G01 X3.7751 Y12.3125
G01 X3.7682 Y12.3334
G01 X3.7352 Y12.4258
G01 X3.7272 Y12.4463
G01 X3.7183 Y12.4664
G01 X3.6763 Y12.5552
G01 X3.6665 Y12.5748
G01 X3.6556 Y12.5940
G01 X3.6051 Y12.6782
G01 X3.5934 Y12.6967
G01 X3.5807 Y12.7147
G01 X3.5222 Y12.7936
G01 X3.5087 Y12.8109
G01 X3.4943 Y12.8276
G01 X3.4284 Y12.9003
G01 X3.4132 Y12.9162
G01 X3.3973 Y12.9314
G01 X3.3246 Y12.9973
G01 X3.3079 Y13.0117
G01 X3.2906 Y13.0252
G01 X3.2117 Y13.0837
G01 X3.1937 Y13.0964
G01 X3.1752 Y13.1081
G01 X3.0910 Y13.1586
G01 X3.0718 Y13.1695
G01 X3.0522 Y13.1793
G01 X2.9634 Y13.2213
G01 X2.9433 Y13.2302
G01 X2.9228 Y13.2382
G01 X2.8304 Y13.2712
G01 X2.8095 Y13.2781
G01 X2.7883 Y13.2840
G01 X2.6930 Y13.3078
G01 X2.6716 Y13.3127
G01 X2.6499 Y13.3164
G01 X2.5528 Y13.3308
G01 X2.5310 Y13.3335
G01 X2.5090 Y13.3351
G01 X2.4110 Y13.3400
G01 X2.3890 Y13.3405
G01 X2.3670 Y13.3400
G01 X2.2690 Y13.3351
G01 X2.2470 Y13.3335
G01 X2.2252 Y13.3308
G01 X2.1281 Y13.3164
G01 X2.1064 Y13.3127
G01 X2.0850 Y13.3078
G01 X1.9897 Y13.2840
G01 X1.9685 Y13.2781
G01 X1.9476 Y13.2712
G01 X1.8552 Y13.2382
G01 X1.8347 Y13.2302
G01 X1.8146 Y13.2213
G01 X1.7258 Y13.1793
G01 X1.7062 Y13.1695
G01 X1.6870 Y13.1586
G01 X1.6028 Y13.1081
G01 X1.5850 Y13.0969
G01 X1.5850 Y13.8871
G01 X1.6028 Y13.8759
G01 X1.6870 Y13.8254
G01 X1.7062 Y13.8145
G01 X1.7258 Y13.8047
G01 X1.8146 Y13.7627
G01 X1.8347 Y13.7538
G01 X1.8552 Y13.7458
G01 X1.9476 Y13.7128
G01 X1.9685 Y13.7059
G01 X1.9897 Y13.7000
G01 X2.0850 Y13.6762
G01 X2.1064 Y13.6713
G01 X2.1281 Y13.6676
G01 X2.2252 Y13.6532
G01 X2.2470 Y13.6505
G01 X2.2690 Y13.6489
G01 X2.3670 Y13.6440
G01 X2.3890 Y13.6435
G01 X2.4110 Y13.6440
G01 X2.5090 Y13.6489
G01 X2.5310 Y13.6505
G01 X2.5528 Y13.6532
G01 X2.6499 Y13.6676
G01 X2.6716 Y13.6713
G01 X2.6930 Y13.6762
G01 X2.7883 Y13.7000
G01 X2.8095 Y13.7059
G01 X2.8304 Y13.7128
G01 X2.9228 Y13.7458
G01 X2.9433 Y13.7538
G01 X2.9634 Y13.7627
G01 X3.0522 Y13.8047
G01 X3.0718 Y13.8145
G01 X3.0910 Y13.8254
G01 X3.1752 Y13.8759
G01 X3.1937 Y13.8876
G01 X3.2117 Y13.9003
G01 X3.2906 Y13.9588
G01 X3.3079 Y13.9723
G01 X3.3246 Y13.9867
G01 X3.3973 Y14.0526
G01 X3.4132 Y14.0678
G01 X3.4284 Y14.0837
G01 X3.4943 Y14.1564
G01 X3.5087 Y14.1731
G01 X3.5222 Y14.1904
G01 X3.5807 Y14.2693
G01 X3.5934 Y14.2873
G01 X3.6051 Y14.3058
G01 X3.6612 Y14.3995
G01 X3.6715 Y14.4189
G01 X3.6763 Y14.4288
G01 X3.7183 Y14.5176
G01 X3.7272 Y14.5377
G01 X3.7352 Y14.5582
G01 X3.7682 Y14.6506
G01 X3.7751 Y14.6715
G01 X3.7810 Y14.6927
G01 X3.8048 Y14.7880
G01 X3.8097 Y14.8094
G01 X3.8134 Y14.8311
G01 X3.8278 Y14.9282
G01 X3.8305 Y14.9500
G01 X3.8315 Y14.9610
G01 X3.8370 Y15.0700
G01 X3.8375 Y15.0920
G01 X3.8375 Y17.6420
G01 X6.6845 Y20.4890
G01 X11.5480 Y20.4891
G01 X11.5700 Y20.4902
G01 X11.5918 Y20.4924
G01 X11.6136 Y20.4956
G01 X11.6352 Y20.4999
G01 X11.6565 Y20.5052
G01 X11.6670 Y20.5083
G01 X11.6879 Y20.5152
G01 X11.7084 Y20.5231
G01 X11.7285 Y20.5320
G01 X11.7482 Y20.5419
G01 X11.7673 Y20.5527
G01 X11.7859 Y20.5645
G01 X11.7950 Y20.5707
G01 X11.8126 Y20.5838
G01 X11.8296 Y20.5978
G01 X11.8459 Y20.6125
G01 X11.8615 Y20.6281
G01 X11.8762 Y20.6444
G01 X11.8902 Y20.6614
G01 X11.9033 Y20.6790
G01 X11.9155 Y20.6973
G01 X11.9268 Y20.7162
G01 X11.9372 Y20.7356
G01 X11.9466 Y20.7555
G01 X11.9550 Y20.7758
G01 X11.9624 Y20.7965
G01 X11.9688 Y20.8175
G01 X11.9741 Y20.8388
G01 X11.9784 Y20.8604
G01 X11.9816 Y20.8822
G01 X11.9838 Y20.9040
G01 X11.9849 Y20.9260
G01 X11.9850 Y25.3890
G01 X12.0890 Y25.3890
G01 X12.0891 Y20.9260
G01 X12.0902 Y20.9040
G01 X12.0912 Y20.8931
G01 X12.0938 Y20.8713
G01 X12.0976 Y20.8496
G01 X12.1024 Y20.8281
G01 X12.1083 Y20.8070
G01 X12.1152 Y20.7861
G01 X12.1231 Y20.7656
G01 X12.1320 Y20.7455
G01 X12.1419 Y20.7258
G01 X12.1472 Y20.7162
G01 X12.1585 Y20.6973
G01 X12.1707 Y20.6790
G01 X12.1838 Y20.6614
G01 X12.1907 Y20.6528
G01 X12.2051 Y20.6361
G01 X12.2202 Y20.6202
G01 X12.2361 Y20.6051
G01 X12.2528 Y20.5907
G01 X12.2701 Y20.5772
G01 X12.2881 Y20.5645
G01 X12.3067 Y20.5527
G01 X12.3258 Y20.5419
G01 X12.3455 Y20.5320
G01 X12.3656 Y20.5231
G01 X12.3861 Y20.5152
G01 X12.4070 Y20.5083
G01 X12.4281 Y20.5024
G01 X12.4496 Y20.4976
G01 X12.4713 Y20.4938
G01 X12.4931 Y20.4912
G01 X12.5040 Y20.4902
G01 X12.5260 Y20.4891
G01 X17.4225 Y20.4890
G01 X20.2445 Y17.6670
G01 X20.2445 Y15.1170
G01 X20.2450 Y15.0950
G01 X20.2499 Y14.9970
G01 X20.2515 Y14.9750
G01 X20.2542 Y14.9532
G01 X20.2686 Y14.8561
G01 X20.2723 Y14.8344
G01 X20.2772 Y14.8130
G01 X20.3010 Y14.7177
G01 X20.3069 Y14.6965
G01 X20.3138 Y14.6756
G01 X20.3468 Y14.5832
G01 X20.3548 Y14.5627
G01 X20.3637 Y14.5426
G01 X20.4057 Y14.4538
G01 X20.4155 Y14.4342
G01 X20.4264 Y14.4150
G01 X20.4769 Y14.3308
G01 X20.4886 Y14.3123
G01 X20.5013 Y14.2943
G01 X20.5664 Y14.2067
G01 X20.5804 Y14.1897
G01 X20.5877 Y14.1814
G01 X20.6536 Y14.1087
G01 X20.6688 Y14.0928
G01 X20.6847 Y14.0776
G01 X20.7574 Y14.0117
G01 X20.7741 Y13.9973
G01 X20.7914 Y13.9838
G01 X20.8703 Y13.9253
G01 X20.8883 Y13.9126
G01 X20.9068 Y13.9009
G01 X20.9910 Y13.8504
G01 X21.0102 Y13.8395
G01 X21.0199 Y13.8345
G01 X21.1286 Y13.7831
G01 X21.1489 Y13.7747
G01 X21.1592 Y13.7708
G01 X21.2516 Y13.7378
G01 X21.2725 Y13.7309
G01 X21.2937 Y13.7250
G01 X21.3997 Y13.6986
G01 X21.4104 Y13.6963
G01 X21.4321 Y13.6926
G01 X21.5292 Y13.6782
G01 X21.5510 Y13.6755
G01 X21.5730 Y13.6739
G01 X21.6710 Y13.6690
G01 X21.6930 Y13.6685
G01 X21.7150 Y13.6690
G01 X21.8130 Y13.6739
G01 X21.8350 Y13.6755
G01 X21.8568 Y13.6782
G01 X21.9539 Y13.6926
G01 X21.9756 Y13.6963
G01 X21.9970 Y13.7012
G01 X22.0923 Y13.7250
G01 X22.1135 Y13.7309
G01 X22.1344 Y13.7378
G01 X22.2268 Y13.7708
G01 X22.2473 Y13.7788
G01 X22.2674 Y13.7877
G01 X22.3562 Y13.8297
G01 X22.3758 Y13.8395
G01 X22.3950 Y13.8504
G01 X22.4890 Y13.9069
G01 X22.4890 Y13.1271
G01 X22.3950 Y13.1836
G01 X22.3758 Y13.1945
G01 X22.3562 Y13.2043
G01 X22.2674 Y13.2463
G01 X22.2473 Y13.2552
G01 X22.2268 Y13.2632
G01 X22.1344 Y13.2962
G01 X22.1135 Y13.3031
G01 X22.0923 Y13.3090
G01 X21.9970 Y13.3328
G01 X21.9756 Y13.3377
G01 X21.9539 Y13.3414
G01 X21.8568 Y13.3558
G01 X21.8350 Y13.3585
G01 X21.8130 Y13.3601
G01 X21.7150 Y13.3650
G01 X21.6930 Y13.3655
G01 X21.6710 Y13.3650
G01 X21.5730 Y13.3601
G01 X21.5510 Y13.3585
G01 X21.5292 Y13.3558
G01 X21.4321 Y13.3414
G01 X21.4104 Y13.3377
G01 X21.3890 Y13.3328
G01 X21.2937 Y13.3090
G01 X21.2725 Y13.3031
G01 X21.2516 Y13.2962
G01 X21.1592 Y13.2632
G01 X21.1387 Y13.2552
G01 X21.1186 Y13.2463
G01 X21.0298 Y13.2043
G01 X21.0102 Y13.1945
G01 X20.9910 Y13.1836
G01 X20.9068 Y13.1331
G01 X20.8883 Y13.1214
G01 X20.8703 Y13.1087
G01 X20.7914 Y13.0502
G01 X20.7741 Y13.0367
G01 X20.7574 Y13.0223
G01 X20.6847 Y12.9564
G01 X20.6688 Y12.9412
G01 X20.6536 Y12.9253
G01 X20.5877 Y12.8526
G01 X20.5733 Y12.8359
G01 X20.5598 Y12.8186
G01 X20.5013 Y12.7397
G01 X20.4886 Y12.7217
G01 X20.4769 Y12.7032
G01 X20.4208 Y12.6095
G01 X20.4155 Y12.5998
G01 X20.4057 Y12.5802
G01 X20.3637 Y12.4914
G01 X20.3548 Y12.4713
G01 X20.3468 Y12.4508
G01 X20.3138 Y12.3584
G01 X20.3069 Y12.3375
G01 X20.3010 Y12.3163
G01 X20.2772 Y12.2210
G01 X20.2723 Y12.1996
G01 X20.2686 Y12.1779
G01 X20.2542 Y12.0808
G01 X20.2515 Y12.0590
G01 X20.2499 Y12.0370
G01 X20.2450 Y11.9390
G01 X20.2445 Y11.9170
G01 X20.2445 Y10.1655
G01 X20.0060 Y10.1654
G01 X19.8970 Y10.1601
G01 X19.8750 Y10.1585
G01 X19.8532 Y10.1558
G01 X19.7561 Y10.1414
G01 X19.7344 Y10.1377
G01 X19.7130 Y10.1328
G01 X19.6071 Y10.1062
G01 X19.5965 Y10.1031
G01 X19.5756 Y10.0962
G01 X19.4832 Y10.0632
G01 X19.4627 Y10.0552
G01 X19.4426 Y10.0463
G01 X19.3538 Y10.0043
G01 X19.3342 Y9.9945
G01 X19.3150 Y9.9836
G01 X19.2308 Y9.9331
G01 X19.2123 Y9.9214
G01 X19.1943 Y9.9087
G01 X19.1067 Y9.8436
G01 X19.0897 Y9.8296
G01 X19.0814 Y9.8223
G01 X19.0087 Y9.7564
G01 X18.9928 Y9.7412
G01 X16.2170 Y6.9655
G01 X14.0730 Y6.9655
G01 X14.0510 Y6.9650
G01 X13.9530 Y6.9601
G01 X13.9310 Y6.9585
G01 X13.9092 Y6.9558
G01 X13.8063 Y6.9405
G01 X10.0090 Y6.9405
G01 X9.9870 Y6.9400
G01 X9.8890 Y6.9351
G01 X9.8670 Y6.9335
G01 X9.8452 Y6.9308
G01 X9.7372 Y6.9147
G01 X9.7157 Y6.9104
G01 X9.7050 Y6.9078
G01 X9.6097 Y6.8840
G01 X9.5885 Y6.8781
G01 X9.5676 Y6.8712
G01 X9.4752 Y6.8382
G01 X9.4547 Y6.8302
G01 X9.4346 Y6.8213
G01 X9.3458 Y6.7793
G01 X9.3262 Y6.7695
G01 X9.3070 Y6.7586
G01 X9.2228 Y6.7081
G01 X9.2043 Y6.6964
G01 X9.1863 Y6.6837
G01 X9.1074 Y6.6252
G01 X9.0901 Y6.6117
G01 X9.0734 Y6.5973
G01 X9.0007 Y6.5314
G01 X8.9848 Y6.5162
G01 X8.9771 Y6.5084
G01 X8.9037 Y6.4276
G01 X8.8893 Y6.4109
G01 X8.8758 Y6.3936
G01 X8.8173 Y6.3147
G01 X8.8046 Y6.2967
G01 X8.7929 Y6.2782
G01 X8.7424 Y6.1940
G01 X8.7315 Y6.1748
G01 X8.7217 Y6.1552
G01 X8.6797 Y6.0664
G01 X8.6708 Y6.0463
G01 X8.6628 Y6.0258
G01 X8.6298 Y5.9334
G01 X8.6229 Y5.9125
G01 X8.6170 Y5.8913
G01 X8.5932 Y5.7960
G01 X8.5883 Y5.7746
G01 X8.5846 Y5.7529
G01 X8.5702 Y5.6558
G01 X8.5675 Y5.6340
G01 X8.5659 Y5.6120
G01 X8.5610 Y5.5140
G01 X8.5605 Y5.4920
G01 X8.5610 Y5.4700
G01 X8.5659 Y5.3720
G01 X8.5675 Y5.3500
G01 X8.5702 Y5.3282
G01 X8.5863 Y5.2202
G01 X8.5883 Y5.2094
G01 X8.5932 Y5.1880
G01 X8.6170 Y5.0927
G01 X8.6229 Y5.0715
G01 X8.6298 Y5.0506
G01 X8.6628 Y4.9582
G01 X8.6708 Y4.9377
G01 X8.6797 Y4.9176
G01 X8.7217 Y4.8288
G01 X8.7315 Y4.8092
G01 X8.7424 Y4.7900
G01 X8.7929 Y4.7058
G01 X8.8046 Y4.6873
G01 X8.8173 Y4.6693
G01 X8.8758 Y4.5904
G01 X8.8893 Y4.5731
G01 X8.8964 Y4.5647
G01 X8.9696 Y4.4837
G01 X8.9848 Y4.4678
G01 X9.0007 Y4.4526
G01 X9.0734 Y4.3867
G01 X9.0901 Y4.3723
G01 X9.1074 Y4.3588
G01 X9.1863 Y4.3003
G01 X9.2043 Y4.2876
G01 X9.2228 Y4.2759
G01 X9.3070 Y4.2254
G01 X9.3262 Y4.2145
G01 X9.3458 Y4.2047
G01 X9.4346 Y4.1627
G01 X9.4547 Y4.1538
G01 X9.4752 Y4.1458
G01 X9.5600 Y4.1155
G01 X5.8140 Y4.1155
G01 X3.8375 Y6.0920
G01 X3.8375 Y11.8920
G00 Z1.0000
G00 X3.5495 Y11.8920
G01 F30.00
G01 Z-0.0800
G01 F100.00
G01 X3.5439 Y12.0057
G01 X3.5285 Y12.1107
G01 X3.5255 Y12.1261
G01 X3.5016 Y12.2213
G01 X3.4971 Y12.2363
G01 X3.4612 Y12.3361
G01 X3.4125 Y12.4391
G01 X3.3539 Y12.5367
G01 X3.2861 Y12.6282
G01 X3.2096 Y12.7126
G01 X3.1252 Y12.7891
G01 X3.0337 Y12.8569
G01 X2.9429 Y12.9116
G01 X2.9290 Y12.9190
G01 X2.8403 Y12.9610
G01 X2.8258 Y12.9670
G01 X2.7259 Y13.0025
G01 X2.6231 Y13.0285
G01 X2.6115 Y13.0309
G01 X2.5027 Y13.0469
G01 X2.3890 Y13.0525
G01 X2.2753 Y13.0469
G01 X2.1703 Y13.0315
G01 X2.1549 Y13.0285
G01 X2.0597 Y13.0046
G01 X2.0447 Y13.0001
G01 X1.9449 Y12.9642
G01 X1.8490 Y12.9190
G01 X1.8385 Y12.9136
G01 X1.7443 Y12.8569
G01 X1.6528 Y12.7891
G01 X1.5684 Y12.7126
G01 X1.4944 Y12.6312
G01 X1.4871 Y12.6220
G01 X1.4241 Y12.5367
G01 X1.3674 Y12.4425
G01 X1.3620 Y12.4320
G01 X1.3184 Y12.3397
G01 X1.3140 Y12.3288
G01 X1.2970 Y12.2813
G01 X1.2970 Y14.7027
G01 X1.3140 Y14.6552
G01 X1.3184 Y14.6443
G01 X1.3637 Y14.5484
G01 X1.3694 Y14.5381
G01 X1.4199 Y14.4539
G01 X1.4263 Y14.4440
G01 X1.4871 Y14.3620
G01 X1.4971 Y14.3498
G01 X1.5684 Y14.2714
G01 X1.6498 Y14.1974
G01 X1.6590 Y14.1901
G01 X1.7443 Y14.1271
G01 X1.8351 Y14.0724
G01 X1.8490 Y14.0650
G01 X1.9449 Y14.0198
G01 X2.0447 Y13.9839
G01 X2.0597 Y13.9794
G01 X2.1549 Y13.9555
G01 X2.1665 Y13.9531
G01 X2.2753 Y13.9371
G01 X2.3811 Y13.9317
G01 X2.3969 Y13.9317
G01 X2.5027 Y13.9371
G01 X2.6077 Y13.9525
G01 X2.6231 Y13.9555
G01 X2.7259 Y13.9815
G01 X2.8258 Y14.0170
G01 X2.8403 Y14.0230
G01 X2.9361 Y14.0685
G01 X3.0271 Y14.1229
G01 X3.0402 Y14.1316
G01 X3.1252 Y14.1949
G01 X3.2039 Y14.2660
G01 X3.2150 Y14.2771
G01 X3.2836 Y14.3528
G01 X3.2909 Y14.3620
G01 X3.3494 Y14.4408
G01 X3.3581 Y14.4539
G01 X3.4125 Y14.5449
G01 X3.4612 Y14.6479
G01 X3.4995 Y14.7551
G01 X3.5255 Y14.8579
G01 X3.5285 Y14.8733
G01 X3.5430 Y14.9705
G01 X3.5442 Y14.9822
G01 X3.5495 Y15.0920
G01 X3.5495 Y17.7613
G01 X6.5652 Y20.7770
G01 X11.5370 Y20.7770
G01 X11.5527 Y20.7778
G01 X11.5682 Y20.7801
G01 X11.5834 Y20.7839
G01 X11.5982 Y20.7892
G01 X11.6124 Y20.7959
G01 X11.6259 Y20.8040
G01 X11.6385 Y20.8133
G01 X11.6501 Y20.8239
G01 X11.6607 Y20.8355
G01 X11.6700 Y20.8481
G01 X11.6781 Y20.8616
G01 X11.6848 Y20.8758
G01 X11.6901 Y20.8906
G01 X11.6939 Y20.9058
G01 X11.6962 Y20.9213
G01 X11.6970 Y20.9370
G01 X11.6970 Y25.6770
G01 X12.3770 Y25.6770
G01 X12.3770 Y20.9370
G01 X12.3774 Y20.9252
G01 X12.3794 Y20.9096
G01 X12.3818 Y20.8981
G01 X12.3864 Y20.8831
G01 X12.3907 Y20.8722
G01 X12.3978 Y20.8581
G01 X12.4040 Y20.8481
G01 X12.4109 Y20.8386
G01 X12.4158 Y20.8325
G01 X12.4239 Y20.8239
G01 X12.4355 Y20.8133
G01 X12.4449 Y20.8062
G01 X12.4514 Y20.8018
G01 X12.4651 Y20.7941
G01 X12.4722 Y20.7907
G01 X12.4831 Y20.7864
G01 X12.4906 Y20.7839
G01 X12.5019 Y20.7809
G01 X12.5135 Y20.7787
G01 X12.5213 Y20.7778
G01 X12.5370 Y20.7770
G01 X17.5417 Y20.7771
G01 X20.5325 Y17.7863
G01 X20.5325 Y15.1170
G01 X20.5378 Y15.0072
G01 X20.5390 Y14.9955
G01 X20.5535 Y14.8983
G01 X20.5565 Y14.8829
G01 X20.5825 Y14.7801
G01 X20.6208 Y14.6729
G01 X20.6695 Y14.5699
G01 X20.7239 Y14.4789
G01 X20.7326 Y14.4658
G01 X20.7911 Y14.3870
G01 X20.7984 Y14.3778
G01 X20.8724 Y14.2964
G01 X20.9508 Y14.2251
G01 X20.9630 Y14.2151
G01 X21.0483 Y14.1521
G01 X21.1391 Y14.0974
G01 X21.1530 Y14.0900
G01 X21.2489 Y14.0448
G01 X21.3487 Y14.0089
G01 X21.3637 Y14.0044
G01 X21.4666 Y13.9788
G01 X21.5715 Y13.9630
G01 X21.5871 Y13.9615
G01 X21.6930 Y13.9565
G01 X21.7989 Y13.9615
G01 X21.8145 Y13.9630
G01 X21.9155 Y13.9781
G01 X21.9271 Y13.9805
G01 X22.0299 Y14.0065
G01 X22.1298 Y14.0420
G01 X22.1443 Y14.0480
G01 X22.2401 Y14.0935
G01 X22.3311 Y14.1479
G01 X22.3442 Y14.1566
G01 X22.4230 Y14.2151
G01 X22.4322 Y14.2224
G01 X22.5136 Y14.2964
G01 X22.5849 Y14.3748
G01 X22.5949 Y14.3870
G01 X22.6557 Y14.4690
G01 X22.6621 Y14.4789
G01 X22.7126 Y14.5631
G01 X22.7183 Y14.5734
G01 X22.7636 Y14.6693
G01 X22.7680 Y14.6802
G01 X22.7770 Y14.7053
G01 X22.7770 Y12.3287
G01 X22.7680 Y12.3538
G01 X22.7636 Y12.3647
G01 X22.7183 Y12.4606
G01 X22.7126 Y12.4709
G01 X22.6601 Y12.5584
G01 X22.6534 Y12.5682
G01 X22.5901 Y12.6532
G01 X22.5190 Y12.7319
G01 X22.5108 Y12.7403
G01 X22.4352 Y12.8089
G01 X22.4230 Y12.8189
G01 X22.3377 Y12.8819
G01 X22.2469 Y12.9366
G01 X22.2330 Y12.9440
G01 X22.1371 Y12.9892
G01 X22.0373 Y13.0251
G01 X22.0261 Y13.0286
G01 X21.9271 Y13.0535
G01 X21.9117 Y13.0565
G01 X21.8067 Y13.0719
G01 X21.7009 Y13.0773
G01 X21.6851 Y13.0773
G01 X21.5793 Y13.0719
G01 X21.4666 Y13.0552
G01 X21.3637 Y13.0296
G01 X21.3487 Y13.0251
G01 X21.2489 Y12.9892
G01 X21.1530 Y12.9440
G01 X21.1391 Y12.9366
G01 X21.0483 Y12.8819
G01 X20.9630 Y12.8189
G01 X20.9538 Y12.8116
G01 X20.8724 Y12.7376
G01 X20.7959 Y12.6532
G01 X20.7281 Y12.5617
G01 X20.6695 Y12.4641
G01 X20.6208 Y12.3611
G01 X20.5825 Y12.2539
G01 X20.5548 Y12.1434
G01 X20.5390 Y12.0385
G01 X20.5375 Y12.0229
G01 X20.5325 Y11.9170
G01 X20.5325 Y9.8775
G01 X20.0131 Y9.8775
G01 X19.9033 Y9.8719
G01 X19.7906 Y9.8552
G01 X19.6801 Y9.8275
G01 X19.5802 Y9.7920
G01 X19.5657 Y9.7860
G01 X19.4699 Y9.7405
G01 X19.3789 Y9.6861
G01 X19.3658 Y9.6774
G01 X19.2839 Y9.6165
G01 X19.2748 Y9.6089
G01 X19.1964 Y9.5376
G01 X16.3363 Y6.6775
G01 X14.0730 Y6.6775
G01 X13.9593 Y6.6719
G01 X13.8543 Y6.6565
G01 X13.8466 Y6.6552
G01 X13.8350 Y6.6525
G01 X10.0090 Y6.6525
G01 X9.8953 Y6.6469
G01 X9.7903 Y6.6315
G01 X9.7788 Y6.6294
G01 X9.6797 Y6.6046
G01 X9.6647 Y6.6001
G01 X9.5649 Y6.5642
G01 X9.4690 Y6.5190
G01 X9.4551 Y6.5116
G01 X9.3643 Y6.4569
G01 X9.2728 Y6.3891
G01 X9.1884 Y6.3126
G01 X9.1171 Y6.2342
G01 X9.1071 Y6.2220
G01 X9.0441 Y6.1367
G01 X8.9894 Y6.0459
G01 X8.9820 Y6.0320
G01 X8.9400 Y5.9433
G01 X8.9340 Y5.9288
G01 X8.8985 Y5.8289
G01 X8.8708 Y5.7184
G01 X8.8541 Y5.6057
G01 X8.8487 Y5.4999
G01 X8.8487 Y5.4841
G01 X8.8535 Y5.3861
G01 X8.8550 Y5.3705
G01 X8.8708 Y5.2656
G01 X8.8964 Y5.1627
G01 X8.9009 Y5.1477
G01 X8.9368 Y5.0479
G01 X8.9855 Y4.9449
G01 X9.0441 Y4.8473
G01 X9.1071 Y4.7620
G01 X9.1171 Y4.7498
G01 X9.1884 Y4.6714
G01 X9.2668 Y4.6001
G01 X9.2790 Y4.5901
G01 X9.3643 Y4.5271
G01 X9.4551 Y4.4724
G01 X9.4690 Y4.4650
G01 X9.5649 Y4.4198
G01 X9.6647 Y4.3839
G01 X9.6797 Y4.3794
G01 X9.7826 Y4.3538
G01 X9.8875 Y4.3380
G01 X9.8992 Y4.3368
G01 X10.0090 Y4.3315
G01 X14.0480 Y4.3315
G01 X14.1617 Y4.3371
G01 X14.2667 Y4.3525
G01 X14.2744 Y4.3538
G01 X14.2860 Y4.3565
G01 X16.8170 Y4.3565
G01 X16.9307 Y4.3621
G01 X17.0357 Y4.3775
G01 X17.0511 Y4.3805
G01 X17.1539 Y4.4065
G01 X17.2538 Y4.4420
G01 X17.2683 Y4.4480
G01 X17.3641 Y4.4935
G01 X17.4551 Y4.5479
G01 X17.4682 Y4.5566
G01 X17.5532 Y4.6199
G01 X17.6319 Y4.6910
G01 X20.4977 Y7.5565
G01 X21.6969 Y7.5565
G01 X21.8067 Y7.5621
G01 X21.9117 Y7.5775
G01 X21.9271 Y7.5805
G01 X22.0223 Y7.6044
G01 X22.0336 Y7.6077
G01 X22.1298 Y7.6420
G01 X22.1443 Y7.6480
G01 X22.2401 Y7.6935
G01 X22.3311 Y7.7479
G01 X22.3442 Y7.7566
G01 X22.4292 Y7.8199
G01 X22.5108 Y7.8937
G01 X22.5190 Y7.9021
G01 X22.5901 Y7.9808
G01 X22.6534 Y8.0658
G01 X22.6601 Y8.0756
G01 X22.7126 Y8.1631
G01 X22.7183 Y8.1734
G01 X22.7636 Y8.2693
G01 X22.7680 Y8.2802
G01 X22.7770 Y8.3053
G01 X22.7770 Y5.9287
G01 X22.7680 Y5.9538
G01 X22.7636 Y5.9647
G01 X22.7183 Y6.0606
G01 X22.7126 Y6.0709
G01 X22.6601 Y6.1584
G01 X22.6534 Y6.1682
G01 X22.5901 Y6.2532
G01 X22.5163 Y6.3348
G01 X22.5079 Y6.3430
G01 X22.4292 Y6.4141
G01 X22.3377 Y6.4819
G01 X22.2401 Y6.5405
G01 X22.1443 Y6.5860
G01 X22.1335 Y6.5906
G01 X22.0299 Y6.6275
G01 X21.9194 Y6.6552
G01 X21.8067 Y6.6719
G01 X21.7009 Y6.6773
G01 X21.6851 Y6.6773
G01 X21.5793 Y6.6719
G01 X21.4743 Y6.6565
G01 X21.4589 Y6.6535
G01 X21.3561 Y6.6275
G01 X21.2562 Y6.5920
G01 X21.2417 Y6.5860
G01 X21.1530 Y6.5440
G01 X21.1391 Y6.5366
G01 X21.0549 Y6.4861
G01 X21.0418 Y6.4774
G01 X20.9568 Y6.4141
G01 X20.8752 Y6.3403
G01 X18.3623 Y3.8275
G01 X5.6947 Y3.8275
G01 X3.5495 Y5.9727
G01 X3.5495 Y11.8920
G00 Z1.0000
G00 X11.1695 Y18.2420
G01 F30.00
G01 Z-0.0800
G01 F100.00
G01 X11.1639 Y18.3557
G01 X11.1472 Y18.4684
G01 X11.1195 Y18.5789
G01 X11.0812 Y18.6861
G01 X11.0325 Y18.7891
G01 X10.9739 Y18.8867
G01 X10.9061 Y18.9782
G01 X10.8350 Y19.0569
G01 X10.8239 Y19.0680
G01 X10.7452 Y19.1391
G01 X10.6602 Y19.2024
G01 X10.6471 Y19.2111
G01 X10.5629 Y19.2616
G01 X10.5490 Y19.2690
G01 X10.4531 Y19.3142
G01 X10.3459 Y19.3525
G01 X10.2354 Y19.3802
G01 X10.1305 Y19.3960
G01 X10.1149 Y19.3975
G01 X10.0090 Y19.4025
G01 X9.8953 Y19.3969
G01 X9.7826 Y19.3802
G01 X9.6721 Y19.3525
G01 X9.5649 Y19.3142
G01 X9.4619 Y19.2655
G01 X9.3643 Y19.2069
G01 X9.2728 Y19.1391
G01 X9.1884 Y19.0626
G01 X9.1119 Y18.9782
G01 X9.0441 Y18.8867
G01 X8.9855 Y18.7891
G01 X8.9368 Y18.6861
G01 X8.8985 Y18.5789
G01 X8.8708 Y18.4684
G01 X8.8545 Y18.3597
G01 X8.8535 Y18.3479
G01 X8.8485 Y18.2420
G01 X8.8485 Y8.6920
G01 X8.8541 Y8.5783
G01 X8.8708 Y8.4656
G01 X8.8964 Y8.3627
G01 X8.9009 Y8.3477
G01 X8.9340 Y8.2552
G01 X8.9400 Y8.2407
G01 X8.9855 Y8.1449
G01 X9.0441 Y8.0473
G01 X9.1119 Y7.9558
G01 X9.1884 Y7.8714
G01 X9.2728 Y7.7949
G01 X9.3578 Y7.7316
G01 X9.3709 Y7.7229
G01 X9.4551 Y7.6724
G01 X9.4690 Y7.6650
G01 X9.5649 Y7.6198
G01 X9.6721 Y7.5815
G01 X9.7826 Y7.5538
G01 X9.8913 Y7.5375
G01 X9.9031 Y7.5365
G01 X10.0090 Y7.5315
G01 X10.1227 Y7.5371
G01 X10.2354 Y7.5538
G01 X10.3459 Y7.5815
G01 X10.4531 Y7.6198
G01 X10.5561 Y7.6685
G01 X10.6537 Y7.7271
G01 X10.7452 Y7.7949
G01 X10.8296 Y7.8714
G01 X10.9061 Y7.9558
G01 X10.9739 Y8.0473
G01 X11.0325 Y8.1449
G01 X11.0812 Y8.2479
G01 X11.1195 Y8.3551
G01 X11.1472 Y8.4656
G01 X11.1635 Y8.5743
G01 X11.1645 Y8.5861
G01 X11.1695 Y8.6920
G01 X11.1695 Y18.2420
G00 Z1.0000
G00 X11.4575 Y18.2420
G01 F30.00
G01 Z-0.0800
G01 F100.00
G01 X11.4570 Y18.2640
G01 X11.4521 Y18.3620
G01 X11.4505 Y18.3840
G01 X11.4478 Y18.4058
G01 X11.4334 Y18.5029
G01 X11.4297 Y18.5246
G01 X11.4248 Y18.5460
G01 X11.4010 Y18.6413
G01 X11.3951 Y18.6625
G01 X11.3882 Y18.6834
G01 X11.3552 Y18.7758
G01 X11.3513 Y18.7861
G01 X11.3429 Y18.8064
G01 X11.2915 Y18.9151
G01 X11.2865 Y18.9248
G01 X11.2756 Y18.9440
G01 X11.2251 Y19.0282
G01 X11.2134 Y19.0467
G01 X11.2007 Y19.0647
G01 X11.1356 Y19.1523
G01 X11.1287 Y19.1609
G01 X11.1143 Y19.1776
G01 X11.0484 Y19.2503
G01 X11.0332 Y19.2662
G01 X11.0173 Y19.2814
G01 X10.9446 Y19.3473
G01 X10.9279 Y19.3617
G01 X10.9106 Y19.3752
G01 X10.8317 Y19.4337
G01 X10.8137 Y19.4464
G01 X10.7952 Y19.4581
G01 X10.7110 Y19.5086
G01 X10.6918 Y19.5195
G01 X10.6722 Y19.5293
G01 X10.5834 Y19.5713
G01 X10.5633 Y19.5802
G01 X10.5428 Y19.5882
G01 X10.4504 Y19.6212
G01 X10.4295 Y19.6281
G01 X10.4083 Y19.6340
G01 X10.3130 Y19.6578
G01 X10.2916 Y19.6627
G01 X10.2699 Y19.6664
G01 X10.1728 Y19.6808
G01 X10.1510 Y19.6835
G01 X10.1290 Y19.6851
G01 X10.0310 Y19.6900
G01 X10.0090 Y19.6905
G01 X9.9870 Y19.6900
G01 X9.8890 Y19.6851
G01 X9.8670 Y19.6835
G01 X9.8452 Y19.6808
G01 X9.7481 Y19.6664
G01 X9.7264 Y19.6627
G01 X9.7050 Y19.6578
G01 X9.6097 Y19.6340
G01 X9.5885 Y19.6281
G01 X9.5676 Y19.6212
G01 X9.4752 Y19.5882
G01 X9.4547 Y19.5802
G01 X9.4346 Y19.5713
G01 X9.3458 Y19.5293
G01 X9.3262 Y19.5195
G01 X9.3070 Y19.5086
G01 X9.2228 Y19.4581
G01 X9.2043 Y19.4464
G01 X9.1863 Y19.4337
G01 X9.1074 Y19.3752
G01 X9.0987 Y19.3686
G01 X9.0817 Y19.3546
G01 X8.9926 Y19.2739
G01 X8.9771 Y19.2584
G01 X8.9696 Y19.2503
G01 X8.8964 Y19.1693
G01 X8.8824 Y19.1523
G01 X8.8758 Y19.1436
G01 X8.8173 Y19.0647
G01 X8.8046 Y19.0467
G01 X8.7929 Y19.0282
G01 X8.7424 Y18.9440
G01 X8.7368 Y18.9345
G01 X8.7265 Y18.9151
G01 X8.6751 Y18.8064
G01 X8.6708 Y18.7963
G01 X8.6628 Y18.7758
G01 X8.6298 Y18.6834
G01 X8.6229 Y18.6625
G01 X8.6170 Y18.6413
G01 X8.5906 Y18.5353
G01 X8.5863 Y18.5138
G01 X8.5846 Y18.5029
G01 X8.5702 Y18.4058
G01 X8.5675 Y18.3840
G01 X8.5659 Y18.3620
G01 X8.5610 Y18.2640
G01 X8.5605 Y18.2420
G01 X8.5605 Y8.6920
G01 X8.5610 Y8.6700
G01 X8.5659 Y8.5720
G01 X8.5675 Y8.5500
G01 X8.5702 Y8.5282
G01 X8.5846 Y8.4311
G01 X8.5883 Y8.4094
G01 X8.5932 Y8.3880
G01 X8.6170 Y8.2927
G01 X8.6198 Y8.2821
G01 X8.6262 Y8.2610
G01 X8.6628 Y8.1582
G01 X8.6708 Y8.1377
G01 X8.6797 Y8.1176
G01 X8.7217 Y8.0288
G01 X8.7315 Y8.0092
G01 X8.7424 Y7.9900
G01 X8.7929 Y7.9058
G01 X8.8046 Y7.8873
G01 X8.8173 Y7.8693
G01 X8.8758 Y7.7904
G01 X8.8893 Y7.7731
G01 X8.9037 Y7.7564
G01 X8.9696 Y7.6837
G01 X8.9848 Y7.6678
G01 X8.9926 Y7.6601
G01 X9.0734 Y7.5867
G01 X9.0901 Y7.5723
G01 X9.1074 Y7.5588
G01 X9.1863 Y7.5003
G01 X9.2043 Y7.4876
G01 X9.2228 Y7.4759
G01 X9.3070 Y7.4254
G01 X9.3262 Y7.4145
G01 X9.3458 Y7.4047
G01 X9.4346 Y7.3627
G01 X9.4547 Y7.3538
G01 X9.4752 Y7.3458
G01 X9.5676 Y7.3128
G01 X9.5885 Y7.3059
G01 X9.6097 Y7.3000
G01 X9.7157 Y7.2736
G01 X9.7372 Y7.2693
G01 X9.7481 Y7.2676
G01 X9.8452 Y7.2532
G01 X9.8670 Y7.2505
G01 X9.8890 Y7.2489
G01 X9.9870 Y7.2440
G01 X10.0090 Y7.2435
G01 X10.0310 Y7.2440
G01 X10.1290 Y7.2489
G01 X10.1510 Y7.2505
G01 X10.1728 Y7.2532
G01 X10.2699 Y7.2676
G01 X10.2916 Y7.2713
G01 X10.3130 Y7.2762
G01 X10.4083 Y7.3000
G01 X10.4295 Y7.3059
G01 X10.4504 Y7.3128
G01 X10.5428 Y7.3458
G01 X10.5633 Y7.3538
G01 X10.5834 Y7.3627
G01 X10.6722 Y7.4047
G01 X10.6918 Y7.4145
G01 X10.7110 Y7.4254
G01 X10.7952 Y7.4759
G01 X10.8045 Y7.4816
G01 X10.8228 Y7.4938
G01 X10.9106 Y7.5588
G01 X10.9279 Y7.5723
G01 X10.9446 Y7.5867
G01 X11.0173 Y7.6526
G01 X11.0332 Y7.6678
G01 X11.0484 Y7.6837
G01 X11.1143 Y7.7564
G01 X11.1287 Y7.7731
G01 X11.1422 Y7.7904
G01 X11.2007 Y7.8693
G01 X11.2134 Y7.8873
G01 X11.2251 Y7.9058
G01 X11.2756 Y7.9900
G01 X11.2865 Y8.0092
G01 X11.2963 Y8.0288
G01 X11.3383 Y8.1176
G01 X11.3472 Y8.1377
G01 X11.3552 Y8.1582
G01 X11.3882 Y8.2506
G01 X11.3951 Y8.2715
G01 X11.4010 Y8.2927
G01 X11.4248 Y8.3880
G01 X11.4297 Y8.4094
G01 X11.4334 Y8.4311
G01 X11.4478 Y8.5282
G01 X11.4505 Y8.5500
G01 X11.4521 Y8.5720
G01 X11.4570 Y8.6700
G01 X11.4575 Y8.6920
G01 X11.4575 Y18.2420
G00 Z1.0000
G00 X11.8353 Y19.6595
G01 F30.00
G01 Z-0.0800
G01 F100.00
G01 X11.8558 Y19.6643
G01 X11.8869 Y19.6725
G01 X11.9179 Y19.6815
G01 X11.9486 Y19.6912
G01 X11.9790 Y19.7017
G01 X12.0092 Y19.7129
G01 X12.0370 Y19.7240
G01 X12.0648 Y19.7129
G01 X12.0950 Y19.7017
G01 X12.1254 Y19.6912
G01 X12.1561 Y19.6815
G01 X12.1871 Y19.6725
G01 X12.2297 Y19.6616
G01 X12.1873 Y19.6044
G01 X12.1684 Y19.5783
G01 X12.1502 Y19.5518
G01 X12.1327 Y19.5248
G01 X12.1158 Y19.4974
G01 X12.0653 Y19.4131
G01 X12.0491 Y19.3853
G01 X12.0341 Y19.3581
G01 X12.0167 Y19.3881
G01 X11.9662 Y19.4724
G01 X11.9493 Y19.4998
G01 X11.9318 Y19.5268
G01 X11.9136 Y19.5533
G01 X11.8947 Y19.5794
G01 X11.8353 Y19.6595
G00 Z1.0000
G00 X11.1517 Y19.9130
G01 F30.00
G01 Z-0.0800
G01 F100.00
G01 X11.5370 Y19.9130
G01 X11.5621 Y19.9133
G01 X11.5872 Y19.9142
G01 X11.6123 Y19.9158
G01 X11.6374 Y19.9179
G01 X11.6623 Y19.9207
G01 X11.6873 Y19.9241
G01 X11.7121 Y19.9281
G01 X11.7368 Y19.9327
G01 X11.7614 Y19.9379
G01 X11.7858 Y19.9437
G01 X11.8101 Y19.9501
G01 X11.8343 Y19.9571
G01 X11.8582 Y19.9647
G01 X11.8820 Y19.9729
G01 X11.9055 Y19.9816
G01 X11.9289 Y19.9909
G01 X11.9520 Y20.0008
G01 X11.9748 Y20.0113
G01 X11.9974 Y20.0223
G01 X12.0197 Y20.0339
G01 X12.0370 Y20.0434
G01 X12.0543 Y20.0339
G01 X12.0766 Y20.0223
G01 X12.0992 Y20.0113
G01 X12.1220 Y20.0008
G01 X12.1451 Y19.9909
G01 X12.1685 Y19.9816
G01 X12.1920 Y19.9729
G01 X12.2158 Y19.9647
G01 X12.2397 Y19.9571
G01 X12.2639 Y19.9501
G01 X12.2882 Y19.9437
G01 X12.3126 Y19.9379
G01 X12.3372 Y19.9327
G01 X12.3619 Y19.9281
G01 X12.3867 Y19.9241
G01 X12.4117 Y19.9207
G01 X12.4366 Y19.9179
G01 X12.4617 Y19.9158
G01 X12.4868 Y19.9142
G01 X12.5119 Y19.9133
G01 X12.5370 Y19.9130
G01 X12.8959 Y19.9130
G01 X12.8283 Y19.8629
G01 X12.8083 Y19.8477
G01 X12.7887 Y19.8320
G01 X12.7694 Y19.8158
G01 X12.7506 Y19.7991
G01 X12.6779 Y19.7332
G01 X12.6595 Y19.7161
G01 X12.6415 Y19.6985
G01 X12.6239 Y19.6805
G01 X12.5409 Y19.5894
G01 X12.5242 Y19.5706
G01 X12.5080 Y19.5513
G01 X12.4923 Y19.5317
G01 X12.4771 Y19.5117
G01 X12.4186 Y19.4328
G01 X12.4039 Y19.4125
G01 X12.3897 Y19.3918
G01 X12.3760 Y19.3707
G01 X12.3628 Y19.3493
G01 X12.3123 Y19.2651
G01 X12.2997 Y19.2434
G01 X12.2876 Y19.2213
G01 X12.2760 Y19.1990
G01 X12.2650 Y19.1764
G01 X12.2230 Y19.0877
G01 X12.2125 Y19.0648
G01 X12.2026 Y19.0417
G01 X12.1933 Y19.0184
G01 X12.1514 Y18.9024
G01 X12.1433 Y18.8786
G01 X12.1357 Y18.8547
G01 X12.1287 Y18.8305
G01 X12.1223 Y18.8062
G01 X12.0984 Y18.7110
G01 X12.0926 Y18.6865
G01 X12.0874 Y18.6620
G01 X12.0828 Y18.6373
G01 X12.0788 Y18.6124
G01 X12.0644 Y18.5153
G01 X12.0610 Y18.4904
G01 X12.0582 Y18.4654
G01 X12.0561 Y18.4404
G01 X12.0546 Y18.4153
G01 X12.0488 Y18.2921
G01 X12.0485 Y18.2670
G01 X12.0485 Y8.7170
G01 X12.0488 Y8.6919
G01 X12.0546 Y8.5687
G01 X12.0561 Y8.5436
G01 X12.0582 Y8.5186
G01 X12.0610 Y8.4936
G01 X12.0644 Y8.4687
G01 X12.0828 Y8.3467
G01 X12.0874 Y8.3220
G01 X12.0926 Y8.2975
G01 X12.0984 Y8.2730
G01 X12.1287 Y8.1535
G01 X12.1357 Y8.1293
G01 X12.1433 Y8.1054
G01 X12.1845 Y7.9891
G01 X12.1933 Y7.9656
G01 X12.2026 Y7.9423
G01 X12.2125 Y7.9192
G01 X12.2230 Y7.8963
G01 X12.2760 Y7.7850
G01 X12.2876 Y7.7627
G01 X12.2997 Y7.7406
G01 X12.3628 Y7.6347
G01 X12.3760 Y7.6133
G01 X12.3897 Y7.5922
G01 X12.4039 Y7.5715
G01 X12.4443 Y7.5165
G01 X11.6562 Y7.5165
G01 X11.6781 Y7.5465
G01 X11.6923 Y7.5672
G01 X11.7060 Y7.5883
G01 X11.7192 Y7.6097
G01 X11.7823 Y7.7156
G01 X11.7944 Y7.7377
G01 X11.8060 Y7.7600
G01 X11.8590 Y7.8713
G01 X11.8695 Y7.8942
G01 X11.8794 Y7.9173
G01 X11.8887 Y7.9406
G01 X11.8975 Y7.9641
G01 X11.9387 Y8.0804
G01 X11.9463 Y8.1043
G01 X11.9533 Y8.1285
G01 X11.9597 Y8.1528
G01 X11.9894 Y8.2725
G01 X11.9946 Y8.2970
G01 X11.9992 Y8.3217
G01 X12.0176 Y8.4437
G01 X12.0210 Y8.4686
G01 X12.0238 Y8.4936
G01 X12.0259 Y8.5186
G01 X12.0274 Y8.5437
G01 X12.0332 Y8.6669
G01 X12.0335 Y8.6920
G01 X12.0335 Y18.2420
G01 X12.0332 Y18.2671
G01 X12.0323 Y18.2922
G01 X12.0259 Y18.4154
G01 X12.0238 Y18.4404
G01 X12.0210 Y18.4654
G01 X12.0176 Y18.4903
G01 X12.0032 Y18.5874
G01 X11.9992 Y18.6123
G01 X11.9946 Y18.6370
G01 X11.9894 Y18.6615
G01 X11.9836 Y18.6860
G01 X11.9597 Y18.7812
G01 X11.9533 Y18.8055
G01 X11.9463 Y18.8297
G01 X11.9387 Y18.8536
G01 X11.8975 Y18.9699
G01 X11.8887 Y18.9934
G01 X11.8794 Y19.0167
G01 X11.8695 Y19.0398
G01 X11.8590 Y19.0627
G01 X11.8170 Y19.1514
G01 X11.8060 Y19.1740
G01 X11.7944 Y19.1963
G01 X11.7823 Y19.2184
G01 X11.7697 Y19.2401
G01 X11.7192 Y19.3243
G01 X11.7060 Y19.3457
G01 X11.6923 Y19.3668
G01 X11.6781 Y19.3875
G01 X11.6634 Y19.4078
G01 X11.5897 Y19.5067
G01 X11.5740 Y19.5263
G01 X11.5578 Y19.5456
G01 X11.5411 Y19.5644
G01 X11.4752 Y19.6371
G01 X11.4581 Y19.6555
G01 X11.4405 Y19.6735
G01 X11.4225 Y19.6911
G01 X11.4041 Y19.7082
G01 X11.3314 Y19.7741
G01 X11.3126 Y19.7908
G01 X11.2933 Y19.8070
G01 X11.2737 Y19.8227
G01 X11.1748 Y19.8964
G01 X11.1517 Y19.9130
G00 Z1.0000
G00 X15.2501 Y19.9130
G01 F30.00
G01 Z-0.0800
G01 F100.00
G01 X17.1839 Y19.9130
G01 X19.6685 Y17.4284
G01 X19.6685 Y15.1170
G01 X19.6688 Y15.0919
G01 X19.6746 Y14.9687
G01 X19.6761 Y14.9436
G01 X19.6782 Y14.9186
G01 X19.6810 Y14.8936
G01 X19.6844 Y14.8687
G01 X19.6988 Y14.7716
G01 X19.7028 Y14.7467
G01 X19.7074 Y14.7220
G01 X19.7126 Y14.6975
G01 X19.7184 Y14.6730
G01 X19.7423 Y14.5778
G01 X19.7487 Y14.5535
G01 X19.7557 Y14.5293
G01 X19.7633 Y14.5054
G01 X19.7714 Y14.4816
G01 X19.8045 Y14.3891
G01 X19.8133 Y14.3656
G01 X19.8226 Y14.3423
G01 X19.8325 Y14.3192
G01 X19.8430 Y14.2963
G01 X19.8850 Y14.2076
G01 X19.8960 Y14.1850
G01 X19.9076 Y14.1627
G01 X19.9197 Y14.1406
G01 X19.9323 Y14.1189
G01 X19.9960 Y14.0133
G01 X20.0097 Y13.9922
G01 X20.0239 Y13.9715
G01 X20.0386 Y13.9512
G01 X20.1123 Y13.8523
G01 X20.1280 Y13.8327
G01 X20.1442 Y13.8134
G01 X20.2268 Y13.7219
G01 X20.2439 Y13.7035
G01 X20.2615 Y13.6855
G01 X20.2795 Y13.6679
G01 X20.3706 Y13.5849
G01 X20.3894 Y13.5682
G01 X20.4087 Y13.5520
G01 X20.4283 Y13.5363
G01 X20.4538 Y13.5170
G01 X20.4283 Y13.4977
G01 X20.4087 Y13.4820
G01 X20.3894 Y13.4658
G01 X20.3706 Y13.4491
G01 X20.2795 Y13.3661
G01 X20.2615 Y13.3485
G01 X20.2439 Y13.3305
G01 X20.1609 Y13.2394
G01 X20.1442 Y13.2206
G01 X20.1280 Y13.2013
G01 X20.1123 Y13.1817
G01 X20.0971 Y13.1617
G01 X20.0386 Y13.0828
G01 X20.0239 Y13.0625
G01 X20.0097 Y13.0418
G01 X19.9960 Y13.0207
G01 X19.9828 Y12.9993
G01 X19.9323 Y12.9151
G01 X19.9197 Y12.8934
G01 X19.9076 Y12.8713
G01 X19.8960 Y12.8490
G01 X19.8850 Y12.8264
G01 X19.8430 Y12.7377
G01 X19.8325 Y12.7148
G01 X19.8226 Y12.6917
G01 X19.8133 Y12.6684
G01 X19.8045 Y12.6449
G01 X19.7633 Y12.5286
G01 X19.7557 Y12.5047
G01 X19.7487 Y12.4805
G01 X19.7423 Y12.4562
G01 X19.7126 Y12.3365
G01 X19.7074 Y12.3120
G01 X19.7028 Y12.2873
G01 X19.6988 Y12.2624
G01 X19.6844 Y12.1653
G01 X19.6810 Y12.1404
G01 X19.6782 Y12.1154
G01 X19.6761 Y12.0904
G01 X19.6746 Y12.0653
G01 X19.6697 Y11.9672
G01 X19.6688 Y11.9421
G01 X19.6685 Y11.9170
G01 X19.6685 Y10.7107
G01 X19.6467 Y10.7072
G01 X19.6220 Y10.7026
G01 X19.5975 Y10.6974
G01 X19.4778 Y10.6677
G01 X19.4535 Y10.6613
G01 X19.4293 Y10.6543
G01 X19.4054 Y10.6467
G01 X19.3816 Y10.6386
G01 X19.2656 Y10.5967
G01 X19.2423 Y10.5874
G01 X19.2192 Y10.5775
G01 X19.1963 Y10.5670
G01 X19.1076 Y10.5250
G01 X19.0850 Y10.5140
G01 X19.0627 Y10.5024
G01 X19.0406 Y10.4903
G01 X19.0189 Y10.4777
G01 X18.9133 Y10.4140
G01 X18.8922 Y10.4003
G01 X18.8715 Y10.3861
G01 X18.8512 Y10.3714
G01 X18.7523 Y10.2977
G01 X18.7327 Y10.2820
G01 X18.7134 Y10.2658
G01 X18.6219 Y10.1832
G01 X18.6035 Y10.1661
G01 X18.5855 Y10.1485
G01 X15.9784 Y7.5415
G01 X15.7202 Y7.5415
G01 X15.7421 Y7.5715
G01 X15.7563 Y7.5922
G01 X15.7700 Y7.6133
G01 X15.7832 Y7.6347
G01 X15.8463 Y7.7406
G01 X15.8584 Y7.7627
G01 X15.8700 Y7.7850
G01 X15.9230 Y7.8963
G01 X15.9335 Y7.9192
G01 X15.9434 Y7.9423
G01 X15.9527 Y7.9656
G01 X15.9615 Y7.9891
G01 X16.0027 Y8.1054
G01 X16.0103 Y8.1293
G01 X16.0173 Y8.1535
G01 X16.0237 Y8.1778
G01 X16.0534 Y8.2975
G01 X16.0586 Y8.3220
G01 X16.0632 Y8.3467
G01 X16.0816 Y8.4687
G01 X16.0850 Y8.4936
G01 X16.0878 Y8.5186
G01 X16.0899 Y8.5436
G01 X16.0914 Y8.5687
G01 X16.0972 Y8.6919
G01 X16.0975 Y8.7170
G01 X16.0975 Y18.2670
G01 X16.0972 Y18.2921
G01 X16.0963 Y18.3172
G01 X16.0914 Y18.4153
G01 X16.0899 Y18.4404
G01 X16.0878 Y18.4654
G01 X16.0850 Y18.4904
G01 X16.0816 Y18.5153
G01 X16.0632 Y18.6373
G01 X16.0586 Y18.6620
G01 X16.0534 Y18.6865
G01 X16.0476 Y18.7110
G01 X16.0237 Y18.8062
G01 X16.0173 Y18.8305
G01 X16.0103 Y18.8547
G01 X16.0027 Y18.8786
G01 X15.9946 Y18.9024
G01 X15.9615 Y18.9949
G01 X15.9527 Y19.0184
G01 X15.9434 Y19.0417
G01 X15.9335 Y19.0648
G01 X15.9230 Y19.0877
G01 X15.8810 Y19.1764
G01 X15.8700 Y19.1990
G01 X15.8584 Y19.2213
G01 X15.8463 Y19.2434
G01 X15.7832 Y19.3493
G01 X15.7700 Y19.3707
G01 X15.7563 Y19.3918
G01 X15.7421 Y19.4125
G01 X15.7274 Y19.4328
G01 X15.6537 Y19.5317
G01 X15.6380 Y19.5513
G01 X15.6218 Y19.5706
G01 X15.6051 Y19.5894
G01 X15.5221 Y19.6805
G01 X15.5045 Y19.6985
G01 X15.4865 Y19.7161
G01 X15.4681 Y19.7332
G01 X15.3954 Y19.7991
G01 X15.3766 Y19.8158
G01 X15.3573 Y19.8320
G01 X15.3377 Y19.8477
G01 X15.3177 Y19.8629
G01 X15.2501 Y19.9130
G00 Z1.0000
G00 X15.9434 Y19.6250
G01 F30.00
G01 Z-0.0800
G01 F100.00
G01 X17.0646 Y19.6250
G01 X19.3805 Y17.3091
G01 X19.3805 Y15.1170
G01 X19.3809 Y15.0848
G01 X19.3821 Y15.0526
G01 X19.3869 Y14.9546
G01 X19.3889 Y14.9224
G01 X19.3916 Y14.8903
G01 X19.3952 Y14.8583
G01 X19.3995 Y14.8264
G01 X19.4139 Y14.7293
G01 X19.4190 Y14.6975
G01 X19.4249 Y14.6659
G01 X19.4316 Y14.6344
G01 X19.4390 Y14.6030
G01 X19.4629 Y14.5078
G01 X19.4711 Y14.4766
G01 X19.4801 Y14.4457
G01 X19.4898 Y14.4150
G01 X19.5003 Y14.3846
G01 X19.5334 Y14.2921
G01 X19.5446 Y14.2619
G01 X19.5565 Y14.2320
G01 X19.5692 Y14.2024
G01 X19.5826 Y14.1732
G01 X19.6246 Y14.0844
G01 X19.6387 Y14.0555
G01 X19.6536 Y14.0269
G01 X19.6691 Y13.9987
G01 X19.6853 Y13.9709
G01 X19.7358 Y13.8866
G01 X19.7527 Y13.8592
G01 X19.7702 Y13.8322
G01 X19.7884 Y13.8057
G01 X19.8073 Y13.7796
G01 X19.8658 Y13.7007
G01 X19.8853 Y13.6751
G01 X19.9054 Y13.6500
G01 X19.9261 Y13.6253
G01 X19.9475 Y13.6012
G01 X20.0241 Y13.5170
G01 X19.9475 Y13.4328
G01 X19.9261 Y13.4087
G01 X19.9054 Y13.3840
G01 X19.8853 Y13.3589
G01 X19.8658 Y13.3333
G01 X19.8073 Y13.2544
G01 X19.7884 Y13.2283
G01 X19.7702 Y13.2018
G01 X19.7527 Y13.1748
G01 X19.7358 Y13.1474
G01 X19.6853 Y13.0631
G01 X19.6691 Y13.0353
G01 X19.6536 Y13.0071
G01 X19.6387 Y12.9785
G01 X19.6246 Y12.9496
G01 X19.5826 Y12.8608
G01 X19.5692 Y12.8316
G01 X19.5565 Y12.8020
G01 X19.5446 Y12.7721
G01 X19.5334 Y12.7419
G01 X19.5003 Y12.6494
G01 X19.4898 Y12.6190
G01 X19.4801 Y12.5883
G01 X19.4711 Y12.5574
G01 X19.4629 Y12.5262
G01 X19.4390 Y12.4310
G01 X19.4316 Y12.3996
G01 X19.4249 Y12.3681
G01 X19.4190 Y12.3365
G01 X19.4139 Y12.3047
G01 X19.3995 Y12.2076
G01 X19.3952 Y12.1757
G01 X19.3916 Y12.1437
G01 X19.3889 Y12.1116
G01 X19.3869 Y12.0794
G01 X19.3821 Y11.9814
G01 X19.3809 Y11.9492
G01 X19.3805 Y11.9170
G01 X19.3805 Y10.9399
G01 X19.3457 Y10.9299
G01 X19.3150 Y10.9202
G01 X19.2846 Y10.9097
G01 X19.1921 Y10.8766
G01 X19.1619 Y10.8654
G01 X19.1320 Y10.8535
G01 X19.1024 Y10.8408
G01 X19.0732 Y10.8274
G01 X18.9844 Y10.7854
G01 X18.9555 Y10.7713
G01 X18.9269 Y10.7564
G01 X18.8987 Y10.7409
G01 X18.8709 Y10.7247
G01 X18.7866 Y10.6742
G01 X18.7592 Y10.6573
G01 X18.7322 Y10.6398
G01 X18.7057 Y10.6216
G01 X18.6796 Y10.6027
G01 X18.6007 Y10.5442
G01 X18.5751 Y10.5247
G01 X18.5500 Y10.5046
G01 X18.5253 Y10.4839
G01 X18.5012 Y10.4625
G01 X18.4285 Y10.3966
G01 X18.4049 Y10.3747
G01 X18.3818 Y10.3522
G01 X16.3508 Y8.3211
G01 X16.3665 Y8.4264
G01 X16.3708 Y8.4583
G01 X16.3744 Y8.4903
G01 X16.3771 Y8.5224
G01 X16.3791 Y8.5546
G01 X16.3839 Y8.6526
G01 X16.3851 Y8.6848
G01 X16.3855 Y8.7170
G01 X16.3855 Y18.2670
G01 X16.3851 Y18.2992
G01 X16.3839 Y18.3314
G01 X16.3791 Y18.4294
G01 X16.3771 Y18.4616
G01 X16.3744 Y18.4937
G01 X16.3708 Y18.5257
G01 X16.3665 Y18.5576
G01 X16.3521 Y18.6547
G01 X16.3470 Y18.6865
G01 X16.3411 Y18.7181
G01 X16.3344 Y18.7496
G01 X16.3270 Y18.7810
G01 X16.3031 Y18.8762
G01 X16.2949 Y18.9074
G01 X16.2859 Y18.9383
G01 X16.2762 Y18.9690
G01 X16.2657 Y18.9994
G01 X16.2326 Y19.0919
G01 X16.2214 Y19.1221
G01 X16.2095 Y19.1520
G01 X16.1968 Y19.1816
G01 X16.1834 Y19.2108
G01 X16.1414 Y19.2996
G01 X16.1273 Y19.3285
G01 X16.1124 Y19.3571
G01 X16.0969 Y19.3853
G01 X16.0807 Y19.4131
G01 X16.0302 Y19.4974
G01 X16.0133 Y19.5248
G01 X15.9958 Y19.5518
G01 X15.9776 Y19.5783
G01 X15.9434 Y19.6250
G00 Z1.0000
G00 X16.4423 Y19.3370
G01 F30.00
G01 Z-0.0800
G01 F100.00
G01 X16.9453 Y19.3370
G01 X19.0925 Y17.1898
G01 X19.0925 Y15.1170
G01 X19.0930 Y15.0777
G01 X19.0944 Y15.0385
G01 X19.0992 Y14.9404
G01 X19.1017 Y14.9012
G01 X19.1050 Y14.8621
G01 X19.1094 Y14.8231
G01 X19.1146 Y14.7842
G01 X19.1290 Y14.6870
G01 X19.1353 Y14.6483
G01 X19.1425 Y14.6097
G01 X19.1506 Y14.5713
G01 X19.1597 Y14.5330
G01 X19.1835 Y14.4378
G01 X19.1935 Y14.3998
G01 X19.2045 Y14.3621
G01 X19.2163 Y14.3247
G01 X19.2291 Y14.2875
G01 X19.2622 Y14.1951
G01 X19.2759 Y14.1583
G01 X19.2905 Y14.1218
G01 X19.3059 Y14.0857
G01 X19.3223 Y14.0500
G01 X19.3643 Y13.9613
G01 X19.3815 Y13.9260
G01 X19.3996 Y13.8911
G01 X19.4185 Y13.8567
G01 X19.4383 Y13.8228
G01 X19.4887 Y13.7386
G01 X19.5093 Y13.7052
G01 X19.5308 Y13.6722
G01 X19.5530 Y13.6399
G01 X19.5760 Y13.6080
G01 X19.6437 Y13.5170
G01 X19.5760 Y13.4260
G01 X19.5530 Y13.3941
G01 X19.5308 Y13.3618
G01 X19.5093 Y13.3288
G01 X19.4887 Y13.2954
G01 X19.4383 Y13.2112
G01 X19.4185 Y13.1773
G01 X19.3996 Y13.1429
G01 X19.3815 Y13.1080
G01 X19.3643 Y13.0727
G01 X19.3223 Y12.9840
G01 X19.3059 Y12.9483
G01 X19.2905 Y12.9122
G01 X19.2759 Y12.8757
G01 X19.2622 Y12.8389
G01 X19.2291 Y12.7465
G01 X19.2163 Y12.7093
G01 X19.2045 Y12.6719
G01 X19.1935 Y12.6342
G01 X19.1835 Y12.5962
G01 X19.1597 Y12.5010
G01 X19.1506 Y12.4627
G01 X19.1425 Y12.4243
G01 X19.1353 Y12.3857
G01 X19.1290 Y12.3470
G01 X19.1146 Y12.2498
G01 X19.1094 Y12.2109
G01 X19.1050 Y12.1719
G01 X19.1017 Y12.1328
G01 X19.0992 Y12.0936
G01 X19.0944 Y11.9955
G01 X19.0930 Y11.9563
G01 X19.0925 Y11.9170
G01 X19.0925 Y11.1468
G01 X19.0583 Y11.1341
G01 X19.0218 Y11.1195
G01 X18.9857 Y11.1041
G01 X18.9500 Y11.0877
G01 X18.8613 Y11.0457
G01 X18.8260 Y11.0285
G01 X18.7911 Y11.0104
G01 X18.7567 Y10.9915
G01 X18.7228 Y10.9717
G01 X18.6386 Y10.9213
G01 X18.6052 Y10.9007
G01 X18.5722 Y10.8792
G01 X18.5399 Y10.8570
G01 X18.5080 Y10.8340
G01 X18.4292 Y10.7755
G01 X18.3979 Y10.7518
G01 X18.3673 Y10.7272
G01 X18.3372 Y10.7019
G01 X18.3078 Y10.6759
G01 X18.2350 Y10.6100
G01 X18.2063 Y10.5833
G01 X18.1782 Y10.5558
G01 X16.6735 Y9.0512
G01 X16.6735 Y18.2670
G01 X16.6730 Y18.3063
G01 X16.6716 Y18.3455
G01 X16.6668 Y18.4436
G01 X16.6643 Y18.4828
G01 X16.6610 Y18.5219
G01 X16.6566 Y18.5609
G01 X16.6514 Y18.5998
G01 X16.6370 Y18.6970
G01 X16.6307 Y18.7357
G01 X16.6235 Y18.7743
G01 X16.6154 Y18.8127
G01 X16.6063 Y18.8510
G01 X16.5825 Y18.9462
G01 X16.5725 Y18.9842
G01 X16.5615 Y19.0219
G01 X16.5497 Y19.0593
G01 X16.5369 Y19.0965
G01 X16.5038 Y19.1889
G01 X16.4901 Y19.2257
G01 X16.4755 Y19.2622
G01 X16.4601 Y19.2983
G01 X16.4423 Y19.3370
G00 Z1.0000
G00 X16.8628 Y19.0122
G01 F30.00
G01 Z-0.0800
G01 F100.00
G01 X18.8045 Y17.0705
G01 X18.8045 Y15.1170
G01 X18.8051 Y15.0707
G01 X18.8068 Y15.0244
G01 X18.8116 Y14.9263
G01 X18.8144 Y14.8800
G01 X18.8184 Y14.8339
G01 X18.8235 Y14.7878
G01 X18.8298 Y14.7419
G01 X18.8442 Y14.6448
G01 X18.8515 Y14.5990
G01 X18.8600 Y14.5535
G01 X18.8696 Y14.5081
G01 X18.8803 Y14.4631
G01 X18.9042 Y14.3678
G01 X18.9160 Y14.3230
G01 X18.9289 Y14.2785
G01 X18.9429 Y14.2343
G01 X18.9579 Y14.1905
G01 X18.9910 Y14.0981
G01 X19.0072 Y14.0546
G01 X19.0244 Y14.0116
G01 X19.0426 Y13.9690
G01 X19.0619 Y13.9269
G01 X19.1039 Y13.8381
G01 X19.1242 Y13.7965
G01 X19.1456 Y13.7554
G01 X19.1679 Y13.7148
G01 X19.1912 Y13.6747
G01 X19.2417 Y13.5905
G01 X19.2660 Y13.5511
G01 X19.2882 Y13.5170
G01 X19.2660 Y13.4829
G01 X19.2417 Y13.4435
G01 X19.1912 Y13.3593
G01 X19.1679 Y13.3192
G01 X19.1456 Y13.2786
G01 X19.1242 Y13.2375
G01 X19.1039 Y13.1959
G01 X19.0619 Y13.1071
G01 X19.0426 Y13.0650
G01 X19.0244 Y13.0224
G01 X19.0072 Y12.9794
G01 X18.9910 Y12.9359
G01 X18.9579 Y12.8435
G01 X18.9429 Y12.7997
G01 X18.9289 Y12.7555
G01 X18.9160 Y12.7110
G01 X18.9042 Y12.6662
G01 X18.8803 Y12.5709
G01 X18.8696 Y12.5259
G01 X18.8600 Y12.4805
G01 X18.8515 Y12.4350
G01 X18.8442 Y12.3892
G01 X18.8298 Y12.2921
G01 X18.8235 Y12.2462
G01 X18.8184 Y12.2001
G01 X18.8144 Y12.1540
G01 X18.8116 Y12.1077
G01 X18.8068 Y12.0096
G01 X18.8051 Y11.9633
G01 X18.8045 Y11.9170
G01 X18.8045 Y11.3375
G01 X18.7381 Y11.3061
G01 X18.6965 Y11.2858
G01 X18.6554 Y11.2644
G01 X18.6148 Y11.2421
G01 X18.5747 Y11.2188
G01 X18.4905 Y11.1683
G01 X18.4511 Y11.1440
G01 X18.4122 Y11.1187
G01 X18.3740 Y11.0925
G01 X18.3365 Y11.0653
G01 X18.2576 Y11.0069
G01 X18.2207 Y10.9788
G01 X18.1846 Y10.9498
G01 X18.1491 Y10.9200
G01 X18.1144 Y10.8893
G01 X18.0416 Y10.8234
G01 X18.0077 Y10.7918
G01 X17.9745 Y10.7595
G01 X16.9615 Y9.7465
G01 X16.9615 Y18.2670
G01 X16.9609 Y18.3133
G01 X16.9592 Y18.3596
G01 X16.9544 Y18.4577
G01 X16.9516 Y18.5040
G01 X16.9476 Y18.5501
G01 X16.9425 Y18.5962
G01 X16.9362 Y18.6421
G01 X16.9218 Y18.7392
G01 X16.9145 Y18.7850
G01 X16.9060 Y18.8305
G01 X16.8964 Y18.8759
G01 X16.8857 Y18.9209
G01 X16.8628 Y19.0122
G00 Z1.0000
G00 X17.2495 Y18.2183
G01 F30.00
G01 Z-0.0800
G01 F100.00
G01 X18.5165 Y16.9513
G01 X18.5165 Y15.1170
G01 X18.5172 Y15.0636
G01 X18.5191 Y15.0102
G01 X18.5239 Y14.9122
G01 X18.5272 Y14.8589
G01 X18.5318 Y14.8056
G01 X18.5377 Y14.7526
G01 X18.5449 Y14.6996
G01 X18.5593 Y14.6025
G01 X18.5678 Y14.5498
G01 X18.5775 Y14.4973
G01 X18.5886 Y14.4450
G01 X18.6009 Y14.3931
G01 X18.6248 Y14.2978
G01 X18.6384 Y14.2462
G01 X18.6533 Y14.1949
G01 X18.6694 Y14.1440
G01 X18.6868 Y14.0935
G01 X18.7199 Y14.0011
G01 X18.7385 Y13.9510
G01 X18.7583 Y13.9014
G01 X18.7793 Y13.8523
G01 X18.8016 Y13.8038
G01 X18.8436 Y13.7150
G01 X18.8670 Y13.6670
G01 X18.8916 Y13.6196
G01 X18.9173 Y13.5728
G01 X18.9500 Y13.5170
G01 X18.9173 Y13.4612
G01 X18.8916 Y13.4144
G01 X18.8670 Y13.3670
G01 X18.8436 Y13.3190
G01 X18.8016 Y13.2302
G01 X18.7793 Y13.1817
G01 X18.7583 Y13.1326
G01 X18.7385 Y13.0830
G01 X18.7199 Y13.0329
G01 X18.6868 Y12.9405
G01 X18.6694 Y12.8900
G01 X18.6533 Y12.8391
G01 X18.6384 Y12.7878
G01 X18.6248 Y12.7362
G01 X18.6009 Y12.6409
G01 X18.5886 Y12.5890
G01 X18.5775 Y12.5367
G01 X18.5678 Y12.4842
G01 X18.5593 Y12.4315
G01 X18.5449 Y12.3344
G01 X18.5377 Y12.2814
G01 X18.5318 Y12.2284
G01 X18.5272 Y12.1751
G01 X18.5239 Y12.1218
G01 X18.5191 Y12.0238
G01 X18.5172 Y11.9704
G01 X18.5165 Y11.9170
G01 X18.5165 Y11.5167
G01 X18.4728 Y11.4927
G01 X18.4267 Y11.4658
G01 X18.3425 Y11.4153
G01 X18.2970 Y11.3873
G01 X18.2522 Y11.3582
G01 X18.2082 Y11.3279
G01 X18.1649 Y11.2967
G01 X18.0860 Y11.2382
G01 X18.0435 Y11.2058
G01 X18.0018 Y11.1725
G01 X17.9610 Y11.1381
G01 X17.9210 Y11.1027
G01 X17.8482 Y11.0368
G01 X17.8091 Y11.0004
G01 X17.7709 Y10.9631
G01 X17.2495 Y10.4417
G01 X17.2495 Y18.2183
G00 Z1.0000
G00 X17.5375 Y17.5230
G01 F30.00
G01 Z-0.0800
G01 F100.00
G01 X18.2285 Y16.8320
G01 X18.2285 Y15.1170
G01 X18.2292 Y15.0565
G01 X18.2315 Y14.9961
G01 X18.2363 Y14.8980
G01 X18.2400 Y14.8377
G01 X18.2452 Y14.7774
G01 X18.2518 Y14.7173
G01 X18.2600 Y14.6574
G01 X18.2744 Y14.5603
G01 X18.2840 Y14.5006
G01 X18.2951 Y14.4411
G01 X18.3076 Y14.3819
G01 X18.3216 Y14.3231
G01 X18.3454 Y14.2279
G01 X18.3608 Y14.1694
G01 X18.3777 Y14.1113
G01 X18.3959 Y14.0537
G01 X18.4156 Y13.9965
G01 X18.4487 Y13.9040
G01 X18.4698 Y13.8473
G01 X18.4922 Y13.7912
G01 X18.5160 Y13.7356
G01 X18.5412 Y13.6806
G01 X18.5832 Y13.5919
G01 X18.6097 Y13.5375
G01 X18.6204 Y13.5170
G01 X18.6097 Y13.4965
G01 X18.5832 Y13.4421
G01 X18.5412 Y13.3534
G01 X18.5160 Y13.2984
G01 X18.4922 Y13.2428
G01 X18.4698 Y13.1867
G01 X18.4487 Y13.1300
G01 X18.4156 Y13.0375
G01 X18.3959 Y12.9803
G01 X18.3777 Y12.9227
G01 X18.3608 Y12.8646
G01 X18.3454 Y12.8061
G01 X18.3216 Y12.7109
G01 X18.3076 Y12.6521
G01 X18.2951 Y12.5929
G01 X18.2840 Y12.5334
G01 X18.2744 Y12.4737
G01 X18.2600 Y12.3766
G01 X18.2518 Y12.3167
G01 X18.2452 Y12.2566
G01 X18.2400 Y12.1963
G01 X18.2363 Y12.1360
G01 X18.2315 Y12.0379
G01 X18.2292 Y11.9775
G01 X18.2285 Y11.9170
G01 X18.2285 Y11.6828
G01 X18.1944 Y11.6623
G01 X18.1429 Y11.6306
G01 X18.0922 Y11.5976
G01 X18.0424 Y11.5634
G01 X17.9933 Y11.5280
G01 X17.9145 Y11.4695
G01 X17.8664 Y11.4329
G01 X17.8191 Y11.3951
G01 X17.7729 Y11.3562
G01 X17.7276 Y11.3161
G01 X17.6548 Y11.2502
G01 X17.6105 Y11.2090
G01 X17.5672 Y11.1668
G01 X17.5375 Y11.1370
G01 X17.5375 Y17.5230
G00 Z1.0000
G00 X17.8255 Y16.8277
G01 F30.00
G01 Z-0.0800
G01 F100.00
G01 X17.9405 Y16.7127
G01 X17.9405 Y15.1170
G01 X17.9413 Y15.0495
G01 X17.9438 Y14.9820
G01 X17.9486 Y14.8839
G01 X17.9528 Y14.8165
G01 X17.9586 Y14.7492
G01 X17.9660 Y14.6821
G01 X17.9751 Y14.6151
G01 X17.9895 Y14.5180
G01 X18.0002 Y14.4513
G01 X18.0126 Y14.3849
G01 X18.0266 Y14.3188
G01 X18.0422 Y14.2531
G01 X18.0661 Y14.1579
G01 X18.0833 Y14.0926
G01 X18.1021 Y14.0277
G01 X18.1225 Y13.9633
G01 X18.1445 Y13.8994
G01 X18.1775 Y13.8070
G01 X18.2011 Y13.7437
G01 X18.2261 Y13.6810
G01 X18.2528 Y13.6189
G01 X18.2809 Y13.5575
G01 X18.3000 Y13.5170
G01 X18.2809 Y13.4765
G01 X18.2528 Y13.4151
G01 X18.2261 Y13.3530
G01 X18.2011 Y13.2903
G01 X18.1775 Y13.2270
G01 X18.1445 Y13.1346
G01 X18.1225 Y13.0707
G01 X18.1021 Y13.0063
G01 X18.0833 Y12.9414
G01 X18.0661 Y12.8761
G01 X18.0422 Y12.7809
G01 X18.0266 Y12.7152
G01 X18.0126 Y12.6491
G01 X18.0002 Y12.5827
G01 X17.9895 Y12.5160
G01 X17.9751 Y12.4189
G01 X17.9660 Y12.3519
G01 X17.9586 Y12.2848
G01 X17.9528 Y12.2175
G01 X17.9486 Y12.1501
G01 X17.9438 Y12.0520
G01 X17.9413 Y11.9845
G01 X17.9405 Y11.9170
G01 X17.9405 Y11.8425
G01 X17.8765 Y11.7989
G01 X17.8255 Y11.7620
G01 X17.8255 Y16.8277
G00 Z1.0000
G00 X15.5215 Y18.2670
G01 F30.00
G01 Z-0.0800
G01 F100.00
G01 X15.5210 Y18.2890
G01 X15.5161 Y18.3870
G01 X15.5145 Y18.4090
G01 X15.5118 Y18.4308
G01 X15.4974 Y18.5279
G01 X15.4937 Y18.5496
G01 X15.4888 Y18.5710
G01 X15.4650 Y18.6663
G01 X15.4591 Y18.6875
G01 X15.4522 Y18.7084
G01 X15.4192 Y18.8008
G01 X15.4153 Y18.8111
G01 X15.4069 Y18.8314
G01 X15.3555 Y18.9401
G01 X15.3452 Y18.9595
G01 X15.3396 Y18.9690
G01 X15.2891 Y19.0532
G01 X15.2774 Y19.0717
G01 X15.2647 Y19.0897
G01 X15.1996 Y19.1773
G01 X15.1927 Y19.1859
G01 X15.1783 Y19.2026
G01 X15.1124 Y19.2753
G01 X15.0972 Y19.2912
G01 X15.0813 Y19.3064
G01 X15.0086 Y19.3723
G01 X14.9919 Y19.3867
G01 X14.9746 Y19.4002
G01 X14.8957 Y19.4587
G01 X14.8777 Y19.4714
G01 X14.8592 Y19.4831
G01 X14.7750 Y19.5336
G01 X14.7558 Y19.5445
G01 X14.7362 Y19.5543
G01 X14.6474 Y19.5963
G01 X14.6273 Y19.6052
G01 X14.6068 Y19.6132
G01 X14.5144 Y19.6462
G01 X14.4935 Y19.6531
G01 X14.4723 Y19.6590
G01 X14.3770 Y19.6828
G01 X14.3556 Y19.6877
G01 X14.3339 Y19.6914
G01 X14.2368 Y19.7058
G01 X14.2150 Y19.7085
G01 X14.1930 Y19.7101
G01 X14.0950 Y19.7150
G01 X14.0730 Y19.7155
G01 X14.0510 Y19.7150
G01 X13.9530 Y19.7101
G01 X13.9310 Y19.7085
G01 X13.9092 Y19.7058
G01 X13.8121 Y19.6914
G01 X13.7904 Y19.6877
G01 X13.7690 Y19.6828
G01 X13.6737 Y19.6590
G01 X13.6525 Y19.6531
G01 X13.6316 Y19.6462
G01 X13.5392 Y19.6132
G01 X13.5187 Y19.6052
G01 X13.4986 Y19.5963
G01 X13.4098 Y19.5543
G01 X13.3902 Y19.5445
G01 X13.3710 Y19.5336
G01 X13.2868 Y19.4831
G01 X13.2683 Y19.4714
G01 X13.2503 Y19.4587
G01 X13.1714 Y19.4002
G01 X13.1627 Y19.3936
G01 X13.1457 Y19.3796
G01 X13.0566 Y19.2989
G01 X13.0488 Y19.2912
G01 X13.0336 Y19.2753
G01 X12.9604 Y19.1943
G01 X12.9533 Y19.1859
G01 X12.9398 Y19.1686
G01 X12.8813 Y19.0897
G01 X12.8686 Y19.0717
G01 X12.8569 Y19.0532
G01 X12.8064 Y18.9690
G01 X12.7955 Y18.9498
G01 X12.7905 Y18.9401
G01 X12.7391 Y18.8314
G01 X12.7348 Y18.8213
G01 X12.7268 Y18.8008
G01 X12.6938 Y18.7084
G01 X12.6869 Y18.6875
G01 X12.6810 Y18.6663
G01 X12.6546 Y18.5603
G01 X12.6503 Y18.5388
G01 X12.6486 Y18.5279
G01 X12.6342 Y18.4308
G01 X12.6315 Y18.4090
G01 X12.6299 Y18.3870
G01 X12.6250 Y18.2890
G01 X12.6245 Y18.2670
G01 X12.6245 Y8.7170
G01 X12.6250 Y8.6950
G01 X12.6299 Y8.5970
G01 X12.6315 Y8.5750
G01 X12.6342 Y8.5532
G01 X12.6486 Y8.4561
G01 X12.6523 Y8.4344
G01 X12.6572 Y8.4130
G01 X12.6810 Y8.3177
G01 X12.6869 Y8.2965
G01 X12.6902 Y8.2860
G01 X12.7268 Y8.1832
G01 X12.7348 Y8.1627
G01 X12.7437 Y8.1426
G01 X12.7857 Y8.0538
G01 X12.7955 Y8.0342
G01 X12.8064 Y8.0150
G01 X12.8569 Y7.9308
G01 X12.8686 Y7.9123
G01 X12.8813 Y7.8943
G01 X12.9398 Y7.8154
G01 X12.9533 Y7.7981
G01 X12.9677 Y7.7814
G01 X13.0336 Y7.7087
G01 X13.0411 Y7.7006
G01 X13.0566 Y7.6851
G01 X13.1374 Y7.6117
G01 X13.1541 Y7.5973
G01 X13.1714 Y7.5838
G01 X13.2503 Y7.5253
G01 X13.2683 Y7.5126
G01 X13.2868 Y7.5009
G01 X13.3710 Y7.4504
G01 X13.3902 Y7.4395
G01 X13.4098 Y7.4297
G01 X13.4986 Y7.3877
G01 X13.5187 Y7.3788
G01 X13.5392 Y7.3708
G01 X13.6316 Y7.3378
G01 X13.6525 Y7.3309
G01 X13.6737 Y7.3250
G01 X13.7797 Y7.2986
G01 X13.8012 Y7.2943
G01 X13.8121 Y7.2926
G01 X13.9092 Y7.2782
G01 X13.9310 Y7.2755
G01 X13.9530 Y7.2739
G01 X14.0510 Y7.2690
G01 X14.0730 Y7.2685
G01 X14.0950 Y7.2690
G01 X14.1930 Y7.2739
G01 X14.2150 Y7.2755
G01 X14.2368 Y7.2782
G01 X14.3339 Y7.2926
G01 X14.3556 Y7.2963
G01 X14.3770 Y7.3012
G01 X14.4723 Y7.3250
G01 X14.4935 Y7.3309
G01 X14.5144 Y7.3378
G01 X14.6068 Y7.3708
G01 X14.6273 Y7.3788
G01 X14.6474 Y7.3877
G01 X14.7362 Y7.4297
G01 X14.7558 Y7.4395
G01 X14.7750 Y7.4504
G01 X14.8592 Y7.5009
G01 X14.8777 Y7.5126
G01 X14.8868 Y7.5188
G01 X14.9746 Y7.5838
G01 X14.9919 Y7.5973
G01 X15.0086 Y7.6117
G01 X15.0813 Y7.6776
G01 X15.0972 Y7.6928
G01 X15.1124 Y7.7087
G01 X15.1783 Y7.7814
G01 X15.1927 Y7.7981
G01 X15.2062 Y7.8154
G01 X15.2647 Y7.8943
G01 X15.2774 Y7.9123
G01 X15.2891 Y7.9308
G01 X15.3396 Y8.0150
G01 X15.3505 Y8.0342
G01 X15.3603 Y8.0538
G01 X15.4023 Y8.1426
G01 X15.4112 Y8.1627
G01 X15.4192 Y8.1832
G01 X15.4522 Y8.2756
G01 X15.4591 Y8.2965
G01 X15.4650 Y8.3177
G01 X15.4888 Y8.4130
G01 X15.4937 Y8.4344
G01 X15.4974 Y8.4561
G01 X15.5118 Y8.5532
G01 X15.5145 Y8.5750
G01 X15.5161 Y8.5970
G01 X15.5210 Y8.6950
G01 X15.5215 Y8.7170
G01 X15.5215 Y18.2670
G00 Z1.0000
G00 X15.2335 Y18.2670
G01 F30.00
G01 Z-0.0800
G01 F100.00
G01 X15.2279 Y18.3807
G01 X15.2112 Y18.4934
G01 X15.1835 Y18.6039
G01 X15.1452 Y18.7111
G01 X15.0965 Y18.8141
G01 X15.0379 Y18.9117
G01 X14.9701 Y19.0032
G01 X14.8990 Y19.0819
G01 X14.8879 Y19.0930
G01 X14.8092 Y19.1641
G01 X14.7242 Y19.2274
G01 X14.7111 Y19.2361
G01 X14.6269 Y19.2866
G01 X14.6130 Y19.2940
G01 X14.5171 Y19.3392
G01 X14.4099 Y19.3775
G01 X14.2994 Y19.4052
G01 X14.1945 Y19.4210
G01 X14.1789 Y19.4225
G01 X14.0730 Y19.4275
G01 X13.9593 Y19.4219
G01 X13.8466 Y19.4052
G01 X13.7361 Y19.3775
G01 X13.6289 Y19.3392
G01 X13.5259 Y19.2905
G01 X13.4283 Y19.2319
G01 X13.3368 Y19.1641
G01 X13.2524 Y19.0876
G01 X13.1759 Y19.0032
G01 X13.1081 Y18.9117
G01 X13.0495 Y18.8141
G01 X13.0008 Y18.7111
G01 X12.9625 Y18.6039
G01 X12.9348 Y18.4934
G01 X12.9185 Y18.3847
G01 X12.9175 Y18.3729
G01 X12.9125 Y18.2670
G01 X12.9125 Y8.7170
G01 X12.9181 Y8.6033
G01 X12.9348 Y8.4906
G01 X12.9604 Y8.3877
G01 X12.9649 Y8.3727
G01 X12.9980 Y8.2802
G01 X13.0040 Y8.2657
G01 X13.0495 Y8.1699
G01 X13.1081 Y8.0723
G01 X13.1759 Y7.9808
G01 X13.2524 Y7.8964
G01 X13.3368 Y7.8199
G01 X13.4218 Y7.7566
G01 X13.4349 Y7.7479
G01 X13.5191 Y7.6974
G01 X13.5330 Y7.6900
G01 X13.6289 Y7.6448
G01 X13.7361 Y7.6065
G01 X13.8466 Y7.5788
G01 X13.9553 Y7.5625
G01 X13.9671 Y7.5615
G01 X14.0730 Y7.5565
G01 X14.1867 Y7.5621
G01 X14.2994 Y7.5788
G01 X14.4099 Y7.6065
G01 X14.5171 Y7.6448
G01 X14.6201 Y7.6935
G01 X14.7177 Y7.7521
G01 X14.8092 Y7.8199
G01 X14.8936 Y7.8964
G01 X14.9701 Y7.9808
G01 X15.0379 Y8.0723
G01 X15.0965 Y8.1699
G01 X15.1452 Y8.2729
G01 X15.1835 Y8.3801
G01 X15.2112 Y8.4906
G01 X15.2275 Y8.5993
G01 X15.2285 Y8.6111
G01 X15.2335 Y8.7170
G01 X15.2335 Y18.2670
G00 Z1.0000
G00 X21.9130 Y20.9101
G01 F30.00
G01 Z-0.0800
G01 F100.00
G01 X18.5610 Y24.2621
G01 X18.5610 Y24.8130
G01 X21.9130 Y24.8130
G01 X21.9130 Y20.9101
G00 Z1.0000
G00 X22.2010 Y20.2148
G01 F30.00
G01 Z-0.0800
G01 F100.00
G01 X18.2730 Y24.1428
G01 X18.2730 Y25.1010
G01 X22.2010 Y25.1010
G01 X22.2010 Y20.2148
G00 Z1.0000
G00 X22.4890 Y19.5195
G01 F30.00
G01 Z-0.0800
G01 F100.00
G01 X17.9850 Y24.0235
G01 X17.9850 Y25.3890
G01 X22.4890 Y25.3890
G01 X22.4890 Y19.5195
G00 Z1.0000
G00 X22.7770 Y18.6787
G01 F30.00
G01 Z-0.0800
G01 F100.00
G01 X22.7680 Y18.7038
G01 X22.7636 Y18.7147
G01 X22.7183 Y18.8106
G01 X22.7126 Y18.8209
G01 X22.6601 Y18.9084
G01 X22.6534 Y18.9182
G01 X22.5901 Y19.0032
G01 X22.5163 Y19.0848
G01 X17.6970 Y23.9042
G01 X17.6970 Y25.6770
G01 X22.7770 Y25.6770
G01 X22.7770 Y18.6787
G00 Z1.0000
G00 X21.6250 Y21.6054
G01 F30.00
G01 Z-0.0800
G01 F100.00
G01 X18.8490 Y24.3814
G01 X18.8490 Y24.5250
G01 X21.6250 Y24.5250
G01 X21.6250 Y21.6054
G00 Z1.0000
G00 X21.3370 Y22.3007
G01 F30.00
G01 Z-0.0800
G01 F100.00
G01 X19.4007 Y24.2370
G01 X21.3370 Y24.2370
G01 X21.3370 Y22.3007
G00 Z1.0000
G00 X21.0490 Y22.9960
G01 F30.00
G01 Z-0.0800
G01 F100.00
G01 X20.0960 Y23.9490
G01 X21.0490 Y23.9490
G01 X21.0490 Y22.9960
G00 Z1.0000
G00 X6.3770 Y25.6770
G01 F30.00
G01 Z-0.0800
G01 F100.00
G01 X6.3770 Y23.8962
G01 X5.3784 Y22.8976
G01 X5.3019 Y22.8132
G01 X5.2519 Y22.7461
G01 X1.5657 Y19.0598
G01 X1.4919 Y18.9782
G01 X1.4286 Y18.8932
G01 X1.4219 Y18.8834
G01 X1.3694 Y18.7959
G01 X1.3637 Y18.7856
G01 X1.3184 Y18.6897
G01 X1.3140 Y18.6788
G01 X1.2970 Y18.6313
G01 X1.2970 Y25.6770
G01 X6.3770 Y25.6770
G00 Z1.0000
G00 X6.0890 Y25.3890
G01 F30.00
G01 Z-0.0800
G01 F100.00
G01 X6.0890 Y24.0155
G01 X5.1748 Y23.1012
G01 X5.1596 Y23.0853
G01 X5.0864 Y23.0043
G01 X5.0724 Y22.9873
G01 X5.0332 Y22.9347
G01 X1.5850 Y19.4865
G01 X1.5850 Y25.3890
G01 X6.0890 Y25.3890
G00 Z1.0000
G00 X5.8010 Y25.1010
G01 F30.00
G01 Z-0.0800
G01 F100.00
G01 X5.8010 Y24.1348
G01 X4.9585 Y23.2920
G01 X4.8683 Y23.1924
G01 X4.8454 Y23.1645
G01 X4.8146 Y23.1234
G01 X1.8730 Y20.1818
G01 X1.8730 Y25.1010
G01 X5.8010 Y25.1010
G00 Z1.0000
G00 X5.5130 Y24.8130
G01 F30.00
G01 Z-0.0800
G01 F100.00
G01 X5.5130 Y24.2541
G01 X4.7675 Y23.5085
G01 X4.7499 Y23.4905
G01 X4.6669 Y23.3994
G01 X4.6502 Y23.3806
G01 X4.6340 Y23.3613
G01 X4.6183 Y23.3417
G01 X4.5959 Y23.3120
G01 X2.1610 Y20.8771
G01 X2.1610 Y24.8130
G01 X5.5130 Y24.8130
G00 Z1.0000
G00 X5.2250 Y24.5250
G01 F30.00
G01 Z-0.0800
G01 F100.00
G01 X5.2250 Y24.3734
G01 X4.5638 Y23.7122
G01 X4.5413 Y23.6891
G01 X4.5194 Y23.6655
G01 X4.4535 Y23.5928
G01 X4.4321 Y23.5687
G01 X4.4114 Y23.5440
G01 X4.3913 Y23.5189
G01 X4.3778 Y23.5012
G01 X2.4490 Y21.5724
G01 X2.4490 Y24.5250
G01 X5.2250 Y24.5250
G00 Z1.0000
G00 X4.6813 Y24.2370
G01 F30.00
G01 Z-0.0800
G01 F100.00
G01 X4.3602 Y23.9158
G01 X4.3327 Y23.8877
G01 X4.3060 Y23.8590
G01 X4.2401 Y23.7862
G01 X4.2141 Y23.7568
G01 X4.1888 Y23.7267
G01 X4.1605 Y23.6912
G01 X2.7370 Y22.2677
G01 X2.7370 Y24.2370
G01 X4.6813 Y24.2370
G00 Z1.0000
G00 X3.9996 Y23.9490
G01 F30.00
G01 Z-0.0800
G01 F100.00
G01 X3.9662 Y23.9094
G01 X3.9448 Y23.8827
G01 X3.0250 Y22.9630
G01 X3.0250 Y23.9490
G01 X3.9996 Y23.9490
G00 Z1.0000
G00 X3.3157 Y23.6610
G01 F30.00
G01 Z-0.0800
G01 F100.00
G01 X3.3130 Y23.6583
G01 X3.3130 Y23.6610
G01 X3.3157 Y23.6610
G00 Z1.0000
G00 X1.0870 Y26.0970
G01 F30.00
G01 Z-0.0800
G01 F100.00
G01 X1.0664 Y26.0960
G01 X1.0460 Y26.0930
G01 X1.0260 Y26.0880
G01 X1.0066 Y26.0810
G01 X0.9880 Y26.0722
G01 X0.9703 Y26.0616
G01 X0.9538 Y26.0494
G01 X0.9385 Y26.0355
G01 X0.9246 Y26.0202
G01 X0.9124 Y26.0037
G01 X0.9018 Y25.9860
G01 X0.8930 Y25.9674
G01 X0.8860 Y25.9480
G01 X0.8810 Y25.9280
G01 X0.8780 Y25.9076
G01 X0.8770 Y25.8870
G01 X0.8770 Y1.4130
G01 X0.8780 Y1.3924
G01 X0.8810 Y1.3720
G01 X0.8860 Y1.3520
G01 X0.8915 Y1.3363
G01 X0.9000 Y1.3175
G01 X0.9082 Y1.3030
G01 X0.9169 Y1.2899
G01 X0.9246 Y1.2798
G01 X0.9298 Y1.2738
G01 X0.9385 Y1.2645
G01 X0.9442 Y1.2591
G01 X0.9538 Y1.2506
G01 X0.9639 Y1.2429
G01 X0.9736 Y1.2362
G01 X0.9846 Y1.2297
G01 X1.0030 Y1.2205
G01 X1.0140 Y1.2161
G01 X1.0260 Y1.2120
G01 X1.0460 Y1.2070
G01 X1.0664 Y1.2040
G01 X1.0870 Y1.2030
G01 X22.9870 Y1.2030
G01 X23.0076 Y1.2040
G01 X23.0280 Y1.2070
G01 X23.0480 Y1.2120
G01 X23.0637 Y1.2175
G01 X23.0825 Y1.2260
G01 X23.0970 Y1.2342
G01 X23.1101 Y1.2429
G01 X23.1202 Y1.2506
G01 X23.1262 Y1.2558
G01 X23.1355 Y1.2645
G01 X23.1442 Y1.2738
G01 X23.1494 Y1.2798
G01 X23.1571 Y1.2899
G01 X23.1638 Y1.2996
G01 X23.1703 Y1.3106
G01 X23.1795 Y1.3290
G01 X23.1839 Y1.3400
G01 X23.1880 Y1.3520
G01 X23.1930 Y1.3720
G01 X23.1960 Y1.3924
G01 X23.1970 Y1.4130
G01 X23.1970 Y25.8870
G01 X23.1960 Y25.9076
G01 X23.1930 Y25.9280
G01 X23.1880 Y25.9480
G01 X23.1825 Y25.9637
G01 X23.1740 Y25.9825
G01 X23.1658 Y25.9970
G01 X23.1616 Y26.0037
G01 X23.1542 Y26.0140
G01 X23.1442 Y26.0262
G01 X23.1355 Y26.0355
G01 X23.1298 Y26.0409
G01 X23.1202 Y26.0494
G01 X23.1101 Y26.0571
G01 X23.1004 Y26.0638
G01 X23.0894 Y26.0703
G01 X23.0710 Y26.0795
G01 X23.0600 Y26.0839
G01 X23.0480 Y26.0880
G01 X23.0280 Y26.0930
G01 X23.0076 Y26.0960
G01 X22.9870 Y26.0970
G01 X1.0870 Y26.0970
G00 Z1.0000
G00 X20.6875 Y6.9318
G01 F30.00
G01 Z-0.0800
G01 F100.00
G01 X20.7363 Y6.9805
G01 X20.7593 Y6.9805
G01 X20.7283 Y6.9608
G01 X20.7134 Y6.9506
G01 X20.6875 Y6.9318
G00 Z1.0000
G00 X22.4890 Y7.5069
G01 F30.00
G01 Z-0.0800
G01 F100.00
G01 X22.4890 Y6.7271
G01 X22.3855 Y6.7892
G01 X22.3661 Y6.7995
G01 X22.3562 Y6.8043
G01 X22.2674 Y6.8463
G01 X22.2473 Y6.8552
G01 X22.2268 Y6.8632
G01 X22.1344 Y6.8962
G01 X22.1135 Y6.9031
G01 X22.0923 Y6.9090
G01 X21.9970 Y6.9328
G01 X21.9756 Y6.9377
G01 X21.9539 Y6.9414
G01 X21.8568 Y6.9558
G01 X21.8350 Y6.9585
G01 X21.8130 Y6.9601
G01 X21.7150 Y6.9650
G01 X21.6930 Y6.9655
G01 X21.6710 Y6.9650
G01 X21.5730 Y6.9601
G01 X21.5510 Y6.9585
G01 X21.5292 Y6.9558
G01 X21.4321 Y6.9414
G01 X21.4104 Y6.9377
G01 X21.3890 Y6.9328
G01 X21.2937 Y6.9090
G01 X21.2725 Y6.9031
G01 X21.2516 Y6.8962
G01 X21.1592 Y6.8632
G01 X21.1387 Y6.8552
G01 X21.1186 Y6.8463
G01 X21.0199 Y6.7995
G01 X21.0005 Y6.7892
G01 X20.9910 Y6.7836
G01 X20.9068 Y6.7331
G01 X20.8883 Y6.7214
G01 X20.8703 Y6.7087
G01 X20.7914 Y6.6502
G01 X20.7741 Y6.6367
G01 X20.7574 Y6.6223
G01 X20.6766 Y6.5489
G01 X18.2430 Y4.1155
G01 X17.1783 Y4.1155
G01 X17.2269 Y4.1278
G01 X17.2480 Y4.1342
G01 X17.3611 Y4.1747
G01 X17.3713 Y4.1788
G01 X17.3914 Y4.1877
G01 X17.4802 Y4.2297
G01 X17.4998 Y4.2395
G01 X17.5095 Y4.2448
G01 X17.6125 Y4.3066
G01 X17.6308 Y4.3188
G01 X17.6397 Y4.3253
G01 X17.7186 Y4.3838
G01 X17.7359 Y4.3973
G01 X17.7526 Y4.4117
G01 X17.8253 Y4.4776
G01 X17.8412 Y4.4928
G01 X20.6170 Y7.2685
G01 X21.6930 Y7.2685
G01 X21.7150 Y7.2690
G01 X21.8130 Y7.2739
G01 X21.8240 Y7.2745
G01 X21.8459 Y7.2767
G01 X21.9648 Y7.2943
G01 X21.9863 Y7.2986
G01 X21.9970 Y7.3012
G01 X22.0923 Y7.3250
G01 X22.1135 Y7.3309
G01 X22.1344 Y7.3378
G01 X22.2268 Y7.3708
G01 X22.2473 Y7.3788
G01 X22.2674 Y7.3877
G01 X22.3562 Y7.4297
G01 X22.3758 Y7.4395
G01 X22.3950 Y7.4504
G01 X22.4890 Y7.5069
G00 Z1.0000
G00 X22.7770 Y5.1053
G01 F30.00
G01 Z-0.0800
G01 F100.00
G01 X22.7770 Y1.6230
G01 X19.3472 Y1.6230
G01 X19.3830 Y1.6400
G01 X19.3935 Y1.6454
G01 X19.4811 Y1.6979
G01 X19.4910 Y1.7043
G01 X19.5792 Y1.7699
G01 X19.6608 Y1.8437
G01 X22.5136 Y4.6964
G01 X22.5901 Y4.7808
G01 X22.6534 Y4.8658
G01 X22.6601 Y4.8756
G01 X22.7126 Y4.9631
G01 X22.7183 Y4.9734
G01 X22.7636 Y5.0693
G01 X22.7680 Y5.0802
G01 X22.7770 Y5.1053
G00 Z1.0000
G00 X22.4890 Y4.2645
G01 F30.00
G01 Z-0.0800
G01 F100.00
G01 X22.4890 Y1.9110
G01 X20.1355 Y1.9110
G01 X22.4890 Y4.2645
G00 Z1.0000
G00 X22.2010 Y3.5692
G01 F30.00
G01 Z-0.0800
G01 F100.00
G01 X22.2010 Y2.1990
G01 X20.8308 Y2.1990
G01 X22.2010 Y3.5692
G00 Z1.0000
G00 X21.9130 Y2.8739
G01 F30.00
G01 Z-0.0800
G01 F100.00
G01 X21.9130 Y2.4870
G01 X21.5261 Y2.4870
G01 X21.9130 Y2.8739
G00 Z1.0000
M05
G00 Z1.0000
G00 Z15.00
G00 X0.0 Y0.0


