(G-CODE GENERATED BY FLATCAM v8.994 - www.flatcam.org - Version Date: 2020/11/7)

(Name: 25om_resistor-F_Cu.gbr_iso_combined_cnc)
(Type: G-code from Geometry)
(Units: MM)

(Created on Wednesday, 01 February 2023 at 12:38)

(This preprocessor is the default preprocessor used by FlatCAM.)
(It is made to work with MACH3 compatible motion controllers.)

(TOOL DIAMETER: 0.32 mm)
(Feedrate_XY: 100.0 mm/min)
(Feedrate_Z: 30.0 mm/min)
(Feedrate rapids 1500.0 mm/min)

(Z_Cut: -0.08 mm)
(Z_Move: 1.0 mm)
(Z Start: None mm)
(Z End: 15.0 mm)
(X,Y End: 0.0000, 0.0000 mm)
(Steps per circle: 64)
(Preprocessor Geometry: default)

(X range:    0.4285 ...   23.6535  mm)
(Y range:    0.7065 ...   26.8970  mm)

(Spindle Speed: 1000.0 RPM)
G21
G90
G94

G01 F100.00

M5
G00 Z15.0000
G00 X0.0000 Y0.0000
T1
M6    
(MSG, Change to Tool Dia = 0.3200)
M0
G00 Z15.0000

M03 S1000.0
G01 F100.00
G00 X3.5495 Y11.8920
G01 F30.00
G01 Z-0.0800
G01 F100.00
G01 X3.5439 Y12.0057
G01 X3.5285 Y12.1107
G01 X3.5255 Y12.1261
G01 X3.5016 Y12.2213
G01 X3.4971 Y12.2363
G01 X3.4612 Y12.3361
G01 X3.4125 Y12.4391
G01 X3.3539 Y12.5367
G01 X3.2861 Y12.6282
G01 X3.2096 Y12.7126
G01 X3.1252 Y12.7891
G01 X3.0337 Y12.8569
G01 X2.9429 Y12.9116
G01 X2.9290 Y12.9190
G01 X2.8331 Y12.9642
G01 X2.7333 Y13.0001
G01 X2.7183 Y13.0046
G01 X2.6231 Y13.0285
G01 X2.6077 Y13.0315
G01 X2.5027 Y13.0469
G01 X2.3890 Y13.0525
G01 X2.2753 Y13.0469
G01 X2.1626 Y13.0302
G01 X2.0521 Y13.0025
G01 X1.9449 Y12.9642
G01 X1.8419 Y12.9155
G01 X1.7509 Y12.8611
G01 X1.7378 Y12.8524
G01 X1.6590 Y12.7939
G01 X1.6468 Y12.7839
G01 X1.5684 Y12.7126
G01 X1.4971 Y12.6342
G01 X1.4871 Y12.6220
G01 X1.4241 Y12.5367
G01 X1.3655 Y12.4391
G01 X1.3168 Y12.3361
G01 X1.2809 Y12.2363
G01 X1.2764 Y12.2213
G01 X1.2525 Y12.1261
G01 X1.2495 Y12.1107
G01 X1.2341 Y12.0057
G01 X1.2285 Y11.8920
G01 X1.2285 Y5.4920
G01 X1.2335 Y5.3861
G01 X1.2345 Y5.3743
G01 X1.2508 Y5.2656
G01 X1.2785 Y5.1551
G01 X1.3168 Y5.0479
G01 X1.3620 Y4.9520
G01 X1.3694 Y4.9381
G01 X1.4199 Y4.8539
G01 X1.4286 Y4.8408
G01 X1.4919 Y4.7558
G01 X1.5657 Y4.6742
G01 X4.3962 Y1.8437
G01 X4.4778 Y1.7699
G01 X4.5628 Y1.7066
G01 X4.5759 Y1.6979
G01 X4.6601 Y1.6474
G01 X4.6740 Y1.6400
G01 X4.7699 Y1.5948
G01 X4.8697 Y1.5589
G01 X4.8847 Y1.5544
G01 X4.9799 Y1.5305
G01 X4.9953 Y1.5275
G01 X5.1003 Y1.5121
G01 X5.2140 Y1.5065
G01 X18.8430 Y1.5065
G01 X18.9567 Y1.5121
G01 X19.0694 Y1.5288
G01 X19.1799 Y1.5565
G01 X19.2798 Y1.5920
G01 X19.2943 Y1.5980
G01 X19.3901 Y1.6435
G01 X19.4877 Y1.7021
G01 X19.5730 Y1.7651
G01 X19.5852 Y1.7751
G01 X19.6636 Y1.8464
G01 X22.5163 Y4.6992
G01 X22.5901 Y4.7808
G01 X22.6534 Y4.8658
G01 X22.6621 Y4.8789
G01 X22.7126 Y4.9631
G01 X22.7200 Y4.9770
G01 X22.7652 Y5.0729
G01 X22.8011 Y5.1727
G01 X22.8056 Y5.1877
G01 X22.8312 Y5.2906
G01 X22.8470 Y5.3955
G01 X22.8485 Y5.4111
G01 X22.8535 Y5.5170
G01 X22.8485 Y5.6229
G01 X22.8470 Y5.6385
G01 X22.8312 Y5.7434
G01 X22.8035 Y5.8539
G01 X22.7680 Y5.9538
G01 X22.7620 Y5.9683
G01 X22.7165 Y6.0641
G01 X22.6621 Y6.1551
G01 X22.6534 Y6.1682
G01 X22.5901 Y6.2532
G01 X22.5190 Y6.3319
G01 X22.5079 Y6.3430
G01 X22.4292 Y6.4141
G01 X22.3442 Y6.4774
G01 X22.3311 Y6.4861
G01 X22.2401 Y6.5405
G01 X22.1371 Y6.5892
G01 X22.0299 Y6.6275
G01 X21.9271 Y6.6535
G01 X21.9117 Y6.6565
G01 X21.8067 Y6.6719
G01 X21.7009 Y6.6773
G01 X21.6851 Y6.6773
G01 X21.5832 Y6.6722
G01 X21.5715 Y6.6710
G01 X21.4743 Y6.6565
G01 X21.4589 Y6.6535
G01 X21.3561 Y6.6275
G01 X21.2489 Y6.5892
G01 X21.1459 Y6.5405
G01 X21.0549 Y6.4861
G01 X21.0418 Y6.4774
G01 X20.9630 Y6.4189
G01 X20.9538 Y6.4116
G01 X20.8724 Y6.3376
G01 X18.3623 Y3.8275
G01 X5.6947 Y3.8275
G01 X3.5495 Y5.9727
G01 X3.5495 Y11.8920
G00 Z1.0000
G00 X3.7095 Y11.8920
G01 F30.00
G01 Z-0.0800
G01 F100.00
G01 X3.7091 Y11.9077
G01 X3.7043 Y12.0058
G01 X3.7031 Y12.0214
G01 X3.7012 Y12.0370
G01 X3.6868 Y12.1341
G01 X3.6841 Y12.1496
G01 X3.6807 Y12.1649
G01 X3.6568 Y12.2602
G01 X3.6526 Y12.2753
G01 X3.6477 Y12.2902
G01 X3.6146 Y12.3827
G01 X3.6090 Y12.3973
G01 X3.6026 Y12.4117
G01 X3.5606 Y12.5005
G01 X3.5536 Y12.5145
G01 X3.5458 Y12.5281
G01 X3.4954 Y12.6124
G01 X3.4870 Y12.6256
G01 X3.4779 Y12.6385
G01 X3.4194 Y12.7173
G01 X3.4098 Y12.7297
G01 X3.3995 Y12.7416
G01 X3.3336 Y12.8144
G01 X3.3227 Y12.8257
G01 X3.3114 Y12.8366
G01 X3.2386 Y12.9025
G01 X3.2267 Y12.9128
G01 X3.2143 Y12.9224
G01 X3.1355 Y12.9809
G01 X3.1226 Y12.9900
G01 X3.1094 Y12.9984
G01 X3.0251 Y13.0488
G01 X3.0115 Y13.0566
G01 X2.9975 Y13.0636
G01 X2.9087 Y13.1056
G01 X2.8943 Y13.1120
G01 X2.8797 Y13.1176
G01 X2.7872 Y13.1507
G01 X2.7723 Y13.1556
G01 X2.7572 Y13.1598
G01 X2.6619 Y13.1837
G01 X2.6466 Y13.1871
G01 X2.6311 Y13.1898
G01 X2.5340 Y13.2042
G01 X2.5184 Y13.2061
G01 X2.5028 Y13.2073
G01 X2.4047 Y13.2121
G01 X2.3890 Y13.2125
G01 X2.3733 Y13.2121
G01 X2.2752 Y13.2073
G01 X2.2596 Y13.2061
G01 X2.2440 Y13.2042
G01 X2.1469 Y13.1898
G01 X2.1314 Y13.1871
G01 X2.1161 Y13.1837
G01 X2.0208 Y13.1598
G01 X2.0057 Y13.1556
G01 X1.9908 Y13.1507
G01 X1.8983 Y13.1176
G01 X1.8837 Y13.1120
G01 X1.8693 Y13.1056
G01 X1.7805 Y13.0636
G01 X1.7665 Y13.0566
G01 X1.7529 Y13.0488
G01 X1.6686 Y12.9984
G01 X1.6554 Y12.9900
G01 X1.6425 Y12.9809
G01 X1.5637 Y12.9224
G01 X1.5513 Y12.9128
G01 X1.5394 Y12.9025
G01 X1.4666 Y12.8366
G01 X1.4553 Y12.8257
G01 X1.4444 Y12.8144
G01 X1.3785 Y12.7416
G01 X1.3682 Y12.7297
G01 X1.3586 Y12.7173
G01 X1.3001 Y12.6385
G01 X1.2910 Y12.6256
G01 X1.2826 Y12.6124
G01 X1.2322 Y12.5281
G01 X1.2244 Y12.5145
G01 X1.2174 Y12.5005
G01 X1.1754 Y12.4117
G01 X1.1690 Y12.3973
G01 X1.1634 Y12.3827
G01 X1.1303 Y12.2902
G01 X1.1254 Y12.2753
G01 X1.1212 Y12.2602
G01 X1.0973 Y12.1649
G01 X1.0939 Y12.1496
G01 X1.0912 Y12.1341
G01 X1.0768 Y12.0370
G01 X1.0749 Y12.0214
G01 X1.0737 Y12.0058
G01 X1.0686 Y11.8999
G01 X1.0685 Y5.4920
G01 X1.0689 Y5.4763
G01 X1.0737 Y5.3782
G01 X1.0749 Y5.3626
G01 X1.0768 Y5.3470
G01 X1.0912 Y5.2499
G01 X1.0939 Y5.2344
G01 X1.0973 Y5.2191
G01 X1.1212 Y5.1238
G01 X1.1254 Y5.1087
G01 X1.1303 Y5.0938
G01 X1.1634 Y5.0013
G01 X1.1690 Y4.9867
G01 X1.1754 Y4.9723
G01 X1.2174 Y4.8835
G01 X1.2244 Y4.8695
G01 X1.2322 Y4.8559
G01 X1.2826 Y4.7716
G01 X1.2910 Y4.7584
G01 X1.3001 Y4.7455
G01 X1.3586 Y4.6667
G01 X1.3682 Y4.6543
G01 X1.3785 Y4.6424
G01 X1.4498 Y4.5639
G01 X4.2859 Y1.7278
G01 X4.3644 Y1.6565
G01 X4.3763 Y1.6462
G01 X4.3887 Y1.6366
G01 X4.4675 Y1.5781
G01 X4.4804 Y1.5690
G01 X4.4936 Y1.5606
G01 X4.5779 Y1.5102
G01 X4.5915 Y1.5024
G01 X4.6055 Y1.4954
G01 X4.6943 Y1.4534
G01 X4.7087 Y1.4470
G01 X4.7233 Y1.4414
G01 X4.8158 Y1.4083
G01 X4.8307 Y1.4034
G01 X4.8458 Y1.3992
G01 X4.9411 Y1.3753
G01 X4.9564 Y1.3719
G01 X4.9719 Y1.3692
G01 X5.0690 Y1.3548
G01 X5.0846 Y1.3529
G01 X5.1002 Y1.3517
G01 X5.1983 Y1.3469
G01 X5.2140 Y1.3465
G01 X18.8430 Y1.3465
G01 X18.8587 Y1.3469
G01 X18.9568 Y1.3517
G01 X18.9724 Y1.3529
G01 X18.9880 Y1.3548
G01 X19.0851 Y1.3692
G01 X19.1006 Y1.3719
G01 X19.1159 Y1.3753
G01 X19.2112 Y1.3992
G01 X19.2263 Y1.4034
G01 X19.2412 Y1.4083
G01 X19.3337 Y1.4414
G01 X19.3483 Y1.4470
G01 X19.3627 Y1.4534
G01 X19.4515 Y1.4954
G01 X19.4655 Y1.5024
G01 X19.4791 Y1.5102
G01 X19.5634 Y1.5606
G01 X19.5766 Y1.5690
G01 X19.5895 Y1.5781
G01 X19.6683 Y1.6366
G01 X19.6807 Y1.6462
G01 X19.6926 Y1.6565
G01 X19.7711 Y1.7278
G01 X22.6322 Y4.5889
G01 X22.7035 Y4.6674
G01 X22.7138 Y4.6793
G01 X22.7234 Y4.6917
G01 X22.7819 Y4.7705
G01 X22.7910 Y4.7834
G01 X22.7994 Y4.7966
G01 X22.8498 Y4.8809
G01 X22.8576 Y4.8945
G01 X22.8646 Y4.9085
G01 X22.9066 Y4.9973
G01 X22.9130 Y5.0117
G01 X22.9186 Y5.0263
G01 X22.9517 Y5.1188
G01 X22.9566 Y5.1337
G01 X22.9608 Y5.1488
G01 X22.9847 Y5.2441
G01 X22.9881 Y5.2594
G01 X22.9908 Y5.2749
G01 X23.0052 Y5.3720
G01 X23.0071 Y5.3876
G01 X23.0083 Y5.4032
G01 X23.0131 Y5.5013
G01 X23.0135 Y5.5170
G01 X23.0131 Y5.5327
G01 X23.0083 Y5.6308
G01 X23.0071 Y5.6464
G01 X23.0052 Y5.6620
G01 X22.9908 Y5.7591
G01 X22.9881 Y5.7746
G01 X22.9847 Y5.7899
G01 X22.9608 Y5.8852
G01 X22.9566 Y5.9003
G01 X22.9517 Y5.9152
G01 X22.9186 Y6.0077
G01 X22.9130 Y6.0223
G01 X22.9066 Y6.0367
G01 X22.8646 Y6.1255
G01 X22.8576 Y6.1395
G01 X22.8498 Y6.1531
G01 X22.7994 Y6.2374
G01 X22.7910 Y6.2506
G01 X22.7819 Y6.2635
G01 X22.7234 Y6.3423
G01 X22.7138 Y6.3547
G01 X22.7035 Y6.3666
G01 X22.6376 Y6.4394
G01 X22.6267 Y6.4507
G01 X22.6154 Y6.4616
G01 X22.5426 Y6.5275
G01 X22.5307 Y6.5378
G01 X22.5183 Y6.5474
G01 X22.4395 Y6.6059
G01 X22.4266 Y6.6150
G01 X22.4134 Y6.6234
G01 X22.3291 Y6.6738
G01 X22.3155 Y6.6816
G01 X22.3015 Y6.6886
G01 X22.2127 Y6.7306
G01 X22.1983 Y6.7370
G01 X22.1837 Y6.7426
G01 X22.0912 Y6.7757
G01 X22.0763 Y6.7806
G01 X22.0612 Y6.7848
G01 X21.9659 Y6.8087
G01 X21.9506 Y6.8121
G01 X21.9351 Y6.8148
G01 X21.8380 Y6.8292
G01 X21.8224 Y6.8311
G01 X21.8068 Y6.8323
G01 X21.7087 Y6.8371
G01 X21.6930 Y6.8375
G01 X21.6773 Y6.8371
G01 X21.5714 Y6.8318
G01 X21.5480 Y6.8292
G01 X21.4509 Y6.8148
G01 X21.4354 Y6.8121
G01 X21.4201 Y6.8087
G01 X21.3248 Y6.7848
G01 X21.3097 Y6.7806
G01 X21.2948 Y6.7757
G01 X21.2023 Y6.7426
G01 X21.1877 Y6.7370
G01 X21.1733 Y6.7306
G01 X21.0845 Y6.6886
G01 X21.0705 Y6.6816
G01 X21.0569 Y6.6738
G01 X20.9726 Y6.6234
G01 X20.9594 Y6.6150
G01 X20.9465 Y6.6059
G01 X20.8677 Y6.5474
G01 X20.8493 Y6.5327
G01 X20.7706 Y6.4616
G01 X20.7593 Y6.4507
G01 X18.2960 Y3.9875
G01 X5.7610 Y3.9875
G01 X3.7095 Y6.0390
G01 X3.7095 Y11.8920
G00 Z1.0000
G00 X3.8695 Y11.8920
G01 F30.00
G01 Z-0.0800
G01 F100.00
G01 X3.8689 Y11.9156
G01 X3.8641 Y12.0136
G01 X3.8624 Y12.0371
G01 X3.8595 Y12.0605
G01 X3.8451 Y12.1576
G01 X3.8411 Y12.1808
G01 X3.8359 Y12.2038
G01 X3.8120 Y12.2991
G01 X3.8058 Y12.3218
G01 X3.7984 Y12.3441
G01 X3.7653 Y12.4366
G01 X3.7568 Y12.4586
G01 X3.7473 Y12.4801
G01 X3.7001 Y12.5794
G01 X3.6947 Y12.5899
G01 X3.6831 Y12.6104
G01 X3.6326 Y12.6946
G01 X3.6200 Y12.7145
G01 X3.6064 Y12.7338
G01 X3.5479 Y12.8126
G01 X3.5334 Y12.8312
G01 X3.5181 Y12.8491
G01 X3.4521 Y12.9218
G01 X3.4359 Y12.9389
G01 X3.4188 Y12.9551
G01 X3.3461 Y13.0211
G01 X3.3282 Y13.0364
G01 X3.3096 Y13.0509
G01 X3.2308 Y13.1094
G01 X3.2115 Y13.1230
G01 X3.1916 Y13.1356
G01 X3.1074 Y13.1861
G01 X3.0869 Y13.1977
G01 X3.0659 Y13.2083
G01 X2.9664 Y13.2552
G01 X2.9446 Y13.2642
G01 X2.9336 Y13.2683
G01 X2.8411 Y13.3014
G01 X2.8188 Y13.3088
G01 X2.7961 Y13.3150
G01 X2.7008 Y13.3389
G01 X2.6778 Y13.3441
G01 X2.6546 Y13.3481
G01 X2.5575 Y13.3625
G01 X2.5341 Y13.3654
G01 X2.5106 Y13.3671
G01 X2.4126 Y13.3719
G01 X2.3890 Y13.3725
G01 X2.3654 Y13.3719
G01 X2.2674 Y13.3671
G01 X2.2439 Y13.3654
G01 X2.2205 Y13.3625
G01 X2.1234 Y13.3481
G01 X2.1002 Y13.3441
G01 X2.0772 Y13.3389
G01 X1.9705 Y13.3120
G01 X1.9480 Y13.3052
G01 X1.9369 Y13.3014
G01 X1.8444 Y13.2683
G01 X1.8224 Y13.2598
G01 X1.8009 Y13.2503
G01 X1.7121 Y13.2083
G01 X1.6911 Y13.1977
G01 X1.6706 Y13.1861
G01 X1.5864 Y13.1356
G01 X1.5665 Y13.1230
G01 X1.5472 Y13.1094
G01 X1.4684 Y13.0509
G01 X1.4498 Y13.0364
G01 X1.4319 Y13.0211
G01 X1.3506 Y12.9471
G01 X1.3421 Y12.9389
G01 X1.3259 Y12.9218
G01 X1.2599 Y12.8491
G01 X1.2446 Y12.8312
G01 X1.2301 Y12.8126
G01 X1.1716 Y12.7338
G01 X1.1580 Y12.7145
G01 X1.1454 Y12.6946
G01 X1.0949 Y12.6104
G01 X1.0833 Y12.5899
G01 X1.0727 Y12.5689
G01 X1.0258 Y12.4694
G01 X1.0212 Y12.4586
G01 X1.0127 Y12.4366
G01 X0.9796 Y12.3441
G01 X0.9722 Y12.3218
G01 X0.9660 Y12.2991
G01 X0.9421 Y12.2038
G01 X0.9369 Y12.1808
G01 X0.9329 Y12.1576
G01 X0.9185 Y12.0605
G01 X0.9156 Y12.0371
G01 X0.9139 Y12.0136
G01 X0.9086 Y11.9038
G01 X0.9085 Y5.4920
G01 X0.9091 Y5.4684
G01 X0.9146 Y5.3586
G01 X0.9156 Y5.3469
G01 X0.9185 Y5.3235
G01 X0.9329 Y5.2264
G01 X0.9369 Y5.2032
G01 X0.9421 Y5.1802
G01 X0.9660 Y5.0849
G01 X0.9690 Y5.0735
G01 X0.9758 Y5.0510
G01 X1.0127 Y4.9474
G01 X1.0212 Y4.9254
G01 X1.0307 Y4.9039
G01 X1.0727 Y4.8151
G01 X1.0833 Y4.7941
G01 X1.0949 Y4.7736
G01 X1.1454 Y4.6894
G01 X1.1580 Y4.6695
G01 X1.1716 Y4.6502
G01 X1.2301 Y4.5714
G01 X1.2446 Y4.5528
G01 X1.2599 Y4.5349
G01 X1.3339 Y4.4536
G01 X4.1756 Y1.6119
G01 X4.2569 Y1.5379
G01 X4.2748 Y1.5226
G01 X4.2840 Y1.5152
G01 X4.3818 Y1.4427
G01 X4.4014 Y1.4296
G01 X4.4114 Y1.4234
G01 X4.5058 Y1.3670
G01 X4.5161 Y1.3613
G01 X4.5371 Y1.3507
G01 X4.6259 Y1.3087
G01 X4.6474 Y1.2992
G01 X4.6694 Y1.2907
G01 X4.7619 Y1.2576
G01 X4.7842 Y1.2502
G01 X4.8069 Y1.2440
G01 X4.9136 Y1.2174
G01 X4.9252 Y1.2149
G01 X4.9484 Y1.2109
G01 X5.0455 Y1.1965
G01 X5.0689 Y1.1936
G01 X5.0924 Y1.1919
G01 X5.1904 Y1.1871
G01 X5.2140 Y1.1865
G01 X18.8430 Y1.1865
G01 X18.8666 Y1.1871
G01 X18.9646 Y1.1919
G01 X18.9881 Y1.1936
G01 X19.0115 Y1.1965
G01 X19.1086 Y1.2109
G01 X19.1318 Y1.2149
G01 X19.1548 Y1.2201
G01 X19.2501 Y1.2440
G01 X19.2728 Y1.2502
G01 X19.2951 Y1.2576
G01 X19.3876 Y1.2907
G01 X19.4096 Y1.2992
G01 X19.4311 Y1.3087
G01 X19.5199 Y1.3507
G01 X19.5409 Y1.3613
G01 X19.5614 Y1.3729
G01 X19.6456 Y1.4234
G01 X19.6655 Y1.4360
G01 X19.6848 Y1.4496
G01 X19.7636 Y1.5081
G01 X19.7822 Y1.5226
G01 X19.8001 Y1.5379
G01 X19.8814 Y1.6119
G01 X22.7481 Y4.4786
G01 X22.8221 Y4.5599
G01 X22.8374 Y4.5778
G01 X22.8448 Y4.5870
G01 X22.9173 Y4.6848
G01 X22.9304 Y4.7044
G01 X22.9366 Y4.7144
G01 X22.9930 Y4.8088
G01 X23.0041 Y4.8296
G01 X23.0093 Y4.8401
G01 X23.0513 Y4.9289
G01 X23.0608 Y4.9504
G01 X23.0693 Y4.9724
G01 X23.1024 Y5.0649
G01 X23.1098 Y5.0872
G01 X23.1160 Y5.1099
G01 X23.1399 Y5.2052
G01 X23.1451 Y5.2282
G01 X23.1491 Y5.2514
G01 X23.1635 Y5.3485
G01 X23.1664 Y5.3719
G01 X23.1681 Y5.3954
G01 X23.1729 Y5.4934
G01 X23.1735 Y5.5170
G01 X23.1729 Y5.5406
G01 X23.1681 Y5.6386
G01 X23.1664 Y5.6621
G01 X23.1635 Y5.6855
G01 X23.1491 Y5.7826
G01 X23.1451 Y5.8058
G01 X23.1399 Y5.8288
G01 X23.1160 Y5.9241
G01 X23.1098 Y5.9468
G01 X23.1024 Y5.9691
G01 X23.0693 Y6.0616
G01 X23.0608 Y6.0836
G01 X23.0513 Y6.1051
G01 X23.0093 Y6.1939
G01 X22.9987 Y6.2149
G01 X22.9871 Y6.2354
G01 X22.9366 Y6.3196
G01 X22.9240 Y6.3395
G01 X22.9104 Y6.3588
G01 X22.8519 Y6.4376
G01 X22.8448 Y6.4470
G01 X22.8299 Y6.4652
G01 X22.7561 Y6.5468
G01 X22.7399 Y6.5639
G01 X22.7228 Y6.5801
G01 X22.6501 Y6.6461
G01 X22.6322 Y6.6614
G01 X22.6230 Y6.6688
G01 X22.5252 Y6.7413
G01 X22.5155 Y6.7480
G01 X22.4956 Y6.7606
G01 X22.4114 Y6.8111
G01 X22.3909 Y6.8227
G01 X22.3699 Y6.8333
G01 X22.2811 Y6.8753
G01 X22.2596 Y6.8848
G01 X22.2376 Y6.8933
G01 X22.1451 Y6.9264
G01 X22.1228 Y6.9338
G01 X22.1001 Y6.9400
G01 X22.0048 Y6.9639
G01 X21.9818 Y6.9691
G01 X21.9586 Y6.9731
G01 X21.8615 Y6.9875
G01 X21.8381 Y6.9904
G01 X21.8146 Y6.9921
G01 X21.7166 Y6.9969
G01 X21.6930 Y6.9975
G01 X21.6694 Y6.9969
G01 X21.5714 Y6.9921
G01 X21.5479 Y6.9904
G01 X21.5245 Y6.9875
G01 X21.4274 Y6.9731
G01 X21.4042 Y6.9691
G01 X21.3812 Y6.9639
G01 X21.2859 Y6.9400
G01 X21.2632 Y6.9338
G01 X21.2409 Y6.9264
G01 X21.1484 Y6.8933
G01 X21.1264 Y6.8848
G01 X21.1049 Y6.8753
G01 X21.0161 Y6.8333
G01 X20.9951 Y6.8227
G01 X20.9746 Y6.8111
G01 X20.8904 Y6.7606
G01 X20.8705 Y6.7480
G01 X20.8512 Y6.7344
G01 X20.7724 Y6.6759
G01 X20.7630 Y6.6688
G01 X20.7448 Y6.6539
G01 X20.6632 Y6.5801
G01 X20.6461 Y6.5639
G01 X18.2298 Y4.1475
G01 X17.3793 Y4.1475
G01 X17.4051 Y4.1587
G01 X17.4939 Y4.2007
G01 X17.5149 Y4.2113
G01 X17.5354 Y4.2229
G01 X17.6196 Y4.2734
G01 X17.6395 Y4.2860
G01 X17.6588 Y4.2996
G01 X17.7376 Y4.3581
G01 X17.7562 Y4.3726
G01 X17.7741 Y4.3879
G01 X17.8554 Y4.4619
G01 X20.6302 Y7.2365
G01 X21.6930 Y7.2365
G01 X21.7166 Y7.2371
G01 X21.8146 Y7.2419
G01 X21.8381 Y7.2436
G01 X21.8615 Y7.2465
G01 X21.9586 Y7.2609
G01 X21.9818 Y7.2649
G01 X22.0048 Y7.2701
G01 X22.1001 Y7.2940
G01 X22.1228 Y7.3002
G01 X22.1340 Y7.3038
G01 X22.2376 Y7.3407
G01 X22.2596 Y7.3492
G01 X22.2811 Y7.3587
G01 X22.3699 Y7.4007
G01 X22.3909 Y7.4113
G01 X22.4114 Y7.4229
G01 X22.4956 Y7.4734
G01 X22.5155 Y7.4860
G01 X22.5348 Y7.4996
G01 X22.6136 Y7.5581
G01 X22.6322 Y7.5726
G01 X22.6501 Y7.5879
G01 X22.7228 Y7.6539
G01 X22.7399 Y7.6701
G01 X22.7561 Y7.6872
G01 X22.8221 Y7.7599
G01 X22.8374 Y7.7778
G01 X22.8519 Y7.7964
G01 X22.9104 Y7.8752
G01 X22.9240 Y7.8945
G01 X22.9366 Y7.9144
G01 X22.9871 Y7.9986
G01 X22.9987 Y8.0191
G01 X23.0093 Y8.0401
G01 X23.0513 Y8.1289
G01 X23.0608 Y8.1504
G01 X23.0693 Y8.1724
G01 X23.1024 Y8.2649
G01 X23.1098 Y8.2872
G01 X23.1160 Y8.3099
G01 X23.1399 Y8.4052
G01 X23.1451 Y8.4282
G01 X23.1491 Y8.4514
G01 X23.1635 Y8.5485
G01 X23.1664 Y8.5719
G01 X23.1674 Y8.5836
G01 X23.1734 Y8.7052
G01 X23.1735 Y11.9170
G01 X23.1729 Y11.9406
G01 X23.1681 Y12.0386
G01 X23.1664 Y12.0621
G01 X23.1635 Y12.0855
G01 X23.1491 Y12.1826
G01 X23.1451 Y12.2058
G01 X23.1399 Y12.2288
G01 X23.1160 Y12.3241
G01 X23.1098 Y12.3468
G01 X23.1024 Y12.3691
G01 X23.0693 Y12.4616
G01 X23.0608 Y12.4836
G01 X23.0513 Y12.5051
G01 X23.0093 Y12.5939
G01 X22.9987 Y12.6149
G01 X22.9871 Y12.6354
G01 X22.9366 Y12.7196
G01 X22.9240 Y12.7395
G01 X22.9104 Y12.7588
G01 X22.8519 Y12.8376
G01 X22.8374 Y12.8562
G01 X22.8299 Y12.8652
G01 X22.7561 Y12.9468
G01 X22.7399 Y12.9639
G01 X22.7228 Y12.9801
G01 X22.6501 Y13.0461
G01 X22.6322 Y13.0614
G01 X22.6136 Y13.0759
G01 X22.5348 Y13.1344
G01 X22.5155 Y13.1480
G01 X22.4956 Y13.1606
G01 X22.4114 Y13.2111
G01 X22.3909 Y13.2227
G01 X22.3699 Y13.2333
G01 X22.2811 Y13.2753
G01 X22.2596 Y13.2848
G01 X22.2376 Y13.2933
G01 X22.1451 Y13.3264
G01 X22.1228 Y13.3338
G01 X22.1001 Y13.3400
G01 X22.0048 Y13.3639
G01 X21.9818 Y13.3691
G01 X21.9586 Y13.3731
G01 X21.8615 Y13.3875
G01 X21.8381 Y13.3904
G01 X21.8146 Y13.3921
G01 X21.7166 Y13.3969
G01 X21.6930 Y13.3975
G01 X21.6694 Y13.3969
G01 X21.5596 Y13.3914
G01 X21.5362 Y13.3891
G01 X21.5245 Y13.3875
G01 X21.4274 Y13.3731
G01 X21.4042 Y13.3691
G01 X21.3812 Y13.3639
G01 X21.2859 Y13.3400
G01 X21.2632 Y13.3338
G01 X21.2409 Y13.3264
G01 X21.1484 Y13.2933
G01 X21.1264 Y13.2848
G01 X21.1049 Y13.2753
G01 X21.0161 Y13.2333
G01 X20.9951 Y13.2227
G01 X20.9746 Y13.2111
G01 X20.8904 Y13.1606
G01 X20.8705 Y13.1480
G01 X20.8512 Y13.1344
G01 X20.7724 Y13.0759
G01 X20.7538 Y13.0614
G01 X20.7359 Y13.0461
G01 X20.6632 Y12.9801
G01 X20.6461 Y12.9639
G01 X20.6379 Y12.9554
G01 X20.5639 Y12.8741
G01 X20.5486 Y12.8562
G01 X20.5341 Y12.8376
G01 X20.4756 Y12.7588
G01 X20.4620 Y12.7395
G01 X20.4494 Y12.7196
G01 X20.3989 Y12.6354
G01 X20.3873 Y12.6149
G01 X20.3767 Y12.5939
G01 X20.3347 Y12.5051
G01 X20.3252 Y12.4836
G01 X20.3167 Y12.4616
G01 X20.2836 Y12.3691
G01 X20.2762 Y12.3468
G01 X20.2700 Y12.3241
G01 X20.2434 Y12.2174
G01 X20.2388 Y12.1942
G01 X20.2369 Y12.1826
G01 X20.2225 Y12.0855
G01 X20.2196 Y12.0621
G01 X20.2179 Y12.0386
G01 X20.2126 Y11.9288
G01 X20.2125 Y10.1975
G01 X20.0052 Y10.1974
G01 X19.8954 Y10.1921
G01 X19.8719 Y10.1904
G01 X19.8485 Y10.1875
G01 X19.7514 Y10.1731
G01 X19.7282 Y10.1691
G01 X19.7052 Y10.1639
G01 X19.6099 Y10.1400
G01 X19.5872 Y10.1338
G01 X19.5649 Y10.1264
G01 X19.4724 Y10.0933
G01 X19.4504 Y10.0848
G01 X19.4289 Y10.0753
G01 X19.3401 Y10.0333
G01 X19.3191 Y10.0227
G01 X19.2986 Y10.0111
G01 X19.2144 Y9.9606
G01 X19.1945 Y9.9480
G01 X19.1752 Y9.9344
G01 X19.0870 Y9.8688
G01 X19.0778 Y9.8614
G01 X19.0599 Y9.8461
G01 X18.9872 Y9.7801
G01 X18.9701 Y9.7639
G01 X16.2038 Y6.9975
G01 X14.0730 Y6.9975
G01 X14.0494 Y6.9969
G01 X13.9514 Y6.9921
G01 X13.9279 Y6.9904
G01 X13.9045 Y6.9875
G01 X13.8038 Y6.9725
G01 X10.0090 Y6.9725
G01 X9.9854 Y6.9719
G01 X9.8874 Y6.9671
G01 X9.8639 Y6.9654
G01 X9.8405 Y6.9625
G01 X9.7434 Y6.9481
G01 X9.7202 Y6.9441
G01 X9.6972 Y6.9389
G01 X9.6019 Y6.9150
G01 X9.5792 Y6.9088
G01 X9.5569 Y6.9014
G01 X9.4644 Y6.8683
G01 X9.4424 Y6.8598
G01 X9.4209 Y6.8503
G01 X9.3321 Y6.8083
G01 X9.3111 Y6.7977
G01 X9.2906 Y6.7861
G01 X9.2064 Y6.7356
G01 X9.1964 Y6.7294
G01 X9.1768 Y6.7163
G01 X9.0790 Y6.6438
G01 X9.0698 Y6.6364
G01 X9.0519 Y6.6211
G01 X8.9792 Y6.5551
G01 X8.9621 Y6.5389
G01 X8.9459 Y6.5218
G01 X8.8721 Y6.4402
G01 X8.8646 Y6.4312
G01 X8.8501 Y6.4126
G01 X8.7916 Y6.3338
G01 X8.7780 Y6.3145
G01 X8.7654 Y6.2946
G01 X8.7149 Y6.2104
G01 X8.7033 Y6.1899
G01 X8.6927 Y6.1689
G01 X8.6507 Y6.0801
G01 X8.6412 Y6.0586
G01 X8.6327 Y6.0366
G01 X8.5996 Y5.9441
G01 X8.5922 Y5.9218
G01 X8.5860 Y5.8991
G01 X8.5621 Y5.8038
G01 X8.5569 Y5.7808
G01 X8.5529 Y5.7576
G01 X8.5385 Y5.6605
G01 X8.5356 Y5.6371
G01 X8.5339 Y5.6136
G01 X8.5291 Y5.5156
G01 X8.5285 Y5.4920
G01 X8.5291 Y5.4684
G01 X8.5346 Y5.3586
G01 X8.5356 Y5.3469
G01 X8.5385 Y5.3235
G01 X8.5529 Y5.2264
G01 X8.5569 Y5.2032
G01 X8.5621 Y5.1802
G01 X8.5860 Y5.0849
G01 X8.5922 Y5.0622
G01 X8.5996 Y5.0399
G01 X8.6327 Y4.9474
G01 X8.6412 Y4.9254
G01 X8.6507 Y4.9039
G01 X8.6927 Y4.8151
G01 X8.7033 Y4.7941
G01 X8.7149 Y4.7736
G01 X8.7654 Y4.6894
G01 X8.7780 Y4.6695
G01 X8.7847 Y4.6598
G01 X8.8572 Y4.5620
G01 X8.8721 Y4.5438
G01 X8.8799 Y4.5349
G01 X8.9459 Y4.4622
G01 X8.9621 Y4.4451
G01 X8.9792 Y4.4289
G01 X9.0608 Y4.3551
G01 X9.0790 Y4.3402
G01 X9.0884 Y4.3331
G01 X9.1672 Y4.2746
G01 X9.1865 Y4.2610
G01 X9.1964 Y4.2546
G01 X9.2906 Y4.1979
G01 X9.3111 Y4.1863
G01 X9.3321 Y4.1757
G01 X9.3918 Y4.1475
G01 X5.8272 Y4.1475
G01 X3.8695 Y6.1052
G01 X3.8695 Y11.8920
G00 Z1.0000
G00 X4.0295 Y11.8920
G01 F30.00
G01 Z-0.0800
G01 F100.00
G01 X4.0295 Y6.1715
G01 X5.8935 Y4.3075
G01 X8.8749 Y4.3075
G01 X8.8602 Y4.3210
G01 X8.8380 Y4.3432
G01 X8.7614 Y4.4275
G01 X8.7409 Y4.4513
G01 X8.7216 Y4.4760
G01 X8.6631 Y4.5549
G01 X8.6450 Y4.5806
G01 X8.6282 Y4.6071
G01 X8.5777 Y4.6913
G01 X8.5622 Y4.7187
G01 X8.5481 Y4.7467
G01 X8.4996 Y4.8498
G01 X8.4934 Y4.8642
G01 X8.4821 Y4.8935
G01 X8.4490 Y4.9860
G01 X8.4391 Y5.0158
G01 X8.4348 Y5.0309
G01 X8.4069 Y5.1413
G01 X8.4000 Y5.1720
G01 X8.3947 Y5.2029
G01 X8.3802 Y5.3000
G01 X8.3764 Y5.3312
G01 X8.3741 Y5.3625
G01 X8.3693 Y5.4606
G01 X8.3685 Y5.4920
G01 X8.3693 Y5.5234
G01 X8.3741 Y5.6215
G01 X8.3764 Y5.6528
G01 X8.3802 Y5.6840
G01 X8.3947 Y5.7811
G01 X8.4000 Y5.8120
G01 X8.4069 Y5.8427
G01 X8.4348 Y5.9531
G01 X8.4439 Y5.9832
G01 X8.4490 Y5.9980
G01 X8.4821 Y6.0905
G01 X8.4934 Y6.1198
G01 X8.5061 Y6.1485
G01 X8.5481 Y6.2373
G01 X8.5622 Y6.2653
G01 X8.5777 Y6.2927
G01 X8.6282 Y6.3769
G01 X8.6450 Y6.4034
G01 X8.6631 Y6.4291
G01 X8.7311 Y6.5205
G01 X8.7409 Y6.5327
G01 X8.7614 Y6.5565
G01 X8.8273 Y6.6293
G01 X8.8380 Y6.6408
G01 X8.8602 Y6.6630
G01 X8.9445 Y6.7396
G01 X8.9683 Y6.7601
G01 X8.9930 Y6.7794
G01 X9.0719 Y6.8379
G01 X9.0976 Y6.8560
G01 X9.1241 Y6.8728
G01 X9.2083 Y6.9233
G01 X9.2357 Y6.9388
G01 X9.2637 Y6.9529
G01 X9.3525 Y6.9949
G01 X9.3812 Y7.0076
G01 X9.4105 Y7.0189
G01 X9.5030 Y7.0520
G01 X9.5328 Y7.0619
G01 X9.5631 Y7.0702
G01 X9.6499 Y7.0920
G01 X9.5631 Y7.1138
G01 X9.5328 Y7.1221
G01 X9.5030 Y7.1320
G01 X9.4105 Y7.1651
G01 X9.3812 Y7.1764
G01 X9.3525 Y7.1891
G01 X9.2637 Y7.2311
G01 X9.2357 Y7.2452
G01 X9.2083 Y7.2607
G01 X9.1241 Y7.3112
G01 X9.0976 Y7.3280
G01 X9.0719 Y7.3461
G01 X8.9805 Y7.4141
G01 X8.9563 Y7.4340
G01 X8.9445 Y7.4444
G01 X8.8717 Y7.5103
G01 X8.8490 Y7.5320
G01 X8.8273 Y7.5547
G01 X8.7614 Y7.6275
G01 X8.7409 Y7.6513
G01 X8.7216 Y7.6760
G01 X8.6631 Y7.7549
G01 X8.6450 Y7.7806
G01 X8.6282 Y7.8071
G01 X8.5777 Y7.8913
G01 X8.5698 Y7.9049
G01 X8.5550 Y7.9326
G01 X8.5061 Y8.0355
G01 X8.4934 Y8.0642
G01 X8.4821 Y8.0935
G01 X8.4490 Y8.1860
G01 X8.4391 Y8.2158
G01 X8.4308 Y8.2461
G01 X8.4069 Y8.3413
G01 X8.4000 Y8.3720
G01 X8.3947 Y8.4029
G01 X8.3802 Y8.5000
G01 X8.3764 Y8.5312
G01 X8.3741 Y8.5625
G01 X8.3693 Y8.6606
G01 X8.3685 Y8.6920
G01 X8.3685 Y18.2420
G01 X8.3693 Y18.2734
G01 X8.3751 Y18.3871
G01 X8.3781 Y18.4184
G01 X8.3802 Y18.4340
G01 X8.3947 Y18.5311
G01 X8.4000 Y18.5620
G01 X8.4069 Y18.5927
G01 X8.4308 Y18.6879
G01 X8.4391 Y18.7182
G01 X8.4490 Y18.7480
G01 X8.4821 Y18.8405
G01 X8.4934 Y18.8698
G01 X8.5061 Y18.8985
G01 X8.5481 Y18.9873
G01 X8.5550 Y19.0014
G01 X8.5698 Y19.0291
G01 X8.6282 Y19.1269
G01 X8.6364 Y19.1402
G01 X8.6539 Y19.1664
G01 X8.7311 Y19.2705
G01 X8.7510 Y19.2947
G01 X8.7614 Y19.3065
G01 X8.8273 Y19.3793
G01 X8.8490 Y19.4020
G01 X8.8717 Y19.4237
G01 X8.9445 Y19.4896
G01 X8.9563 Y19.5000
G01 X8.9805 Y19.5199
G01 X9.0719 Y19.5879
G01 X9.0976 Y19.6060
G01 X9.1241 Y19.6228
G01 X9.2083 Y19.6733
G01 X9.2357 Y19.6888
G01 X9.2637 Y19.7029
G01 X9.3525 Y19.7449
G01 X9.3812 Y19.7576
G01 X9.4105 Y19.7689
G01 X9.5030 Y19.8020
G01 X9.5328 Y19.8119
G01 X9.5631 Y19.8202
G01 X9.6583 Y19.8441
G01 X9.6890 Y19.8510
G01 X9.7199 Y19.8563
G01 X9.8170 Y19.8708
G01 X9.8482 Y19.8746
G01 X9.8795 Y19.8769
G01 X9.9776 Y19.8817
G01 X10.0090 Y19.8825
G01 X10.0404 Y19.8817
G01 X10.1385 Y19.8769
G01 X10.1698 Y19.8746
G01 X10.2010 Y19.8708
G01 X10.2981 Y19.8563
G01 X10.3290 Y19.8510
G01 X10.3597 Y19.8441
G01 X10.4549 Y19.8202
G01 X10.4852 Y19.8119
G01 X10.5150 Y19.8020
G01 X10.6075 Y19.7689
G01 X10.6368 Y19.7576
G01 X10.6512 Y19.7514
G01 X10.7543 Y19.7029
G01 X10.7823 Y19.6888
G01 X10.8097 Y19.6733
G01 X10.8939 Y19.6228
G01 X10.9204 Y19.6060
G01 X10.9461 Y19.5879
G01 X11.0250 Y19.5294
G01 X11.0497 Y19.5101
G01 X11.0735 Y19.4896
G01 X11.1463 Y19.4237
G01 X11.1690 Y19.4020
G01 X11.1907 Y19.3793
G01 X11.2566 Y19.3065
G01 X11.2771 Y19.2827
G01 X11.2964 Y19.2580
G01 X11.3549 Y19.1791
G01 X11.3730 Y19.1534
G01 X11.3898 Y19.1269
G01 X11.4403 Y19.0427
G01 X11.4558 Y19.0153
G01 X11.4699 Y18.9873
G01 X11.5119 Y18.8985
G01 X11.5246 Y18.8698
G01 X11.5305 Y18.8552
G01 X11.5690 Y18.7480
G01 X11.5789 Y18.7182
G01 X11.5872 Y18.6879
G01 X11.6111 Y18.5927
G01 X11.6180 Y18.5620
G01 X11.6209 Y18.5466
G01 X11.6399 Y18.4184
G01 X11.6429 Y18.3871
G01 X11.6439 Y18.3715
G01 X11.6487 Y18.2734
G01 X11.6495 Y18.2420
G01 X11.6495 Y8.6920
G01 X11.6487 Y8.6606
G01 X11.6439 Y8.5625
G01 X11.6416 Y8.5312
G01 X11.6378 Y8.5000
G01 X11.6233 Y8.4029
G01 X11.6180 Y8.3720
G01 X11.6111 Y8.3413
G01 X11.5872 Y8.2461
G01 X11.5789 Y8.2158
G01 X11.5690 Y8.1860
G01 X11.5359 Y8.0935
G01 X11.5246 Y8.0642
G01 X11.5119 Y8.0355
G01 X11.4699 Y7.9467
G01 X11.4558 Y7.9187
G01 X11.4403 Y7.8913
G01 X11.3898 Y7.8071
G01 X11.3730 Y7.7806
G01 X11.3549 Y7.7549
G01 X11.2964 Y7.6760
G01 X11.2771 Y7.6513
G01 X11.2566 Y7.6275
G01 X11.1907 Y7.5547
G01 X11.1690 Y7.5320
G01 X11.1463 Y7.5103
G01 X11.0735 Y7.4444
G01 X11.0497 Y7.4239
G01 X11.0250 Y7.4046
G01 X10.9461 Y7.3461
G01 X10.9204 Y7.3280
G01 X10.8939 Y7.3112
G01 X10.8097 Y7.2607
G01 X10.7823 Y7.2452
G01 X10.7543 Y7.2311
G01 X10.6655 Y7.1891
G01 X10.6368 Y7.1764
G01 X10.6075 Y7.1651
G01 X10.5165 Y7.1325
G01 X13.6521 Y7.1325
G01 X13.6119 Y7.1428
G01 X13.5818 Y7.1519
G01 X13.4745 Y7.1901
G01 X13.4452 Y7.2014
G01 X13.4308 Y7.2076
G01 X13.3277 Y7.2561
G01 X13.2997 Y7.2702
G01 X13.2723 Y7.2857
G01 X13.1748 Y7.3444
G01 X13.1486 Y7.3619
G01 X13.1359 Y7.3711
G01 X13.0570 Y7.4296
G01 X13.0323 Y7.4489
G01 X13.0085 Y7.4694
G01 X12.9357 Y7.5353
G01 X12.9130 Y7.5570
G01 X12.9020 Y7.5682
G01 X12.8254 Y7.6525
G01 X12.8049 Y7.6763
G01 X12.7951 Y7.6885
G01 X12.7271 Y7.7799
G01 X12.7090 Y7.8056
G01 X12.6922 Y7.8321
G01 X12.6417 Y7.9163
G01 X12.6262 Y7.9437
G01 X12.6121 Y7.9717
G01 X12.5701 Y8.0605
G01 X12.5574 Y8.0892
G01 X12.5461 Y8.1185
G01 X12.5130 Y8.2110
G01 X12.5031 Y8.2408
G01 X12.4948 Y8.2711
G01 X12.4709 Y8.3663
G01 X12.4673 Y8.3816
G01 X12.4611 Y8.4124
G01 X12.4442 Y8.5250
G01 X12.4404 Y8.5562
G01 X12.4381 Y8.5875
G01 X12.4327 Y8.7013
G01 X12.4325 Y18.2670
G01 X12.4333 Y18.2984
G01 X12.4391 Y18.4121
G01 X12.4421 Y18.4434
G01 X12.4442 Y18.4590
G01 X12.4587 Y18.5561
G01 X12.4640 Y18.5870
G01 X12.4709 Y18.6177
G01 X12.4948 Y18.7129
G01 X12.5031 Y18.7432
G01 X12.5130 Y18.7730
G01 X12.5461 Y18.8655
G01 X12.5574 Y18.8948
G01 X12.5701 Y18.9235
G01 X12.6121 Y19.0123
G01 X12.6190 Y19.0264
G01 X12.6338 Y19.0541
G01 X12.7004 Y19.1652
G01 X12.7090 Y19.1784
G01 X12.7271 Y19.2041
G01 X12.7856 Y19.2830
G01 X12.8049 Y19.3077
G01 X12.8254 Y19.3315
G01 X12.8913 Y19.4043
G01 X12.9130 Y19.4270
G01 X12.9242 Y19.4380
G01 X13.0203 Y19.5250
G01 X13.0323 Y19.5351
G01 X13.0570 Y19.5544
G01 X13.1359 Y19.6129
G01 X13.1616 Y19.6310
G01 X13.1881 Y19.6478
G01 X13.2723 Y19.6983
G01 X13.2997 Y19.7138
G01 X13.3277 Y19.7279
G01 X13.4165 Y19.7699
G01 X13.4452 Y19.7826
G01 X13.4745 Y19.7939
G01 X13.5670 Y19.8270
G01 X13.5968 Y19.8369
G01 X13.6271 Y19.8452
G01 X13.7223 Y19.8691
G01 X13.7530 Y19.8760
G01 X13.7839 Y19.8813
G01 X13.8810 Y19.8958
G01 X13.9122 Y19.8996
G01 X13.9435 Y19.9019
G01 X14.0416 Y19.9067
G01 X14.0730 Y19.9075
G01 X14.1044 Y19.9067
G01 X14.2025 Y19.9019
G01 X14.2338 Y19.8996
G01 X14.2650 Y19.8958
G01 X14.3621 Y19.8813
G01 X14.3930 Y19.8760
G01 X14.4237 Y19.8691
G01 X14.5189 Y19.8452
G01 X14.5492 Y19.8369
G01 X14.5790 Y19.8270
G01 X14.6715 Y19.7939
G01 X14.7008 Y19.7826
G01 X14.7295 Y19.7699
G01 X14.8183 Y19.7279
G01 X14.8463 Y19.7138
G01 X14.8737 Y19.6983
G01 X14.9579 Y19.6478
G01 X14.9844 Y19.6310
G01 X15.0101 Y19.6129
G01 X15.0890 Y19.5544
G01 X15.1137 Y19.5351
G01 X15.1375 Y19.5146
G01 X15.2103 Y19.4487
G01 X15.2330 Y19.4270
G01 X15.2547 Y19.4043
G01 X15.3206 Y19.3315
G01 X15.3411 Y19.3077
G01 X15.3604 Y19.2830
G01 X15.4189 Y19.2041
G01 X15.4370 Y19.1784
G01 X15.4538 Y19.1519
G01 X15.5043 Y19.0677
G01 X15.5198 Y19.0403
G01 X15.5339 Y19.0123
G01 X15.5759 Y18.9235
G01 X15.5886 Y18.8948
G01 X15.5999 Y18.8655
G01 X15.6330 Y18.7730
G01 X15.6429 Y18.7432
G01 X15.6512 Y18.7129
G01 X15.6751 Y18.6177
G01 X15.6820 Y18.5870
G01 X15.6873 Y18.5561
G01 X15.7018 Y18.4590
G01 X15.7056 Y18.4278
G01 X15.7079 Y18.3965
G01 X15.7127 Y18.2984
G01 X15.7135 Y18.2670
G01 X15.7135 Y8.7170
G01 X15.7127 Y8.6856
G01 X15.7079 Y8.5875
G01 X15.7056 Y8.5562
G01 X15.7018 Y8.5250
G01 X15.6873 Y8.4279
G01 X15.6820 Y8.3970
G01 X15.6751 Y8.3663
G01 X15.6512 Y8.2711
G01 X15.6429 Y8.2408
G01 X15.6330 Y8.2110
G01 X15.5999 Y8.1185
G01 X15.5886 Y8.0892
G01 X15.5759 Y8.0605
G01 X15.5339 Y7.9717
G01 X15.5198 Y7.9437
G01 X15.5043 Y7.9163
G01 X15.4538 Y7.8321
G01 X15.4370 Y7.8056
G01 X15.4189 Y7.7799
G01 X15.3604 Y7.7010
G01 X15.3411 Y7.6763
G01 X15.3206 Y7.6525
G01 X15.2547 Y7.5797
G01 X15.2330 Y7.5570
G01 X15.2103 Y7.5353
G01 X15.1375 Y7.4694
G01 X15.1137 Y7.4489
G01 X15.0890 Y7.4296
G01 X15.0101 Y7.3711
G01 X14.9844 Y7.3530
G01 X14.9579 Y7.3362
G01 X14.8737 Y7.2857
G01 X14.8463 Y7.2702
G01 X14.8183 Y7.2561
G01 X14.7295 Y7.2141
G01 X14.7008 Y7.2014
G01 X14.6715 Y7.1901
G01 X14.5805 Y7.1575
G01 X16.1375 Y7.1575
G01 X18.8570 Y9.8770
G01 X18.8797 Y9.8987
G01 X18.9525 Y9.9646
G01 X18.9763 Y9.9851
G01 X19.0010 Y10.0044
G01 X19.0799 Y10.0629
G01 X19.1056 Y10.0810
G01 X19.1321 Y10.0978
G01 X19.2163 Y10.1483
G01 X19.2437 Y10.1638
G01 X19.2717 Y10.1779
G01 X19.3605 Y10.2199
G01 X19.3892 Y10.2326
G01 X19.4185 Y10.2439
G01 X19.5110 Y10.2770
G01 X19.5408 Y10.2869
G01 X19.5559 Y10.2912
G01 X19.6663 Y10.3191
G01 X19.6970 Y10.3260
G01 X19.7279 Y10.3313
G01 X19.8250 Y10.3458
G01 X19.8562 Y10.3496
G01 X19.8719 Y10.3509
G01 X20.0013 Y10.3573
G01 X20.0525 Y10.3575
G01 X20.0525 Y11.9170
G01 X20.0533 Y11.9484
G01 X20.0581 Y12.0465
G01 X20.0604 Y12.0778
G01 X20.0642 Y12.1090
G01 X20.0811 Y12.2216
G01 X20.0840 Y12.2370
G01 X20.0909 Y12.2677
G01 X20.1148 Y12.3629
G01 X20.1231 Y12.3932
G01 X20.1330 Y12.4230
G01 X20.1661 Y12.5155
G01 X20.1774 Y12.5448
G01 X20.1901 Y12.5735
G01 X20.2321 Y12.6623
G01 X20.2462 Y12.6903
G01 X20.2617 Y12.7177
G01 X20.3122 Y12.8019
G01 X20.3290 Y12.8284
G01 X20.3471 Y12.8541
G01 X20.4056 Y12.9330
G01 X20.4249 Y12.9577
G01 X20.4454 Y12.9815
G01 X20.5113 Y13.0543
G01 X20.5330 Y13.0770
G01 X20.5557 Y13.0987
G01 X20.6285 Y13.1646
G01 X20.6523 Y13.1851
G01 X20.6770 Y13.2044
G01 X20.7559 Y13.2629
G01 X20.7816 Y13.2810
G01 X20.8081 Y13.2978
G01 X20.8923 Y13.3483
G01 X20.9197 Y13.3638
G01 X20.9477 Y13.3779
G01 X21.0508 Y13.4264
G01 X21.0798 Y13.4385
G01 X21.0945 Y13.4439
G01 X21.1870 Y13.4770
G01 X21.2168 Y13.4869
G01 X21.2471 Y13.4952
G01 X21.3339 Y13.5170
G01 X21.2471 Y13.5388
G01 X21.2168 Y13.5471
G01 X21.1870 Y13.5570
G01 X21.0945 Y13.5901
G01 X21.0652 Y13.6014
G01 X21.0365 Y13.6141
G01 X20.9477 Y13.6561
G01 X20.9197 Y13.6702
G01 X20.8923 Y13.6857
G01 X20.8081 Y13.7362
G01 X20.7816 Y13.7530
G01 X20.7559 Y13.7711
G01 X20.6770 Y13.8296
G01 X20.6523 Y13.8489
G01 X20.6285 Y13.8694
G01 X20.5557 Y13.9353
G01 X20.5330 Y13.9570
G01 X20.5113 Y13.9797
G01 X20.4454 Y14.0525
G01 X20.4249 Y14.0763
G01 X20.4056 Y14.1010
G01 X20.3471 Y14.1799
G01 X20.3290 Y14.2056
G01 X20.3122 Y14.2321
G01 X20.2617 Y14.3163
G01 X20.2462 Y14.3437
G01 X20.2321 Y14.3717
G01 X20.1901 Y14.4605
G01 X20.1774 Y14.4892
G01 X20.1661 Y14.5185
G01 X20.1330 Y14.6110
G01 X20.1231 Y14.6408
G01 X20.1148 Y14.6711
G01 X20.0909 Y14.7663
G01 X20.0840 Y14.7970
G01 X20.0787 Y14.8279
G01 X20.0642 Y14.9250
G01 X20.0604 Y14.9562
G01 X20.0581 Y14.9875
G01 X20.0527 Y15.1013
G01 X20.0525 Y17.5875
G01 X17.3430 Y20.2970
G01 X12.5370 Y20.2970
G01 X12.5056 Y20.2978
G01 X12.4743 Y20.3001
G01 X12.4431 Y20.3039
G01 X12.4121 Y20.3093
G01 X12.3815 Y20.3162
G01 X12.3512 Y20.3246
G01 X12.3214 Y20.3344
G01 X12.2921 Y20.3457
G01 X12.2776 Y20.3519
G01 X12.2492 Y20.3653
G01 X12.2215 Y20.3801
G01 X12.2080 Y20.3881
G01 X12.1814 Y20.4049
G01 X12.1558 Y20.4229
G01 X12.1310 Y20.4423
G01 X12.1072 Y20.4628
G01 X12.0845 Y20.4845
G01 X12.0628 Y20.5072
G01 X12.0524 Y20.5190
G01 X12.0370 Y20.5376
G01 X12.0216 Y20.5190
G01 X12.0112 Y20.5072
G01 X11.9895 Y20.4845
G01 X11.9668 Y20.4628
G01 X11.9430 Y20.4423
G01 X11.9182 Y20.4229
G01 X11.8926 Y20.4049
G01 X11.8794 Y20.3963
G01 X11.8525 Y20.3801
G01 X11.8248 Y20.3653
G01 X11.7964 Y20.3519
G01 X11.7673 Y20.3399
G01 X11.7378 Y20.3293
G01 X11.7077 Y20.3202
G01 X11.6772 Y20.3126
G01 X11.6464 Y20.3064
G01 X11.6309 Y20.3039
G01 X11.5997 Y20.3001
G01 X11.5684 Y20.2978
G01 X11.5370 Y20.2970
G01 X6.7640 Y20.2970
G01 X4.0295 Y17.5625
G01 X4.0293 Y15.0763
G01 X4.0239 Y14.9625
G01 X4.0216 Y14.9312
G01 X4.0178 Y14.9000
G01 X4.0033 Y14.8029
G01 X3.9980 Y14.7720
G01 X3.9911 Y14.7413
G01 X3.9672 Y14.6461
G01 X3.9589 Y14.6158
G01 X3.9490 Y14.5860
G01 X3.9159 Y14.4935
G01 X3.9046 Y14.4642
G01 X3.8919 Y14.4355
G01 X3.8499 Y14.3467
G01 X3.8358 Y14.3187
G01 X3.8203 Y14.2913
G01 X3.7698 Y14.2071
G01 X3.7530 Y14.1806
G01 X3.7349 Y14.1549
G01 X3.6764 Y14.0760
G01 X3.6571 Y14.0513
G01 X3.6366 Y14.0275
G01 X3.5707 Y13.9547
G01 X3.5490 Y13.9320
G01 X3.5263 Y13.9103
G01 X3.4535 Y13.8444
G01 X3.4297 Y13.8239
G01 X3.4050 Y13.8046
G01 X3.3261 Y13.7461
G01 X3.3004 Y13.7280
G01 X3.2739 Y13.7112
G01 X3.1897 Y13.6607
G01 X3.1623 Y13.6452
G01 X3.1343 Y13.6311
G01 X3.0455 Y13.5891
G01 X3.0168 Y13.5764
G01 X2.9875 Y13.5651
G01 X2.8950 Y13.5320
G01 X2.8652 Y13.5221
G01 X2.8349 Y13.5138
G01 X2.7481 Y13.4920
G01 X2.8349 Y13.4702
G01 X2.8652 Y13.4619
G01 X2.8950 Y13.4520
G01 X2.9875 Y13.4189
G01 X3.0168 Y13.4076
G01 X3.0455 Y13.3949
G01 X3.1343 Y13.3529
G01 X3.1623 Y13.3388
G01 X3.1897 Y13.3233
G01 X3.2739 Y13.2728
G01 X3.3004 Y13.2560
G01 X3.3261 Y13.2379
G01 X3.4175 Y13.1699
G01 X3.4297 Y13.1601
G01 X3.4535 Y13.1396
G01 X3.5263 Y13.0737
G01 X3.5490 Y13.0520
G01 X3.5707 Y13.0293
G01 X3.6366 Y12.9565
G01 X3.6571 Y12.9327
G01 X3.6764 Y12.9080
G01 X3.7349 Y12.8291
G01 X3.7530 Y12.8034
G01 X3.7698 Y12.7769
G01 X3.8203 Y12.6927
G01 X3.8282 Y12.6791
G01 X3.8430 Y12.6514
G01 X3.8919 Y12.5485
G01 X3.9046 Y12.5198
G01 X3.9159 Y12.4905
G01 X3.9490 Y12.3980
G01 X3.9589 Y12.3682
G01 X3.9672 Y12.3379
G01 X3.9911 Y12.2427
G01 X3.9980 Y12.2120
G01 X4.0033 Y12.1811
G01 X4.0178 Y12.0840
G01 X4.0216 Y12.0528
G01 X4.0239 Y12.0215
G01 X4.0287 Y11.9234
G01 X4.0295 Y11.8920
G00 Z1.0000
G00 X4.1895 Y11.8920
G01 F30.00
G01 Z-0.0800
G01 F100.00
G01 X4.1895 Y6.2378
G01 X5.9598 Y4.4675
G01 X8.5288 Y4.4675
G01 X8.5119 Y4.4917
G01 X8.4909 Y4.5249
G01 X8.4405 Y4.6091
G01 X8.4211 Y4.6433
G01 X8.4034 Y4.6783
G01 X8.3615 Y4.7671
G01 X8.3456 Y4.8030
G01 X8.3314 Y4.8396
G01 X8.2983 Y4.9321
G01 X8.2860 Y4.9693
G01 X8.2756 Y5.0072
G01 X8.2517 Y5.1024
G01 X8.2431 Y5.1407
G01 X8.2364 Y5.1794
G01 X8.2220 Y5.2765
G01 X8.2172 Y5.3155
G01 X8.2143 Y5.3547
G01 X8.2095 Y5.4527
G01 X8.2085 Y5.4920
G01 X8.2095 Y5.5313
G01 X8.2143 Y5.6293
G01 X8.2172 Y5.6685
G01 X8.2220 Y5.7075
G01 X8.2395 Y5.8240
G01 X8.2431 Y5.8433
G01 X8.2517 Y5.8816
G01 X8.2806 Y5.9958
G01 X8.2920 Y6.0334
G01 X8.2983 Y6.0519
G01 X8.3314 Y6.1444
G01 X8.3456 Y6.1810
G01 X8.3615 Y6.2169
G01 X8.4034 Y6.3057
G01 X8.4211 Y6.3407
G01 X8.4306 Y6.3580
G01 X8.5012 Y6.4758
G01 X8.5119 Y6.4923
G01 X8.5345 Y6.5244
G01 X8.6049 Y6.6189
G01 X8.6298 Y6.6492
G01 X8.6428 Y6.6640
G01 X8.7088 Y6.7367
G01 X8.7359 Y6.7651
G01 X8.7643 Y6.7922
G01 X8.8370 Y6.8582
G01 X8.8668 Y6.8838
G01 X8.8977 Y6.9080
G01 X8.9766 Y6.9665
G01 X9.0087 Y6.9891
G01 X9.0419 Y7.0101
G01 X9.1261 Y7.0605
G01 X9.1603 Y7.0799
G01 X9.1839 Y7.0920
G01 X9.1603 Y7.1041
G01 X9.1261 Y7.1235
G01 X9.0419 Y7.1739
G01 X9.0087 Y7.1949
G01 X8.9766 Y7.2175
G01 X8.8821 Y7.2879
G01 X8.8518 Y7.3128
G01 X8.8370 Y7.3258
G01 X8.7643 Y7.3918
G01 X8.7359 Y7.4189
G01 X8.7088 Y7.4473
G01 X8.6428 Y7.5200
G01 X8.6172 Y7.5498
G01 X8.6049 Y7.5651
G01 X8.5345 Y7.6596
G01 X8.5119 Y7.6917
G01 X8.4909 Y7.7249
G01 X8.4306 Y7.8260
G01 X8.4121 Y7.8607
G01 X8.4034 Y7.8783
G01 X8.3615 Y7.9671
G01 X8.3456 Y8.0030
G01 X8.3314 Y8.0396
G01 X8.2983 Y8.1321
G01 X8.2920 Y8.1506
G01 X8.2806 Y8.1882
G01 X8.2517 Y8.3024
G01 X8.2431 Y8.3407
G01 X8.2364 Y8.3794
G01 X8.2220 Y8.4765
G01 X8.2172 Y8.5155
G01 X8.2143 Y8.5547
G01 X8.2095 Y8.6527
G01 X8.2085 Y8.6920
G01 X8.2087 Y18.2616
G01 X8.2155 Y18.3989
G01 X8.2193 Y18.4380
G01 X8.2220 Y18.4575
G01 X8.2364 Y18.5546
G01 X8.2431 Y18.5933
G01 X8.2517 Y18.6316
G01 X8.2756 Y18.7268
G01 X8.2806 Y18.7458
G01 X8.2920 Y18.7834
G01 X8.3314 Y18.8944
G01 X8.3456 Y18.9310
G01 X8.3615 Y18.9669
G01 X8.4034 Y19.0557
G01 X8.4211 Y19.0907
G01 X8.4405 Y19.1249
G01 X8.4909 Y19.2091
G01 X8.5119 Y19.2423
G01 X8.5345 Y19.2744
G01 X8.6049 Y19.3689
G01 X8.6172 Y19.3842
G01 X8.6428 Y19.4140
G01 X8.7088 Y19.4867
G01 X8.7359 Y19.5151
G01 X8.7643 Y19.5422
G01 X8.8370 Y19.6082
G01 X8.8518 Y19.6212
G01 X8.8821 Y19.6461
G01 X8.9766 Y19.7165
G01 X9.0087 Y19.7391
G01 X9.0252 Y19.7498
G01 X9.1261 Y19.8105
G01 X9.1603 Y19.8299
G01 X9.1953 Y19.8476
G01 X9.3019 Y19.8977
G01 X9.3382 Y19.9127
G01 X9.3566 Y19.9196
G01 X9.4491 Y19.9527
G01 X9.4863 Y19.9650
G01 X9.5242 Y19.9754
G01 X9.6194 Y19.9993
G01 X9.6577 Y20.0079
G01 X9.6770 Y20.0115
G01 X9.7935 Y20.0290
G01 X9.8325 Y20.0338
G01 X9.8717 Y20.0367
G01 X9.9894 Y20.0423
G01 X10.0286 Y20.0423
G01 X10.0483 Y20.0415
G01 X10.1463 Y20.0367
G01 X10.1855 Y20.0338
G01 X10.2245 Y20.0290
G01 X10.3216 Y20.0146
G01 X10.3410 Y20.0115
G01 X10.3795 Y20.0038
G01 X10.4938 Y19.9754
G01 X10.5317 Y19.9650
G01 X10.5689 Y19.9527
G01 X10.6614 Y19.9196
G01 X10.6980 Y19.9054
G01 X10.7339 Y19.8895
G01 X10.8227 Y19.8476
G01 X10.8577 Y19.8299
G01 X10.8919 Y19.8105
G01 X10.9928 Y19.7498
G01 X11.0255 Y19.7280
G01 X11.0414 Y19.7165
G01 X11.1203 Y19.6580
G01 X11.1512 Y19.6338
G01 X11.1810 Y19.6082
G01 X11.2537 Y19.5422
G01 X11.2681 Y19.5289
G01 X11.2959 Y19.5011
G01 X11.3752 Y19.4140
G01 X11.4008 Y19.3842
G01 X11.4250 Y19.3533
G01 X11.4950 Y19.2585
G01 X11.5061 Y19.2423
G01 X11.5271 Y19.2091
G01 X11.5775 Y19.1249
G01 X11.5969 Y19.0907
G01 X11.6146 Y19.0557
G01 X11.6565 Y18.9669
G01 X11.6647 Y18.9491
G01 X11.6797 Y18.9128
G01 X11.7197 Y18.8019
G01 X11.7320 Y18.7647
G01 X11.7424 Y18.7268
G01 X11.7663 Y18.6316
G01 X11.7749 Y18.5933
G01 X11.7785 Y18.5740
G01 X11.7960 Y18.4575
G01 X11.8008 Y18.4185
G01 X11.8037 Y18.3793
G01 X11.8085 Y18.2813
G01 X11.8095 Y18.2420
G01 X11.8095 Y8.6920
G01 X11.8085 Y8.6527
G01 X11.8037 Y8.5547
G01 X11.8025 Y8.5351
G01 X11.7987 Y8.4960
G01 X11.7816 Y8.3794
G01 X11.7749 Y8.3407
G01 X11.7663 Y8.3024
G01 X11.7424 Y8.2072
G01 X11.7320 Y8.1693
G01 X11.7197 Y8.1321
G01 X11.6866 Y8.0396
G01 X11.6724 Y8.0030
G01 X11.6565 Y7.9671
G01 X11.6146 Y7.8783
G01 X11.5969 Y7.8433
G01 X11.5775 Y7.8091
G01 X11.5271 Y7.7249
G01 X11.5061 Y7.6917
G01 X11.4835 Y7.6596
G01 X11.4250 Y7.5807
G01 X11.4008 Y7.5498
G01 X11.3752 Y7.5200
G01 X11.3092 Y7.4473
G01 X11.2821 Y7.4189
G01 X11.2537 Y7.3918
G01 X11.1810 Y7.3258
G01 X11.1662 Y7.3128
G01 X11.1416 Y7.2925
G01 X12.9732 Y7.2925
G01 X12.9461 Y7.3129
G01 X12.9158 Y7.3378
G01 X12.8139 Y7.4301
G01 X12.7861 Y7.4579
G01 X12.7728 Y7.4723
G01 X12.6938 Y7.5598
G01 X12.6812 Y7.5748
G01 X12.6570 Y7.6057
G01 X12.5985 Y7.6846
G01 X12.5759 Y7.7167
G01 X12.5549 Y7.7499
G01 X12.5045 Y7.8341
G01 X12.4851 Y7.8683
G01 X12.4674 Y7.9033
G01 X12.4255 Y7.9921
G01 X12.4096 Y8.0280
G01 X12.3954 Y8.0646
G01 X12.3623 Y8.1571
G01 X12.3500 Y8.1943
G01 X12.3396 Y8.2322
G01 X12.3157 Y8.3274
G01 X12.3071 Y8.3657
G01 X12.3004 Y8.4044
G01 X12.2860 Y8.5015
G01 X12.2812 Y8.5405
G01 X12.2795 Y8.5601
G01 X12.2735 Y8.6777
G01 X12.2725 Y8.7170
G01 X12.2725 Y18.2670
G01 X12.2735 Y18.3063
G01 X12.2783 Y18.4043
G01 X12.2812 Y18.4435
G01 X12.2860 Y18.4825
G01 X12.3035 Y18.5990
G01 X12.3071 Y18.6183
G01 X12.3157 Y18.6566
G01 X12.3396 Y18.7518
G01 X12.3500 Y18.7897
G01 X12.3623 Y18.8269
G01 X12.3954 Y18.9194
G01 X12.4023 Y18.9378
G01 X12.4173 Y18.9741
G01 X12.4674 Y19.0807
G01 X12.4851 Y19.1157
G01 X12.5045 Y19.1499
G01 X12.5652 Y19.2508
G01 X12.5759 Y19.2673
G01 X12.5985 Y19.2994
G01 X12.6570 Y19.3783
G01 X12.6812 Y19.4092
G01 X12.7068 Y19.4390
G01 X12.7728 Y19.5117
G01 X12.7999 Y19.5401
G01 X12.8139 Y19.5539
G01 X12.9010 Y19.6332
G01 X12.9308 Y19.6588
G01 X12.9617 Y19.6830
G01 X13.0406 Y19.7415
G01 X13.0727 Y19.7641
G01 X13.0892 Y19.7748
G01 X13.2070 Y19.8454
G01 X13.2243 Y19.8549
G01 X13.2593 Y19.8726
G01 X13.3481 Y19.9145
G01 X13.3840 Y19.9304
G01 X13.4206 Y19.9446
G01 X13.5131 Y19.9777
G01 X13.5503 Y19.9900
G01 X13.5692 Y19.9954
G01 X13.6834 Y20.0243
G01 X13.7217 Y20.0329
G01 X13.7604 Y20.0396
G01 X13.8575 Y20.0540
G01 X13.8965 Y20.0588
G01 X13.9357 Y20.0617
G01 X14.0534 Y20.0673
G01 X14.0730 Y20.0675
G01 X14.1123 Y20.0665
G01 X14.2103 Y20.0617
G01 X14.2495 Y20.0588
G01 X14.2885 Y20.0540
G01 X14.3856 Y20.0396
G01 X14.4050 Y20.0365
G01 X14.4435 Y20.0288
G01 X14.5578 Y20.0004
G01 X14.5957 Y19.9900
G01 X14.6329 Y19.9777
G01 X14.7254 Y19.9446
G01 X14.7620 Y19.9304
G01 X14.7979 Y19.9145
G01 X14.8867 Y19.8726
G01 X14.9217 Y19.8549
G01 X14.9559 Y19.8355
G01 X15.0568 Y19.7748
G01 X15.0895 Y19.7530
G01 X15.1054 Y19.7415
G01 X15.1843 Y19.6830
G01 X15.2152 Y19.6588
G01 X15.2450 Y19.6332
G01 X15.3177 Y19.5672
G01 X15.3461 Y19.5401
G01 X15.3599 Y19.5261
G01 X15.4392 Y19.4390
G01 X15.4648 Y19.4092
G01 X15.4890 Y19.3783
G01 X15.5590 Y19.2835
G01 X15.5808 Y19.2508
G01 X15.5911 Y19.2341
G01 X15.6415 Y19.1499
G01 X15.6609 Y19.1157
G01 X15.6786 Y19.0807
G01 X15.7205 Y18.9919
G01 X15.7287 Y18.9741
G01 X15.7437 Y18.9378
G01 X15.7837 Y18.8269
G01 X15.7960 Y18.7897
G01 X15.8064 Y18.7518
G01 X15.8303 Y18.6566
G01 X15.8348 Y18.6375
G01 X15.8425 Y18.5990
G01 X15.8600 Y18.4825
G01 X15.8648 Y18.4435
G01 X15.8677 Y18.4043
G01 X15.8725 Y18.3063
G01 X15.8735 Y18.2670
G01 X15.8735 Y8.7170
G01 X15.8725 Y8.6777
G01 X15.8677 Y8.5797
G01 X15.8665 Y8.5601
G01 X15.8627 Y8.5210
G01 X15.8456 Y8.4044
G01 X15.8389 Y8.3657
G01 X15.8303 Y8.3274
G01 X15.8064 Y8.2322
G01 X15.7960 Y8.1943
G01 X15.7837 Y8.1571
G01 X15.7506 Y8.0646
G01 X15.7364 Y8.0280
G01 X15.7205 Y7.9921
G01 X15.6786 Y7.9033
G01 X15.6609 Y7.8683
G01 X15.6415 Y7.8341
G01 X15.5911 Y7.7499
G01 X15.5701 Y7.7167
G01 X15.5475 Y7.6846
G01 X15.4890 Y7.6057
G01 X15.4648 Y7.5748
G01 X15.4392 Y7.5450
G01 X15.3732 Y7.4723
G01 X15.3461 Y7.4439
G01 X15.3177 Y7.4168
G01 X15.2450 Y7.3508
G01 X15.2302 Y7.3378
G01 X15.2056 Y7.3175
G01 X16.0712 Y7.3175
G01 X18.7439 Y9.9901
G01 X18.7723 Y10.0172
G01 X18.8450 Y10.0832
G01 X18.8748 Y10.1088
G01 X18.9057 Y10.1330
G01 X18.9846 Y10.1915
G01 X19.0167 Y10.2141
G01 X19.0499 Y10.2351
G01 X19.1341 Y10.2855
G01 X19.1683 Y10.3049
G01 X19.2033 Y10.3226
G01 X19.3099 Y10.3727
G01 X19.3462 Y10.3877
G01 X19.4571 Y10.4277
G01 X19.4943 Y10.4400
G01 X19.5322 Y10.4504
G01 X19.6465 Y10.4788
G01 X19.6850 Y10.4865
G01 X19.8015 Y10.5040
G01 X19.8405 Y10.5088
G01 X19.8601 Y10.5105
G01 X19.8925 Y10.5123
G01 X19.8925 Y11.9170
G01 X19.8935 Y11.9563
G01 X19.8983 Y12.0543
G01 X19.9012 Y12.0935
G01 X19.9060 Y12.1325
G01 X19.9235 Y12.2490
G01 X19.9312 Y12.2875
G01 X19.9596 Y12.4018
G01 X19.9700 Y12.4397
G01 X19.9760 Y12.4584
G01 X20.0154 Y12.5694
G01 X20.0296 Y12.6060
G01 X20.0455 Y12.6419
G01 X20.0874 Y12.7307
G01 X20.1051 Y12.7657
G01 X20.1245 Y12.7999
G01 X20.1749 Y12.8841
G01 X20.1959 Y12.9173
G01 X20.2185 Y12.9494
G01 X20.2770 Y13.0283
G01 X20.2889 Y13.0439
G01 X20.3138 Y13.0742
G01 X20.3928 Y13.1617
G01 X20.4199 Y13.1901
G01 X20.4483 Y13.2172
G01 X20.5210 Y13.2832
G01 X20.5358 Y13.2962
G01 X20.5661 Y13.3211
G01 X20.6606 Y13.3915
G01 X20.6927 Y13.4141
G01 X20.7092 Y13.4248
G01 X20.8270 Y13.4954
G01 X20.8443 Y13.5049
G01 X20.8679 Y13.5170
G01 X20.8443 Y13.5291
G01 X20.8101 Y13.5485
G01 X20.7259 Y13.5989
G01 X20.6927 Y13.6199
G01 X20.6606 Y13.6425
G01 X20.5817 Y13.7010
G01 X20.5508 Y13.7252
G01 X20.5210 Y13.7508
G01 X20.4483 Y13.8168
G01 X20.4199 Y13.8439
G01 X20.3928 Y13.8723
G01 X20.3268 Y13.9450
G01 X20.3012 Y13.9748
G01 X20.2889 Y13.9901
G01 X20.2185 Y14.0846
G01 X20.1959 Y14.1167
G01 X20.1852 Y14.1332
G01 X20.1146 Y14.2510
G01 X20.0961 Y14.2857
G01 X20.0874 Y14.3033
G01 X20.0373 Y14.4099
G01 X20.0223 Y14.4462
G01 X20.0154 Y14.4646
G01 X19.9823 Y14.5571
G01 X19.9700 Y14.5943
G01 X19.9596 Y14.6322
G01 X19.9357 Y14.7274
G01 X19.9312 Y14.7465
G01 X19.9235 Y14.7850
G01 X19.9033 Y14.9210
G01 X19.8995 Y14.9601
G01 X19.8983 Y14.9797
G01 X19.8927 Y15.0974
G01 X19.8925 Y17.5212
G01 X17.2767 Y20.1370
G01 X12.5174 Y20.1372
G01 X12.4977 Y20.1380
G01 X12.4586 Y20.1409
G01 X12.4196 Y20.1457
G01 X12.3809 Y20.1524
G01 X12.3426 Y20.1610
G01 X12.3236 Y20.1660
G01 X12.3048 Y20.1714
G01 X12.2675 Y20.1838
G01 X12.2309 Y20.1979
G01 X12.1950 Y20.2138
G01 X12.1773 Y20.2224
G01 X12.1427 Y20.2409
G01 X12.1257 Y20.2508
G01 X12.0925 Y20.2718
G01 X12.0604 Y20.2944
G01 X12.0370 Y20.3126
G01 X12.0136 Y20.2944
G01 X11.9815 Y20.2718
G01 X11.9650 Y20.2611
G01 X11.9313 Y20.2409
G01 X11.8967 Y20.2224
G01 X11.8612 Y20.2056
G01 X11.8249 Y20.1906
G01 X11.8065 Y20.1838
G01 X11.7692 Y20.1714
G01 X11.7504 Y20.1660
G01 X11.7314 Y20.1610
G01 X11.6931 Y20.1524
G01 X11.6544 Y20.1457
G01 X11.6154 Y20.1409
G01 X11.5959 Y20.1392
G01 X11.5566 Y20.1372
G01 X6.8303 Y20.1370
G01 X4.1895 Y17.4962
G01 X4.1893 Y15.0724
G01 X4.1837 Y14.9547
G01 X4.1808 Y14.9155
G01 X4.1787 Y14.8960
G01 X4.1585 Y14.7600
G01 X4.1508 Y14.7215
G01 X4.1463 Y14.7024
G01 X4.1174 Y14.5882
G01 X4.1120 Y14.5693
G01 X4.0997 Y14.5321
G01 X4.0666 Y14.4396
G01 X4.0524 Y14.4030
G01 X4.0365 Y14.3671
G01 X3.9946 Y14.2783
G01 X3.9769 Y14.2433
G01 X3.9674 Y14.2260
G01 X3.8968 Y14.1082
G01 X3.8750 Y14.0755
G01 X3.8635 Y14.0596
G01 X3.7931 Y13.9651
G01 X3.7808 Y13.9498
G01 X3.7552 Y13.9200
G01 X3.6892 Y13.8473
G01 X3.6621 Y13.8189
G01 X3.6337 Y13.7918
G01 X3.5610 Y13.7258
G01 X3.5312 Y13.7002
G01 X3.5003 Y13.6760
G01 X3.4214 Y13.6175
G01 X3.3893 Y13.5949
G01 X3.3561 Y13.5739
G01 X3.2719 Y13.5235
G01 X3.2377 Y13.5041
G01 X3.2141 Y13.4920
G01 X3.2377 Y13.4799
G01 X3.2719 Y13.4605
G01 X3.3728 Y13.3998
G01 X3.4055 Y13.3780
G01 X3.5003 Y13.3080
G01 X3.5312 Y13.2838
G01 X3.5610 Y13.2582
G01 X3.6337 Y13.1922
G01 X3.6621 Y13.1651
G01 X3.6759 Y13.1511
G01 X3.7552 Y13.0640
G01 X3.7808 Y13.0342
G01 X3.8050 Y13.0033
G01 X3.8750 Y12.9085
G01 X3.8861 Y12.8923
G01 X3.9071 Y12.8591
G01 X3.9575 Y12.7749
G01 X3.9769 Y12.7407
G01 X3.9946 Y12.7057
G01 X4.0365 Y12.6169
G01 X4.0524 Y12.5810
G01 X4.0597 Y12.5628
G01 X4.0997 Y12.4519
G01 X4.1120 Y12.4147
G01 X4.1224 Y12.3768
G01 X4.1508 Y12.2625
G01 X4.1585 Y12.2240
G01 X4.1616 Y12.2046
G01 X4.1760 Y12.1075
G01 X4.1808 Y12.0685
G01 X4.1837 Y12.0293
G01 X4.1885 Y11.9313
G01 X4.1895 Y11.8920
G00 Z1.0000
G00 X4.3495 Y11.8920
G01 F30.00
G01 Z-0.0800
G01 F100.00
G01 X4.3495 Y6.3041
G01 X6.0261 Y4.6275
G01 X8.2505 Y4.6275
G01 X8.2070 Y4.7201
G01 X8.1977 Y4.7417
G01 X8.1890 Y4.7636
G01 X8.1477 Y4.8782
G01 X8.1400 Y4.9004
G01 X8.1329 Y4.9229
G01 X8.1264 Y4.9455
G01 X8.0965 Y5.0636
G01 X8.0911 Y5.0865
G01 X8.0862 Y5.1095
G01 X8.0819 Y5.1327
G01 X8.0781 Y5.1560
G01 X8.0637 Y5.2531
G01 X8.0605 Y5.2764
G01 X8.0579 Y5.2998
G01 X8.0559 Y5.3233
G01 X8.0545 Y5.3468
G01 X8.0497 Y5.4449
G01 X8.0488 Y5.4684
G01 X8.0485 Y5.4920
G01 X8.0488 Y5.5156
G01 X8.0497 Y5.5391
G01 X8.0545 Y5.6372
G01 X8.0559 Y5.6607
G01 X8.0579 Y5.6842
G01 X8.0605 Y5.7076
G01 X8.0637 Y5.7309
G01 X8.0781 Y5.8280
G01 X8.0819 Y5.8513
G01 X8.0862 Y5.8745
G01 X8.0911 Y5.8975
G01 X8.0965 Y5.9204
G01 X8.1204 Y6.0157
G01 X8.1264 Y6.0385
G01 X8.1329 Y6.0611
G01 X8.1400 Y6.0836
G01 X8.1477 Y6.1058
G01 X8.1890 Y6.2204
G01 X8.1977 Y6.2423
G01 X8.2070 Y6.2639
G01 X8.2168 Y6.2853
G01 X8.2691 Y6.3953
G01 X8.2800 Y6.4162
G01 X8.2914 Y6.4368
G01 X8.3537 Y6.5414
G01 X8.3661 Y6.5614
G01 X8.3789 Y6.5812
G01 X8.3922 Y6.6006
G01 X8.4645 Y6.6986
G01 X8.4788 Y6.7173
G01 X8.4935 Y6.7357
G01 X8.5087 Y6.7538
G01 X8.5243 Y6.7714
G01 X8.5902 Y6.8442
G01 X8.6063 Y6.8614
G01 X8.6227 Y6.8783
G01 X8.6396 Y6.8947
G01 X8.6568 Y6.9108
G01 X8.7296 Y6.9767
G01 X8.7472 Y6.9923
G01 X8.7653 Y7.0075
G01 X8.7837 Y7.0222
G01 X8.8024 Y7.0365
G01 X8.8773 Y7.0920
G01 X8.8024 Y7.1475
G01 X8.7837 Y7.1618
G01 X8.7653 Y7.1765
G01 X8.7472 Y7.1917
G01 X8.7296 Y7.2073
G01 X8.6568 Y7.2732
G01 X8.6396 Y7.2893
G01 X8.6227 Y7.3057
G01 X8.6063 Y7.3226
G01 X8.5243 Y7.4126
G01 X8.5087 Y7.4302
G01 X8.4935 Y7.4483
G01 X8.4788 Y7.4667
G01 X8.4060 Y7.5643
G01 X8.3922 Y7.5834
G01 X8.3789 Y7.6028
G01 X8.3661 Y7.6226
G01 X8.3537 Y7.6426
G01 X8.2914 Y7.7472
G01 X8.2800 Y7.7678
G01 X8.2691 Y7.7887
G01 X8.2588 Y7.8099
G01 X8.2168 Y7.8987
G01 X8.2070 Y7.9201
G01 X8.1977 Y7.9417
G01 X8.1890 Y7.9636
G01 X8.1808 Y7.9857
G01 X8.1477 Y8.0782
G01 X8.1400 Y8.1004
G01 X8.1329 Y8.1229
G01 X8.1264 Y8.1455
G01 X8.1204 Y8.1683
G01 X8.0965 Y8.2636
G01 X8.0911 Y8.2865
G01 X8.0862 Y8.3095
G01 X8.0819 Y8.3327
G01 X8.0781 Y8.3560
G01 X8.0637 Y8.4531
G01 X8.0605 Y8.4764
G01 X8.0579 Y8.4998
G01 X8.0559 Y8.5233
G01 X8.0497 Y8.6449
G01 X8.0488 Y8.6684
G01 X8.0485 Y8.6920
G01 X8.0485 Y18.2420
G01 X8.0488 Y18.2656
G01 X8.0497 Y18.2891
G01 X8.0545 Y18.3872
G01 X8.0559 Y18.4107
G01 X8.0579 Y18.4342
G01 X8.0605 Y18.4576
G01 X8.0781 Y18.5780
G01 X8.0819 Y18.6013
G01 X8.0862 Y18.6245
G01 X8.0911 Y18.6475
G01 X8.0965 Y18.6704
G01 X8.1204 Y18.7657
G01 X8.1264 Y18.7885
G01 X8.1329 Y18.8111
G01 X8.1400 Y18.8336
G01 X8.1808 Y18.9483
G01 X8.1890 Y18.9704
G01 X8.1977 Y18.9923
G01 X8.2070 Y19.0139
G01 X8.2168 Y19.0353
G01 X8.2588 Y19.1241
G01 X8.2691 Y19.1453
G01 X8.2800 Y19.1662
G01 X8.2914 Y19.1868
G01 X8.3537 Y19.2914
G01 X8.3661 Y19.3114
G01 X8.3789 Y19.3312
G01 X8.3922 Y19.3506
G01 X8.4060 Y19.3697
G01 X8.4788 Y19.4673
G01 X8.4935 Y19.4857
G01 X8.5087 Y19.5038
G01 X8.5243 Y19.5214
G01 X8.5902 Y19.5942
G01 X8.6063 Y19.6114
G01 X8.6227 Y19.6283
G01 X8.6396 Y19.6447
G01 X8.6568 Y19.6608
G01 X8.7296 Y19.7267
G01 X8.7472 Y19.7423
G01 X8.7653 Y19.7575
G01 X8.7837 Y19.7722
G01 X8.8813 Y19.8450
G01 X8.9004 Y19.8588
G01 X8.9198 Y19.8721
G01 X8.9396 Y19.8849
G01 X8.9596 Y19.8973
G01 X9.0438 Y19.9478
G01 X9.0642 Y19.9596
G01 X9.0964 Y19.9770
G01 X6.8966 Y19.9770
G01 X4.3495 Y17.4299
G01 X4.3495 Y15.0920
G01 X4.3492 Y15.0684
G01 X4.3435 Y14.9468
G01 X4.3421 Y14.9233
G01 X4.3401 Y14.8998
G01 X4.3375 Y14.8764
G01 X4.3343 Y14.8531
G01 X4.3199 Y14.7560
G01 X4.3161 Y14.7327
G01 X4.3118 Y14.7095
G01 X4.3069 Y14.6865
G01 X4.3015 Y14.6636
G01 X4.2776 Y14.5683
G01 X4.2716 Y14.5455
G01 X4.2651 Y14.5229
G01 X4.2580 Y14.5004
G01 X4.2503 Y14.4782
G01 X4.2172 Y14.3857
G01 X4.2090 Y14.3636
G01 X4.2003 Y14.3417
G01 X4.1910 Y14.3201
G01 X4.1812 Y14.2987
G01 X4.1392 Y14.2099
G01 X4.1289 Y14.1887
G01 X4.1180 Y14.1678
G01 X4.1066 Y14.1472
G01 X4.0948 Y14.1268
G01 X4.0319 Y14.0226
G01 X4.0191 Y14.0028
G01 X4.0058 Y13.9834
G01 X3.9920 Y13.9643
G01 X3.9335 Y13.8854
G01 X3.9192 Y13.8667
G01 X3.9045 Y13.8483
G01 X3.8893 Y13.8302
G01 X3.8737 Y13.8126
G01 X3.7917 Y13.7226
G01 X3.7753 Y13.7057
G01 X3.7584 Y13.6893
G01 X3.7412 Y13.6732
G01 X3.6508 Y13.5917
G01 X3.6327 Y13.5765
G01 X3.6143 Y13.5618
G01 X3.5207 Y13.4920
G01 X3.5956 Y13.4365
G01 X3.6143 Y13.4222
G01 X3.6327 Y13.4075
G01 X3.6508 Y13.3923
G01 X3.6684 Y13.3767
G01 X3.7412 Y13.3108
G01 X3.7584 Y13.2947
G01 X3.7753 Y13.2783
G01 X3.7917 Y13.2614
G01 X3.8737 Y13.1714
G01 X3.8893 Y13.1538
G01 X3.9045 Y13.1357
G01 X3.9192 Y13.1173
G01 X3.9335 Y13.0986
G01 X3.9920 Y13.0197
G01 X4.0058 Y13.0006
G01 X4.0191 Y12.9812
G01 X4.0319 Y12.9614
G01 X4.0443 Y12.9414
G01 X4.0948 Y12.8572
G01 X4.1066 Y12.8368
G01 X4.1180 Y12.8162
G01 X4.1289 Y12.7953
G01 X4.1812 Y12.6853
G01 X4.1910 Y12.6639
G01 X4.2003 Y12.6423
G01 X4.2090 Y12.6204
G01 X4.2172 Y12.5983
G01 X4.2503 Y12.5058
G01 X4.2580 Y12.4836
G01 X4.2651 Y12.4611
G01 X4.2716 Y12.4385
G01 X4.2776 Y12.4157
G01 X4.3015 Y12.3204
G01 X4.3069 Y12.2975
G01 X4.3118 Y12.2745
G01 X4.3161 Y12.2513
G01 X4.3343 Y12.1309
G01 X4.3375 Y12.1076
G01 X4.3401 Y12.0842
G01 X4.3421 Y12.0607
G01 X4.3435 Y12.0372
G01 X4.3483 Y11.9391
G01 X4.3492 Y11.9156
G01 X4.3495 Y11.8920
G00 Z1.0000
G00 X6.6977 Y20.4570
G01 F30.00
G01 Z-0.0800
G01 F100.00
G01 X11.5488 Y20.4571
G01 X11.5723 Y20.4583
G01 X11.5958 Y20.4606
G01 X11.6191 Y20.4641
G01 X11.6422 Y20.4687
G01 X11.6650 Y20.4744
G01 X11.6876 Y20.4812
G01 X11.7097 Y20.4892
G01 X11.7207 Y20.4935
G01 X11.7422 Y20.5031
G01 X11.7633 Y20.5137
G01 X11.7838 Y20.5253
G01 X11.8037 Y20.5379
G01 X11.8134 Y20.5446
G01 X11.8323 Y20.5586
G01 X11.8505 Y20.5735
G01 X11.8680 Y20.5894
G01 X11.8846 Y20.6060
G01 X11.9005 Y20.6235
G01 X11.9154 Y20.6417
G01 X11.9294 Y20.6606
G01 X11.9361 Y20.6703
G01 X11.9487 Y20.6902
G01 X11.9603 Y20.7107
G01 X11.9709 Y20.7318
G01 X11.9758 Y20.7425
G01 X11.9848 Y20.7643
G01 X11.9889 Y20.7753
G01 X11.9963 Y20.7977
G01 X12.0026 Y20.8204
G01 X12.0078 Y20.8434
G01 X12.0118 Y20.8666
G01 X12.0134 Y20.8782
G01 X12.0157 Y20.9017
G01 X12.0169 Y20.9252
G01 X12.0170 Y25.9370
G01 X12.0164 Y25.9606
G01 X12.0147 Y25.9840
G01 X12.0118 Y26.0074
G01 X12.0078 Y26.0306
G01 X12.0026 Y26.0536
G01 X11.9996 Y26.0650
G01 X11.9928 Y26.0876
G01 X11.9848 Y26.1097
G01 X11.9758 Y26.1315
G01 X11.9657 Y26.1528
G01 X11.9546 Y26.1736
G01 X11.9425 Y26.1938
G01 X11.9294 Y26.2134
G01 X11.9225 Y26.2229
G01 X11.9154 Y26.2323
G01 X11.9005 Y26.2505
G01 X11.8846 Y26.2680
G01 X11.8680 Y26.2846
G01 X11.8505 Y26.3005
G01 X11.8323 Y26.3154
G01 X11.8229 Y26.3225
G01 X11.8037 Y26.3361
G01 X11.7838 Y26.3487
G01 X11.7633 Y26.3603
G01 X11.7422 Y26.3709
G01 X11.7315 Y26.3758
G01 X11.7097 Y26.3848
G01 X11.6987 Y26.3889
G01 X11.6763 Y26.3963
G01 X11.6536 Y26.4026
G01 X11.6306 Y26.4078
G01 X11.6074 Y26.4118
G01 X11.5840 Y26.4147
G01 X11.5723 Y26.4157
G01 X11.5488 Y26.4169
G01 X6.5370 Y26.4170
G01 X6.5134 Y26.4164
G01 X6.5017 Y26.4157
G01 X6.4782 Y26.4134
G01 X6.4549 Y26.4099
G01 X6.4318 Y26.4053
G01 X6.4204 Y26.4026
G01 X6.3977 Y26.3963
G01 X6.3753 Y26.3889
G01 X6.3533 Y26.3805
G01 X6.3318 Y26.3709
G01 X6.3107 Y26.3603
G01 X6.2902 Y26.3487
G01 X6.2703 Y26.3361
G01 X6.2606 Y26.3294
G01 X6.2417 Y26.3154
G01 X6.2235 Y26.3005
G01 X6.2060 Y26.2846
G01 X6.1894 Y26.2680
G01 X6.1735 Y26.2505
G01 X6.1586 Y26.2323
G01 X6.1515 Y26.2229
G01 X6.1446 Y26.2134
G01 X6.1315 Y26.1938
G01 X6.1194 Y26.1736
G01 X6.1137 Y26.1633
G01 X6.1031 Y26.1422
G01 X6.0935 Y26.1207
G01 X6.0851 Y26.0987
G01 X6.0812 Y26.0876
G01 X6.0744 Y26.0650
G01 X6.0687 Y26.0422
G01 X6.0641 Y26.0191
G01 X6.0606 Y25.9958
G01 X6.0593 Y25.9840
G01 X6.0576 Y25.9606
G01 X6.0570 Y25.9370
G01 X6.0570 Y24.0287
G01 X5.1521 Y23.1239
G01 X5.1359 Y23.1068
G01 X5.0621 Y23.0252
G01 X5.0472 Y23.0070
G01 X5.0089 Y22.9557
G01 X1.3339 Y19.2804
G01 X1.2599 Y19.1991
G01 X1.2446 Y19.1812
G01 X1.2301 Y19.1626
G01 X1.1716 Y19.0838
G01 X1.1580 Y19.0645
G01 X1.1454 Y19.0446
G01 X1.0949 Y18.9604
G01 X1.0833 Y18.9399
G01 X1.0727 Y18.9189
G01 X1.0307 Y18.8301
G01 X1.0212 Y18.8086
G01 X1.0168 Y18.7976
G01 X0.9796 Y18.6941
G01 X0.9722 Y18.6718
G01 X0.9660 Y18.6491
G01 X0.9421 Y18.5538
G01 X0.9369 Y18.5308
G01 X0.9329 Y18.5076
G01 X0.9185 Y18.4105
G01 X0.9156 Y18.3871
G01 X0.9139 Y18.3636
G01 X0.9086 Y18.2538
G01 X0.9085 Y15.0920
G01 X0.9091 Y15.0684
G01 X0.9139 Y14.9704
G01 X0.9156 Y14.9469
G01 X0.9185 Y14.9235
G01 X0.9329 Y14.8264
G01 X0.9369 Y14.8032
G01 X0.9421 Y14.7802
G01 X0.9660 Y14.6849
G01 X0.9722 Y14.6622
G01 X0.9796 Y14.6399
G01 X1.0127 Y14.5474
G01 X1.0212 Y14.5254
G01 X1.0307 Y14.5039
G01 X1.0727 Y14.4151
G01 X1.0833 Y14.3941
G01 X1.0949 Y14.3736
G01 X1.1454 Y14.2894
G01 X1.1580 Y14.2695
G01 X1.1716 Y14.2502
G01 X1.2301 Y14.1714
G01 X1.2446 Y14.1528
G01 X1.2599 Y14.1349
G01 X1.3259 Y14.0622
G01 X1.3421 Y14.0451
G01 X1.3592 Y14.0289
G01 X1.4319 Y13.9629
G01 X1.4498 Y13.9476
G01 X1.4684 Y13.9331
G01 X1.5472 Y13.8746
G01 X1.5665 Y13.8610
G01 X1.5864 Y13.8484
G01 X1.6706 Y13.7979
G01 X1.6911 Y13.7863
G01 X1.7121 Y13.7757
G01 X1.8009 Y13.7337
G01 X1.8224 Y13.7242
G01 X1.8444 Y13.7157
G01 X1.9369 Y13.6826
G01 X1.9592 Y13.6752
G01 X1.9819 Y13.6690
G01 X2.0772 Y13.6451
G01 X2.1002 Y13.6399
G01 X2.1234 Y13.6359
G01 X2.2205 Y13.6215
G01 X2.2439 Y13.6186
G01 X2.2674 Y13.6169
G01 X2.3654 Y13.6121
G01 X2.3890 Y13.6115
G01 X2.4126 Y13.6121
G01 X2.5106 Y13.6169
G01 X2.5341 Y13.6186
G01 X2.5575 Y13.6215
G01 X2.6546 Y13.6359
G01 X2.6778 Y13.6399
G01 X2.7008 Y13.6451
G01 X2.7961 Y13.6690
G01 X2.8188 Y13.6752
G01 X2.8411 Y13.6826
G01 X2.9336 Y13.7157
G01 X2.9556 Y13.7242
G01 X2.9771 Y13.7337
G01 X3.0659 Y13.7757
G01 X3.0869 Y13.7863
G01 X3.1074 Y13.7979
G01 X3.1916 Y13.8484
G01 X3.2115 Y13.8610
G01 X3.2308 Y13.8746
G01 X3.3096 Y13.9331
G01 X3.3282 Y13.9476
G01 X3.3461 Y13.9629
G01 X3.4188 Y14.0289
G01 X3.4359 Y14.0451
G01 X3.4521 Y14.0622
G01 X3.5181 Y14.1349
G01 X3.5334 Y14.1528
G01 X3.5479 Y14.1714
G01 X3.6064 Y14.2502
G01 X3.6200 Y14.2695
G01 X3.6326 Y14.2894
G01 X3.6831 Y14.3736
G01 X3.6947 Y14.3941
G01 X3.7053 Y14.4151
G01 X3.7473 Y14.5039
G01 X3.7568 Y14.5254
G01 X3.7653 Y14.5474
G01 X3.7984 Y14.6399
G01 X3.8058 Y14.6622
G01 X3.8120 Y14.6849
G01 X3.8359 Y14.7802
G01 X3.8411 Y14.8032
G01 X3.8451 Y14.8264
G01 X3.8595 Y14.9235
G01 X3.8624 Y14.9469
G01 X3.8641 Y14.9704
G01 X3.8689 Y15.0684
G01 X3.8695 Y15.0920
G01 X3.8695 Y17.6288
G01 X6.6977 Y20.4570
G00 Z1.0000
G00 X6.6315 Y20.6170
G01 F30.00
G01 Z-0.0800
G01 F100.00
G01 X11.5449 Y20.6171
G01 X11.5605 Y20.6179
G01 X11.5762 Y20.6194
G01 X11.5917 Y20.6217
G01 X11.6071 Y20.6248
G01 X11.6223 Y20.6286
G01 X11.6374 Y20.6332
G01 X11.6522 Y20.6384
G01 X11.6667 Y20.6445
G01 X11.6809 Y20.6512
G01 X11.7015 Y20.6625
G01 X11.7148 Y20.6709
G01 X11.7276 Y20.6800
G01 X11.7400 Y20.6896
G01 X11.7519 Y20.6999
G01 X11.7633 Y20.7107
G01 X11.7741 Y20.7221
G01 X11.7893 Y20.7401
G01 X11.7986 Y20.7527
G01 X11.8074 Y20.7658
G01 X11.8192 Y20.7862
G01 X11.8263 Y20.8002
G01 X11.8326 Y20.8145
G01 X11.8383 Y20.8292
G01 X11.8432 Y20.8441
G01 X11.8474 Y20.8592
G01 X11.8509 Y20.8746
G01 X11.8535 Y20.8900
G01 X11.8555 Y20.9056
G01 X11.8569 Y20.9291
G01 X11.8570 Y25.9370
G01 X11.8566 Y25.9527
G01 X11.8555 Y25.9684
G01 X11.8535 Y25.9840
G01 X11.8509 Y25.9994
G01 X11.8454 Y26.0223
G01 X11.8408 Y26.0374
G01 X11.8356 Y26.0522
G01 X11.8295 Y26.0667
G01 X11.8228 Y26.0809
G01 X11.8154 Y26.0947
G01 X11.8074 Y26.1082
G01 X11.7986 Y26.1213
G01 X11.7893 Y26.1339
G01 X11.7793 Y26.1460
G01 X11.7633 Y26.1633
G01 X11.7519 Y26.1741
G01 X11.7400 Y26.1844
G01 X11.7276 Y26.1940
G01 X11.7082 Y26.2074
G01 X11.6947 Y26.2154
G01 X11.6809 Y26.2228
G01 X11.6667 Y26.2295
G01 X11.6522 Y26.2356
G01 X11.6374 Y26.2408
G01 X11.6223 Y26.2454
G01 X11.5994 Y26.2509
G01 X11.5840 Y26.2535
G01 X11.5684 Y26.2555
G01 X11.5449 Y26.2569
G01 X6.5370 Y26.2570
G01 X6.5213 Y26.2566
G01 X6.5056 Y26.2555
G01 X6.4900 Y26.2535
G01 X6.4746 Y26.2509
G01 X6.4517 Y26.2454
G01 X6.4366 Y26.2408
G01 X6.4218 Y26.2356
G01 X6.4073 Y26.2295
G01 X6.3862 Y26.2192
G01 X6.3725 Y26.2115
G01 X6.3592 Y26.2031
G01 X6.3464 Y26.1940
G01 X6.3340 Y26.1844
G01 X6.3163 Y26.1688
G01 X6.3052 Y26.1577
G01 X6.2947 Y26.1460
G01 X6.2800 Y26.1276
G01 X6.2709 Y26.1148
G01 X6.2625 Y26.1015
G01 X6.2548 Y26.0878
G01 X6.2477 Y26.0738
G01 X6.2384 Y26.0522
G01 X6.2332 Y26.0374
G01 X6.2286 Y26.0223
G01 X6.2231 Y25.9994
G01 X6.2194 Y25.9762
G01 X6.2179 Y25.9605
G01 X6.2171 Y25.9449
G01 X6.2170 Y23.9625
G01 X5.2653 Y23.0107
G01 X5.2544 Y22.9994
G01 X5.1833 Y22.9207
G01 X5.1686 Y22.9023
G01 X5.1304 Y22.8509
G01 X1.4498 Y19.1701
G01 X1.3785 Y19.0916
G01 X1.3682 Y19.0797
G01 X1.3586 Y19.0673
G01 X1.3001 Y18.9885
G01 X1.2910 Y18.9756
G01 X1.2826 Y18.9624
G01 X1.2322 Y18.8781
G01 X1.2244 Y18.8645
G01 X1.2174 Y18.8505
G01 X1.1754 Y18.7617
G01 X1.1661 Y18.7400
G01 X1.1303 Y18.6402
G01 X1.1254 Y18.6253
G01 X1.1212 Y18.6102
G01 X1.0973 Y18.5149
G01 X1.0939 Y18.4996
G01 X1.0912 Y18.4841
G01 X1.0768 Y18.3870
G01 X1.0749 Y18.3714
G01 X1.0737 Y18.3558
G01 X1.0686 Y18.2499
G01 X1.0685 Y15.0920
G01 X1.0689 Y15.0763
G01 X1.0742 Y14.9704
G01 X1.0768 Y14.9470
G01 X1.0912 Y14.8499
G01 X1.0939 Y14.8344
G01 X1.0973 Y14.8191
G01 X1.1212 Y14.7238
G01 X1.1254 Y14.7087
G01 X1.1303 Y14.6938
G01 X1.1634 Y14.6013
G01 X1.1690 Y14.5867
G01 X1.1754 Y14.5723
G01 X1.2174 Y14.4835
G01 X1.2244 Y14.4695
G01 X1.2322 Y14.4559
G01 X1.2826 Y14.3716
G01 X1.2910 Y14.3584
G01 X1.3001 Y14.3455
G01 X1.3586 Y14.2667
G01 X1.3682 Y14.2543
G01 X1.3785 Y14.2424
G01 X1.4444 Y14.1696
G01 X1.4553 Y14.1583
G01 X1.4666 Y14.1474
G01 X1.5394 Y14.0815
G01 X1.5574 Y14.0663
G01 X1.6425 Y14.0031
G01 X1.6554 Y13.9940
G01 X1.6686 Y13.9856
G01 X1.7529 Y13.9352
G01 X1.7665 Y13.9274
G01 X1.7805 Y13.9204
G01 X1.8693 Y13.8784
G01 X1.8837 Y13.8720
G01 X1.8983 Y13.8664
G01 X1.9908 Y13.8333
G01 X2.0057 Y13.8284
G01 X2.0208 Y13.8242
G01 X2.1161 Y13.8003
G01 X2.1314 Y13.7969
G01 X2.1469 Y13.7942
G01 X2.2440 Y13.7798
G01 X2.2596 Y13.7779
G01 X2.2752 Y13.7767
G01 X2.3733 Y13.7719
G01 X2.3890 Y13.7715
G01 X2.4047 Y13.7719
G01 X2.5028 Y13.7767
G01 X2.5184 Y13.7779
G01 X2.5340 Y13.7798
G01 X2.6311 Y13.7942
G01 X2.6466 Y13.7969
G01 X2.6619 Y13.8003
G01 X2.7572 Y13.8242
G01 X2.7723 Y13.8284
G01 X2.7872 Y13.8333
G01 X2.8797 Y13.8664
G01 X2.8943 Y13.8720
G01 X2.9087 Y13.8784
G01 X2.9975 Y13.9204
G01 X3.0115 Y13.9274
G01 X3.0251 Y13.9352
G01 X3.1094 Y13.9856
G01 X3.1226 Y13.9940
G01 X3.1355 Y14.0031
G01 X3.2143 Y14.0616
G01 X3.2267 Y14.0712
G01 X3.2386 Y14.0815
G01 X3.3114 Y14.1474
G01 X3.3227 Y14.1583
G01 X3.3336 Y14.1696
G01 X3.3995 Y14.2424
G01 X3.4147 Y14.2604
G01 X3.4779 Y14.3455
G01 X3.4870 Y14.3584
G01 X3.4954 Y14.3716
G01 X3.5458 Y14.4559
G01 X3.5536 Y14.4695
G01 X3.5606 Y14.4835
G01 X3.6026 Y14.5723
G01 X3.6090 Y14.5867
G01 X3.6146 Y14.6013
G01 X3.6477 Y14.6938
G01 X3.6526 Y14.7087
G01 X3.6568 Y14.7238
G01 X3.6807 Y14.8191
G01 X3.6841 Y14.8344
G01 X3.6868 Y14.8499
G01 X3.7012 Y14.9470
G01 X3.7038 Y14.9704
G01 X3.7091 Y15.0763
G01 X3.7095 Y15.0920
G01 X3.7095 Y17.6950
G01 X6.6315 Y20.6170
G00 Z1.0000
G00 X6.5652 Y20.7770
G01 F30.00
G01 Z-0.0800
G01 F100.00
G01 X11.5370 Y20.7770
G01 X11.5527 Y20.7778
G01 X11.5682 Y20.7801
G01 X11.5834 Y20.7839
G01 X11.5982 Y20.7892
G01 X11.6054 Y20.7924
G01 X11.6159 Y20.7978
G01 X11.6291 Y20.8062
G01 X11.6415 Y20.8158
G01 X11.6529 Y20.8267
G01 X11.6631 Y20.8386
G01 X11.6700 Y20.8481
G01 X11.6781 Y20.8616
G01 X11.6848 Y20.8758
G01 X11.6901 Y20.8906
G01 X11.6939 Y20.9058
G01 X11.6962 Y20.9213
G01 X11.6970 Y20.9370
G01 X11.6970 Y25.9370
G01 X11.6966 Y25.9488
G01 X11.6958 Y25.9566
G01 X11.6931 Y25.9721
G01 X11.6889 Y25.9872
G01 X11.6833 Y26.0018
G01 X11.6762 Y26.0159
G01 X11.6678 Y26.0291
G01 X11.6582 Y26.0415
G01 X11.6473 Y26.0529
G01 X11.6354 Y26.0631
G01 X11.6226 Y26.0722
G01 X11.6089 Y26.0799
G01 X11.5982 Y26.0848
G01 X11.5834 Y26.0901
G01 X11.5682 Y26.0939
G01 X11.5527 Y26.0962
G01 X11.5370 Y26.0970
G01 X6.5370 Y26.0970
G01 X6.5213 Y26.0962
G01 X6.5096 Y26.0946
G01 X6.5019 Y26.0931
G01 X6.4868 Y26.0889
G01 X6.4758 Y26.0848
G01 X6.4686 Y26.0816
G01 X6.4547 Y26.0742
G01 X6.4481 Y26.0700
G01 X6.4386 Y26.0631
G01 X6.4325 Y26.0582
G01 X6.4239 Y26.0501
G01 X6.4133 Y26.0385
G01 X6.4040 Y26.0259
G01 X6.3978 Y26.0159
G01 X6.3924 Y26.0054
G01 X6.3864 Y25.9909
G01 X6.3818 Y25.9759
G01 X6.3794 Y25.9644
G01 X6.3778 Y25.9527
G01 X6.3770 Y25.9409
G01 X6.3770 Y23.8962
G01 X5.3784 Y22.8976
G01 X5.3019 Y22.8132
G01 X5.2519 Y22.7461
G01 X1.5657 Y19.0598
G01 X1.4919 Y18.9782
G01 X1.4241 Y18.8867
G01 X1.3655 Y18.7891
G01 X1.3200 Y18.6933
G01 X1.3154 Y18.6825
G01 X1.2785 Y18.5789
G01 X1.2508 Y18.4684
G01 X1.2341 Y18.3557
G01 X1.2285 Y18.2459
G01 X1.2285 Y15.0920
G01 X1.2341 Y14.9783
G01 X1.2508 Y14.8656
G01 X1.2785 Y14.7551
G01 X1.3168 Y14.6479
G01 X1.3620 Y14.5520
G01 X1.3694 Y14.5381
G01 X1.4241 Y14.4473
G01 X1.4871 Y14.3620
G01 X1.4971 Y14.3498
G01 X1.5684 Y14.2714
G01 X1.6468 Y14.2001
G01 X1.6590 Y14.1901
G01 X1.7378 Y14.1316
G01 X1.7509 Y14.1229
G01 X1.8419 Y14.0685
G01 X1.9449 Y14.0198
G01 X2.0521 Y13.9815
G01 X2.1626 Y13.9538
G01 X2.2753 Y13.9371
G01 X2.3890 Y13.9315
G01 X2.5027 Y13.9371
G01 X2.6154 Y13.9538
G01 X2.7259 Y13.9815
G01 X2.8331 Y14.0198
G01 X2.9361 Y14.0685
G01 X3.0337 Y14.1271
G01 X3.1252 Y14.1949
G01 X3.2096 Y14.2714
G01 X3.2861 Y14.3558
G01 X3.3494 Y14.4408
G01 X3.3581 Y14.4539
G01 X3.4086 Y14.5381
G01 X3.4160 Y14.5520
G01 X3.4612 Y14.6479
G01 X3.4971 Y14.7477
G01 X3.5016 Y14.7627
G01 X3.5272 Y14.8656
G01 X3.5430 Y14.9705
G01 X3.5445 Y14.9861
G01 X3.5495 Y15.0920
G01 X3.5495 Y17.7613
G01 X6.5652 Y20.7770
G00 Z1.0000
G00 X10.9216 Y19.9770
G01 F30.00
G01 Z-0.0800
G01 F100.00
G01 X10.9538 Y19.9596
G01 X11.0584 Y19.8973
G01 X11.0784 Y19.8849
G01 X11.0982 Y19.8721
G01 X11.1176 Y19.8588
G01 X11.2156 Y19.7865
G01 X11.2343 Y19.7722
G01 X11.2527 Y19.7575
G01 X11.2708 Y19.7423
G01 X11.2884 Y19.7267
G01 X11.3612 Y19.6608
G01 X11.3784 Y19.6447
G01 X11.3953 Y19.6283
G01 X11.4117 Y19.6114
G01 X11.4937 Y19.5214
G01 X11.5093 Y19.5038
G01 X11.5245 Y19.4857
G01 X11.5392 Y19.4673
G01 X11.5535 Y19.4486
G01 X11.6120 Y19.3697
G01 X11.6258 Y19.3506
G01 X11.6391 Y19.3312
G01 X11.6519 Y19.3114
G01 X11.7148 Y19.2072
G01 X11.7266 Y19.1868
G01 X11.7380 Y19.1662
G01 X11.7489 Y19.1453
G01 X11.7592 Y19.1241
G01 X11.8012 Y19.0353
G01 X11.8110 Y19.0139
G01 X11.8203 Y18.9923
G01 X11.8290 Y18.9704
G01 X11.8703 Y18.8558
G01 X11.8780 Y18.8336
G01 X11.8851 Y18.8111
G01 X11.8916 Y18.7885
G01 X11.8976 Y18.7657
G01 X11.9269 Y18.6475
G01 X11.9318 Y18.6245
G01 X11.9361 Y18.6013
G01 X11.9399 Y18.5780
G01 X11.9543 Y18.4809
G01 X11.9575 Y18.4576
G01 X11.9601 Y18.4342
G01 X11.9621 Y18.4107
G01 X11.9635 Y18.3872
G01 X11.9683 Y18.2891
G01 X11.9692 Y18.2656
G01 X11.9695 Y18.2420
G01 X11.9695 Y8.6920
G01 X11.9692 Y8.6684
G01 X11.9683 Y8.6449
G01 X11.9635 Y8.5468
G01 X11.9621 Y8.5233
G01 X11.9601 Y8.4998
G01 X11.9575 Y8.4764
G01 X11.9543 Y8.4531
G01 X11.9399 Y8.3560
G01 X11.9361 Y8.3327
G01 X11.9318 Y8.3095
G01 X11.9269 Y8.2865
G01 X11.9215 Y8.2636
G01 X11.8976 Y8.1683
G01 X11.8916 Y8.1455
G01 X11.8851 Y8.1229
G01 X11.8780 Y8.1004
G01 X11.8703 Y8.0782
G01 X11.8372 Y7.9857
G01 X11.8290 Y7.9636
G01 X11.8203 Y7.9417
G01 X11.8110 Y7.9201
G01 X11.8012 Y7.8987
G01 X11.7489 Y7.7887
G01 X11.7380 Y7.7678
G01 X11.7266 Y7.7472
G01 X11.6643 Y7.6426
G01 X11.6519 Y7.6226
G01 X11.6391 Y7.6028
G01 X11.6258 Y7.5834
G01 X11.6120 Y7.5643
G01 X11.5535 Y7.4854
G01 X11.5392 Y7.4667
G01 X11.5279 Y7.4525
G01 X12.5751 Y7.4525
G01 X12.5575 Y7.4733
G01 X12.5428 Y7.4917
G01 X12.4700 Y7.5893
G01 X12.4562 Y7.6084
G01 X12.4429 Y7.6278
G01 X12.4301 Y7.6476
G01 X12.4177 Y7.6676
G01 X12.3554 Y7.7722
G01 X12.3440 Y7.7928
G01 X12.3331 Y7.8137
G01 X12.2808 Y7.9237
G01 X12.2710 Y7.9451
G01 X12.2617 Y7.9667
G01 X12.2530 Y7.9886
G01 X12.2117 Y8.1032
G01 X12.2040 Y8.1254
G01 X12.1969 Y8.1479
G01 X12.1904 Y8.1705
G01 X12.1844 Y8.1933
G01 X12.1605 Y8.2886
G01 X12.1551 Y8.3115
G01 X12.1502 Y8.3345
G01 X12.1459 Y8.3577
G01 X12.1421 Y8.3810
G01 X12.1277 Y8.4781
G01 X12.1245 Y8.5014
G01 X12.1219 Y8.5248
G01 X12.1199 Y8.5483
G01 X12.1185 Y8.5718
G01 X12.1137 Y8.6699
G01 X12.1128 Y8.6934
G01 X12.1125 Y8.7170
G01 X12.1125 Y18.2670
G01 X12.1128 Y18.2906
G01 X12.1137 Y18.3141
G01 X12.1185 Y18.4122
G01 X12.1199 Y18.4357
G01 X12.1219 Y18.4592
G01 X12.1245 Y18.4826
G01 X12.1277 Y18.5059
G01 X12.1421 Y18.6030
G01 X12.1459 Y18.6263
G01 X12.1502 Y18.6495
G01 X12.1551 Y18.6725
G01 X12.1844 Y18.7907
G01 X12.1904 Y18.8135
G01 X12.1969 Y18.8361
G01 X12.2040 Y18.8586
G01 X12.2117 Y18.8808
G01 X12.2530 Y18.9954
G01 X12.2617 Y19.0173
G01 X12.2710 Y19.0389
G01 X12.2808 Y19.0603
G01 X12.3228 Y19.1491
G01 X12.3331 Y19.1703
G01 X12.3440 Y19.1912
G01 X12.3554 Y19.2118
G01 X12.3672 Y19.2322
G01 X12.4177 Y19.3164
G01 X12.4301 Y19.3364
G01 X12.4429 Y19.3562
G01 X12.4562 Y19.3756
G01 X12.5285 Y19.4736
G01 X12.5428 Y19.4923
G01 X12.5575 Y19.5107
G01 X12.5727 Y19.5288
G01 X12.5883 Y19.5464
G01 X12.6542 Y19.6192
G01 X12.6703 Y19.6364
G01 X12.6867 Y19.6533
G01 X12.7036 Y19.6697
G01 X12.7936 Y19.7517
G01 X12.8112 Y19.7673
G01 X12.8293 Y19.7825
G01 X12.8477 Y19.7972
G01 X12.8664 Y19.8115
G01 X12.9453 Y19.8700
G01 X12.9644 Y19.8838
G01 X12.9838 Y19.8971
G01 X13.0036 Y19.9099
G01 X13.0236 Y19.9223
G01 X13.1151 Y19.9770
G01 X12.5370 Y19.9770
G01 X12.5134 Y19.9773
G01 X12.4899 Y19.9782
G01 X12.4664 Y19.9796
G01 X12.4429 Y19.9816
G01 X12.4195 Y19.9842
G01 X12.3961 Y19.9874
G01 X12.3729 Y19.9911
G01 X12.3497 Y19.9954
G01 X12.3267 Y20.0003
G01 X12.3037 Y20.0058
G01 X12.2810 Y20.0118
G01 X12.2583 Y20.0183
G01 X12.2359 Y20.0255
G01 X12.2136 Y20.0331
G01 X12.1915 Y20.0413
G01 X12.1696 Y20.0501
G01 X12.1480 Y20.0594
G01 X12.1265 Y20.0692
G01 X12.1054 Y20.0795
G01 X12.0845 Y20.0904
G01 X12.0638 Y20.1017
G01 X12.0370 Y20.1176
G01 X12.0102 Y20.1017
G01 X11.9895 Y20.0904
G01 X11.9686 Y20.0795
G01 X11.9475 Y20.0692
G01 X11.9260 Y20.0594
G01 X11.9044 Y20.0501
G01 X11.8825 Y20.0413
G01 X11.8604 Y20.0331
G01 X11.8381 Y20.0255
G01 X11.8157 Y20.0183
G01 X11.7930 Y20.0118
G01 X11.7703 Y20.0058
G01 X11.7473 Y20.0003
G01 X11.7243 Y19.9954
G01 X11.7011 Y19.9911
G01 X11.6779 Y19.9874
G01 X11.6545 Y19.9842
G01 X11.6311 Y19.9816
G01 X11.6076 Y19.9796
G01 X11.5841 Y19.9782
G01 X11.5606 Y19.9773
G01 X11.5370 Y19.9770
G01 X10.9216 Y19.9770
G00 Z1.0000
G00 X11.1695 Y18.2420
G01 F30.00
G01 Z-0.0800
G01 F100.00
G01 X11.1639 Y18.3557
G01 X11.1472 Y18.4684
G01 X11.1195 Y18.5789
G01 X11.0812 Y18.6861
G01 X11.0325 Y18.7891
G01 X10.9739 Y18.8867
G01 X10.9061 Y18.9782
G01 X10.8350 Y19.0569
G01 X10.8239 Y19.0680
G01 X10.7452 Y19.1391
G01 X10.6602 Y19.2024
G01 X10.6471 Y19.2111
G01 X10.5629 Y19.2616
G01 X10.5490 Y19.2690
G01 X10.4531 Y19.3142
G01 X10.3459 Y19.3525
G01 X10.2354 Y19.3802
G01 X10.1305 Y19.3960
G01 X10.1149 Y19.3975
G01 X10.0090 Y19.4025
G01 X9.8953 Y19.3969
G01 X9.7826 Y19.3802
G01 X9.6721 Y19.3525
G01 X9.5649 Y19.3142
G01 X9.4619 Y19.2655
G01 X9.3643 Y19.2069
G01 X9.2728 Y19.1391
G01 X9.1884 Y19.0626
G01 X9.1119 Y18.9782
G01 X9.0441 Y18.8867
G01 X8.9855 Y18.7891
G01 X8.9368 Y18.6861
G01 X8.8985 Y18.5789
G01 X8.8708 Y18.4684
G01 X8.8545 Y18.3597
G01 X8.8535 Y18.3479
G01 X8.8485 Y18.2420
G01 X8.8485 Y8.6920
G01 X8.8541 Y8.5783
G01 X8.8708 Y8.4656
G01 X8.8964 Y8.3627
G01 X8.9009 Y8.3477
G01 X8.9340 Y8.2552
G01 X8.9400 Y8.2407
G01 X8.9855 Y8.1449
G01 X9.0441 Y8.0473
G01 X9.1119 Y7.9558
G01 X9.1884 Y7.8714
G01 X9.2728 Y7.7949
G01 X9.3578 Y7.7316
G01 X9.3709 Y7.7229
G01 X9.4551 Y7.6724
G01 X9.4690 Y7.6650
G01 X9.5649 Y7.6198
G01 X9.6721 Y7.5815
G01 X9.7826 Y7.5538
G01 X9.8913 Y7.5375
G01 X9.9031 Y7.5365
G01 X10.0090 Y7.5315
G01 X10.1227 Y7.5371
G01 X10.2354 Y7.5538
G01 X10.3459 Y7.5815
G01 X10.4531 Y7.6198
G01 X10.5561 Y7.6685
G01 X10.6537 Y7.7271
G01 X10.7452 Y7.7949
G01 X10.8296 Y7.8714
G01 X10.9061 Y7.9558
G01 X10.9739 Y8.0473
G01 X11.0325 Y8.1449
G01 X11.0812 Y8.2479
G01 X11.1195 Y8.3551
G01 X11.1472 Y8.4656
G01 X11.1635 Y8.5743
G01 X11.1645 Y8.5861
G01 X11.1695 Y8.6920
G01 X11.1695 Y18.2420
G00 Z1.0000
G00 X11.3295 Y18.2420
G01 F30.00
G01 Z-0.0800
G01 F100.00
G01 X11.3291 Y18.2577
G01 X11.3243 Y18.3558
G01 X11.3231 Y18.3714
G01 X11.3212 Y18.3870
G01 X11.3068 Y18.4841
G01 X11.3041 Y18.4996
G01 X11.3007 Y18.5149
G01 X11.2768 Y18.6102
G01 X11.2726 Y18.6253
G01 X11.2677 Y18.6402
G01 X11.2346 Y18.7327
G01 X11.2290 Y18.7473
G01 X11.2226 Y18.7617
G01 X11.1806 Y18.8505
G01 X11.1736 Y18.8645
G01 X11.1658 Y18.8781
G01 X11.1154 Y18.9624
G01 X11.1070 Y18.9756
G01 X11.0979 Y18.9885
G01 X11.0394 Y19.0673
G01 X11.0298 Y19.0797
G01 X11.0195 Y19.0916
G01 X10.9536 Y19.1644
G01 X10.9427 Y19.1757
G01 X10.9314 Y19.1866
G01 X10.8586 Y19.2525
G01 X10.8467 Y19.2628
G01 X10.8343 Y19.2724
G01 X10.7555 Y19.3309
G01 X10.7426 Y19.3400
G01 X10.7294 Y19.3484
G01 X10.6451 Y19.3988
G01 X10.6315 Y19.4066
G01 X10.6175 Y19.4136
G01 X10.5287 Y19.4556
G01 X10.5143 Y19.4620
G01 X10.4997 Y19.4676
G01 X10.4072 Y19.5007
G01 X10.3923 Y19.5056
G01 X10.3772 Y19.5098
G01 X10.2819 Y19.5337
G01 X10.2666 Y19.5371
G01 X10.2511 Y19.5398
G01 X10.1540 Y19.5542
G01 X10.1384 Y19.5561
G01 X10.1228 Y19.5573
G01 X10.0247 Y19.5621
G01 X10.0090 Y19.5625
G01 X9.9933 Y19.5621
G01 X9.8952 Y19.5573
G01 X9.8796 Y19.5561
G01 X9.8640 Y19.5542
G01 X9.7669 Y19.5398
G01 X9.7514 Y19.5371
G01 X9.7361 Y19.5337
G01 X9.6408 Y19.5098
G01 X9.6257 Y19.5056
G01 X9.6108 Y19.5007
G01 X9.5183 Y19.4676
G01 X9.5037 Y19.4620
G01 X9.4893 Y19.4556
G01 X9.4005 Y19.4136
G01 X9.3865 Y19.4066
G01 X9.3729 Y19.3988
G01 X9.2886 Y19.3484
G01 X9.2754 Y19.3400
G01 X9.2625 Y19.3309
G01 X9.1837 Y19.2724
G01 X9.1713 Y19.2628
G01 X9.1594 Y19.2525
G01 X9.0866 Y19.1866
G01 X9.0753 Y19.1757
G01 X9.0644 Y19.1644
G01 X8.9985 Y19.0916
G01 X8.9882 Y19.0797
G01 X8.9786 Y19.0673
G01 X8.9201 Y18.9885
G01 X8.9110 Y18.9756
G01 X8.9026 Y18.9624
G01 X8.8522 Y18.8781
G01 X8.8444 Y18.8645
G01 X8.8374 Y18.8505
G01 X8.7954 Y18.7617
G01 X8.7890 Y18.7473
G01 X8.7834 Y18.7327
G01 X8.7503 Y18.6402
G01 X8.7454 Y18.6253
G01 X8.7412 Y18.6102
G01 X8.7173 Y18.5149
G01 X8.7139 Y18.4996
G01 X8.7112 Y18.4841
G01 X8.6957 Y18.3792
G01 X8.6937 Y18.3558
G01 X8.6889 Y18.2577
G01 X8.6885 Y18.2420
G01 X8.6885 Y8.6920
G01 X8.6889 Y8.6763
G01 X8.6937 Y8.5782
G01 X8.6949 Y8.5626
G01 X8.6968 Y8.5470
G01 X8.7112 Y8.4499
G01 X8.7139 Y8.4344
G01 X8.7173 Y8.4191
G01 X8.7412 Y8.3238
G01 X8.7454 Y8.3087
G01 X8.7503 Y8.2938
G01 X8.7834 Y8.2013
G01 X8.7890 Y8.1867
G01 X8.7954 Y8.1723
G01 X8.8374 Y8.0835
G01 X8.8444 Y8.0695
G01 X8.8522 Y8.0559
G01 X8.9026 Y7.9716
G01 X8.9110 Y7.9584
G01 X8.9201 Y7.9455
G01 X8.9786 Y7.8667
G01 X8.9882 Y7.8543
G01 X8.9985 Y7.8424
G01 X9.0644 Y7.7696
G01 X9.0753 Y7.7583
G01 X9.0866 Y7.7474
G01 X9.1594 Y7.6815
G01 X9.1713 Y7.6712
G01 X9.1837 Y7.6616
G01 X9.2625 Y7.6031
G01 X9.2754 Y7.5940
G01 X9.2886 Y7.5856
G01 X9.3729 Y7.5352
G01 X9.3865 Y7.5274
G01 X9.4005 Y7.5204
G01 X9.4893 Y7.4784
G01 X9.5037 Y7.4720
G01 X9.5183 Y7.4664
G01 X9.6108 Y7.4333
G01 X9.6257 Y7.4284
G01 X9.6408 Y7.4242
G01 X9.7361 Y7.4003
G01 X9.7514 Y7.3969
G01 X9.7669 Y7.3942
G01 X9.8718 Y7.3787
G01 X9.8952 Y7.3767
G01 X9.9933 Y7.3719
G01 X10.0090 Y7.3715
G01 X10.0247 Y7.3719
G01 X10.1228 Y7.3767
G01 X10.1384 Y7.3779
G01 X10.1540 Y7.3798
G01 X10.2511 Y7.3942
G01 X10.2666 Y7.3969
G01 X10.2819 Y7.4003
G01 X10.3772 Y7.4242
G01 X10.3923 Y7.4284
G01 X10.4072 Y7.4333
G01 X10.4997 Y7.4664
G01 X10.5143 Y7.4720
G01 X10.5287 Y7.4784
G01 X10.6175 Y7.5204
G01 X10.6315 Y7.5274
G01 X10.6451 Y7.5352
G01 X10.7294 Y7.5856
G01 X10.7426 Y7.5940
G01 X10.7555 Y7.6031
G01 X10.8343 Y7.6616
G01 X10.8467 Y7.6712
G01 X10.8586 Y7.6815
G01 X10.9314 Y7.7474
G01 X10.9427 Y7.7583
G01 X10.9536 Y7.7696
G01 X11.0195 Y7.8424
G01 X11.0298 Y7.8543
G01 X11.0394 Y7.8667
G01 X11.0979 Y7.9455
G01 X11.1070 Y7.9584
G01 X11.1154 Y7.9716
G01 X11.1658 Y8.0559
G01 X11.1736 Y8.0695
G01 X11.1806 Y8.0835
G01 X11.2226 Y8.1723
G01 X11.2290 Y8.1867
G01 X11.2346 Y8.2013
G01 X11.2677 Y8.2938
G01 X11.2726 Y8.3087
G01 X11.2768 Y8.3238
G01 X11.3007 Y8.4191
G01 X11.3041 Y8.4344
G01 X11.3068 Y8.4499
G01 X11.3223 Y8.5548
G01 X11.3243 Y8.5782
G01 X11.3291 Y8.6763
G01 X11.3295 Y8.6920
G01 X11.3295 Y18.2420
G00 Z1.0000
G00 X11.4895 Y18.2420
G01 F30.00
G01 Z-0.0800
G01 F100.00
G01 X11.4889 Y18.2656
G01 X11.4841 Y18.3636
G01 X11.4824 Y18.3871
G01 X11.4795 Y18.4105
G01 X11.4651 Y18.5076
G01 X11.4611 Y18.5308
G01 X11.4559 Y18.5538
G01 X11.4320 Y18.6491
G01 X11.4258 Y18.6718
G01 X11.4184 Y18.6941
G01 X11.3853 Y18.7866
G01 X11.3768 Y18.8086
G01 X11.3722 Y18.8194
G01 X11.3201 Y18.9294
G01 X11.3090 Y18.9502
G01 X11.3031 Y18.9604
G01 X11.2526 Y19.0446
G01 X11.2400 Y19.0645
G01 X11.2264 Y19.0838
G01 X11.1608 Y19.1720
G01 X11.1459 Y19.1902
G01 X11.1381 Y19.1991
G01 X11.0721 Y19.2718
G01 X11.0559 Y19.2889
G01 X11.0388 Y19.3051
G01 X10.9661 Y19.3711
G01 X10.9482 Y19.3864
G01 X10.9296 Y19.4009
G01 X10.8508 Y19.4594
G01 X10.8315 Y19.4730
G01 X10.8116 Y19.4856
G01 X10.7274 Y19.5361
G01 X10.7069 Y19.5477
G01 X10.6859 Y19.5583
G01 X10.5971 Y19.6003
G01 X10.5756 Y19.6098
G01 X10.5536 Y19.6183
G01 X10.4611 Y19.6514
G01 X10.4388 Y19.6588
G01 X10.4161 Y19.6650
G01 X10.3208 Y19.6889
G01 X10.2978 Y19.6941
G01 X10.2746 Y19.6981
G01 X10.1775 Y19.7125
G01 X10.1541 Y19.7154
G01 X10.1306 Y19.7171
G01 X10.0326 Y19.7219
G01 X10.0090 Y19.7225
G01 X9.9854 Y19.7219
G01 X9.8874 Y19.7171
G01 X9.8639 Y19.7154
G01 X9.8405 Y19.7125
G01 X9.7434 Y19.6981
G01 X9.7202 Y19.6941
G01 X9.6972 Y19.6889
G01 X9.6019 Y19.6650
G01 X9.5792 Y19.6588
G01 X9.5569 Y19.6514
G01 X9.4644 Y19.6183
G01 X9.4424 Y19.6098
G01 X9.4209 Y19.6003
G01 X9.3321 Y19.5583
G01 X9.3111 Y19.5477
G01 X9.2906 Y19.5361
G01 X9.2064 Y19.4856
G01 X9.1865 Y19.4730
G01 X9.1672 Y19.4594
G01 X9.0884 Y19.4009
G01 X9.0790 Y19.3938
G01 X9.0608 Y19.3789
G01 X8.9706 Y19.2971
G01 X8.9539 Y19.2804
G01 X8.9459 Y19.2718
G01 X8.8721 Y19.1902
G01 X8.8572 Y19.1720
G01 X8.8501 Y19.1626
G01 X8.7916 Y19.0838
G01 X8.7780 Y19.0645
G01 X8.7654 Y19.0446
G01 X8.7149 Y18.9604
G01 X8.7033 Y18.9399
G01 X8.6979 Y18.9294
G01 X8.6458 Y18.8194
G01 X8.6368 Y18.7976
G01 X8.6327 Y18.7866
G01 X8.5996 Y18.6941
G01 X8.5922 Y18.6718
G01 X8.5860 Y18.6491
G01 X8.5594 Y18.5424
G01 X8.5548 Y18.5192
G01 X8.5529 Y18.5076
G01 X8.5385 Y18.4105
G01 X8.5356 Y18.3871
G01 X8.5339 Y18.3636
G01 X8.5291 Y18.2656
G01 X8.5285 Y18.2420
G01 X8.5285 Y8.6920
G01 X8.5291 Y8.6684
G01 X8.5339 Y8.5704
G01 X8.5356 Y8.5469
G01 X8.5385 Y8.5235
G01 X8.5529 Y8.4264
G01 X8.5569 Y8.4032
G01 X8.5621 Y8.3802
G01 X8.5860 Y8.2849
G01 X8.5922 Y8.2622
G01 X8.5958 Y8.2510
G01 X8.6327 Y8.1474
G01 X8.6412 Y8.1254
G01 X8.6507 Y8.1039
G01 X8.6927 Y8.0151
G01 X8.7033 Y7.9941
G01 X8.7149 Y7.9736
G01 X8.7654 Y7.8894
G01 X8.7780 Y7.8695
G01 X8.7916 Y7.8502
G01 X8.8501 Y7.7714
G01 X8.8646 Y7.7528
G01 X8.8799 Y7.7349
G01 X8.9459 Y7.6622
G01 X8.9621 Y7.6451
G01 X8.9706 Y7.6369
G01 X9.0519 Y7.5629
G01 X9.0698 Y7.5476
G01 X9.0884 Y7.5331
G01 X9.1672 Y7.4746
G01 X9.1865 Y7.4610
G01 X9.2064 Y7.4484
G01 X9.2906 Y7.3979
G01 X9.3111 Y7.3863
G01 X9.3321 Y7.3757
G01 X9.4209 Y7.3337
G01 X9.4424 Y7.3242
G01 X9.4644 Y7.3157
G01 X9.5569 Y7.2826
G01 X9.5792 Y7.2752
G01 X9.6019 Y7.2690
G01 X9.7086 Y7.2424
G01 X9.7202 Y7.2399
G01 X9.7434 Y7.2359
G01 X9.8405 Y7.2215
G01 X9.8639 Y7.2186
G01 X9.8874 Y7.2169
G01 X9.9854 Y7.2121
G01 X10.0090 Y7.2115
G01 X10.0326 Y7.2121
G01 X10.1306 Y7.2169
G01 X10.1541 Y7.2186
G01 X10.1775 Y7.2215
G01 X10.2746 Y7.2359
G01 X10.2978 Y7.2399
G01 X10.3208 Y7.2451
G01 X10.4161 Y7.2690
G01 X10.4388 Y7.2752
G01 X10.4611 Y7.2826
G01 X10.5536 Y7.3157
G01 X10.5756 Y7.3242
G01 X10.5971 Y7.3337
G01 X10.6859 Y7.3757
G01 X10.7069 Y7.3863
G01 X10.7274 Y7.3979
G01 X10.8116 Y7.4484
G01 X10.8315 Y7.4610
G01 X10.8412 Y7.4677
G01 X10.9296 Y7.5331
G01 X10.9482 Y7.5476
G01 X10.9661 Y7.5629
G01 X11.0388 Y7.6289
G01 X11.0559 Y7.6451
G01 X11.0721 Y7.6622
G01 X11.1381 Y7.7349
G01 X11.1534 Y7.7528
G01 X11.1679 Y7.7714
G01 X11.2264 Y7.8502
G01 X11.2400 Y7.8695
G01 X11.2526 Y7.8894
G01 X11.3031 Y7.9736
G01 X11.3147 Y7.9941
G01 X11.3253 Y8.0151
G01 X11.3673 Y8.1039
G01 X11.3768 Y8.1254
G01 X11.3853 Y8.1474
G01 X11.4184 Y8.2399
G01 X11.4258 Y8.2622
G01 X11.4320 Y8.2849
G01 X11.4559 Y8.3802
G01 X11.4611 Y8.4032
G01 X11.4651 Y8.4264
G01 X11.4795 Y8.5235
G01 X11.4824 Y8.5469
G01 X11.4841 Y8.5704
G01 X11.4889 Y8.6684
G01 X11.4895 Y8.6920
G01 X11.4895 Y18.2420
G00 Z1.0000
G00 X15.2335 Y18.2670
G01 F30.00
G01 Z-0.0800
G01 F100.00
G01 X15.2279 Y18.3807
G01 X15.2112 Y18.4934
G01 X15.1835 Y18.6039
G01 X15.1452 Y18.7111
G01 X15.0965 Y18.8141
G01 X15.0379 Y18.9117
G01 X14.9701 Y19.0032
G01 X14.8990 Y19.0819
G01 X14.8879 Y19.0930
G01 X14.8092 Y19.1641
G01 X14.7242 Y19.2274
G01 X14.7111 Y19.2361
G01 X14.6269 Y19.2866
G01 X14.6130 Y19.2940
G01 X14.5171 Y19.3392
G01 X14.4099 Y19.3775
G01 X14.2994 Y19.4052
G01 X14.1945 Y19.4210
G01 X14.1789 Y19.4225
G01 X14.0730 Y19.4275
G01 X13.9593 Y19.4219
G01 X13.8466 Y19.4052
G01 X13.7361 Y19.3775
G01 X13.6289 Y19.3392
G01 X13.5259 Y19.2905
G01 X13.4283 Y19.2319
G01 X13.3368 Y19.1641
G01 X13.2524 Y19.0876
G01 X13.1759 Y19.0032
G01 X13.1081 Y18.9117
G01 X13.0495 Y18.8141
G01 X13.0008 Y18.7111
G01 X12.9625 Y18.6039
G01 X12.9348 Y18.4934
G01 X12.9185 Y18.3847
G01 X12.9175 Y18.3729
G01 X12.9125 Y18.2670
G01 X12.9125 Y8.7170
G01 X12.9181 Y8.6033
G01 X12.9348 Y8.4906
G01 X12.9604 Y8.3877
G01 X12.9649 Y8.3727
G01 X12.9980 Y8.2802
G01 X13.0040 Y8.2657
G01 X13.0495 Y8.1699
G01 X13.1081 Y8.0723
G01 X13.1759 Y7.9808
G01 X13.2524 Y7.8964
G01 X13.3368 Y7.8199
G01 X13.4218 Y7.7566
G01 X13.4349 Y7.7479
G01 X13.5191 Y7.6974
G01 X13.5330 Y7.6900
G01 X13.6289 Y7.6448
G01 X13.7361 Y7.6065
G01 X13.8466 Y7.5788
G01 X13.9553 Y7.5625
G01 X13.9671 Y7.5615
G01 X14.0730 Y7.5565
G01 X14.1867 Y7.5621
G01 X14.2994 Y7.5788
G01 X14.4099 Y7.6065
G01 X14.5171 Y7.6448
G01 X14.6201 Y7.6935
G01 X14.7177 Y7.7521
G01 X14.8092 Y7.8199
G01 X14.8936 Y7.8964
G01 X14.9701 Y7.9808
G01 X15.0379 Y8.0723
G01 X15.0965 Y8.1699
G01 X15.1452 Y8.2729
G01 X15.1835 Y8.3801
G01 X15.2112 Y8.4906
G01 X15.2275 Y8.5993
G01 X15.2285 Y8.6111
G01 X15.2335 Y8.7170
G01 X15.2335 Y18.2670
G00 Z1.0000
G00 X15.3935 Y18.2670
G01 F30.00
G01 Z-0.0800
G01 F100.00
G01 X15.3931 Y18.2827
G01 X15.3883 Y18.3808
G01 X15.3871 Y18.3964
G01 X15.3852 Y18.4120
G01 X15.3708 Y18.5091
G01 X15.3681 Y18.5246
G01 X15.3647 Y18.5399
G01 X15.3408 Y18.6352
G01 X15.3366 Y18.6503
G01 X15.3317 Y18.6652
G01 X15.2986 Y18.7577
G01 X15.2930 Y18.7723
G01 X15.2866 Y18.7867
G01 X15.2446 Y18.8755
G01 X15.2376 Y18.8895
G01 X15.2298 Y18.9031
G01 X15.1794 Y18.9874
G01 X15.1710 Y19.0006
G01 X15.1619 Y19.0135
G01 X15.1034 Y19.0923
G01 X15.0938 Y19.1047
G01 X15.0835 Y19.1166
G01 X15.0176 Y19.1894
G01 X15.0067 Y19.2007
G01 X14.9954 Y19.2116
G01 X14.9226 Y19.2775
G01 X14.9107 Y19.2878
G01 X14.8983 Y19.2974
G01 X14.8195 Y19.3559
G01 X14.8066 Y19.3650
G01 X14.7934 Y19.3734
G01 X14.7091 Y19.4238
G01 X14.6955 Y19.4316
G01 X14.6815 Y19.4386
G01 X14.5927 Y19.4806
G01 X14.5783 Y19.4870
G01 X14.5637 Y19.4926
G01 X14.4712 Y19.5257
G01 X14.4563 Y19.5306
G01 X14.4412 Y19.5348
G01 X14.3459 Y19.5587
G01 X14.3306 Y19.5621
G01 X14.3151 Y19.5648
G01 X14.2180 Y19.5792
G01 X14.2024 Y19.5811
G01 X14.1868 Y19.5823
G01 X14.0887 Y19.5871
G01 X14.0730 Y19.5875
G01 X14.0573 Y19.5871
G01 X13.9592 Y19.5823
G01 X13.9436 Y19.5811
G01 X13.9280 Y19.5792
G01 X13.8309 Y19.5648
G01 X13.8154 Y19.5621
G01 X13.8001 Y19.5587
G01 X13.7048 Y19.5348
G01 X13.6897 Y19.5306
G01 X13.6748 Y19.5257
G01 X13.5823 Y19.4926
G01 X13.5677 Y19.4870
G01 X13.5533 Y19.4806
G01 X13.4645 Y19.4386
G01 X13.4505 Y19.4316
G01 X13.4369 Y19.4238
G01 X13.3526 Y19.3734
G01 X13.3394 Y19.3650
G01 X13.3265 Y19.3559
G01 X13.2477 Y19.2974
G01 X13.2353 Y19.2878
G01 X13.2234 Y19.2775
G01 X13.1506 Y19.2116
G01 X13.1393 Y19.2007
G01 X13.1284 Y19.1894
G01 X13.0625 Y19.1166
G01 X13.0522 Y19.1047
G01 X13.0426 Y19.0923
G01 X12.9841 Y19.0135
G01 X12.9750 Y19.0006
G01 X12.9666 Y18.9874
G01 X12.9162 Y18.9031
G01 X12.9084 Y18.8895
G01 X12.9014 Y18.8755
G01 X12.8594 Y18.7867
G01 X12.8530 Y18.7723
G01 X12.8474 Y18.7577
G01 X12.8143 Y18.6652
G01 X12.8094 Y18.6503
G01 X12.8052 Y18.6352
G01 X12.7813 Y18.5399
G01 X12.7779 Y18.5246
G01 X12.7752 Y18.5091
G01 X12.7597 Y18.4042
G01 X12.7577 Y18.3808
G01 X12.7529 Y18.2827
G01 X12.7525 Y18.2670
G01 X12.7525 Y8.7170
G01 X12.7529 Y8.7013
G01 X12.7577 Y8.6032
G01 X12.7589 Y8.5876
G01 X12.7608 Y8.5720
G01 X12.7752 Y8.4749
G01 X12.7779 Y8.4594
G01 X12.7813 Y8.4441
G01 X12.8052 Y8.3488
G01 X12.8094 Y8.3337
G01 X12.8143 Y8.3188
G01 X12.8474 Y8.2263
G01 X12.8530 Y8.2117
G01 X12.8594 Y8.1973
G01 X12.9014 Y8.1085
G01 X12.9084 Y8.0945
G01 X12.9162 Y8.0809
G01 X12.9666 Y7.9966
G01 X12.9750 Y7.9834
G01 X12.9841 Y7.9705
G01 X13.0426 Y7.8917
G01 X13.0522 Y7.8793
G01 X13.0625 Y7.8674
G01 X13.1284 Y7.7946
G01 X13.1393 Y7.7833
G01 X13.1506 Y7.7724
G01 X13.2234 Y7.7065
G01 X13.2353 Y7.6962
G01 X13.2477 Y7.6866
G01 X13.3265 Y7.6281
G01 X13.3394 Y7.6190
G01 X13.3526 Y7.6106
G01 X13.4369 Y7.5602
G01 X13.4505 Y7.5524
G01 X13.4645 Y7.5454
G01 X13.5533 Y7.5034
G01 X13.5677 Y7.4970
G01 X13.5823 Y7.4914
G01 X13.6748 Y7.4583
G01 X13.6897 Y7.4534
G01 X13.7048 Y7.4492
G01 X13.8001 Y7.4253
G01 X13.8154 Y7.4219
G01 X13.8309 Y7.4192
G01 X13.9358 Y7.4037
G01 X13.9592 Y7.4017
G01 X14.0573 Y7.3969
G01 X14.0730 Y7.3965
G01 X14.0887 Y7.3969
G01 X14.1868 Y7.4017
G01 X14.2024 Y7.4029
G01 X14.2180 Y7.4048
G01 X14.3151 Y7.4192
G01 X14.3306 Y7.4219
G01 X14.3459 Y7.4253
G01 X14.4412 Y7.4492
G01 X14.4563 Y7.4534
G01 X14.4712 Y7.4583
G01 X14.5637 Y7.4914
G01 X14.5783 Y7.4970
G01 X14.5927 Y7.5034
G01 X14.6815 Y7.5454
G01 X14.6955 Y7.5524
G01 X14.7091 Y7.5602
G01 X14.7934 Y7.6106
G01 X14.8066 Y7.6190
G01 X14.8195 Y7.6281
G01 X14.8983 Y7.6866
G01 X14.9107 Y7.6962
G01 X14.9226 Y7.7065
G01 X14.9954 Y7.7724
G01 X15.0067 Y7.7833
G01 X15.0176 Y7.7946
G01 X15.0835 Y7.8674
G01 X15.0938 Y7.8793
G01 X15.1034 Y7.8917
G01 X15.1619 Y7.9705
G01 X15.1710 Y7.9834
G01 X15.1794 Y7.9966
G01 X15.2298 Y8.0809
G01 X15.2376 Y8.0945
G01 X15.2446 Y8.1085
G01 X15.2866 Y8.1973
G01 X15.2930 Y8.2117
G01 X15.2986 Y8.2263
G01 X15.3317 Y8.3188
G01 X15.3366 Y8.3337
G01 X15.3408 Y8.3488
G01 X15.3647 Y8.4441
G01 X15.3681 Y8.4594
G01 X15.3708 Y8.4749
G01 X15.3863 Y8.5798
G01 X15.3883 Y8.6032
G01 X15.3931 Y8.7013
G01 X15.3935 Y8.7170
G01 X15.3935 Y18.2670
G00 Z1.0000
G00 X15.5535 Y18.2670
G01 F30.00
G01 Z-0.0800
G01 F100.00
G01 X15.5529 Y18.2906
G01 X15.5481 Y18.3886
G01 X15.5464 Y18.4121
G01 X15.5435 Y18.4355
G01 X15.5291 Y18.5326
G01 X15.5251 Y18.5558
G01 X15.5199 Y18.5788
G01 X15.4960 Y18.6741
G01 X15.4898 Y18.6968
G01 X15.4824 Y18.7191
G01 X15.4493 Y18.8116
G01 X15.4408 Y18.8336
G01 X15.4362 Y18.8444
G01 X15.3841 Y18.9544
G01 X15.3787 Y18.9649
G01 X15.3671 Y18.9854
G01 X15.3166 Y19.0696
G01 X15.3040 Y19.0895
G01 X15.2904 Y19.1088
G01 X15.2248 Y19.1970
G01 X15.2174 Y19.2062
G01 X15.2021 Y19.2241
G01 X15.1361 Y19.2968
G01 X15.1199 Y19.3139
G01 X15.1028 Y19.3301
G01 X15.0301 Y19.3961
G01 X15.0122 Y19.4114
G01 X14.9936 Y19.4259
G01 X14.9148 Y19.4844
G01 X14.8955 Y19.4980
G01 X14.8756 Y19.5106
G01 X14.7914 Y19.5611
G01 X14.7709 Y19.5727
G01 X14.7499 Y19.5833
G01 X14.6611 Y19.6253
G01 X14.6396 Y19.6348
G01 X14.6176 Y19.6433
G01 X14.5251 Y19.6764
G01 X14.5028 Y19.6838
G01 X14.4801 Y19.6900
G01 X14.3848 Y19.7139
G01 X14.3618 Y19.7191
G01 X14.3386 Y19.7231
G01 X14.2415 Y19.7375
G01 X14.2181 Y19.7404
G01 X14.1946 Y19.7421
G01 X14.0966 Y19.7469
G01 X14.0730 Y19.7475
G01 X14.0494 Y19.7469
G01 X13.9514 Y19.7421
G01 X13.9279 Y19.7404
G01 X13.9045 Y19.7375
G01 X13.8074 Y19.7231
G01 X13.7842 Y19.7191
G01 X13.7612 Y19.7139
G01 X13.6659 Y19.6900
G01 X13.6432 Y19.6838
G01 X13.6209 Y19.6764
G01 X13.5284 Y19.6433
G01 X13.5064 Y19.6348
G01 X13.4849 Y19.6253
G01 X13.3961 Y19.5833
G01 X13.3751 Y19.5727
G01 X13.3546 Y19.5611
G01 X13.2704 Y19.5106
G01 X13.2505 Y19.4980
G01 X13.2312 Y19.4844
G01 X13.1524 Y19.4259
G01 X13.1338 Y19.4114
G01 X13.1248 Y19.4039
G01 X13.0346 Y19.3221
G01 X13.0261 Y19.3139
G01 X13.0099 Y19.2968
G01 X12.9361 Y19.2152
G01 X12.9212 Y19.1970
G01 X12.9141 Y19.1876
G01 X12.8556 Y19.1088
G01 X12.8420 Y19.0895
G01 X12.8294 Y19.0696
G01 X12.7789 Y18.9854
G01 X12.7730 Y18.9752
G01 X12.7619 Y18.9544
G01 X12.7098 Y18.8444
G01 X12.7008 Y18.8226
G01 X12.6967 Y18.8116
G01 X12.6636 Y18.7191
G01 X12.6562 Y18.6968
G01 X12.6500 Y18.6741
G01 X12.6234 Y18.5674
G01 X12.6188 Y18.5442
G01 X12.6169 Y18.5326
G01 X12.6025 Y18.4355
G01 X12.5996 Y18.4121
G01 X12.5979 Y18.3886
G01 X12.5931 Y18.2906
G01 X12.5925 Y18.2670
G01 X12.5925 Y8.7170
G01 X12.5931 Y8.6934
G01 X12.5979 Y8.5954
G01 X12.5996 Y8.5719
G01 X12.6025 Y8.5485
G01 X12.6169 Y8.4514
G01 X12.6209 Y8.4282
G01 X12.6261 Y8.4052
G01 X12.6500 Y8.3099
G01 X12.6530 Y8.2985
G01 X12.6598 Y8.2760
G01 X12.6967 Y8.1724
G01 X12.7052 Y8.1504
G01 X12.7147 Y8.1289
G01 X12.7567 Y8.0401
G01 X12.7673 Y8.0191
G01 X12.7789 Y7.9986
G01 X12.8294 Y7.9144
G01 X12.8420 Y7.8945
G01 X12.8556 Y7.8752
G01 X12.9141 Y7.7964
G01 X12.9286 Y7.7778
G01 X12.9439 Y7.7599
G01 X13.0099 Y7.6872
G01 X13.0261 Y7.6701
G01 X13.0346 Y7.6619
G01 X13.1159 Y7.5879
G01 X13.1338 Y7.5726
G01 X13.1524 Y7.5581
G01 X13.2312 Y7.4996
G01 X13.2505 Y7.4860
G01 X13.2704 Y7.4734
G01 X13.3546 Y7.4229
G01 X13.3751 Y7.4113
G01 X13.3961 Y7.4007
G01 X13.4849 Y7.3587
G01 X13.5064 Y7.3492
G01 X13.5284 Y7.3407
G01 X13.6209 Y7.3076
G01 X13.6432 Y7.3002
G01 X13.6659 Y7.2940
G01 X13.7726 Y7.2674
G01 X13.7958 Y7.2628
G01 X13.8074 Y7.2609
G01 X13.9045 Y7.2465
G01 X13.9279 Y7.2436
G01 X13.9514 Y7.2419
G01 X14.0494 Y7.2371
G01 X14.0730 Y7.2365
G01 X14.0966 Y7.2371
G01 X14.1946 Y7.2419
G01 X14.2181 Y7.2436
G01 X14.2415 Y7.2465
G01 X14.3386 Y7.2609
G01 X14.3618 Y7.2649
G01 X14.3848 Y7.2701
G01 X14.4801 Y7.2940
G01 X14.5028 Y7.3002
G01 X14.5251 Y7.3076
G01 X14.6176 Y7.3407
G01 X14.6396 Y7.3492
G01 X14.6611 Y7.3587
G01 X14.7499 Y7.4007
G01 X14.7709 Y7.4113
G01 X14.7914 Y7.4229
G01 X14.8756 Y7.4734
G01 X14.8955 Y7.4860
G01 X14.9052 Y7.4927
G01 X14.9936 Y7.5581
G01 X15.0122 Y7.5726
G01 X15.0301 Y7.5879
G01 X15.1028 Y7.6539
G01 X15.1199 Y7.6701
G01 X15.1361 Y7.6872
G01 X15.2021 Y7.7599
G01 X15.2174 Y7.7778
G01 X15.2319 Y7.7964
G01 X15.2904 Y7.8752
G01 X15.3040 Y7.8945
G01 X15.3166 Y7.9144
G01 X15.3671 Y7.9986
G01 X15.3787 Y8.0191
G01 X15.3893 Y8.0401
G01 X15.4313 Y8.1289
G01 X15.4408 Y8.1504
G01 X15.4493 Y8.1724
G01 X15.4824 Y8.2649
G01 X15.4898 Y8.2872
G01 X15.4960 Y8.3099
G01 X15.5199 Y8.4052
G01 X15.5251 Y8.4282
G01 X15.5291 Y8.4514
G01 X15.5435 Y8.5485
G01 X15.5464 Y8.5719
G01 X15.5481 Y8.5954
G01 X15.5529 Y8.6934
G01 X15.5535 Y8.7170
G01 X15.5535 Y18.2670
G00 Z1.0000
G00 X17.4093 Y20.4570
G01 F30.00
G01 Z-0.0800
G01 F100.00
G01 X20.2125 Y17.6538
G01 X20.2125 Y15.1170
G01 X20.2131 Y15.0934
G01 X20.2179 Y14.9954
G01 X20.2196 Y14.9719
G01 X20.2225 Y14.9485
G01 X20.2369 Y14.8514
G01 X20.2409 Y14.8282
G01 X20.2461 Y14.8052
G01 X20.2700 Y14.7099
G01 X20.2762 Y14.6872
G01 X20.2836 Y14.6649
G01 X20.3167 Y14.5724
G01 X20.3252 Y14.5504
G01 X20.3347 Y14.5289
G01 X20.3767 Y14.4401
G01 X20.3873 Y14.4191
G01 X20.3989 Y14.3986
G01 X20.4494 Y14.3144
G01 X20.4620 Y14.2945
G01 X20.4756 Y14.2752
G01 X20.5341 Y14.1964
G01 X20.5486 Y14.1778
G01 X20.5639 Y14.1599
G01 X20.6299 Y14.0872
G01 X20.6461 Y14.0701
G01 X20.6632 Y14.0539
G01 X20.7359 Y13.9879
G01 X20.7538 Y13.9726
G01 X20.7724 Y13.9581
G01 X20.8512 Y13.8996
G01 X20.8705 Y13.8860
G01 X20.8904 Y13.8734
G01 X20.9746 Y13.8229
G01 X20.9951 Y13.8113
G01 X21.0161 Y13.8007
G01 X21.1049 Y13.7587
G01 X21.1264 Y13.7492
G01 X21.1484 Y13.7407
G01 X21.2409 Y13.7076
G01 X21.2632 Y13.7002
G01 X21.2859 Y13.6940
G01 X21.3812 Y13.6701
G01 X21.4042 Y13.6649
G01 X21.4274 Y13.6609
G01 X21.5245 Y13.6465
G01 X21.5479 Y13.6436
G01 X21.5714 Y13.6419
G01 X21.6694 Y13.6371
G01 X21.6930 Y13.6365
G01 X21.7166 Y13.6371
G01 X21.8146 Y13.6419
G01 X21.8381 Y13.6436
G01 X21.8615 Y13.6465
G01 X21.9586 Y13.6609
G01 X21.9818 Y13.6649
G01 X22.0048 Y13.6701
G01 X22.1001 Y13.6940
G01 X22.1228 Y13.7002
G01 X22.1451 Y13.7076
G01 X22.2376 Y13.7407
G01 X22.2596 Y13.7492
G01 X22.2811 Y13.7587
G01 X22.3699 Y13.8007
G01 X22.3909 Y13.8113
G01 X22.4114 Y13.8229
G01 X22.4956 Y13.8734
G01 X22.5155 Y13.8860
G01 X22.5348 Y13.8996
G01 X22.6136 Y13.9581
G01 X22.6322 Y13.9726
G01 X22.6501 Y13.9879
G01 X22.7228 Y14.0539
G01 X22.7399 Y14.0701
G01 X22.7561 Y14.0872
G01 X22.8221 Y14.1599
G01 X22.8374 Y14.1778
G01 X22.8519 Y14.1964
G01 X22.9104 Y14.2752
G01 X22.9240 Y14.2945
G01 X22.9366 Y14.3144
G01 X22.9871 Y14.3986
G01 X22.9987 Y14.4191
G01 X23.0093 Y14.4401
G01 X23.0513 Y14.5289
G01 X23.0608 Y14.5504
G01 X23.0693 Y14.5724
G01 X23.1024 Y14.6649
G01 X23.1098 Y14.6872
G01 X23.1160 Y14.7099
G01 X23.1399 Y14.8052
G01 X23.1451 Y14.8282
G01 X23.1491 Y14.8514
G01 X23.1635 Y14.9485
G01 X23.1664 Y14.9719
G01 X23.1681 Y14.9954
G01 X23.1729 Y15.0934
G01 X23.1735 Y15.1170
G01 X23.1734 Y18.2788
G01 X23.1681 Y18.3886
G01 X23.1664 Y18.4121
G01 X23.1635 Y18.4355
G01 X23.1491 Y18.5326
G01 X23.1451 Y18.5558
G01 X23.1399 Y18.5788
G01 X23.1160 Y18.6741
G01 X23.1098 Y18.6968
G01 X23.1024 Y18.7191
G01 X23.0652 Y18.8226
G01 X23.0608 Y18.8336
G01 X23.0513 Y18.8551
G01 X23.0093 Y18.9439
G01 X22.9987 Y18.9649
G01 X22.9871 Y18.9854
G01 X22.9366 Y19.0696
G01 X22.9240 Y19.0895
G01 X22.9104 Y19.1088
G01 X22.8519 Y19.1876
G01 X22.8374 Y19.2062
G01 X22.8221 Y19.2241
G01 X22.7481 Y19.3054
G01 X18.0170 Y24.0367
G01 X18.0170 Y25.9370
G01 X18.0164 Y25.9606
G01 X18.0157 Y25.9723
G01 X18.0134 Y25.9958
G01 X18.0118 Y26.0074
G01 X18.0078 Y26.0306
G01 X18.0026 Y26.0536
G01 X17.9996 Y26.0650
G01 X17.9928 Y26.0876
G01 X17.9848 Y26.1097
G01 X17.9758 Y26.1315
G01 X17.9709 Y26.1422
G01 X17.9603 Y26.1633
G01 X17.9487 Y26.1838
G01 X17.9361 Y26.2037
G01 X17.9225 Y26.2229
G01 X17.9080 Y26.2415
G01 X17.9005 Y26.2505
G01 X17.8846 Y26.2680
G01 X17.8764 Y26.2764
G01 X17.8593 Y26.2927
G01 X17.8415 Y26.3080
G01 X17.8229 Y26.3225
G01 X17.8037 Y26.3361
G01 X17.7838 Y26.3487
G01 X17.7736 Y26.3546
G01 X17.7528 Y26.3657
G01 X17.7315 Y26.3758
G01 X17.7097 Y26.3848
G01 X17.6876 Y26.3928
G01 X17.6650 Y26.3996
G01 X17.6422 Y26.4053
G01 X17.6191 Y26.4099
G01 X17.6074 Y26.4118
G01 X17.5840 Y26.4147
G01 X17.5606 Y26.4164
G01 X17.5370 Y26.4170
G01 X12.5252 Y26.4169
G01 X12.5134 Y26.4164
G01 X12.4900 Y26.4147
G01 X12.4666 Y26.4118
G01 X12.4434 Y26.4078
G01 X12.4204 Y26.4026
G01 X12.3977 Y26.3963
G01 X12.3753 Y26.3889
G01 X12.3533 Y26.3805
G01 X12.3318 Y26.3709
G01 X12.3107 Y26.3603
G01 X12.2902 Y26.3487
G01 X12.2802 Y26.3425
G01 X12.2703 Y26.3361
G01 X12.2511 Y26.3225
G01 X12.2325 Y26.3080
G01 X12.2147 Y26.2927
G01 X12.1976 Y26.2764
G01 X12.1894 Y26.2680
G01 X12.1735 Y26.2505
G01 X12.1586 Y26.2323
G01 X12.1446 Y26.2134
G01 X12.1315 Y26.1938
G01 X12.1194 Y26.1736
G01 X12.1083 Y26.1528
G01 X12.0982 Y26.1315
G01 X12.0892 Y26.1097
G01 X12.0812 Y26.0876
G01 X12.0744 Y26.0650
G01 X12.0687 Y26.0422
G01 X12.0641 Y26.0191
G01 X12.0606 Y25.9958
G01 X12.0583 Y25.9723
G01 X12.0576 Y25.9606
G01 X12.0570 Y25.9370
G01 X12.0571 Y20.9252
G01 X12.0583 Y20.9017
G01 X12.0593 Y20.8900
G01 X12.0622 Y20.8666
G01 X12.0662 Y20.8434
G01 X12.0714 Y20.8204
G01 X12.0744 Y20.8090
G01 X12.0812 Y20.7864
G01 X12.0892 Y20.7643
G01 X12.0982 Y20.7425
G01 X12.1083 Y20.7212
G01 X12.1194 Y20.7004
G01 X12.1315 Y20.6802
G01 X12.1379 Y20.6703
G01 X12.1515 Y20.6511
G01 X12.1660 Y20.6325
G01 X12.1813 Y20.6147
G01 X12.1976 Y20.5976
G01 X12.2147 Y20.5813
G01 X12.2325 Y20.5660
G01 X12.2511 Y20.5515
G01 X12.2703 Y20.5379
G01 X12.2902 Y20.5253
G01 X12.3107 Y20.5137
G01 X12.3318 Y20.5031
G01 X12.3533 Y20.4935
G01 X12.3753 Y20.4851
G01 X12.3864 Y20.4812
G01 X12.4090 Y20.4744
G01 X12.4318 Y20.4687
G01 X12.4549 Y20.4641
G01 X12.4782 Y20.4606
G01 X12.5017 Y20.4583
G01 X12.5252 Y20.4571
G01 X17.4093 Y20.4570
G00 Z1.0000
G00 X17.4755 Y20.6170
G01 F30.00
G01 Z-0.0800
G01 F100.00
G01 X20.3725 Y17.7200
G01 X20.3725 Y15.1170
G01 X20.3729 Y15.1013
G01 X20.3782 Y14.9954
G01 X20.3808 Y14.9720
G01 X20.3952 Y14.8749
G01 X20.3979 Y14.8594
G01 X20.4013 Y14.8441
G01 X20.4252 Y14.7488
G01 X20.4294 Y14.7337
G01 X20.4343 Y14.7188
G01 X20.4674 Y14.6263
G01 X20.4730 Y14.6117
G01 X20.4794 Y14.5973
G01 X20.5214 Y14.5085
G01 X20.5284 Y14.4945
G01 X20.5362 Y14.4809
G01 X20.5866 Y14.3966
G01 X20.5950 Y14.3834
G01 X20.6041 Y14.3705
G01 X20.6673 Y14.2854
G01 X20.6825 Y14.2674
G01 X20.7484 Y14.1946
G01 X20.7593 Y14.1833
G01 X20.7706 Y14.1724
G01 X20.8434 Y14.1065
G01 X20.8553 Y14.0962
G01 X20.8677 Y14.0866
G01 X20.9465 Y14.0281
G01 X20.9594 Y14.0190
G01 X20.9726 Y14.0106
G01 X21.0569 Y13.9602
G01 X21.0705 Y13.9524
G01 X21.0845 Y13.9454
G01 X21.1733 Y13.9034
G01 X21.1877 Y13.8970
G01 X21.2023 Y13.8914
G01 X21.2948 Y13.8583
G01 X21.3097 Y13.8534
G01 X21.3248 Y13.8492
G01 X21.4201 Y13.8253
G01 X21.4354 Y13.8219
G01 X21.4509 Y13.8192
G01 X21.5480 Y13.8048
G01 X21.5636 Y13.8029
G01 X21.5792 Y13.8017
G01 X21.6773 Y13.7969
G01 X21.6930 Y13.7965
G01 X21.7087 Y13.7969
G01 X21.8068 Y13.8017
G01 X21.8224 Y13.8029
G01 X21.8380 Y13.8048
G01 X21.9351 Y13.8192
G01 X21.9506 Y13.8219
G01 X21.9659 Y13.8253
G01 X22.0612 Y13.8492
G01 X22.0763 Y13.8534
G01 X22.0912 Y13.8583
G01 X22.1837 Y13.8914
G01 X22.1983 Y13.8970
G01 X22.2127 Y13.9034
G01 X22.3015 Y13.9454
G01 X22.3155 Y13.9524
G01 X22.3291 Y13.9602
G01 X22.4134 Y14.0106
G01 X22.4266 Y14.0190
G01 X22.4395 Y14.0281
G01 X22.5246 Y14.0913
G01 X22.5426 Y14.1065
G01 X22.6154 Y14.1724
G01 X22.6267 Y14.1833
G01 X22.6376 Y14.1946
G01 X22.7035 Y14.2674
G01 X22.7138 Y14.2793
G01 X22.7234 Y14.2917
G01 X22.7819 Y14.3705
G01 X22.7910 Y14.3834
G01 X22.7994 Y14.3966
G01 X22.8498 Y14.4809
G01 X22.8576 Y14.4945
G01 X22.8646 Y14.5085
G01 X22.9066 Y14.5973
G01 X22.9130 Y14.6117
G01 X22.9186 Y14.6263
G01 X22.9517 Y14.7188
G01 X22.9566 Y14.7337
G01 X22.9608 Y14.7488
G01 X22.9847 Y14.8441
G01 X22.9881 Y14.8594
G01 X22.9908 Y14.8749
G01 X23.0052 Y14.9720
G01 X23.0078 Y14.9954
G01 X23.0131 Y15.1013
G01 X23.0135 Y15.1170
G01 X23.0134 Y18.2749
G01 X23.0083 Y18.3808
G01 X23.0071 Y18.3964
G01 X23.0052 Y18.4120
G01 X22.9908 Y18.5091
G01 X22.9881 Y18.5246
G01 X22.9847 Y18.5399
G01 X22.9608 Y18.6352
G01 X22.9566 Y18.6503
G01 X22.9517 Y18.6652
G01 X22.9159 Y18.7650
G01 X22.9066 Y18.7867
G01 X22.8646 Y18.8755
G01 X22.8576 Y18.8895
G01 X22.8498 Y18.9031
G01 X22.7994 Y18.9874
G01 X22.7910 Y19.0006
G01 X22.7819 Y19.0135
G01 X22.7234 Y19.0923
G01 X22.7138 Y19.1047
G01 X22.7035 Y19.1166
G01 X22.6322 Y19.1951
G01 X17.8570 Y23.9705
G01 X17.8569 Y25.9449
G01 X17.8555 Y25.9684
G01 X17.8535 Y25.9840
G01 X17.8509 Y25.9994
G01 X17.8454 Y26.0223
G01 X17.8408 Y26.0374
G01 X17.8356 Y26.0522
G01 X17.8295 Y26.0667
G01 X17.8228 Y26.0809
G01 X17.8115 Y26.1015
G01 X17.8031 Y26.1148
G01 X17.7940 Y26.1276
G01 X17.7793 Y26.1460
G01 X17.7633 Y26.1633
G01 X17.7519 Y26.1741
G01 X17.7400 Y26.1844
G01 X17.7276 Y26.1940
G01 X17.7082 Y26.2074
G01 X17.6947 Y26.2154
G01 X17.6809 Y26.2228
G01 X17.6667 Y26.2295
G01 X17.6522 Y26.2356
G01 X17.6374 Y26.2408
G01 X17.6223 Y26.2454
G01 X17.6071 Y26.2492
G01 X17.5917 Y26.2523
G01 X17.5684 Y26.2555
G01 X17.5527 Y26.2566
G01 X17.5370 Y26.2570
G01 X12.5291 Y26.2569
G01 X12.5135 Y26.2561
G01 X12.4978 Y26.2546
G01 X12.4823 Y26.2523
G01 X12.4669 Y26.2492
G01 X12.4441 Y26.2432
G01 X12.4292 Y26.2383
G01 X12.4145 Y26.2326
G01 X12.4002 Y26.2263
G01 X12.3862 Y26.2192
G01 X12.3658 Y26.2074
G01 X12.3464 Y26.1940
G01 X12.3340 Y26.1844
G01 X12.3221 Y26.1741
G01 X12.3107 Y26.1633
G01 X12.2999 Y26.1519
G01 X12.2896 Y26.1400
G01 X12.2800 Y26.1276
G01 X12.2709 Y26.1148
G01 X12.2625 Y26.1015
G01 X12.2512 Y26.0809
G01 X12.2445 Y26.0667
G01 X12.2384 Y26.0522
G01 X12.2332 Y26.0374
G01 X12.2286 Y26.0223
G01 X12.2248 Y26.0071
G01 X12.2217 Y25.9917
G01 X12.2194 Y25.9762
G01 X12.2179 Y25.9605
G01 X12.2170 Y25.9370
G01 X12.2171 Y20.9291
G01 X12.2179 Y20.9135
G01 X12.2194 Y20.8978
G01 X12.2217 Y20.8823
G01 X12.2248 Y20.8669
G01 X12.2286 Y20.8517
G01 X12.2332 Y20.8366
G01 X12.2414 Y20.8145
G01 X12.2512 Y20.7931
G01 X12.2586 Y20.7793
G01 X12.2666 Y20.7658
G01 X12.2754 Y20.7527
G01 X12.2847 Y20.7401
G01 X12.2999 Y20.7221
G01 X12.3107 Y20.7107
G01 X12.3221 Y20.6999
G01 X12.3340 Y20.6896
G01 X12.3464 Y20.6800
G01 X12.3592 Y20.6709
G01 X12.3725 Y20.6625
G01 X12.3862 Y20.6548
G01 X12.4002 Y20.6477
G01 X12.4145 Y20.6414
G01 X12.4292 Y20.6357
G01 X12.4441 Y20.6308
G01 X12.4592 Y20.6266
G01 X12.4746 Y20.6231
G01 X12.4900 Y20.6205
G01 X12.5056 Y20.6185
G01 X12.5291 Y20.6171
G01 X17.4755 Y20.6170
G00 Z1.0000
G00 X17.5417 Y20.7771
G01 F30.00
G01 Z-0.0800
G01 F100.00
G01 X20.5325 Y17.7863
G01 X20.5325 Y15.1170
G01 X20.5375 Y15.0111
G01 X20.5390 Y14.9955
G01 X20.5535 Y14.8983
G01 X20.5565 Y14.8829
G01 X20.5825 Y14.7801
G01 X20.6180 Y14.6802
G01 X20.6240 Y14.6657
G01 X20.6695 Y14.5699
G01 X20.7239 Y14.4789
G01 X20.7326 Y14.4658
G01 X20.7959 Y14.3808
G01 X20.8724 Y14.2964
G01 X20.9568 Y14.2199
G01 X21.0483 Y14.1521
G01 X21.1459 Y14.0935
G01 X21.2489 Y14.0448
G01 X21.3561 Y14.0065
G01 X21.4666 Y13.9788
G01 X21.5793 Y13.9621
G01 X21.6930 Y13.9565
G01 X21.8067 Y13.9621
G01 X21.9194 Y13.9788
G01 X22.0299 Y14.0065
G01 X22.1371 Y14.0448
G01 X22.2401 Y14.0935
G01 X22.3311 Y14.1479
G01 X22.3442 Y14.1566
G01 X22.4230 Y14.2151
G01 X22.4352 Y14.2251
G01 X22.5136 Y14.2964
G01 X22.5849 Y14.3748
G01 X22.5949 Y14.3870
G01 X22.6579 Y14.4723
G01 X22.7126 Y14.5631
G01 X22.7200 Y14.5770
G01 X22.7652 Y14.6729
G01 X22.8035 Y14.7801
G01 X22.8312 Y14.8906
G01 X22.8479 Y15.0033
G01 X22.8535 Y15.1170
G01 X22.8535 Y18.2709
G01 X22.8479 Y18.3807
G01 X22.8312 Y18.4934
G01 X22.8035 Y18.6039
G01 X22.7666 Y18.7075
G01 X22.7620 Y18.7183
G01 X22.7165 Y18.8141
G01 X22.6579 Y18.9117
G01 X22.5901 Y19.0032
G01 X22.5163 Y19.0848
G01 X17.6970 Y23.9042
G01 X17.6970 Y25.9409
G01 X17.6958 Y25.9566
G01 X17.6939 Y25.9682
G01 X17.6912 Y25.9797
G01 X17.6876 Y25.9909
