(G-CODE GENERATED BY FLATCAM v8.994 - www.flatcam.org - Version Date: 2020/11/7)

(Name: xt60_adapter-B_Cu.gbr_iso_combined_cnc)
(Type: G-code from Geometry)
(Units: MM)

(Created on Friday, 13 January 2023 at 10:59)

(This preprocessor is the default preprocessor used by FlatCAM.)
(It is made to work with MACH3 compatible motion controllers.)

(TOOL DIAMETER: 0.32 mm)
(Feedrate_XY: 100.0 mm/min)
(Feedrate_Z: 50.0 mm/min)
(Feedrate rapids 1500.0 mm/min)

(Z_Cut: -0.11 mm)
(Z_Move: 1.0 mm)
(Z Start: None mm)
(Z End: 15.0 mm)
(X,Y End: 0.0000, 0.0000 mm)
(Steps per circle: 64)
(Preprocessor Geometry: default)

(X range:    1.2245 ...   28.5555  mm)
(Y range:    0.5245 ...   65.3539  mm)

(Spindle Speed: 1200.0 RPM)
G21
G90
G94

G01 F100.00

M5
G00 Z15.0000
G00 X0.0000 Y0.0000
T1
M6    
(MSG, Change to Tool Dia = 0.3200)
M0
G00 Z15.0000

M03 S1200.0
G01 F100.00
G00 X4.6234 Y1.6124
G01 F50.00
G01 Z-0.1100
G01 F100.00
G01 X4.5202 Y1.5865
G01 X4.5732 Y1.5965
G01 X4.6234 Y1.6124
G00 Z1.0000
G00 X4.8716 Y1.6948
G01 F50.00
G01 Z-0.1100
G01 F100.00
G01 X4.7770 Y1.6609
G01 X4.8432 Y1.6819
G01 X4.8716 Y1.6948
G00 Z1.0000
G00 X5.1139 Y1.8069
G01 F50.00
G01 Z-0.1100
G01 F100.00
G01 X5.0933 Y1.7964
G01 X5.0521 Y1.7769
G01 X5.1009 Y1.7991
G01 X5.1139 Y1.8069
G00 Z1.0000
G00 X5.3986 Y1.9904
G01 F50.00
G01 Z-0.1100
G01 F100.00
G01 X5.3231 Y1.9344
G01 X5.3428 Y1.9464
G01 X5.3986 Y1.9904
G00 Z1.0000
G00 X5.6077 Y2.1645
G01 F50.00
G01 Z-0.1100
G01 F100.00
G01 X5.5295 Y2.0936
G01 X5.5652 Y2.1217
G01 X5.6077 Y2.1645
G00 Z1.0000
G00 X5.7897 Y2.3543
G01 F50.00
G01 Z-0.1100
G01 F100.00
G01 X5.7196 Y2.2769
G01 X5.7649 Y2.3225
G01 X5.7897 Y2.3543
G00 Z1.0000
G00 X5.9483 Y2.5613
G01 F50.00
G01 Z-0.1100
G01 F100.00
G01 X5.9457 Y2.5576
G01 X5.8963 Y2.4910
G01 X5.9390 Y2.5458
G01 X5.9483 Y2.5613
G00 Z1.0000
G00 X6.1119 Y2.8482
G01 F50.00
G01 Z-0.1100
G01 F100.00
G01 X6.0820 Y2.7851
G01 X6.0772 Y2.7753
G01 X6.0851 Y2.7884
G01 X6.1119 Y2.8482
G00 Z1.0000
G00 X6.2207 Y3.1105
G01 F50.00
G01 Z-0.1100
G01 F100.00
G01 X6.1860 Y3.0134
G01 X6.2009 Y3.0467
G01 X6.2207 Y3.1105
G00 Z1.0000
G00 X6.2937 Y3.3655
G01 F50.00
G01 Z-0.1100
G01 F100.00
G01 X6.2679 Y3.2625
G01 X6.2849 Y3.3172
G01 X6.2937 Y3.3655
G00 Z1.0000
G00 X6.3374 Y3.6228
G01 F50.00
G01 Z-0.1100
G01 F100.00
G01 X6.3231 Y3.5262
G01 X6.3358 Y3.5957
G01 X6.3374 Y3.6228
G00 Z1.0000
G00 X6.3516 Y3.8611
G01 F50.00
G01 Z-0.1100
G01 F100.00
G01 X6.3508 Y3.8450
G01 X6.3533 Y3.8872
G01 X6.3530 Y3.9189
G01 X6.3465 Y3.9984
G01 X6.3519 Y3.8870
G01 X6.3516 Y3.8611
G00 Z1.0000
G00 X6.2877 Y3.8643
G01 F50.00
G01 Z-0.1100
G01 F100.00
G01 X6.2880 Y3.8784
G01 X6.2877 Y3.8925
G01 X6.2780 Y4.0886
G01 X6.2770 Y4.1027
G01 X6.2753 Y4.1167
G01 X6.2465 Y4.3108
G01 X6.2440 Y4.3248
G01 X6.2409 Y4.3386
G01 X6.1932 Y4.5289
G01 X6.1895 Y4.5426
G01 X6.1850 Y4.5560
G01 X6.1189 Y4.7408
G01 X6.1138 Y4.7540
G01 X6.1081 Y4.7669
G01 X6.0242 Y4.9443
G01 X6.0178 Y4.9570
G01 X6.0109 Y4.9693
G01 X5.9100 Y5.1376
G01 X5.9024 Y5.1495
G01 X5.8943 Y5.1611
G01 X5.7773 Y5.3187
G01 X5.7686 Y5.3299
G01 X5.7594 Y5.3406
G01 X5.6276 Y5.4860
G01 X5.6179 Y5.4963
G01 X5.6076 Y5.5060
G01 X5.4622 Y5.6378
G01 X5.4515 Y5.6470
G01 X5.4403 Y5.6557
G01 X5.2827 Y5.7727
G01 X5.2711 Y5.7808
G01 X5.2592 Y5.7884
G01 X5.0909 Y5.8893
G01 X5.0786 Y5.8962
G01 X5.0659 Y5.9026
G01 X4.8885 Y5.9865
G01 X4.8756 Y5.9922
G01 X4.8624 Y5.9973
G01 X4.6776 Y6.0634
G01 X4.6642 Y6.0679
G01 X4.6505 Y6.0716
G01 X4.4602 Y6.1193
G01 X4.4464 Y6.1224
G01 X4.4324 Y6.1249
G01 X4.2383 Y6.1537
G01 X4.2243 Y6.1554
G01 X4.2102 Y6.1564
G01 X4.0141 Y6.1661
G01 X4.0000 Y6.1664
G01 X3.9859 Y6.1661
G01 X3.7898 Y6.1564
G01 X3.7757 Y6.1554
G01 X3.7617 Y6.1537
G01 X3.5676 Y6.1249
G01 X3.5536 Y6.1224
G01 X3.5398 Y6.1193
G01 X3.3495 Y6.0716
G01 X3.3358 Y6.0679
G01 X3.3224 Y6.0634
G01 X3.1376 Y5.9973
G01 X3.1244 Y5.9922
G01 X3.1115 Y5.9865
G01 X2.9341 Y5.9026
G01 X2.9214 Y5.8962
G01 X2.9091 Y5.8893
G01 X2.7408 Y5.7884
G01 X2.7289 Y5.7808
G01 X2.7173 Y5.7727
G01 X2.5597 Y5.6557
G01 X2.5485 Y5.6470
G01 X2.5378 Y5.6378
G01 X2.3924 Y5.5060
G01 X2.3821 Y5.4963
G01 X2.3724 Y5.4860
G01 X2.2406 Y5.3406
G01 X2.2314 Y5.3299
G01 X2.2227 Y5.3187
G01 X2.1057 Y5.1611
G01 X2.0976 Y5.1495
G01 X2.0900 Y5.1376
G01 X1.9891 Y4.9693
G01 X1.9822 Y4.9570
G01 X1.9758 Y4.9443
G01 X1.8919 Y4.7669
G01 X1.8862 Y4.7540
G01 X1.8811 Y4.7408
G01 X1.8150 Y4.5560
G01 X1.8105 Y4.5426
G01 X1.8068 Y4.5289
G01 X1.7591 Y4.3386
G01 X1.7560 Y4.3248
G01 X1.7535 Y4.3108
G01 X1.7247 Y4.1167
G01 X1.7230 Y4.1027
G01 X1.7220 Y4.0886
G01 X1.7123 Y3.8925
G01 X1.7120 Y3.8784
G01 X1.7123 Y3.8643
G01 X1.7220 Y3.6682
G01 X1.7230 Y3.6541
G01 X1.7247 Y3.6401
G01 X1.7535 Y3.4460
G01 X1.7560 Y3.4320
G01 X1.7591 Y3.4182
G01 X1.8068 Y3.2279
G01 X1.8105 Y3.2142
G01 X1.8150 Y3.2008
G01 X1.8811 Y3.0160
G01 X1.8862 Y3.0028
G01 X1.8919 Y2.9899
G01 X1.9758 Y2.8125
G01 X1.9822 Y2.7998
G01 X1.9891 Y2.7875
G01 X2.0900 Y2.6192
G01 X2.0976 Y2.6073
G01 X2.1057 Y2.5957
G01 X2.2227 Y2.4381
G01 X2.2314 Y2.4269
G01 X2.2406 Y2.4162
G01 X2.3724 Y2.2708
G01 X2.3821 Y2.2605
G01 X2.3924 Y2.2508
G01 X2.5378 Y2.1190
G01 X2.5485 Y2.1098
G01 X2.5597 Y2.1011
G01 X2.7173 Y1.9841
G01 X2.7289 Y1.9760
G01 X2.7408 Y1.9684
G01 X2.9091 Y1.8675
G01 X2.9214 Y1.8606
G01 X2.9341 Y1.8542
G01 X3.1115 Y1.7703
G01 X3.1244 Y1.7646
G01 X3.1376 Y1.7595
G01 X3.3224 Y1.6934
G01 X3.3358 Y1.6889
G01 X3.3495 Y1.6852
G01 X3.5398 Y1.6375
G01 X3.5536 Y1.6344
G01 X3.5676 Y1.6319
G01 X3.7617 Y1.6031
G01 X3.7757 Y1.6014
G01 X3.7898 Y1.6004
G01 X3.9859 Y1.5907
G01 X4.0000 Y1.5904
G01 X4.0141 Y1.5907
G01 X4.2102 Y1.6004
G01 X4.2243 Y1.6014
G01 X4.2383 Y1.6031
G01 X4.4324 Y1.6319
G01 X4.4464 Y1.6344
G01 X4.4602 Y1.6375
G01 X4.6505 Y1.6852
G01 X4.6642 Y1.6889
G01 X4.6776 Y1.6934
G01 X4.8624 Y1.7595
G01 X4.8756 Y1.7646
G01 X4.8885 Y1.7703
G01 X5.0659 Y1.8542
G01 X5.0786 Y1.8606
G01 X5.0909 Y1.8675
G01 X5.2592 Y1.9684
G01 X5.2711 Y1.9760
G01 X5.2827 Y1.9841
G01 X5.4403 Y2.1011
G01 X5.4515 Y2.1098
G01 X5.4622 Y2.1190
G01 X5.6076 Y2.2508
G01 X5.6179 Y2.2605
G01 X5.6276 Y2.2708
G01 X5.7594 Y2.4162
G01 X5.7686 Y2.4269
G01 X5.7773 Y2.4381
G01 X5.8943 Y2.5957
G01 X5.9024 Y2.6073
G01 X5.9100 Y2.6192
G01 X6.0109 Y2.7875
G01 X6.0178 Y2.7998
G01 X6.0242 Y2.8125
G01 X6.1081 Y2.9899
G01 X6.1138 Y3.0028
G01 X6.1189 Y3.0160
G01 X6.1850 Y3.2008
G01 X6.1895 Y3.2142
G01 X6.1932 Y3.2279
G01 X6.2409 Y3.4182
G01 X6.2440 Y3.4320
G01 X6.2465 Y3.4460
G01 X6.2753 Y3.6401
G01 X6.2770 Y3.6541
G01 X6.2780 Y3.6682
G01 X6.2877 Y3.8643
G00 Z1.0000
G00 X6.2237 Y3.8674
G01 F50.00
G01 Z-0.1100
G01 F100.00
G01 X6.2240 Y3.8784
G01 X6.2237 Y3.8894
G01 X6.2141 Y4.0854
G01 X6.2133 Y4.0964
G01 X6.2119 Y4.1073
G01 X6.1831 Y4.3014
G01 X6.1813 Y4.3123
G01 X6.1789 Y4.3230
G01 X6.1312 Y4.5134
G01 X6.1282 Y4.5240
G01 X6.1248 Y4.5344
G01 X6.0587 Y4.7192
G01 X6.0547 Y4.7295
G01 X6.0503 Y4.7395
G01 X5.9663 Y4.9170
G01 X5.9614 Y4.9268
G01 X5.9560 Y4.9364
G01 X5.8551 Y5.1047
G01 X5.8492 Y5.1140
G01 X5.8429 Y5.1230
G01 X5.7259 Y5.2806
G01 X5.7192 Y5.2893
G01 X5.7120 Y5.2976
G01 X5.5802 Y5.4430
G01 X5.5726 Y5.4510
G01 X5.5646 Y5.4586
G01 X5.4192 Y5.5904
G01 X5.4109 Y5.5976
G01 X5.4022 Y5.6043
G01 X5.2446 Y5.7213
G01 X5.2356 Y5.7276
G01 X5.2263 Y5.7335
G01 X5.0580 Y5.8344
G01 X5.0484 Y5.8398
G01 X5.0386 Y5.8447
G01 X4.8611 Y5.9287
G01 X4.8511 Y5.9331
G01 X4.8408 Y5.9371
G01 X4.6560 Y6.0032
G01 X4.6456 Y6.0066
G01 X4.6350 Y6.0096
G01 X4.4446 Y6.0573
G01 X4.4339 Y6.0597
G01 X4.4230 Y6.0615
G01 X4.2289 Y6.0903
G01 X4.2180 Y6.0917
G01 X4.2070 Y6.0925
G01 X4.0110 Y6.1021
G01 X4.0000 Y6.1024
G01 X3.9890 Y6.1021
G01 X3.7930 Y6.0925
G01 X3.7820 Y6.0917
G01 X3.7711 Y6.0903
G01 X3.5770 Y6.0615
G01 X3.5661 Y6.0597
G01 X3.5554 Y6.0573
G01 X3.3650 Y6.0096
G01 X3.3544 Y6.0066
G01 X3.3440 Y6.0032
G01 X3.1592 Y5.9371
G01 X3.1489 Y5.9331
G01 X3.1389 Y5.9287
G01 X2.9614 Y5.8447
G01 X2.9516 Y5.8398
G01 X2.9420 Y5.8344
G01 X2.7737 Y5.7335
G01 X2.7644 Y5.7276
G01 X2.7554 Y5.7213
G01 X2.5978 Y5.6043
G01 X2.5891 Y5.5976
G01 X2.5808 Y5.5904
G01 X2.4354 Y5.4586
G01 X2.4274 Y5.4510
G01 X2.4198 Y5.4430
G01 X2.2880 Y5.2976
G01 X2.2808 Y5.2893
G01 X2.2741 Y5.2806
G01 X2.1571 Y5.1230
G01 X2.1508 Y5.1140
G01 X2.1449 Y5.1047
G01 X2.0440 Y4.9364
G01 X2.0386 Y4.9268
G01 X2.0337 Y4.9170
G01 X1.9497 Y4.7395
G01 X1.9453 Y4.7295
G01 X1.9413 Y4.7192
G01 X1.8752 Y4.5344
G01 X1.8718 Y4.5240
G01 X1.8688 Y4.5134
G01 X1.8211 Y4.3230
G01 X1.8187 Y4.3123
G01 X1.8169 Y4.3014
G01 X1.7881 Y4.1073
G01 X1.7867 Y4.0964
G01 X1.7859 Y4.0854
G01 X1.7763 Y3.8894
G01 X1.7760 Y3.8784
G01 X1.7763 Y3.8674
G01 X1.7859 Y3.6714
G01 X1.7867 Y3.6604
G01 X1.7881 Y3.6495
G01 X1.8169 Y3.4554
G01 X1.8187 Y3.4445
G01 X1.8211 Y3.4338
G01 X1.8688 Y3.2434
G01 X1.8718 Y3.2328
G01 X1.8752 Y3.2224
G01 X1.9413 Y3.0376
G01 X1.9453 Y3.0273
G01 X1.9497 Y3.0173
G01 X2.0337 Y2.8398
G01 X2.0386 Y2.8300
G01 X2.0440 Y2.8204
G01 X2.1449 Y2.6521
G01 X2.1508 Y2.6428
G01 X2.1571 Y2.6338
G01 X2.2741 Y2.4762
G01 X2.2808 Y2.4675
G01 X2.2880 Y2.4592
G01 X2.4198 Y2.3138
G01 X2.4274 Y2.3058
G01 X2.4354 Y2.2982
G01 X2.5808 Y2.1664
G01 X2.5891 Y2.1592
G01 X2.5978 Y2.1525
G01 X2.7554 Y2.0355
G01 X2.7644 Y2.0292
G01 X2.7737 Y2.0233
G01 X2.9420 Y1.9224
G01 X2.9516 Y1.9170
G01 X2.9614 Y1.9121
G01 X3.1389 Y1.8281
G01 X3.1489 Y1.8237
G01 X3.1592 Y1.8197
G01 X3.3440 Y1.7536
G01 X3.3544 Y1.7502
G01 X3.3650 Y1.7472
G01 X3.5554 Y1.6995
G01 X3.5661 Y1.6971
G01 X3.5770 Y1.6953
G01 X3.7711 Y1.6665
G01 X3.7820 Y1.6651
G01 X3.7930 Y1.6643
G01 X3.9890 Y1.6547
G01 X4.0000 Y1.6544
G01 X4.0110 Y1.6547
G01 X4.2070 Y1.6643
G01 X4.2180 Y1.6651
G01 X4.2289 Y1.6665
G01 X4.4230 Y1.6953
G01 X4.4339 Y1.6971
G01 X4.4446 Y1.6995
G01 X4.6350 Y1.7472
G01 X4.6456 Y1.7502
G01 X4.6560 Y1.7536
G01 X4.8408 Y1.8197
G01 X4.8511 Y1.8237
G01 X4.8611 Y1.8281
G01 X5.0386 Y1.9121
G01 X5.0484 Y1.9170
G01 X5.0580 Y1.9224
G01 X5.2263 Y2.0233
G01 X5.2356 Y2.0292
G01 X5.2446 Y2.0355
G01 X5.4022 Y2.1525
G01 X5.4109 Y2.1592
G01 X5.4192 Y2.1664
G01 X5.5646 Y2.2982
G01 X5.5726 Y2.3058
G01 X5.5802 Y2.3138
G01 X5.7120 Y2.4592
G01 X5.7192 Y2.4675
G01 X5.7259 Y2.4762
G01 X5.8429 Y2.6338
G01 X5.8492 Y2.6428
G01 X5.8551 Y2.6521
G01 X5.9560 Y2.8204
G01 X5.9614 Y2.8300
G01 X5.9663 Y2.8398
G01 X6.0503 Y3.0173
G01 X6.0547 Y3.0273
G01 X6.0587 Y3.0376
G01 X6.1248 Y3.2224
G01 X6.1282 Y3.2328
G01 X6.1312 Y3.2434
G01 X6.1789 Y3.4338
G01 X6.1813 Y3.4445
G01 X6.1831 Y3.4554
G01 X6.2119 Y3.6495
G01 X6.2133 Y3.6604
G01 X6.2141 Y3.6714
G01 X6.2237 Y3.8674
G00 Z1.0000
G00 X6.1598 Y3.8705
G01 F50.00
G01 Z-0.1100
G01 F100.00
G01 X6.1598 Y3.8863
G01 X6.1496 Y4.0901
G01 X6.1185 Y4.2998
G01 X6.0670 Y4.5054
G01 X5.9956 Y4.7050
G01 X5.9049 Y4.8966
G01 X5.7960 Y5.0784
G01 X5.6697 Y5.2487
G01 X5.5274 Y5.4058
G01 X5.3703 Y5.5481
G01 X5.2000 Y5.6744
G01 X5.0182 Y5.7833
G01 X4.8266 Y5.8740
G01 X4.6270 Y5.9454
G01 X4.4214 Y5.9969
G01 X4.2117 Y6.0280
G01 X4.0000 Y6.0384
G01 X3.7883 Y6.0280
G01 X3.5786 Y5.9969
G01 X3.3730 Y5.9454
G01 X3.1734 Y5.8740
G01 X2.9818 Y5.7833
G01 X2.8000 Y5.6744
G01 X2.6297 Y5.5481
G01 X2.4726 Y5.4058
G01 X2.3303 Y5.2487
G01 X2.2040 Y5.0784
G01 X2.0951 Y4.8966
G01 X2.0044 Y4.7050
G01 X1.9330 Y4.5054
G01 X1.8815 Y4.2998
G01 X1.8504 Y4.0901
G01 X1.8400 Y3.8784
G01 X1.8504 Y3.6667
G01 X1.8815 Y3.4570
G01 X1.9330 Y3.2514
G01 X2.0044 Y3.0518
G01 X2.0951 Y2.8602
G01 X2.2040 Y2.6784
G01 X2.3303 Y2.5081
G01 X2.4726 Y2.3510
G01 X2.6297 Y2.2087
G01 X2.8000 Y2.0824
G01 X2.9818 Y1.9735
G01 X3.1734 Y1.8828
G01 X3.3730 Y1.8114
G01 X3.5786 Y1.7599
G01 X3.7883 Y1.7288
G01 X4.0000 Y1.7184
G01 X4.2117 Y1.7288
G01 X4.4214 Y1.7599
G01 X4.6270 Y1.8114
G01 X4.8266 Y1.8828
G01 X5.0182 Y1.9735
G01 X5.2000 Y2.0824
G01 X5.3703 Y2.2087
G01 X5.5274 Y2.3510
G01 X5.6697 Y2.5081
G01 X5.7960 Y2.6784
G01 X5.9049 Y2.8602
G01 X5.9956 Y3.0518
G01 X6.0670 Y3.2514
G01 X6.1185 Y3.4570
G01 X6.1496 Y3.6667
G01 X6.1598 Y3.8705
G00 Z1.0000
G00 X6.3177 Y4.2670
G01 F50.00
G01 Z-0.1100
G01 F100.00
G01 X6.3332 Y4.1621
G01 X6.3293 Y4.2099
G01 X6.3177 Y4.2670
G00 Z1.0000
G00 X6.2607 Y4.5232
G01 F50.00
G01 Z-0.1100
G01 F100.00
G01 X6.2858 Y4.4227
G01 X6.2726 Y4.4873
G01 X6.2607 Y4.5232
G00 Z1.0000
G00 X6.1763 Y4.7702
G01 F50.00
G01 Z-0.1100
G01 F100.00
G01 X6.1792 Y4.7624
G01 X6.2043 Y4.6922
G01 X6.1830 Y4.7560
G01 X6.1763 Y4.7702
G00 Z1.0000
G00 X6.0252 Y5.0698
G01 F50.00
G01 Z-0.1100
G01 F100.00
G01 X6.0658 Y5.0022
G01 X6.0690 Y4.9966
G01 X6.0618 Y5.0119
G01 X6.0252 Y5.0698
G00 Z1.0000
G00 X5.8696 Y5.3019
G01 F50.00
G01 Z-0.1100
G01 F100.00
G01 X5.9315 Y5.2183
G01 X5.9107 Y5.2514
G01 X5.8696 Y5.3019
G00 Z1.0000
G00 X5.6983 Y5.5034
G01 F50.00
G01 Z-0.1100
G01 F100.00
G01 X5.7694 Y5.4249
G01 X5.7319 Y5.4710
G01 X5.6983 Y5.5034
G00 Z1.0000
G00 X5.5085 Y5.6822
G01 F50.00
G01 Z-0.1100
G01 F100.00
G01 X5.5792 Y5.6182
G01 X5.5280 Y5.6675
G01 X5.5085 Y5.6822
G00 Z1.0000
G00 X5.2601 Y5.8624
G01 F50.00
G01 Z-0.1100
G01 F100.00
G01 X5.2995 Y5.8387
G01 X5.3154 Y5.8280
G01 X5.3020 Y5.8381
G01 X5.2601 Y5.8624
G00 Z1.0000
G00 X4.9929 Y6.0079
G01 F50.00
G01 Z-0.1100
G01 F100.00
G01 X5.0830 Y5.9653
G01 X5.0572 Y5.9803
G01 X4.9929 Y6.0079
G00 Z1.0000
G00 X4.7442 Y6.1076
G01 F50.00
G01 Z-0.1100
G01 F100.00
G01 X4.8443 Y6.0718
G01 X4.7970 Y6.0921
G01 X4.7442 Y6.1076
G00 Z1.0000
G00 X4.4919 Y6.1774
G01 F50.00
G01 Z-0.1100
G01 F100.00
G01 X4.5907 Y6.1526
G01 X4.5253 Y6.1718
G01 X4.4919 Y6.1774
G00 Z1.0000
G00 X4.2318 Y6.2189
G01 F50.00
G01 Z-0.1100
G01 F100.00
G01 X4.2477 Y6.2170
G01 X4.3061 Y6.2083
G01 X4.2459 Y6.2183
G01 X4.2318 Y6.2189
G00 Z1.0000
G00 X3.8926 Y6.2255
G01 F50.00
G01 Z-0.1100
G01 F100.00
G01 X3.9827 Y6.2300
G01 X3.9834 Y6.2300
G01 X3.9630 Y6.2309
G01 X3.8926 Y6.2255
G00 Z1.0000
G00 X3.6195 Y6.1973
G01 F50.00
G01 Z-0.1100
G01 F100.00
G01 X3.7235 Y6.2127
G01 X3.6807 Y6.2094
G01 X3.6195 Y6.1973
G00 Z1.0000
G00 X3.3622 Y6.1408
G01 F50.00
G01 Z-0.1100
G01 F100.00
G01 X3.4641 Y6.1664
G01 X3.4030 Y6.1542
G01 X3.3622 Y6.1408
G00 Z1.0000
G00 X3.1154 Y6.0573
G01 F50.00
G01 Z-0.1100
G01 F100.00
G01 X3.1160 Y6.0576
G01 X3.2010 Y6.0880
G01 X3.1339 Y6.0660
G01 X3.1154 Y6.0573
G00 Z1.0000
G00 X2.8256 Y5.9138
G01 F50.00
G01 Z-0.1100
G01 F100.00
G01 X2.8762 Y5.9442
G01 X2.8902 Y5.9521
G01 X2.8773 Y5.9461
G01 X2.8256 Y5.9138
G00 Z1.0000
G00 X2.5840 Y5.7535
G01 F50.00
G01 Z-0.1100
G01 F100.00
G01 X2.6658 Y5.8141
G01 X2.6371 Y5.7962
G01 X2.5840 Y5.7535
G00 Z1.0000
G00 X2.3806 Y5.5817
G01 F50.00
G01 Z-0.1100
G01 F100.00
G01 X2.4594 Y5.6531
G01 X2.4165 Y5.6186
G01 X2.3806 Y5.5817
G00 Z1.0000
G00 X2.2008 Y5.3920
G01 F50.00
G01 Z-0.1100
G01 F100.00
G01 X2.2677 Y5.4659
G01 X2.2189 Y5.4158
G01 X2.2008 Y5.3920
G00 Z1.0000
G00 X1.4805 Y5.6108
G01 F50.00
G01 Z-0.1100
G01 F100.00
G01 X1.4807 Y5.6032
G01 X1.4816 Y5.5918
G01 X1.4834 Y5.5805
G01 X1.4860 Y5.5694
G01 X1.5081 Y5.4938
G01 X1.5137 Y5.4789
G01 X1.5208 Y5.4647
G01 X1.5248 Y5.4579
G01 X1.5315 Y5.4480
G01 X1.5389 Y5.4387
G01 X1.5470 Y5.4299
G01 X1.5557 Y5.4218
G01 X1.6155 Y5.3702
G01 X1.6219 Y5.3655
G01 X1.6319 Y5.3590
G01 X1.6388 Y5.3551
G01 X1.6495 Y5.3498
G01 X1.6569 Y5.3468
G01 X1.6681 Y5.3430
G01 X1.6758 Y5.3409
G01 X1.6875 Y5.3384
G01 X1.7617 Y5.3277
G01 X1.7775 Y5.3262
G01 X1.7894 Y5.3262
G01 X1.8052 Y5.3275
G01 X1.8170 Y5.3294
G01 X1.8286 Y5.3323
G01 X1.8361 Y5.3347
G01 X1.8473 Y5.3390
G01 X1.9190 Y5.3717
G01 X1.9293 Y5.3772
G01 X1.9391 Y5.3834
G01 X1.9485 Y5.3903
G01 X1.9544 Y5.3952
G01 X1.9656 Y5.4060
G01 X1.9833 Y5.4248
G01 X1.9913 Y5.4341
G01 X2.0733 Y5.5415
G01 X2.2871 Y5.7609
G01 X2.5256 Y5.9530
G01 X2.7856 Y6.1151
G01 X3.0631 Y6.2448
G01 X3.3541 Y6.3402
G01 X3.6546 Y6.4000
G01 X3.9600 Y6.4232
G01 X4.2660 Y6.4096
G01 X4.5682 Y6.3593
G01 X4.8621 Y6.2731
G01 X5.1436 Y6.1522
G01 X5.4085 Y5.9983
G01 X5.6529 Y5.8137
G01 X5.8735 Y5.6011
G01 X6.0669 Y5.3636
G01 X6.2303 Y5.1045
G01 X6.3615 Y4.8277
G01 X6.4584 Y4.5371
G01 X6.5198 Y4.2370
G01 X6.5449 Y3.9277
G01 X6.5454 Y3.8824
G01 X6.5267 Y3.5726
G01 X6.4717 Y3.2713
G01 X6.3808 Y2.9788
G01 X6.2555 Y2.6992
G01 X6.0975 Y2.4368
G01 X5.9091 Y2.1953
G01 X5.6931 Y1.9781
G01 X5.4525 Y1.7885
G01 X5.1909 Y1.6291
G01 X4.9121 Y1.5023
G01 X4.6200 Y1.4099
G01 X4.3190 Y1.3533
G01 X4.2933 Y1.3516
G01 X4.2857 Y1.3507
G01 X4.2745 Y1.3488
G01 X4.2634 Y1.3460
G01 X4.2525 Y1.3425
G01 X4.1859 Y1.3181
G01 X4.1712 Y1.3119
G01 X4.1607 Y1.3063
G01 X4.1506 Y1.2999
G01 X4.1410 Y1.2928
G01 X4.1291 Y1.2823
G01 X4.1209 Y1.2737
G01 X4.1158 Y1.2676
G01 X4.0658 Y1.2014
G01 X4.0595 Y1.1913
G01 X4.0539 Y1.1808
G01 X4.0491 Y1.1699
G01 X4.0464 Y1.1624
G01 X4.0421 Y1.1471
G01 X4.0393 Y1.1315
G01 X4.0327 Y1.0488
G01 X4.0325 Y1.0369
G01 X4.0333 Y1.0250
G01 X4.0348 Y1.0132
G01 X4.0373 Y1.0016
G01 X4.0419 Y0.9864
G01 X4.0480 Y0.9717
G01 X4.0872 Y0.8986
G01 X4.0935 Y0.8885
G01 X4.0981 Y0.8820
G01 X4.1056 Y0.8728
G01 X4.1138 Y0.8641
G01 X4.1225 Y0.8560
G01 X4.1287 Y0.8510
G01 X4.1418 Y0.8420
G01 X4.2108 Y0.8036
G01 X4.2213 Y0.7982
G01 X4.2323 Y0.7936
G01 X4.2436 Y0.7899
G01 X4.2551 Y0.7870
G01 X4.2668 Y0.7850
G01 X4.2982 Y0.7815
G01 X4.3158 Y0.7805
G01 X25.6699 Y0.7805
G01 X25.6813 Y0.7809
G01 X25.6889 Y0.7816
G01 X25.7002 Y0.7834
G01 X25.7076 Y0.7850
G01 X25.7831 Y0.8070
G01 X25.7944 Y0.8108
G01 X25.8054 Y0.8154
G01 X25.8160 Y0.8208
G01 X25.8262 Y0.8270
G01 X25.8327 Y0.8315
G01 X25.8420 Y0.8389
G01 X25.8536 Y0.8499
G01 X25.9054 Y0.9094
G01 X25.9129 Y0.9187
G01 X25.9196 Y0.9285
G01 X25.9256 Y0.9388
G01 X25.9309 Y0.9495
G01 X25.9339 Y0.9569
G01 X25.9377 Y0.9681
G01 X25.9415 Y0.9836
G01 X25.9530 Y1.0617
G01 X25.9542 Y1.0735
G01 X25.9546 Y1.0854
G01 X25.9541 Y1.0973
G01 X25.9527 Y1.1092
G01 X25.9504 Y1.1209
G01 X25.9484 Y1.1286
G01 X25.9433 Y1.1436
G01 X25.9090 Y1.2191
G01 X25.9033 Y1.2296
G01 X25.8970 Y1.2397
G01 X25.8898 Y1.2492
G01 X25.8820 Y1.2582
G01 X25.8706 Y1.2693
G01 X25.8582 Y1.2792
G01 X25.7919 Y1.3220
G01 X25.7817 Y1.3280
G01 X25.7746 Y1.3316
G01 X25.7638 Y1.3364
G01 X25.7526 Y1.3403
G01 X25.7411 Y1.3434
G01 X25.7170 Y1.3484
G01 X25.4058 Y1.4036
G01 X25.1128 Y1.4929
G01 X24.8327 Y1.6167
G01 X24.5694 Y1.7734
G01 X24.3269 Y1.9605
G01 X24.1086 Y2.1754
G01 X23.9553 Y2.3677
G01 X23.9177 Y2.4149
G01 X23.7570 Y2.6757
G01 X23.6287 Y2.9539
G01 X23.5348 Y3.2454
G01 X23.4766 Y3.5462
G01 X23.4550 Y3.8517
G01 X23.4702 Y4.1577
G01 X23.5221 Y4.4596
G01 X23.6099 Y4.7531
G01 X23.7323 Y5.0339
G01 X23.8875 Y5.2979
G01 X24.0733 Y5.5414
G01 X24.2871 Y5.7609
G01 X24.5256 Y5.9530
G01 X24.7856 Y6.1151
G01 X25.0631 Y6.2448
G01 X25.3541 Y6.3402
G01 X25.6546 Y6.4000
G01 X25.9600 Y6.4232
G01 X26.2660 Y6.4096
G01 X26.5682 Y6.3593
G01 X26.8621 Y6.2731
G01 X27.1436 Y6.1522
G01 X27.4085 Y5.9983
G01 X27.6529 Y5.8137
G01 X27.8150 Y5.6575
G01 X27.8235 Y5.6499
G01 X27.8295 Y5.6451
G01 X27.8388 Y5.6386
G01 X27.8486 Y5.6327
G01 X27.9184 Y5.5962
G01 X27.9330 Y5.5899
G01 X27.9482 Y5.5851
G01 X27.9637 Y5.5818
G01 X27.9755 Y5.5804
G01 X27.9874 Y5.5798
G01 X28.0033 Y5.5805
G01 X28.0740 Y5.5868
G01 X28.0858 Y5.5883
G01 X28.0975 Y5.5907
G01 X28.1090 Y5.5940
G01 X28.1202 Y5.5981
G01 X28.1275 Y5.6013
G01 X28.1415 Y5.6087
G01 X28.1547 Y5.6175
G01 X28.2140 Y5.6635
G01 X28.2260 Y5.6739
G01 X28.2317 Y5.6795
G01 X28.2396 Y5.6885
G01 X28.2490 Y5.7013
G01 X28.2572 Y5.7150
G01 X28.2639 Y5.7294
G01 X28.2680 Y5.7406
G01 X28.2940 Y5.8216
G01 X28.2966 Y5.8329
G01 X28.2978 Y5.8404
G01 X28.2991 Y5.8519
G01 X28.2995 Y5.8634
G01 X28.2993 Y60.1223
G01 X28.2988 Y60.1299
G01 X28.2973 Y60.1412
G01 X28.2950 Y60.1524
G01 X28.2930 Y60.1597
G01 X28.2706 Y60.2354
G01 X28.2646 Y60.2501
G01 X28.2592 Y60.2607
G01 X28.2530 Y60.2709
G01 X28.2485 Y60.2775
G01 X28.2411 Y60.2868
G01 X28.2330 Y60.2955
G01 X28.2243 Y60.3037
G01 X28.1676 Y60.3527
G01 X28.1613 Y60.3576
G01 X28.1515 Y60.3644
G01 X28.1377 Y60.3722
G01 X28.1305 Y60.3756
G01 X28.1194 Y60.3800
G01 X28.1081 Y60.3836
G01 X28.1003 Y60.3855
G01 X28.0886 Y60.3876
G01 X28.0183 Y60.3977
G01 X28.0065 Y60.3990
G01 X27.9946 Y60.3994
G01 X27.9827 Y60.3988
G01 X27.9748 Y60.3980
G01 X27.9630 Y60.3960
G01 X27.9553 Y60.3942
G01 X27.9439 Y60.3908
G01 X27.9291 Y60.3849
G01 X27.8574 Y60.3519
G01 X27.8437 Y60.3439
G01 X27.8339 Y60.3371
G01 X27.8247 Y60.3295
G01 X27.8107 Y60.3163
G01 X27.6931 Y60.1981
G01 X27.4525 Y60.0085
G01 X27.1909 Y59.8491
G01 X26.9121 Y59.7223
G01 X26.6200 Y59.6299
G01 X26.3190 Y59.5733
G01 X26.0133 Y59.5533
G01 X25.7075 Y59.5701
G01 X25.4058 Y59.6236
G01 X25.1128 Y59.7129
G01 X24.8327 Y59.8367
G01 X24.5694 Y59.9934
G01 X24.3269 Y60.1805
G01 X24.1086 Y60.3954
G01 X23.9177 Y60.6349
G01 X23.7570 Y60.8957
G01 X23.6287 Y61.1739
G01 X23.5348 Y61.4654
G01 X23.4766 Y61.7662
G01 X23.4550 Y62.0717
G01 X23.4702 Y62.3777
G01 X23.5221 Y62.6796
G01 X23.6099 Y62.9731
G01 X23.7323 Y63.2539
G01 X23.8875 Y63.5179
G01 X24.0733 Y63.7614
G01 X24.2871 Y63.9809
G01 X24.5256 Y64.1730
G01 X24.7856 Y64.3351
G01 X25.0631 Y64.4648
G01 X25.2928 Y64.5401
G01 X25.3000 Y64.5427
G01 X25.3105 Y64.5471
G01 X25.3207 Y64.5523
G01 X25.3305 Y64.5582
G01 X25.3954 Y64.6028
G01 X25.4017 Y64.6077
G01 X25.4107 Y64.6155
G01 X25.4164 Y64.6210
G01 X25.4243 Y64.6299
G01 X25.4293 Y64.6361
G01 X25.4361 Y64.6459
G01 X25.4421 Y64.6562
G01 X25.4474 Y64.6669
G01 X25.4780 Y64.7397
G01 X25.4830 Y64.7547
G01 X25.4865 Y64.7702
G01 X25.4882 Y64.7820
G01 X25.4889 Y64.7939
G01 X25.4889 Y64.8019
G01 X25.4881 Y64.8138
G01 X25.4865 Y64.8256
G01 X25.4727 Y64.9033
G01 X25.4696 Y64.9148
G01 X25.4671 Y64.9223
G01 X25.4642 Y64.9297
G01 X25.4592 Y64.9405
G01 X25.4554 Y64.9475
G01 X25.4490 Y64.9576
G01 X25.4420 Y64.9672
G01 X25.4369 Y64.9733
G01 X25.3861 Y65.0285
G01 X25.3751 Y65.0393
G01 X25.3631 Y65.0490
G01 X25.3535 Y65.0555
G01 X25.3434 Y65.0613
G01 X25.3295 Y65.0679
G01 X25.3149 Y65.0731
G01 X25.2426 Y65.0931
G01 X25.2311 Y65.0955
G01 X25.2233 Y65.0967
G01 X25.2116 Y65.0977
G01 X25.2037 Y65.0979
G01 X4.7913 Y65.0979
G01 X4.7761 Y65.0972
G01 X4.7611 Y65.0950
G01 X4.7463 Y65.0914
G01 X4.6781 Y65.0714
G01 X4.6668 Y65.0676
G01 X4.6559 Y65.0630
G01 X4.6452 Y65.0576
G01 X4.6351 Y65.0514
G01 X4.6285 Y65.0469
G01 X4.6162 Y65.0368
G01 X4.6049 Y65.0256
G01 X4.5532 Y64.9660
G01 X4.5460 Y64.9565
G01 X4.5395 Y64.9465
G01 X4.5338 Y64.9361
G01 X4.5288 Y64.9252
G01 X4.5235 Y64.9103
G01 X4.5197 Y64.8948
G01 X4.5083 Y64.8167
G01 X4.5070 Y64.8049
G01 X4.5066 Y64.7930
G01 X4.5071 Y64.7811
G01 X4.5080 Y64.7732
G01 X4.5100 Y64.7614
G01 X4.5128 Y64.7498
G01 X4.5165 Y64.7385
G01 X4.5195 Y64.7311
G01 X4.5523 Y64.6593
G01 X4.5599 Y64.6454
G01 X4.5666 Y64.6355
G01 X4.5739 Y64.6261
G01 X4.5819 Y64.6173
G01 X4.5906 Y64.6091
G01 X4.5999 Y64.6016
G01 X4.6096 Y64.5948
G01 X4.6694 Y64.5564
G01 X4.6792 Y64.5506
G01 X4.6860 Y64.5471
G01 X4.6964 Y64.5424
G01 X4.7072 Y64.5386
G01 X4.8621 Y64.4931
G01 X5.1436 Y64.3722
G01 X5.4085 Y64.2183
G01 X5.6529 Y64.0337
G01 X5.8735 Y63.8211
G01 X6.0669 Y63.5836
G01 X6.2303 Y63.3245
G01 X6.3615 Y63.0477
G01 X6.4584 Y62.7571
G01 X6.5198 Y62.4570
G01 X6.5449 Y62.1477
G01 X6.5454 Y62.1024
G01 X6.5267 Y61.7926
G01 X6.4717 Y61.4913
G01 X6.3808 Y61.1988
G01 X6.2555 Y60.9192
G01 X6.0975 Y60.6568
G01 X5.9091 Y60.4153
G01 X5.6931 Y60.1981
G01 X5.4525 Y60.0085
G01 X5.1909 Y59.8491
G01 X4.9121 Y59.7223
G01 X4.6200 Y59.6299
G01 X4.3190 Y59.5733
G01 X4.0133 Y59.5533
G01 X3.7075 Y59.5701
G01 X3.4058 Y59.6236
G01 X3.1128 Y59.7129
G01 X2.8327 Y59.8367
G01 X2.5694 Y59.9934
G01 X2.3269 Y60.1805
G01 X2.1086 Y60.3954
G01 X1.9902 Y60.5440
G01 X1.9827 Y60.5526
G01 X1.9774 Y60.5581
G01 X1.9690 Y60.5658
G01 X1.9601 Y60.5730
G01 X1.8956 Y60.6182
G01 X1.8889 Y60.6225
G01 X1.8785 Y60.6282
G01 X1.8713 Y60.6316
G01 X1.8602 Y60.6360
G01 X1.8526 Y60.6384
G01 X1.8411 Y60.6414
G01 X1.8333 Y60.6429
G01 X1.8215 Y60.6444
G01 X1.7426 Y60.6479
G01 X1.7307 Y60.6479
G01 X1.7227 Y60.6474
G01 X1.7109 Y60.6460
G01 X1.6954 Y60.6427
G01 X1.6840 Y60.6393
G01 X1.6765 Y60.6365
G01 X1.6621 Y60.6299
G01 X1.5871 Y60.5860
G01 X1.5806 Y60.5814
G01 X1.5712 Y60.5741
G01 X1.5653 Y60.5688
G01 X1.5569 Y60.5603
G01 X1.5517 Y60.5543
G01 X1.5444 Y60.5449
G01 X1.5358 Y60.5315
G01 X1.4999 Y60.4612
G01 X1.4934 Y60.4465
G01 X1.4883 Y60.4312
G01 X1.4849 Y60.4155
G01 X1.4837 Y60.4075
G01 X1.4812 Y60.3804
G01 X1.4805 Y60.3657
G01 X1.4805 Y5.6108
G00 Z1.0000
G00 X1.4165 Y5.6108
G01 F50.00
G01 Z-0.1100
G01 F100.00
G01 X1.4168 Y5.6002
G01 X1.4181 Y5.5842
G01 X1.4205 Y5.5684
G01 X1.4241 Y5.5528
G01 X1.4472 Y5.4743
G01 X1.4509 Y5.4638
G01 X1.4550 Y5.4535
G01 X1.4623 Y5.4384
G01 X1.4706 Y5.4239
G01 X1.4799 Y5.4101
G01 X1.4903 Y5.3971
G01 X1.4977 Y5.3888
G01 X1.5056 Y5.3809
G01 X1.5138 Y5.3734
G01 X1.5717 Y5.3233
G01 X1.5850 Y5.3132
G01 X1.5942 Y5.3070
G01 X1.6038 Y5.3013
G01 X1.6186 Y5.2936
G01 X1.6339 Y5.2871
G01 X1.6444 Y5.2833
G01 X1.6604 Y5.2787
G01 X1.6713 Y5.2763
G01 X1.7526 Y5.2644
G01 X1.7636 Y5.2631
G01 X1.7747 Y5.2623
G01 X1.7914 Y5.2622
G01 X1.8080 Y5.2633
G01 X1.8245 Y5.2657
G01 X1.8408 Y5.2693
G01 X1.8568 Y5.2741
G01 X1.8724 Y5.2801
G01 X1.9470 Y5.3142
G01 X1.9614 Y5.3218
G01 X1.9752 Y5.3305
G01 X1.9840 Y5.3368
G01 X1.9966 Y5.3471
G01 X2.0046 Y5.3545
G01 X2.0122 Y5.3622
G01 X2.0338 Y5.3852
G01 X2.0412 Y5.3940
G01 X2.1219 Y5.4996
G01 X2.3302 Y5.7134
G01 X2.5628 Y5.9008
G01 X2.8162 Y6.0588
G01 X3.0867 Y6.1852
G01 X3.3704 Y6.2782
G01 X3.6633 Y6.3365
G01 X3.9610 Y6.3591
G01 X4.2593 Y6.3458
G01 X4.5539 Y6.2968
G01 X4.8404 Y6.2128
G01 X5.1148 Y6.0949
G01 X5.3730 Y5.9449
G01 X5.6113 Y5.7650
G01 X5.8263 Y5.5577
G01 X6.0148 Y5.3262
G01 X6.1741 Y5.0736
G01 X6.3020 Y4.8038
G01 X6.3965 Y4.5205
G01 X6.4563 Y4.2280
G01 X6.4809 Y3.9248
G01 X6.4814 Y3.8840
G01 X6.4631 Y3.5803
G01 X6.4094 Y3.2866
G01 X6.3209 Y3.0014
G01 X6.1987 Y2.7289
G01 X6.0447 Y2.4731
G01 X5.8610 Y2.2377
G01 X5.6505 Y2.0260
G01 X5.4160 Y1.8411
G01 X5.1609 Y1.6858
G01 X4.8891 Y1.5622
G01 X4.6044 Y1.4721
G01 X4.3110 Y1.4169
G01 X4.2876 Y1.4153
G01 X4.2770 Y1.4141
G01 X4.2612 Y1.4114
G01 X4.2457 Y1.4075
G01 X4.2305 Y1.4026
G01 X4.1639 Y1.3782
G01 X4.1535 Y1.3741
G01 X4.1384 Y1.3670
G01 X4.1286 Y1.3617
G01 X4.1191 Y1.3558
G01 X4.1055 Y1.3463
G01 X4.0926 Y1.3357
G01 X4.0844 Y1.3281
G01 X4.0767 Y1.3202
G01 X4.0693 Y1.3118
G01 X4.0624 Y1.3031
G01 X4.0195 Y1.2465
G01 X4.0099 Y1.2329
G01 X4.0014 Y1.2185
G01 X3.9939 Y1.2036
G01 X3.9876 Y1.1882
G01 X3.9825 Y1.1723
G01 X3.9785 Y1.1561
G01 X3.9766 Y1.1451
G01 X3.9752 Y1.1341
G01 X3.9686 Y1.0466
G01 X3.9688 Y1.0300
G01 X3.9702 Y1.0133
G01 X3.9728 Y0.9969
G01 X3.9766 Y0.9806
G01 X3.9799 Y0.9700
G01 X3.9836 Y0.9595
G01 X3.9902 Y0.9442
G01 X4.0316 Y0.8669
G01 X4.0404 Y0.8527
G01 X4.0503 Y0.8392
G01 X4.0574 Y0.8307
G01 X4.0688 Y0.8185
G01 X4.0769 Y0.8109
G01 X4.0854 Y0.8037
G01 X4.0942 Y0.7969
G01 X4.1034 Y0.7906
G01 X4.1176 Y0.7820
G01 X4.1798 Y0.7476
G01 X4.1946 Y0.7401
G01 X4.2099 Y0.7337
G01 X4.2257 Y0.7285
G01 X4.2418 Y0.7244
G01 X4.2582 Y0.7216
G01 X4.2912 Y0.7179
G01 X4.3035 Y0.7168
G01 X4.3158 Y0.7165
G01 X25.6699 Y0.7165
G01 X25.6805 Y0.7168
G01 X25.6912 Y0.7175
G01 X25.7018 Y0.7188
G01 X25.7175 Y0.7216
G01 X25.7330 Y0.7256
G01 X25.8011 Y0.7456
G01 X25.8169 Y0.7509
G01 X25.8323 Y0.7573
G01 X25.8472 Y0.7649
G01 X25.8614 Y0.7736
G01 X25.8706 Y0.7799
G01 X25.8794 Y0.7867
G01 X25.8878 Y0.7940
G01 X25.8959 Y0.8016
G01 X25.9073 Y0.8138
G01 X25.9538 Y0.8675
G01 X25.9642 Y0.8805
G01 X25.9737 Y0.8942
G01 X25.9821 Y0.9086
G01 X25.9894 Y0.9236
G01 X25.9936 Y0.9339
G01 X25.9974 Y0.9444
G01 X26.0006 Y0.9551
G01 X26.0032 Y0.9659
G01 X26.0062 Y0.9823
G01 X26.0163 Y1.0526
G01 X26.0181 Y1.0691
G01 X26.0186 Y1.0858
G01 X26.0179 Y1.1025
G01 X26.0159 Y1.1191
G01 X26.0139 Y1.1300
G01 X26.0114 Y1.1408
G01 X26.0083 Y1.1515
G01 X26.0047 Y1.1621
G01 X25.9984 Y1.1775
G01 X25.9689 Y1.2421
G01 X25.9614 Y1.2570
G01 X25.9528 Y1.2713
G01 X25.9432 Y1.2849
G01 X25.9326 Y1.2978
G01 X25.9210 Y1.3098
G01 X25.9086 Y1.3210
G01 X25.8954 Y1.3312
G01 X25.8862 Y1.3375
G01 X25.8265 Y1.3758
G01 X25.8122 Y1.3843
G01 X25.8023 Y1.3893
G01 X25.7922 Y1.3939
G01 X25.7819 Y1.3979
G01 X25.7714 Y1.4014
G01 X25.7554 Y1.4057
G01 X25.7281 Y1.4115
G01 X25.4208 Y1.4659
G01 X25.1352 Y1.5530
G01 X24.8621 Y1.6737
G01 X24.6055 Y1.8264
G01 X24.3690 Y2.0088
G01 X24.1562 Y2.2183
G01 X24.0054 Y2.4076
G01 X23.9701 Y2.4518
G01 X23.8135 Y2.7060
G01 X23.6884 Y2.9772
G01 X23.5969 Y3.2614
G01 X23.5402 Y3.5546
G01 X23.5191 Y3.8524
G01 X23.5340 Y4.1507
G01 X23.5845 Y4.4449
G01 X23.6701 Y4.7310
G01 X23.7894 Y5.0048
G01 X23.9407 Y5.2622
G01 X24.1219 Y5.4996
G01 X24.3302 Y5.7134
G01 X24.5628 Y5.9008
G01 X24.8162 Y6.0588
G01 X25.0867 Y6.1852
G01 X25.3704 Y6.2782
G01 X25.6633 Y6.3365
G01 X25.9610 Y6.3591
G01 X26.2593 Y6.3458
G01 X26.5539 Y6.2968
G01 X26.8404 Y6.2128
G01 X27.1148 Y6.0949
G01 X27.3730 Y5.9449
G01 X27.6113 Y5.7650
G01 X27.7706 Y5.6114
G01 X27.7825 Y5.6008
G01 X27.7908 Y5.5941
G01 X27.8039 Y5.5849
G01 X27.8176 Y5.5767
G01 X27.8902 Y5.5388
G01 X27.9003 Y5.5341
G01 X27.9159 Y5.5281
G01 X27.9265 Y5.5247
G01 X27.9372 Y5.5219
G01 X27.9536 Y5.5186
G01 X27.9646 Y5.5172
G01 X27.9757 Y5.5162
G01 X27.9924 Y5.5159
G01 X28.0091 Y5.5167
G01 X28.0798 Y5.5231
G01 X28.0908 Y5.5244
G01 X28.1018 Y5.5262
G01 X28.1180 Y5.5299
G01 X28.1340 Y5.5349
G01 X28.1444 Y5.5388
G01 X28.1546 Y5.5433
G01 X28.1645 Y5.5482
G01 X28.1742 Y5.5537
G01 X28.1836 Y5.5596
G01 X28.1928 Y5.5660
G01 X28.2532 Y5.6129
G01 X28.2619 Y5.6200
G01 X28.2701 Y5.6275
G01 X28.2780 Y5.6354
G01 X28.2855 Y5.6437
G01 X28.2926 Y5.6523
G01 X28.2992 Y5.6613
G01 X28.3083 Y5.6753
G01 X28.3137 Y5.6850
G01 X28.3187 Y5.6950
G01 X28.3232 Y5.7053
G01 X28.3289 Y5.7210
G01 X28.3527 Y5.7946
G01 X28.3571 Y5.8101
G01 X28.3603 Y5.8259
G01 X28.3619 Y5.8366
G01 X28.3629 Y5.8473
G01 X28.3635 Y5.8634
G01 X28.3635 Y60.1146
G01 X28.3632 Y60.1253
G01 X28.3625 Y60.1359
G01 X28.3604 Y60.1518
G01 X28.3584 Y60.1623
G01 X28.3544 Y60.1778
G01 X28.3310 Y60.2565
G01 X28.3271 Y60.2669
G01 X28.3227 Y60.2771
G01 X28.3151 Y60.2919
G01 X28.3094 Y60.3015
G01 X28.3001 Y60.3153
G01 X28.2933 Y60.3241
G01 X28.2823 Y60.3367
G01 X28.2744 Y60.3446
G01 X28.2662 Y60.3521
G01 X28.2083 Y60.4021
G01 X28.1995 Y60.4090
G01 X28.1904 Y60.4154
G01 X28.1810 Y60.4214
G01 X28.1664 Y60.4294
G01 X28.1512 Y60.4363
G01 X28.1409 Y60.4403
G01 X28.1303 Y60.4438
G01 X28.1141 Y60.4480
G01 X28.0977 Y60.4510
G01 X28.0274 Y60.4611
G01 X28.0109 Y60.4628
G01 X27.9942 Y60.4634
G01 X27.9831 Y60.4630
G01 X27.9720 Y60.4621
G01 X27.9555 Y60.4597
G01 X27.9446 Y60.4575
G01 X27.9338 Y60.4547
G01 X27.9179 Y60.4495
G01 X27.9076 Y60.4454
G01 X27.8329 Y60.4113
G01 X27.8230 Y60.4061
G01 X27.8134 Y60.4005
G01 X27.7996 Y60.3913
G01 X27.7865 Y60.3810
G01 X27.7683 Y60.3644
G01 X27.6505 Y60.2460
G01 X27.4160 Y60.0611
G01 X27.1609 Y59.9058
G01 X26.8891 Y59.7822
G01 X26.6044 Y59.6921
G01 X26.3110 Y59.6369
G01 X26.0130 Y59.6174
G01 X25.7148 Y59.6338
G01 X25.4208 Y59.6859
G01 X25.1352 Y59.7730
G01 X24.8621 Y59.8937
G01 X24.6055 Y60.0464
G01 X24.3690 Y60.2288
G01 X24.1562 Y60.4383
G01 X23.9701 Y60.6718
G01 X23.8135 Y60.9260
G01 X23.6884 Y61.1972
G01 X23.5969 Y61.4814
G01 X23.5402 Y61.7746
G01 X23.5191 Y62.0724
G01 X23.5340 Y62.3707
G01 X23.5845 Y62.6649
G01 X23.6701 Y62.9510
G01 X23.7894 Y63.2248
G01 X23.9407 Y63.4822
G01 X24.1219 Y63.7196
G01 X24.3302 Y63.9334
G01 X24.5628 Y64.1208
G01 X24.8162 Y64.2788
G01 X25.0867 Y64.4052
G01 X25.3127 Y64.4793
G01 X25.3278 Y64.4848
G01 X25.3375 Y64.4891
G01 X25.3518 Y64.4964
G01 X25.3655 Y64.5046
G01 X25.4374 Y64.5544
G01 X25.4503 Y64.5650
G01 X25.4584 Y64.5726
G01 X25.4699 Y64.5847
G01 X25.4770 Y64.5932
G01 X25.4837 Y64.6021
G01 X25.4929 Y64.6160
G01 X25.4984 Y64.6257
G01 X25.5058 Y64.6406
G01 X25.5395 Y64.7216
G01 X25.5446 Y64.7375
G01 X25.5474 Y64.7482
G01 X25.5496 Y64.7591
G01 X25.5518 Y64.7757
G01 X25.5529 Y64.7923
G01 X25.5527 Y64.8090
G01 X25.5518 Y64.8201
G01 X25.5496 Y64.8366
G01 X25.5351 Y64.9175
G01 X25.5323 Y64.9283
G01 X25.5272 Y64.9441
G01 X25.5232 Y64.9545
G01 X25.5162 Y64.9696
G01 X25.5109 Y64.9794
G01 X25.5020 Y64.9936
G01 X25.4955 Y65.0026
G01 X25.4850 Y65.0156
G01 X25.4294 Y65.0758
G01 X25.4217 Y65.0834
G01 X25.4136 Y65.0906
G01 X25.4052 Y65.0974
G01 X25.3965 Y65.1038
G01 X25.3829 Y65.1126
G01 X25.3686 Y65.1204
G01 X25.3538 Y65.1271
G01 X25.3437 Y65.1310
G01 X25.3335 Y65.1343
G01 X25.2528 Y65.1565
G01 X25.2366 Y65.1595
G01 X25.2257 Y65.1608
G01 X25.2147 Y65.1616
G01 X25.2037 Y65.1619
G01 X4.7913 Y65.1619
G01 X4.7807 Y65.1616
G01 X4.7701 Y65.1609
G01 X4.7595 Y65.1596
G01 X4.7490 Y65.1579
G01 X4.7385 Y65.1556
G01 X4.7282 Y65.1528
G01 X4.6601 Y65.1328
G01 X4.6443 Y65.1275
G01 X4.6289 Y65.1211
G01 X4.6189 Y65.1161
G01 X4.6045 Y65.1078
G01 X4.5907 Y65.0985
G01 X4.5819 Y65.0917
G01 X4.5734 Y65.0844
G01 X4.5614 Y65.0728
G01 X4.5039 Y65.0067
G01 X4.4937 Y64.9934
G01 X4.4846 Y64.9794
G01 X4.4766 Y64.9648
G01 X4.4718 Y64.9548
G01 X4.4676 Y64.9445
G01 X4.4622 Y64.9287
G01 X4.4580 Y64.9125
G01 X4.4550 Y64.8961
G01 X4.4436 Y64.8148
G01 X4.4428 Y64.8037
G01 X4.4426 Y64.7926
G01 X4.4430 Y64.7815
G01 X4.4439 Y64.7704
G01 X4.4462 Y64.7539
G01 X4.4498 Y64.7376
G01 X4.4546 Y64.7216
G01 X4.4585 Y64.7111
G01 X4.4947 Y64.6313
G01 X4.5026 Y64.6166
G01 X4.5115 Y64.6025
G01 X4.5215 Y64.5891
G01 X4.5324 Y64.5765
G01 X4.5443 Y64.5647
G01 X4.5569 Y64.5539
G01 X4.5658 Y64.5472
G01 X4.5750 Y64.5409
G01 X4.6348 Y64.5025
G01 X4.6439 Y64.4970
G01 X4.6533 Y64.4919
G01 X4.6629 Y64.4872
G01 X4.6727 Y64.4830
G01 X4.6877 Y64.4776
G01 X4.8404 Y64.4328
G01 X5.1148 Y64.3149
G01 X5.3730 Y64.1649
G01 X5.6113 Y63.9850
G01 X5.8263 Y63.7777
G01 X6.0148 Y63.5462
G01 X6.1741 Y63.2936
G01 X6.3020 Y63.0238
G01 X6.3965 Y62.7405
G01 X6.4563 Y62.4480
G01 X6.4809 Y62.1448
G01 X6.4814 Y62.1040
G01 X6.4631 Y61.8003
G01 X6.4094 Y61.5066
G01 X6.3209 Y61.2214
G01 X6.1987 Y60.9489
G01 X6.0447 Y60.6931
G01 X5.8610 Y60.4577
G01 X5.6505 Y60.2460
G01 X5.4160 Y60.0611
G01 X5.1609 Y59.9058
G01 X4.8891 Y59.7822
G01 X4.6044 Y59.6921
G01 X4.3110 Y59.6369
G01 X4.0130 Y59.6174
G01 X3.7148 Y59.6338
G01 X3.4208 Y59.6859
G01 X3.1352 Y59.7730
G01 X2.8621 Y59.8937
G01 X2.6055 Y60.0464
G01 X2.3690 Y60.2288
G01 X2.1562 Y60.4383
G01 X2.0402 Y60.5839
G01 X2.0298 Y60.5960
G01 X2.0186 Y60.6074
G01 X2.0106 Y60.6145
G01 X1.9981 Y60.6244
G01 X1.9264 Y60.6745
G01 X1.9169 Y60.6802
G01 X1.9021 Y60.6879
G01 X1.8867 Y60.6944
G01 X1.8762 Y60.6981
G01 X1.8655 Y60.7013
G01 X1.8493 Y60.7050
G01 X1.8383 Y60.7069
G01 X1.8273 Y60.7081
G01 X1.7452 Y60.7118
G01 X1.7341 Y60.7120
G01 X1.7230 Y60.7116
G01 X1.7119 Y60.7107
G01 X1.7009 Y60.7092
G01 X1.6899 Y60.7072
G01 X1.6791 Y60.7046
G01 X1.6631 Y60.6998
G01 X1.6527 Y60.6959
G01 X1.6425 Y60.6915
G01 X1.6325 Y60.6866
G01 X1.5615 Y60.6454
G01 X1.5474 Y60.6364
G01 X1.5384 Y60.6298
G01 X1.5298 Y60.6229
G01 X1.5215 Y60.6155
G01 X1.5098 Y60.6036
G01 X1.4989 Y60.5909
G01 X1.4923 Y60.5820
G01 X1.4860 Y60.5728
G01 X1.4803 Y60.5633
G01 X1.4429 Y60.4901
G01 X1.4358 Y60.4748
G01 X1.4317 Y60.4643
G01 X1.4266 Y60.4481
G01 X1.4239 Y60.4372
G01 X1.4218 Y60.4261
G01 X1.4202 Y60.4150
G01 X1.4174 Y60.3863
G01 X1.4165 Y60.3657
G01 X1.4165 Y5.6108
G00 Z1.0000
G00 X1.3525 Y5.6108
G01 F50.00
G01 Z-0.1100
G01 F100.00
G01 X1.3528 Y5.5971
G01 X1.3545 Y5.5766
G01 X1.3577 Y5.5563
G01 X1.3623 Y5.5363
G01 X1.3842 Y5.4616
G01 X1.3885 Y5.4479
G01 X1.3963 Y5.4280
G01 X1.4056 Y5.4086
G01 X1.4126 Y5.3961
G01 X1.4242 Y5.3781
G01 X1.4371 Y5.3609
G01 X1.4512 Y5.3448
G01 X1.4666 Y5.3298
G01 X1.5310 Y5.2739
G01 X1.5423 Y5.2651
G01 X1.5540 Y5.2569
G01 X1.5660 Y5.2492
G01 X1.5848 Y5.2389
G01 X1.6044 Y5.2300
G01 X1.6177 Y5.2248
G01 X1.6313 Y5.2204
G01 X1.6521 Y5.2150
G01 X1.6732 Y5.2111
G01 X1.7434 Y5.2010
G01 X1.7576 Y5.1993
G01 X1.7719 Y5.1984
G01 X1.7862 Y5.1981
G01 X1.8077 Y5.1990
G01 X1.8290 Y5.2016
G01 X1.8500 Y5.2057
G01 X1.8707 Y5.2113
G01 X1.8909 Y5.2185
G01 X1.9041 Y5.2241
G01 X1.9750 Y5.2566
G01 X1.9935 Y5.2664
G01 X2.0112 Y5.2776
G01 X2.0281 Y5.2900
G01 X2.0388 Y5.2990
G01 X2.0540 Y5.3133
G01 X2.0765 Y5.3371
G01 X2.0864 Y5.3482
G01 X2.0956 Y5.3596
G01 X2.1704 Y5.4577
G01 X2.3734 Y5.6660
G01 X2.5999 Y5.8485
G01 X2.8468 Y6.0024
G01 X3.1103 Y6.1256
G01 X3.3867 Y6.2162
G01 X3.6720 Y6.2730
G01 X3.9620 Y6.2950
G01 X4.2526 Y6.2821
G01 X4.5396 Y6.2343
G01 X4.8187 Y6.1524
G01 X5.0860 Y6.0376
G01 X5.3375 Y5.8915
G01 X5.5697 Y5.7162
G01 X5.7791 Y5.5144
G01 X5.9627 Y5.2888
G01 X6.1180 Y5.0428
G01 X6.2425 Y4.7799
G01 X6.3346 Y4.5039
G01 X6.3928 Y4.2189
G01 X6.4170 Y3.9219
G01 X6.4173 Y3.8856
G01 X6.3994 Y3.5880
G01 X6.3471 Y3.3019
G01 X6.2609 Y3.0241
G01 X6.1419 Y2.7587
G01 X5.9918 Y2.5094
G01 X5.8130 Y2.2801
G01 X5.6078 Y2.0738
G01 X5.3794 Y1.8938
G01 X5.1309 Y1.7424
G01 X4.8661 Y1.6220
G01 X4.5888 Y1.5343
G01 X4.3029 Y1.4805
G01 X4.2751 Y1.4784
G01 X4.2547 Y1.4753
G01 X4.2347 Y1.4709
G01 X4.2215 Y1.4671
G01 X4.2085 Y1.4627
G01 X4.1352 Y1.4357
G01 X4.1155 Y1.4271
G01 X4.0966 Y1.4170
G01 X4.0784 Y1.4056
G01 X4.0668 Y1.3973
G01 X4.0556 Y1.3883
G01 X4.0449 Y1.3789
G01 X4.0347 Y1.3689
G01 X4.0203 Y1.3530
G01 X4.0114 Y1.3418
G01 X3.9642 Y1.2794
G01 X3.9562 Y1.2676
G01 X3.9487 Y1.2554
G01 X3.9386 Y1.2365
G01 X3.9328 Y1.2234
G01 X3.9251 Y1.2034
G01 X3.9190 Y1.1828
G01 X3.9145 Y1.1619
G01 X3.9115 Y1.1406
G01 X3.9054 Y1.0627
G01 X3.9045 Y1.0413
G01 X3.9052 Y1.0198
G01 X3.9076 Y0.9985
G01 X3.9115 Y0.9774
G01 X3.9170 Y0.9567
G01 X3.9240 Y0.9364
G01 X3.9325 Y0.9167
G01 X3.9389 Y0.9039
G01 X3.9726 Y0.8414
G01 X3.9797 Y0.8290
G01 X3.9914 Y0.8111
G01 X4.0045 Y0.7941
G01 X4.0139 Y0.7833
G01 X4.0290 Y0.7680
G01 X4.0397 Y0.7585
G01 X4.0508 Y0.7495
G01 X4.0623 Y0.7411
G01 X4.0743 Y0.7332
G01 X4.0866 Y0.7260
G01 X4.1550 Y0.6882
G01 X4.1743 Y0.6790
G01 X4.1942 Y0.6713
G01 X4.2078 Y0.6670
G01 X4.2285 Y0.6618
G01 X4.2496 Y0.6582
G01 X4.2841 Y0.6542
G01 X4.2999 Y0.6529
G01 X4.3158 Y0.6525
G01 X25.6699 Y0.6525
G01 X25.6904 Y0.6532
G01 X25.7109 Y0.6554
G01 X25.7311 Y0.6591
G01 X25.7510 Y0.6642
G01 X25.8191 Y0.6842
G01 X25.8395 Y0.6910
G01 X25.8527 Y0.6963
G01 X25.8657 Y0.7024
G01 X25.8784 Y0.7090
G01 X25.8907 Y0.7163
G01 X25.9084 Y0.7283
G01 X25.9252 Y0.7417
G01 X25.9410 Y0.7562
G01 X25.9557 Y0.7719
G01 X26.0022 Y0.8256
G01 X26.0156 Y0.8423
G01 X26.0238 Y0.8540
G01 X26.0315 Y0.8660
G01 X26.0385 Y0.8785
G01 X26.0450 Y0.8913
G01 X26.0534 Y0.9110
G01 X26.0603 Y0.9313
G01 X26.0657 Y0.9521
G01 X26.0696 Y0.9732
G01 X26.0797 Y1.0434
G01 X26.0819 Y1.0648
G01 X26.0826 Y1.0791
G01 X26.0825 Y1.0934
G01 X26.0817 Y1.1077
G01 X26.0802 Y1.1219
G01 X26.0766 Y1.1430
G01 X26.0714 Y1.1639
G01 X26.0671 Y1.1775
G01 X26.0595 Y1.1975
G01 X26.0271 Y1.2687
G01 X26.0208 Y1.2815
G01 X26.0139 Y1.2940
G01 X26.0064 Y1.3062
G01 X25.9983 Y1.3180
G01 X25.9896 Y1.3294
G01 X25.9756 Y1.3456
G01 X25.9604 Y1.3607
G01 X25.9441 Y1.3747
G01 X25.9268 Y1.3874
G01 X25.8611 Y1.4297
G01 X25.8489 Y1.4371
G01 X25.8364 Y1.4439
G01 X25.8236 Y1.4500
G01 X25.8105 Y1.4555
G01 X25.7971 Y1.4604
G01 X25.7766 Y1.4665
G01 X25.7393 Y1.4745
G01 X25.4358 Y1.5283
G01 X25.1575 Y1.6131
G01 X24.8915 Y1.7307
G01 X24.6415 Y1.8794
G01 X24.4112 Y2.0571
G01 X24.2039 Y2.2612
G01 X24.0554 Y2.4475
G01 X24.0226 Y2.4887
G01 X23.8700 Y2.7363
G01 X23.7482 Y3.0005
G01 X23.6590 Y3.2773
G01 X23.6038 Y3.5629
G01 X23.5832 Y3.8531
G01 X23.5977 Y4.1436
G01 X23.6469 Y4.4303
G01 X23.7303 Y4.7090
G01 X23.8465 Y4.9757
G01 X23.9939 Y5.2264
G01 X24.1704 Y5.4577
G01 X24.3734 Y5.6660
G01 X24.5999 Y5.8485
G01 X24.8468 Y6.0024
G01 X25.1103 Y6.1256
G01 X25.3867 Y6.2162
G01 X25.6720 Y6.2730
G01 X25.9620 Y6.2950
G01 X26.2526 Y6.2821
G01 X26.5396 Y6.2343
G01 X26.8187 Y6.1524
G01 X27.0860 Y6.0376
G01 X27.3375 Y5.8915
G01 X27.5697 Y5.7162
G01 X27.7262 Y5.5654
G01 X27.7415 Y5.5516
G01 X27.7577 Y5.5390
G01 X27.7690 Y5.5313
G01 X27.7866 Y5.5207
G01 X27.8556 Y5.4846
G01 X27.8684 Y5.4783
G01 X27.8882 Y5.4700
G01 X27.9018 Y5.4653
G01 X27.9155 Y5.4614
G01 X27.9294 Y5.4580
G01 X27.9506 Y5.4544
G01 X27.9648 Y5.4528
G01 X27.9791 Y5.4520
G01 X27.9934 Y5.4519
G01 X28.0148 Y5.4530
G01 X28.0926 Y5.4601
G01 X28.1138 Y5.4633
G01 X28.1278 Y5.4664
G01 X28.1416 Y5.4701
G01 X28.1619 Y5.4769
G01 X28.1752 Y5.4824
G01 X28.1881 Y5.4884
G01 X28.2008 Y5.4951
G01 X28.2131 Y5.5024
G01 X28.2308 Y5.5145
G01 X28.2981 Y5.5669
G01 X28.3090 Y5.5762
G01 X28.3194 Y5.5861
G01 X28.3293 Y5.5965
G01 X28.3386 Y5.6074
G01 X28.3474 Y5.6187
G01 X28.3557 Y5.6305
G01 X28.3633 Y5.6426
G01 X28.3703 Y5.6551
G01 X28.3767 Y5.6680
G01 X28.3825 Y5.6811
G01 X28.3898 Y5.7013
G01 X28.4136 Y5.7750
G01 X28.4192 Y5.7949
G01 X28.4234 Y5.8152
G01 X28.4254 Y5.8289
G01 X28.4268 Y5.8427
G01 X28.4275 Y5.8634
G01 X28.4275 Y60.1146
G01 X28.4272 Y60.1283
G01 X28.4255 Y60.1488
G01 X28.4235 Y60.1624
G01 X28.4194 Y60.1825
G01 X28.4158 Y60.1958
G01 X28.3958 Y60.2639
G01 X28.3915 Y60.2775
G01 X28.3837 Y60.2975
G01 X28.3776 Y60.3105
G01 X28.3710 Y60.3231
G01 X28.3637 Y60.3354
G01 X28.3517 Y60.3532
G01 X28.3429 Y60.3645
G01 X28.3288 Y60.3806
G01 X28.3134 Y60.3957
G01 X28.2544 Y60.4469
G01 X28.2434 Y60.4560
G01 X28.2319 Y60.4645
G01 X28.2140 Y60.4763
G01 X28.2015 Y60.4833
G01 X28.1887 Y60.4897
G01 X28.1756 Y60.4955
G01 X28.1555 Y60.5029
G01 X28.1418 Y60.5071
G01 X28.1279 Y60.5105
G01 X28.1139 Y60.5132
G01 X28.0366 Y60.5244
G01 X28.0224 Y60.5261
G01 X28.0081 Y60.5271
G01 X27.9866 Y60.5272
G01 X27.9723 Y60.5264
G01 X27.9581 Y60.5249
G01 X27.9440 Y60.5227
G01 X27.9230 Y60.5181
G01 X27.9093 Y60.5141
G01 X27.8891 Y60.5070
G01 X27.8759 Y60.5013
G01 X27.8049 Y60.4688
G01 X27.7860 Y60.4587
G01 X27.7679 Y60.4472
G01 X27.7563 Y60.4388
G01 X27.7452 Y60.4299
G01 X27.7238 Y60.4104
G01 X27.6078 Y60.2938
G01 X27.3794 Y60.1138
G01 X27.1309 Y59.9624
G01 X26.8661 Y59.8420
G01 X26.5888 Y59.7543
G01 X26.3029 Y59.7005
G01 X26.0127 Y59.6815
G01 X25.7222 Y59.6975
G01 X25.4358 Y59.7483
G01 X25.1575 Y59.8331
G01 X24.8915 Y59.9507
G01 X24.6415 Y60.0994
G01 X24.4112 Y60.2771
G01 X24.2039 Y60.4812
G01 X24.0226 Y60.7087
G01 X23.8700 Y60.9563
G01 X23.7482 Y61.2204
G01 X23.6590 Y61.4973
G01 X23.6038 Y61.7829
G01 X23.5832 Y62.0731
G01 X23.5977 Y62.3636
G01 X23.6469 Y62.6503
G01 X23.7303 Y62.9290
G01 X23.8465 Y63.1957
G01 X23.9939 Y63.4464
G01 X24.1704 Y63.6777
G01 X24.3734 Y63.8860
G01 X24.5999 Y64.0685
G01 X24.8467 Y64.2224
G01 X25.1103 Y64.3456
G01 X25.3327 Y64.4185
G01 X25.3520 Y64.4256
G01 X25.3707 Y64.4341
G01 X25.3829 Y64.4404
G01 X25.4005 Y64.4510
G01 X25.4647 Y64.4951
G01 X25.4819 Y64.5079
G01 X25.4981 Y64.5219
G01 X25.5132 Y64.5372
G01 X25.5226 Y64.5479
G01 X25.5357 Y64.5649
G01 X25.5476 Y64.5828
G01 X25.5547 Y64.5952
G01 X25.5612 Y64.6079
G01 X25.5670 Y64.6210
G01 X25.5945 Y64.6864
G01 X25.6021 Y64.7065
G01 X25.6063 Y64.7202
G01 X25.6113 Y64.7411
G01 X25.6138 Y64.7551
G01 X25.6155 Y64.7693
G01 X25.6168 Y64.7908
G01 X25.6166 Y64.8122
G01 X25.6155 Y64.8265
G01 X25.6126 Y64.8477
G01 X25.6003 Y64.9176
G01 X25.5958 Y64.9386
G01 X25.5919 Y64.9524
G01 X25.5849 Y64.9726
G01 X25.5793 Y64.9858
G01 X25.5698 Y65.0051
G01 X25.5627 Y65.0175
G01 X25.5550 Y65.0295
G01 X25.5466 Y65.0411
G01 X25.5331 Y65.0578
G01 X25.4754 Y65.1203
G01 X25.4603 Y65.1348
G01 X25.4497 Y65.1438
G01 X25.4331 Y65.1563
G01 X25.4155 Y65.1676
G01 X25.3972 Y65.1776
G01 X25.3782 Y65.1863
G01 X25.3652 Y65.1912
G01 X25.3520 Y65.1956
G01 X25.2805 Y65.2155
G01 X25.2668 Y65.2189
G01 X25.2530 Y65.2217
G01 X25.2390 Y65.2237
G01 X25.2179 Y65.2256
G01 X25.2037 Y65.2259
G01 X4.7913 Y65.2259
G01 X4.7776 Y65.2256
G01 X4.7640 Y65.2246
G01 X4.7504 Y65.2230
G01 X4.7368 Y65.2207
G01 X4.7234 Y65.2178
G01 X4.7102 Y65.2142
G01 X4.6421 Y65.1942
G01 X4.6217 Y65.1874
G01 X4.6085 Y65.1821
G01 X4.5891 Y65.1728
G01 X4.5705 Y65.1621
G01 X4.5528 Y65.1501
G01 X4.5360 Y65.1367
G01 X4.5253 Y65.1272
G01 X4.5152 Y65.1171
G01 X4.5056 Y65.1065
G01 X4.4545 Y65.0474
G01 X4.4414 Y65.0303
G01 X4.4297 Y65.0124
G01 X4.4194 Y64.9936
G01 X4.4133 Y64.9806
G01 X4.4054 Y64.9607
G01 X4.3989 Y64.9402
G01 X4.3941 Y64.9193
G01 X4.3917 Y64.9052
G01 X4.3816 Y64.8350
G01 X4.3793 Y64.8136
G01 X4.3787 Y64.7993
G01 X4.3788 Y64.7850
G01 X4.3802 Y64.7636
G01 X4.3821 Y64.7494
G01 X4.3862 Y64.7284
G01 X4.3919 Y64.7077
G01 X4.3990 Y64.6875
G01 X4.4047 Y64.6743
G01 X4.4372 Y64.6033
G01 X4.4438 Y64.5906
G01 X4.4548 Y64.5722
G01 X4.4672 Y64.5546
G01 X4.4762 Y64.5435
G01 X4.4857 Y64.5328
G01 X4.5009 Y64.5177
G01 X4.5172 Y64.5037
G01 X4.5286 Y64.4951
G01 X4.5404 Y64.4871
G01 X4.6060 Y64.4451
G01 X4.6239 Y64.4350
G01 X4.6426 Y64.4262
G01 X4.6553 Y64.4211
G01 X4.6682 Y64.4167
G01 X4.8187 Y64.3724
G01 X5.0860 Y64.2576
G01 X5.3375 Y64.1115
G01 X5.5697 Y63.9362
G01 X5.7791 Y63.7344
G01 X5.9627 Y63.5088
G01 X6.1180 Y63.2628
G01 X6.2425 Y62.9999
G01 X6.3346 Y62.7239
G01 X6.3928 Y62.4389
G01 X6.4170 Y62.1419
G01 X6.4173 Y62.1056
G01 X6.3994 Y61.8080
G01 X6.3471 Y61.5219
G01 X6.2609 Y61.2441
G01 X6.1419 Y60.9787
G01 X5.9918 Y60.7294
G01 X5.8130 Y60.5001
G01 X5.6078 Y60.2938
G01 X5.3794 Y60.1138
G01 X5.1309 Y59.9624
G01 X4.8661 Y59.8420
G01 X4.5888 Y59.7543
G01 X4.3029 Y59.7005
G01 X4.0127 Y59.6815
G01 X3.7222 Y59.6975
G01 X3.4358 Y59.7483
G01 X3.1575 Y59.8331
G01 X2.8915 Y59.9507
G01 X2.6415 Y60.0994
G01 X2.4112 Y60.2771
G01 X2.2039 Y60.4812
G01 X2.0859 Y60.6290
G01 X2.0769 Y60.6394
G01 X2.0624 Y60.6540
G01 X2.0522 Y60.6631
G01 X2.0361 Y60.6759
G01 X1.9725 Y60.7207
G01 X1.9606 Y60.7287
G01 X1.9420 Y60.7394
G01 X1.9227 Y60.7488
G01 X1.9028 Y60.7567
G01 X1.8892 Y60.7611
G01 X1.8754 Y60.7648
G01 X1.8614 Y60.7679
G01 X1.8473 Y60.7702
G01 X1.8331 Y60.7719
G01 X1.8188 Y60.7728
G01 X1.7479 Y60.7757
G01 X1.7336 Y60.7760
G01 X1.7193 Y60.7755
G01 X1.7050 Y60.7743
G01 X1.6908 Y60.7724
G01 X1.6768 Y60.7698
G01 X1.6560 Y60.7646
G01 X1.6423 Y60.7603
G01 X1.6289 Y60.7553
G01 X1.6158 Y60.7497
G01 X1.6029 Y60.7434
G01 X1.5904 Y60.7365
G01 X1.5292 Y60.7006
G01 X1.5111 Y60.6891
G01 X1.4995 Y60.6806
G01 X1.4884 Y60.6717
G01 X1.4777 Y60.6621
G01 X1.4626 Y60.6469
G01 X1.4532 Y60.6361
G01 X1.4443 Y60.6249
G01 X1.4360 Y60.6132
G01 X1.4247 Y60.5950
G01 X1.4179 Y60.5824
G01 X1.3858 Y60.5191
G01 X1.3767 Y60.4994
G01 X1.3715 Y60.4858
G01 X1.3649 Y60.4651
G01 X1.3614 Y60.4510
G01 X1.3587 Y60.4368
G01 X1.3566 Y60.4224
G01 X1.3537 Y60.3922
G01 X1.3528 Y60.3790
G01 X1.3525 Y60.3657
G01 X1.3525 Y5.6108
G00 Z1.0000
G00 X7.9956 Y7.7458
G01 F50.00
G01 Z-0.1100
G01 F100.00
G01 X7.9713 Y7.8138
G01 X7.9835 Y7.7726
G01 X7.9956 Y7.7458
G00 Z1.0000
G00 X8.0903 Y7.5389
G01 F50.00
G01 Z-0.1100
G01 F100.00
G01 X8.0827 Y7.5530
G01 X8.0754 Y7.5683
G01 X8.0842 Y7.5486
G01 X8.0903 Y7.5389
G00 Z1.0000
G00 X8.2418 Y7.3057
G01 F50.00
G01 Z-0.1100
G01 F100.00
G01 X8.1997 Y7.3624
G01 X8.2136 Y7.3399
G01 X8.2418 Y7.3057
G00 Z1.0000
G00 X8.3884 Y7.1326
G01 F50.00
G01 Z-0.1100
G01 F100.00
G01 X8.3412 Y7.1846
G01 X8.3695 Y7.1502
G01 X8.3884 Y7.1326
G00 Z1.0000
G00 X8.5689 Y6.9686
G01 F50.00
G01 Z-0.1100
G01 F100.00
G01 X8.5518 Y6.9814
G01 X8.5409 Y6.9903
G01 X8.5491 Y6.9827
G01 X8.5689 Y6.9686
G00 Z1.0000
G00 X8.7869 Y6.8206
G01 F50.00
G01 Z-0.1100
G01 F100.00
G01 X8.7248 Y6.8578
G01 X8.7492 Y6.8404
G01 X8.7869 Y6.8206
G00 Z1.0000
G00 X8.9872 Y6.7183
G01 F50.00
G01 Z-0.1100
G01 F100.00
G01 X8.9263 Y6.7471
G01 X8.9665 Y6.7259
G01 X8.9872 Y6.7183
G00 Z1.0000
G00 X9.2319 Y6.6333
G01 F50.00
G01 Z-0.1100
G01 F100.00
G01 X9.1990 Y6.6415
G01 X9.1866 Y6.6449
G01 X9.1969 Y6.6411
G01 X9.2319 Y6.6333
G00 Z1.0000
G00 X9.4768 Y6.5840
G01 F50.00
G01 Z-0.1100
G01 F100.00
G01 X9.4040 Y6.5948
G01 X9.4366 Y6.5876
G01 X9.4768 Y6.5840
G00 Z1.0000
G00 X9.6994 Y6.5670
G01 F50.00
G01 Z-0.1100
G01 F100.00
G01 X9.6362 Y6.5701
G01 X9.6812 Y6.5662
G01 X9.6994 Y6.5670
G00 Z1.0000
G00 X9.9677 Y6.5847
G01 F50.00
G01 Z-0.1100
G01 F100.00
G01 X9.9187 Y6.5774
G01 X9.9132 Y6.5767
G01 X9.9265 Y6.5773
G01 X9.9677 Y6.5847
G00 Z1.0000
G00 X10.2041 Y6.6323
G01 F50.00
G01 Z-0.1100
G01 F100.00
G01 X10.1323 Y6.6143
G01 X10.1682 Y6.6208
G01 X10.2041 Y6.6323
G00 Z1.0000
G00 X10.4152 Y6.7021
G01 F50.00
G01 Z-0.1100
G01 F100.00
G01 X10.4126 Y6.7012
G01 X10.3608 Y6.6826
G01 X10.4020 Y6.6958
G01 X10.4152 Y6.7021
G00 Z1.0000
G00 X10.6612 Y6.8255
G01 F50.00
G01 Z-0.1100
G01 F100.00
G01 X10.6088 Y6.7940
G01 X10.6238 Y6.8012
G01 X10.6612 Y6.8255
G00 Z1.0000
G00 X10.8561 Y6.9575
G01 F50.00
G01 Z-0.1100
G01 F100.00
G01 X10.7968 Y6.9135
G01 X10.8298 Y6.9349
G01 X10.8561 Y6.9575
G00 Z1.0000
G00 X11.0239 Y7.1033
G01 F50.00
G01 Z-0.1100
G01 F100.00
G01 X11.0170 Y7.0969
G01 X10.9868 Y7.0695
G01 X11.0162 Y7.0947
G01 X11.0239 Y7.1033
G00 Z1.0000
G00 X11.5107 Y7.7410
G01 F50.00
G01 Z-0.1100
G01 F100.00
G01 X11.4939 Y7.6947
G01 X11.4861 Y7.6758
G01 X11.4145 Y7.5243
G01 X11.4098 Y7.5152
G01 X11.3997 Y7.4974
G01 X11.3365 Y7.3920
G01 X11.3948 Y7.4024
G01 X11.4152 Y7.4056
G01 X11.4358 Y7.4077
G01 X11.4564 Y7.4088
G01 X11.4771 Y7.4089
G01 X11.4874 Y7.4085
G01 X11.5080 Y7.4070
G01 X11.5183 Y7.4059
G01 X11.5387 Y7.4029
G01 X11.5489 Y7.4010
G01 X11.5690 Y7.3965
G01 X11.5889 Y7.3910
G01 X11.6086 Y7.3845
G01 X11.6182 Y7.3809
G01 X11.6934 Y7.3498
G01 X11.7123 Y7.3414
G01 X11.7215 Y7.3368
G01 X11.7397 Y7.3271
G01 X11.7486 Y7.3218
G01 X11.7574 Y7.3164
G01 X11.7745 Y7.3048
G01 X11.7911 Y7.2925
G01 X11.7991 Y7.2860
G01 X11.8070 Y7.2793
G01 X11.8218 Y7.2657
G01 X11.8846 Y7.3982
G01 X11.8942 Y7.4162
G01 X11.9058 Y7.4358
G01 X11.8856 Y7.4408
G01 X11.8658 Y7.4468
G01 X11.7892 Y7.4739
G01 X11.7699 Y7.4813
G01 X11.7604 Y7.4854
G01 X11.7510 Y7.4896
G01 X11.7325 Y7.4989
G01 X11.7145 Y7.5091
G01 X11.7058 Y7.5145
G01 X11.6886 Y7.5260
G01 X11.6720 Y7.5384
G01 X11.6561 Y7.5515
G01 X11.6484 Y7.5584
G01 X11.6334 Y7.5727
G01 X11.6192 Y7.5877
G01 X11.6058 Y7.6034
G01 X11.5560 Y7.6677
G01 X11.5438 Y7.6843
G01 X11.5324 Y7.7016
G01 X11.5270 Y7.7104
G01 X11.5170 Y7.7284
G01 X11.5107 Y7.7410
G00 Z1.0000
G00 X11.5284 Y8.0233
G01 F50.00
G01 Z-0.1100
G01 F100.00
G01 X11.4969 Y7.8974
G01 X11.4923 Y7.8808
G01 X11.4868 Y7.8644
G01 X11.4372 Y7.7258
G01 X11.4310 Y7.7097
G01 X11.4240 Y7.6939
G01 X11.3573 Y7.5530
G01 X11.3448 Y7.5303
G01 X11.2691 Y7.4041
G01 X11.2599 Y7.3895
G01 X11.2499 Y7.3754
G01 X11.1570 Y7.2502
G01 X11.1461 Y7.2369
G01 X11.1237 Y7.2121
G01 X11.1404 Y7.2263
G01 X11.1846 Y7.2602
G01 X11.1989 Y7.2706
G01 X11.2136 Y7.2802
G01 X11.2288 Y7.2890
G01 X11.2445 Y7.2971
G01 X11.2686 Y7.3077
G01 X11.2851 Y7.3138
G01 X11.3019 Y7.3190
G01 X11.3276 Y7.3253
G01 X11.4061 Y7.3394
G01 X11.4234 Y7.3421
G01 X11.4407 Y7.3439
G01 X11.4669 Y7.3450
G01 X11.4844 Y7.3446
G01 X11.5019 Y7.3433
G01 X11.5192 Y7.3412
G01 X11.5450 Y7.3364
G01 X11.5620 Y7.3322
G01 X11.5870 Y7.3243
G01 X11.6033 Y7.3180
G01 X11.6768 Y7.2872
G01 X11.7004 Y7.2757
G01 X11.7156 Y7.2670
G01 X11.7303 Y7.2576
G01 X11.7515 Y7.2422
G01 X11.7715 Y7.2252
G01 X11.7840 Y7.2131
G01 X11.8018 Y7.1937
G01 X11.8128 Y7.1802
G01 X11.8231 Y7.1660
G01 X11.8380 Y7.1445
G01 X11.8470 Y7.1685
G01 X11.8540 Y7.1843
G01 X11.9417 Y7.3695
G01 X11.9542 Y7.3922
G01 X12.0132 Y7.4905
G01 X11.9888 Y7.4901
G01 X11.9626 Y7.4916
G01 X11.9366 Y7.4950
G01 X11.9195 Y7.4983
G01 X11.9025 Y7.5025
G01 X11.8858 Y7.5076
G01 X11.8106 Y7.5342
G01 X11.7943 Y7.5405
G01 X11.7704 Y7.5514
G01 X11.7550 Y7.5596
G01 X11.7400 Y7.5686
G01 X11.7255 Y7.5783
G01 X11.7115 Y7.5888
G01 X11.6915 Y7.6057
G01 X11.6788 Y7.6178
G01 X11.6668 Y7.6305
G01 X11.6500 Y7.6506
G01 X11.6066 Y7.7068
G01 X11.5914 Y7.7281
G01 X11.5821 Y7.7430
G01 X11.5696 Y7.7660
G01 X11.5589 Y7.7899
G01 X11.5527 Y7.8063
G01 X11.5474 Y7.8229
G01 X11.5429 Y7.8398
G01 X11.5377 Y7.8655
G01 X11.5354 Y7.8829
G01 X11.5284 Y7.9623
G01 X11.5273 Y7.9790
G01 X11.5272 Y8.0041
G01 X11.5284 Y8.0233
G00 Z1.0000
G00 X11.5582 Y8.2013
G01 F50.00
G01 Z-0.1100
G01 F100.00
G01 X11.5477 Y8.1305
G01 X11.5564 Y8.1734
G01 X11.5582 Y8.2013
G00 Z1.0000
G00 X11.6360 Y10.4084
G01 F50.00
G01 Z-0.1100
G01 F100.00
G01 X11.6360 Y10.0880
G01 X11.6640 Y10.1203
G01 X11.6779 Y10.1356
G01 X11.6926 Y10.1502
G01 X11.7079 Y10.1640
G01 X11.7158 Y10.1706
G01 X11.7322 Y10.1832
G01 X11.7491 Y10.1950
G01 X11.7667 Y10.2060
G01 X11.7926 Y10.2201
G01 X11.7805 Y10.2283
G01 X11.7641 Y10.2404
G01 X11.7483 Y10.2534
G01 X11.7406 Y10.2602
G01 X11.7332 Y10.2671
G01 X11.7187 Y10.2816
G01 X11.7050 Y10.2967
G01 X11.6984 Y10.3045
G01 X11.6859 Y10.3206
G01 X11.6799 Y10.3289
G01 X11.6685 Y10.3458
G01 X11.6632 Y10.3545
G01 X11.6580 Y10.3634
G01 X11.6484 Y10.3814
G01 X11.6360 Y10.4084
G00 Z1.0000
G00 X11.1561 Y12.1843
G01 F50.00
G01 Z-0.1100
G01 F100.00
G01 X11.1945 Y12.1417
G01 X11.2075 Y12.1259
G01 X11.3073 Y11.9913
G01 X11.3187 Y11.9743
G01 X11.3240 Y11.9656
G01 X11.3997 Y11.8394
G01 X11.4098 Y11.8216
G01 X11.4189 Y11.8034
G01 X11.4819 Y11.6703
G01 X11.4902 Y11.6516
G01 X11.4975 Y11.6326
G01 X11.5504 Y11.4843
G01 X11.5535 Y11.4746
G01 X11.5589 Y11.4549
G01 X11.5947 Y11.3121
G01 X11.5992 Y11.2922
G01 X11.6040 Y11.2631
G01 X11.6040 Y12.3743
G01 X11.5831 Y12.3537
G01 X11.5309 Y12.3057
G01 X11.5154 Y12.2920
G01 X11.4992 Y12.2792
G01 X11.4823 Y12.2672
G01 X11.4649 Y12.2561
G01 X11.4560 Y12.2508
G01 X11.4470 Y12.2458
G01 X11.4286 Y12.2364
G01 X11.4097 Y12.2280
G01 X11.3905 Y12.2205
G01 X11.3807 Y12.2171
G01 X11.3610 Y12.2111
G01 X11.3510 Y12.2084
G01 X11.3308 Y12.2039
G01 X11.3207 Y12.2020
G01 X11.2507 Y12.1898
G01 X11.2405 Y12.1881
G01 X11.2200 Y12.1856
G01 X11.1994 Y12.1841
G01 X11.1788 Y12.1836
G01 X11.1561 Y12.1843
G00 Z1.0000
G00 X10.8711 Y12.3682
G01 F50.00
G01 Z-0.1100
G01 F100.00
G01 X10.8882 Y12.3554
G01 X10.9080 Y12.3387
G01 X11.0170 Y12.2399
G01 X11.0296 Y12.2280
G01 X11.0415 Y12.2154
G01 X11.1403 Y12.1064
G01 X11.1516 Y12.0933
G01 X11.1622 Y12.0797
G01 X11.2499 Y11.9614
G01 X11.2599 Y11.9473
G01 X11.2691 Y11.9327
G01 X11.3448 Y11.8065
G01 X11.3533 Y11.7914
G01 X11.3611 Y11.7760
G01 X11.4240 Y11.6429
G01 X11.4310 Y11.6271
G01 X11.4372 Y11.6110
G01 X11.4868 Y11.4724
G01 X11.4947 Y11.4477
G01 X11.5326 Y11.2966
G01 X11.5364 Y11.2797
G01 X11.5394 Y11.2627
G01 X11.5610 Y11.1171
G01 X11.5631 Y11.0999
G01 X11.5644 Y11.0827
G01 X11.5716 Y10.9357
G01 X11.5720 Y10.9184
G01 X11.5720 Y9.7914
G01 X11.5749 Y9.8085
G01 X11.5879 Y9.8691
G01 X11.5945 Y9.8946
G01 X11.5999 Y9.9113
G01 X11.6062 Y9.9278
G01 X11.6133 Y9.9439
G01 X11.6212 Y9.9596
G01 X11.6298 Y9.9749
G01 X11.6392 Y9.9898
G01 X11.6547 Y10.0112
G01 X11.6659 Y10.0248
G01 X11.7124 Y10.0784
G01 X11.7303 Y10.0976
G01 X11.7430 Y10.1096
G01 X11.7562 Y10.1209
G01 X11.7701 Y10.1316
G01 X11.7844 Y10.1416
G01 X11.8068 Y10.1553
G01 X11.8223 Y10.1634
G01 X11.8381 Y10.1708
G01 X11.8543 Y10.1773
G01 X11.8709 Y10.1831
G01 X11.9473 Y10.2056
G01 X11.9717 Y10.2119
G01 X11.9881 Y10.2150
G01 X12.0010 Y10.2169
G01 X11.9855 Y10.2181
G01 X11.9684 Y10.2202
G01 X11.9513 Y10.2232
G01 X11.9345 Y10.2269
G01 X11.9178 Y10.2316
G01 X11.9014 Y10.2370
G01 X11.8774 Y10.2466
G01 X11.8541 Y10.2580
G01 X11.8390 Y10.2665
G01 X11.8244 Y10.2757
G01 X11.8034 Y10.2909
G01 X11.7901 Y10.3019
G01 X11.7773 Y10.3135
G01 X11.7592 Y10.3320
G01 X11.7479 Y10.3451
G01 X11.7373 Y10.3587
G01 X11.7273 Y10.3728
G01 X11.7181 Y10.3874
G01 X11.7056 Y10.4101
G01 X11.6982 Y10.4258
G01 X11.6916 Y10.4417
G01 X11.6832 Y10.4662
G01 X11.6785 Y10.4829
G01 X11.6748 Y10.4997
G01 X11.6706 Y10.5253
G01 X11.6690 Y10.5425
G01 X11.6680 Y10.5684
G01 X11.6680 Y12.6754
G01 X11.6647 Y12.6559
G01 X11.6609 Y12.6390
G01 X11.6407 Y12.5657
G01 X11.6329 Y12.5414
G01 X11.6235 Y12.5177
G01 X11.6123 Y12.4947
G01 X11.5995 Y12.4726
G01 X11.5852 Y12.4515
G01 X11.5748 Y12.4380
G01 X11.5637 Y12.4251
G01 X11.5460 Y12.4067
G01 X11.4876 Y12.3527
G01 X11.4676 Y12.3357
G01 X11.4465 Y12.3202
G01 X11.4242 Y12.3064
G01 X11.4010 Y12.2942
G01 X11.3769 Y12.2838
G01 X11.3522 Y12.2752
G01 X11.3268 Y12.2684
G01 X11.3097 Y12.2650
G01 X11.2397 Y12.2528
G01 X11.2225 Y12.2503
G01 X11.1963 Y12.2480
G01 X11.1701 Y12.2477
G01 X11.1439 Y12.2494
G01 X11.1180 Y12.2530
G01 X11.0923 Y12.2585
G01 X11.0755 Y12.2632
G01 X11.0589 Y12.2688
G01 X11.0427 Y12.2752
G01 X10.9779 Y12.3024
G01 X10.9618 Y12.3097
G01 X10.9461 Y12.3178
G01 X10.9233 Y12.3313
G01 X10.9087 Y12.3413
G01 X10.8711 Y12.3682
G00 Z1.0000
G00 X10.6531 Y12.5162
G01 F50.00
G01 Z-0.1100
G01 F100.00
G01 X10.7152 Y12.4790
G01 X10.6908 Y12.4964
G01 X10.6531 Y12.5162
G00 Z1.0000
G00 X10.4528 Y12.6185
G01 F50.00
G01 Z-0.1100
G01 F100.00
G01 X10.5137 Y12.5897
G01 X10.4735 Y12.6109
G01 X10.4528 Y12.6185
G00 Z1.0000
G00 X10.2081 Y12.7035
G01 F50.00
G01 Z-0.1100
G01 F100.00
G01 X10.2410 Y12.6953
G01 X10.2534 Y12.6919
G01 X10.2431 Y12.6957
G01 X10.2081 Y12.7035
G00 Z1.0000
G00 X9.9632 Y12.7528
G01 F50.00
G01 Z-0.1100
G01 F100.00
G01 X10.0360 Y12.7420
G01 X10.0034 Y12.7492
G01 X9.9632 Y12.7528
G00 Z1.0000
G00 X9.7406 Y12.7698
G01 F50.00
G01 Z-0.1100
G01 F100.00
G01 X9.8038 Y12.7667
G01 X9.7588 Y12.7706
G01 X9.7406 Y12.7698
G00 Z1.0000
G00 X9.7341 Y12.7061
G01 F50.00
G01 Z-0.1100
G01 F100.00
G01 X9.7200 Y12.7064
G01 X9.7059 Y12.7061
G01 X9.5588 Y12.6988
G01 X9.5447 Y12.6978
G01 X9.5307 Y12.6961
G01 X9.3851 Y12.6745
G01 X9.3712 Y12.6720
G01 X9.3574 Y12.6689
G01 X9.2146 Y12.6332
G01 X9.2010 Y12.6294
G01 X9.1875 Y12.6250
G01 X9.0490 Y12.5754
G01 X9.0358 Y12.5703
G01 X9.0228 Y12.5646
G01 X8.8898 Y12.5016
G01 X8.8771 Y12.4953
G01 X8.8648 Y12.4883
G01 X8.7386 Y12.4126
G01 X8.7266 Y12.4051
G01 X8.7151 Y12.3969
G01 X8.5968 Y12.3092
G01 X8.5857 Y12.3005
G01 X8.5750 Y12.2913
G01 X8.4659 Y12.1925
G01 X8.4557 Y12.1827
G01 X8.4459 Y12.1725
G01 X8.3471 Y12.0634
G01 X8.3379 Y12.0527
G01 X8.3292 Y12.0416
G01 X8.2415 Y11.9233
G01 X8.2333 Y11.9118
G01 X8.2258 Y11.8998
G01 X8.1501 Y11.7736
G01 X8.1431 Y11.7613
G01 X8.1368 Y11.7486
G01 X8.0738 Y11.6156
G01 X8.0681 Y11.6026
G01 X8.0630 Y11.5894
G01 X8.0134 Y11.4509
G01 X8.0090 Y11.4374
G01 X8.0052 Y11.4238
G01 X7.9695 Y11.2810
G01 X7.9664 Y11.2672
G01 X7.9639 Y11.2533
G01 X7.9423 Y11.1077
G01 X7.9406 Y11.0937
G01 X7.9396 Y11.0796
G01 X7.9323 Y10.9325
G01 X7.9320 Y10.9184
G01 X7.9320 Y8.4184
G01 X7.9323 Y8.4043
G01 X7.9396 Y8.2572
G01 X7.9406 Y8.2431
G01 X7.9423 Y8.2291
G01 X7.9639 Y8.0835
G01 X7.9664 Y8.0696
G01 X7.9695 Y8.0558
G01 X8.0052 Y7.9130
G01 X8.0090 Y7.8994
G01 X8.0134 Y7.8859
G01 X8.0630 Y7.7474
G01 X8.0681 Y7.7342
G01 X8.0738 Y7.7212
G01 X8.1368 Y7.5882
G01 X8.1431 Y7.5755
G01 X8.1501 Y7.5632
G01 X8.2258 Y7.4370
G01 X8.2333 Y7.4250
G01 X8.2415 Y7.4135
G01 X8.3292 Y7.2952
G01 X8.3379 Y7.2841
G01 X8.3471 Y7.2734
G01 X8.4459 Y7.1643
G01 X8.4557 Y7.1541
G01 X8.4659 Y7.1443
G01 X8.5750 Y7.0455
G01 X8.5857 Y7.0363
G01 X8.5968 Y7.0276
G01 X8.7151 Y6.9399
G01 X8.7266 Y6.9317
G01 X8.7386 Y6.9242
G01 X8.8648 Y6.8485
G01 X8.8771 Y6.8415
G01 X8.8898 Y6.8352
G01 X9.0228 Y6.7722
G01 X9.0358 Y6.7665
G01 X9.0490 Y6.7614
G01 X9.1875 Y6.7118
G01 X9.2010 Y6.7074
G01 X9.2146 Y6.7036
G01 X9.3574 Y6.6679
G01 X9.3712 Y6.6648
G01 X9.3851 Y6.6623
G01 X9.5307 Y6.6407
G01 X9.5447 Y6.6390
G01 X9.5588 Y6.6380
G01 X9.7059 Y6.6307
G01 X9.7200 Y6.6304
G01 X9.7341 Y6.6307
G01 X9.8812 Y6.6380
G01 X9.8953 Y6.6390
G01 X9.9093 Y6.6407
G01 X10.0549 Y6.6623
G01 X10.0688 Y6.6648
G01 X10.0826 Y6.6679
G01 X10.2254 Y6.7036
G01 X10.2390 Y6.7074
G01 X10.2525 Y6.7118
G01 X10.3910 Y6.7614
G01 X10.4042 Y6.7665
G01 X10.4172 Y6.7722
G01 X10.5502 Y6.8352
G01 X10.5629 Y6.8415
G01 X10.5752 Y6.8485
G01 X10.7014 Y6.9242
G01 X10.7134 Y6.9317
G01 X10.7249 Y6.9399
G01 X10.8432 Y7.0276
G01 X10.8543 Y7.0363
G01 X10.8650 Y7.0455
G01 X10.9741 Y7.1443
G01 X10.9843 Y7.1541
G01 X10.9941 Y7.1643
G01 X11.0929 Y7.2734
G01 X11.1021 Y7.2841
G01 X11.1108 Y7.2952
G01 X11.1985 Y7.4135
G01 X11.2067 Y7.4250
G01 X11.2142 Y7.4370
G01 X11.2899 Y7.5632
G01 X11.2969 Y7.5755
G01 X11.3032 Y7.5882
G01 X11.3662 Y7.7212
G01 X11.3719 Y7.7342
G01 X11.3770 Y7.7474
G01 X11.4266 Y7.8859
G01 X11.4310 Y7.8994
G01 X11.4348 Y7.9130
G01 X11.4705 Y8.0558
G01 X11.4736 Y8.0696
G01 X11.4761 Y8.0835
G01 X11.4977 Y8.2291
G01 X11.4994 Y8.2431
G01 X11.5004 Y8.2572
G01 X11.5077 Y8.4043
G01 X11.5080 Y8.4184
G01 X11.5080 Y10.9184
G01 X11.5077 Y10.9325
G01 X11.5004 Y11.0796
G01 X11.4994 Y11.0937
G01 X11.4977 Y11.1077
G01 X11.4761 Y11.2533
G01 X11.4736 Y11.2672
G01 X11.4705 Y11.2810
G01 X11.4348 Y11.4238
G01 X11.4310 Y11.4374
G01 X11.4266 Y11.4509
G01 X11.3770 Y11.5894
G01 X11.3719 Y11.6026
G01 X11.3662 Y11.6156
G01 X11.3032 Y11.7486
G01 X11.2969 Y11.7613
G01 X11.2899 Y11.7736
G01 X11.2142 Y11.8998
G01 X11.2067 Y11.9118
G01 X11.1985 Y11.9233
G01 X11.1108 Y12.0416
G01 X11.1021 Y12.0527
G01 X11.0929 Y12.0634
G01 X10.9941 Y12.1725
G01 X10.9843 Y12.1827
G01 X10.9741 Y12.1925
G01 X10.8650 Y12.2913
G01 X10.8543 Y12.3005
G01 X10.8432 Y12.3092
G01 X10.7249 Y12.3969
G01 X10.7134 Y12.4051
G01 X10.7014 Y12.4126
G01 X10.5752 Y12.4883
G01 X10.5629 Y12.4953
G01 X10.5502 Y12.5016
G01 X10.4172 Y12.5646
G01 X10.4042 Y12.5703
G01 X10.3910 Y12.5754
G01 X10.2525 Y12.6250
G01 X10.2390 Y12.6294
G01 X10.2254 Y12.6332
G01 X10.0826 Y12.6689
G01 X10.0688 Y12.6720
G01 X10.0549 Y12.6745
G01 X9.9093 Y12.6961
G01 X9.8953 Y12.6978
G01 X9.8812 Y12.6988
G01 X9.7341 Y12.7061
G00 Z1.0000
G00 X9.7310 Y12.6421
G01 F50.00
G01 Z-0.1100
G01 F100.00
G01 X9.7200 Y12.6424
G01 X9.7090 Y12.6421
G01 X9.5620 Y12.6349
G01 X9.5510 Y12.6341
G01 X9.5401 Y12.6328
G01 X9.3945 Y12.6112
G01 X9.3837 Y12.6093
G01 X9.3729 Y12.6069
G01 X9.2301 Y12.5711
G01 X9.2195 Y12.5682
G01 X9.2091 Y12.5647
G01 X9.0705 Y12.5151
G01 X9.0603 Y12.5112
G01 X9.0502 Y12.5067
G01 X8.9171 Y12.4438
G01 X8.9073 Y12.4388
G01 X8.8977 Y12.4334
G01 X8.7715 Y12.3577
G01 X8.7622 Y12.3519
G01 X8.7532 Y12.3455
G01 X8.6350 Y12.2578
G01 X8.6263 Y12.2511
G01 X8.6180 Y12.2439
G01 X8.5089 Y12.1450
G01 X8.5009 Y12.1375
G01 X8.4934 Y12.1295
G01 X8.3945 Y12.0204
G01 X8.3873 Y12.0121
G01 X8.3806 Y12.0034
G01 X8.2929 Y11.8852
G01 X8.2865 Y11.8762
G01 X8.2807 Y11.8669
G01 X8.2050 Y11.7407
G01 X8.1996 Y11.7311
G01 X8.1946 Y11.7213
G01 X8.1317 Y11.5882
G01 X8.1272 Y11.5781
G01 X8.1233 Y11.5679
G01 X8.0737 Y11.4293
G01 X8.0702 Y11.4189
G01 X8.0673 Y11.4083
G01 X8.0315 Y11.2655
G01 X8.0291 Y11.2547
G01 X8.0272 Y11.2439
G01 X8.0056 Y11.0983
G01 X8.0043 Y11.0874
G01 X8.0035 Y11.0764
G01 X7.9963 Y10.9294
G01 X7.9960 Y10.9184
G01 X7.9960 Y8.4184
G01 X7.9963 Y8.4074
G01 X8.0035 Y8.2604
G01 X8.0043 Y8.2494
G01 X8.0056 Y8.2385
G01 X8.0272 Y8.0929
G01 X8.0291 Y8.0821
G01 X8.0315 Y8.0713
G01 X8.0673 Y7.9285
G01 X8.0702 Y7.9179
G01 X8.0737 Y7.9075
G01 X8.1233 Y7.7689
G01 X8.1272 Y7.7587
G01 X8.1317 Y7.7486
G01 X8.1946 Y7.6155
G01 X8.1996 Y7.6057
G01 X8.2050 Y7.5961
G01 X8.2807 Y7.4699
G01 X8.2865 Y7.4606
G01 X8.2929 Y7.4516
G01 X8.3806 Y7.3334
G01 X8.3873 Y7.3247
G01 X8.3945 Y7.3164
G01 X8.4934 Y7.2073
G01 X8.5009 Y7.1993
G01 X8.5089 Y7.1918
G01 X8.6180 Y7.0929
G01 X8.6263 Y7.0857
G01 X8.6350 Y7.0790
G01 X8.7532 Y6.9913
G01 X8.7622 Y6.9849
G01 X8.7715 Y6.9791
G01 X8.8977 Y6.9034
G01 X8.9073 Y6.8980
G01 X8.9171 Y6.8930
G01 X9.0502 Y6.8301
G01 X9.0603 Y6.8256
G01 X9.0705 Y6.8217
G01 X9.2091 Y6.7721
G01 X9.2195 Y6.7686
G01 X9.2301 Y6.7657
G01 X9.3729 Y6.7299
G01 X9.3837 Y6.7275
G01 X9.3945 Y6.7256
G01 X9.5401 Y6.7040
G01 X9.5510 Y6.7027
G01 X9.5620 Y6.7019
G01 X9.7090 Y6.6947
G01 X9.7200 Y6.6944
G01 X9.7310 Y6.6947
G01 X9.8780 Y6.7019
G01 X9.8890 Y6.7027
G01 X9.8999 Y6.7040
G01 X10.0455 Y6.7256
G01 X10.0563 Y6.7275
G01 X10.0671 Y6.7299
G01 X10.2099 Y6.7657
G01 X10.2205 Y6.7686
G01 X10.2309 Y6.7721
G01 X10.3695 Y6.8217
G01 X10.3797 Y6.8256
G01 X10.3898 Y6.8301
G01 X10.5229 Y6.8930
G01 X10.5327 Y6.8980
G01 X10.5423 Y6.9034
G01 X10.6685 Y6.9791
G01 X10.6778 Y6.9849
G01 X10.6868 Y6.9913
G01 X10.8050 Y7.0790
G01 X10.8137 Y7.0857
G01 X10.8220 Y7.0929
G01 X10.9311 Y7.1918
G01 X10.9391 Y7.1993
G01 X10.9466 Y7.2073
G01 X11.0455 Y7.3164
G01 X11.0527 Y7.3247
G01 X11.0594 Y7.3334
G01 X11.1471 Y7.4516
G01 X11.1535 Y7.4606
G01 X11.1593 Y7.4699
G01 X11.2350 Y7.5961
G01 X11.2404 Y7.6057
G01 X11.2454 Y7.6155
G01 X11.3083 Y7.7486
G01 X11.3128 Y7.7587
G01 X11.3167 Y7.7689
G01 X11.3663 Y7.9075
G01 X11.3698 Y7.9179
G01 X11.3727 Y7.9285
G01 X11.4085 Y8.0713
G01 X11.4109 Y8.0821
G01 X11.4128 Y8.0929
G01 X11.4344 Y8.2385
G01 X11.4357 Y8.2494
G01 X11.4365 Y8.2604
G01 X11.4437 Y8.4074
G01 X11.4440 Y8.4184
G01 X11.4440 Y10.9184
G01 X11.4437 Y10.9294
G01 X11.4365 Y11.0764
G01 X11.4357 Y11.0874
G01 X11.4344 Y11.0983
G01 X11.4128 Y11.2439
G01 X11.4109 Y11.2547
G01 X11.4085 Y11.2655
G01 X11.3727 Y11.4083
G01 X11.3698 Y11.4189
G01 X11.3663 Y11.4293
G01 X11.3167 Y11.5679
G01 X11.3128 Y11.5781
G01 X11.3083 Y11.5882
G01 X11.2454 Y11.7213
G01 X11.2404 Y11.7311
G01 X11.2350 Y11.7407
G01 X11.1593 Y11.8669
G01 X11.1535 Y11.8762
G01 X11.1471 Y11.8852
G01 X11.0594 Y12.0034
G01 X11.0527 Y12.0121
G01 X11.0455 Y12.0204
G01 X10.9466 Y12.1295
G01 X10.9391 Y12.1375
G01 X10.9311 Y12.1450
G01 X10.8220 Y12.2439
G01 X10.8137 Y12.2511
G01 X10.8050 Y12.2578
G01 X10.6868 Y12.3455
G01 X10.6778 Y12.3519
G01 X10.6685 Y12.3577
G01 X10.5423 Y12.4334
G01 X10.5327 Y12.4388
G01 X10.5229 Y12.4438
G01 X10.3898 Y12.5067
G01 X10.3797 Y12.5112
G01 X10.3695 Y12.5151
G01 X10.2309 Y12.5647
G01 X10.2205 Y12.5682
G01 X10.2099 Y12.5711
G01 X10.0671 Y12.6069
G01 X10.0563 Y12.6093
G01 X10.0455 Y12.6112
G01 X9.8999 Y12.6328
G01 X9.8890 Y12.6341
G01 X9.8780 Y12.6349
G01 X9.7310 Y12.6421
G00 Z1.0000
G00 X9.7279 Y12.5782
G01 F50.00
G01 Z-0.1100
G01 F100.00
G01 X9.7121 Y12.5782
G01 X9.5573 Y12.5704
G01 X9.3962 Y12.5465
G01 X9.2381 Y12.5069
G01 X9.0847 Y12.4520
G01 X8.9375 Y12.3824
G01 X8.7978 Y12.2986
G01 X8.6669 Y12.2016
G01 X8.5462 Y12.0922
G01 X8.4368 Y11.9715
G01 X8.3398 Y11.8406
G01 X8.2560 Y11.7009
G01 X8.1864 Y11.5537
G01 X8.1315 Y11.4003
G01 X8.0919 Y11.2422
G01 X8.0680 Y11.0811
G01 X8.0600 Y10.9184
G01 X8.0602 Y8.4105
G01 X8.0680 Y8.2557
G01 X8.0919 Y8.0946
G01 X8.1315 Y7.9365
G01 X8.1849 Y7.7868
G01 X8.1895 Y7.7760
G01 X8.2525 Y7.6429
G01 X8.2599 Y7.6290
G01 X8.3398 Y7.4962
G01 X8.4368 Y7.3653
G01 X8.5462 Y7.2446
G01 X8.6610 Y7.1403
G01 X8.6731 Y7.1304
G01 X8.7978 Y7.0382
G01 X8.9375 Y6.9544
G01 X9.0776 Y6.8879
G01 X9.0921 Y6.8819
G01 X9.2381 Y6.8299
G01 X9.3962 Y6.7903
G01 X9.5495 Y6.7674
G01 X9.5651 Y6.7658
G01 X9.7200 Y6.7584
G01 X9.8827 Y6.7664
G01 X10.0438 Y6.7903
G01 X10.2019 Y6.8299
G01 X10.3553 Y6.8848
G01 X10.5025 Y6.9544
G01 X10.6422 Y7.0382
G01 X10.7731 Y7.1352
G01 X10.8938 Y7.2446
G01 X11.0032 Y7.3653
G01 X11.1002 Y7.4962
G01 X11.1840 Y7.6359
G01 X11.2536 Y7.7831
G01 X11.3085 Y7.9365
G01 X11.3481 Y8.0946
G01 X11.3720 Y8.2557
G01 X11.3800 Y8.4184
G01 X11.3798 Y10.9263
G01 X11.3720 Y11.0811
G01 X11.3481 Y11.2422
G01 X11.3085 Y11.4003
G01 X11.2551 Y11.5500
G01 X11.2505 Y11.5608
G01 X11.1875 Y11.6939
G01 X11.1801 Y11.7078
G01 X11.1002 Y11.8406
G01 X11.0032 Y11.9715
G01 X10.8938 Y12.0922
G01 X10.7790 Y12.1965
G01 X10.7669 Y12.2064
G01 X10.6422 Y12.2986
G01 X10.5094 Y12.3785
G01 X10.4955 Y12.3859
G01 X10.3553 Y12.4520
G01 X10.2019 Y12.5069
G01 X10.0515 Y12.5448
G01 X10.0361 Y12.5478
G01 X9.8827 Y12.5704
G01 X9.7279 Y12.5782
G00 Z1.0000
G00 X9.4724 Y12.7521
G01 F50.00
G01 Z-0.1100
G01 F100.00
G01 X9.5213 Y12.7594
G01 X9.5268 Y12.7601
G01 X9.5135 Y12.7595
G01 X9.4724 Y12.7521
G00 Z1.0000
G00 X9.2359 Y12.7045
G01 F50.00
G01 Z-0.1100
G01 F100.00
G01 X9.3077 Y12.7225
G01 X9.2718 Y12.7160
G01 X9.2359 Y12.7045
G00 Z1.0000
G00 X9.0248 Y12.6347
G01 F50.00
G01 Z-0.1100
G01 F100.00
G01 X9.0274 Y12.6356
G01 X9.0792 Y12.6542
G01 X9.0380 Y12.6410
G01 X9.0248 Y12.6347
G00 Z1.0000
G00 X8.7788 Y12.5113
G01 F50.00
G01 Z-0.1100
G01 F100.00
G01 X8.8312 Y12.5428
G01 X8.8162 Y12.5356
G01 X8.7788 Y12.5113
G00 Z1.0000
G00 X8.5839 Y12.3793
G01 F50.00
G01 Z-0.1100
G01 F100.00
G01 X8.6432 Y12.4233
G01 X8.6102 Y12.4019
G01 X8.5839 Y12.3793
G00 Z1.0000
G00 X8.4161 Y12.2335
G01 F50.00
G01 Z-0.1100
G01 F100.00
G01 X8.4230 Y12.2399
G01 X8.4532 Y12.2673
G01 X8.4238 Y12.2421
G01 X8.4161 Y12.2335
G00 Z1.0000
G00 X8.2345 Y12.0214
G01 F50.00
G01 Z-0.1100
G01 F100.00
G01 X8.2738 Y12.0743
G01 X8.2601 Y12.0590
G01 X8.2345 Y12.0214
G00 Z1.0000
G00 X8.1080 Y11.8278
G01 F50.00
G01 Z-0.1100
G01 F100.00
G01 X8.1455 Y11.8904
G01 X8.1221 Y11.8559
G01 X8.1080 Y11.8278
G00 Z1.0000
G00 X8.0087 Y11.6265
G01 F50.00
G01 Z-0.1100
G01 F100.00
G01 X8.0160 Y11.6429
G01 X8.0256 Y11.6632
G01 X8.0121 Y11.6363
G01 X8.0087 Y11.6265
G00 Z1.0000
G00 X7.9233 Y11.3600
G01 F50.00
G01 Z-0.1100
G01 F100.00
G01 X7.9401 Y11.4271
G01 X7.9322 Y11.4041
G01 X7.9233 Y11.3600
G00 Z1.0000
G00 X7.8818 Y11.1355
G01 F50.00
G01 Z-0.1100
G01 F100.00
G01 X7.8923 Y11.2063
G01 X7.8836 Y11.1634
G01 X7.8818 Y11.1355
G00 Z1.0000
G00 X7.8075 Y10.9830
G01 F50.00
G01 Z-0.1100
G01 F100.00
G01 X7.8075 Y8.3165
G01 X7.8106 Y8.2477
G01 X7.8508 Y7.9937
G01 X7.9234 Y7.7503
G01 X8.0276 Y7.5185
G01 X8.1615 Y7.3026
G01 X8.3227 Y7.1063
G01 X8.5085 Y6.9330
G01 X8.7156 Y6.7858
G01 X8.9404 Y6.6673
G01 X9.1788 Y6.5796
G01 X9.4268 Y6.5242
G01 X9.6799 Y6.5020
G01 X9.9337 Y6.5136
G01 X10.1837 Y6.5585
G01 X10.4256 Y6.6362
G01 X10.6551 Y6.7452
G01 X10.8682 Y6.8836
G01 X11.0611 Y7.0489
G01 X11.1504 Y7.1487
G01 X11.1649 Y7.1631
G01 X11.1804 Y7.1764
G01 X11.2292 Y7.2137
G01 X11.2472 Y7.2257
G01 X11.2596 Y7.2329
G01 X11.2789 Y7.2426
G01 X11.2922 Y7.2482
G01 X11.3125 Y7.2554
G01 X11.3334 Y7.2611
G01 X11.3475 Y7.2639
G01 X11.4174 Y7.2764
G01 X11.4386 Y7.2794
G01 X11.4529 Y7.2806
G01 X11.4743 Y7.2809
G01 X11.4886 Y7.2802
G01 X11.5028 Y7.2788
G01 X11.5240 Y7.2755
G01 X11.5380 Y7.2723
G01 X11.5518 Y7.2685
G01 X11.5653 Y7.2640
G01 X11.5787 Y7.2589
G01 X11.6442 Y7.2316
G01 X11.6573 Y7.2258
G01 X11.6701 Y7.2193
G01 X11.6886 Y7.2085
G01 X11.7004 Y7.2005
G01 X11.7119 Y7.1919
G01 X11.7229 Y7.1828
G01 X11.7334 Y7.1731
G01 X11.7435 Y7.1629
G01 X11.7530 Y7.1523
G01 X11.7620 Y7.1412
G01 X11.7704 Y7.1296
G01 X11.8108 Y7.0712
G01 X11.8224 Y7.0531
G01 X11.8293 Y7.0406
G01 X11.8385 Y7.0213
G01 X11.8439 Y7.0080
G01 X11.8503 Y6.9888
G01 X11.9011 Y7.1308
G01 X11.9062 Y7.1440
G01 X11.9119 Y7.1569
G01 X11.9989 Y7.3407
G01 X12.0091 Y7.3593
G01 X12.1137 Y7.5336
G01 X12.1216 Y7.5454
G01 X12.1493 Y7.5829
G01 X12.1301 Y7.5777
G01 X12.0610 Y7.5616
G01 X12.0399 Y7.5575
G01 X12.0186 Y7.5550
G01 X12.0043 Y7.5542
G01 X11.9829 Y7.5543
G01 X11.9686 Y7.5553
G01 X11.9473 Y7.5581
G01 X11.9333 Y7.5608
G01 X11.9194 Y7.5643
G01 X11.9057 Y7.5684
G01 X11.8254 Y7.5970
G01 X11.8056 Y7.6054
G01 X11.7866 Y7.6153
G01 X11.7683 Y7.6265
G01 X11.7510 Y7.6391
G01 X11.7346 Y7.6530
G01 X11.7242 Y7.6629
G01 X11.7144 Y7.6733
G01 X11.7051 Y7.6841
G01 X11.6573 Y7.7459
G01 X11.6488 Y7.7575
G01 X11.6409 Y7.7694
G01 X11.6303 Y7.7880
G01 X11.6210 Y7.8073
G01 X11.6156 Y7.8206
G01 X11.6088 Y7.8410
G01 X11.6051 Y7.8548
G01 X11.6021 Y7.8688
G01 X11.5990 Y7.8900
G01 X11.5916 Y7.9747
G01 X11.5910 Y7.9952
G01 X11.5920 Y8.0157
G01 X11.5934 Y8.0294
G01 X11.5954 Y8.0429
G01 X11.6200 Y8.1649
G01 X11.6325 Y8.3538
G01 X11.6325 Y9.7419
G01 X11.6332 Y9.7624
G01 X11.6345 Y9.7761
G01 X11.6377 Y9.7964
G01 X11.6505 Y9.8555
G01 X11.6539 Y9.8694
G01 X11.6580 Y9.8832
G01 X11.6628 Y9.8968
G01 X11.6712 Y9.9167
G01 X11.6811 Y9.9359
G01 X11.6885 Y9.9482
G01 X11.7007 Y9.9660
G01 X11.7096 Y9.9773
G01 X11.7607 Y10.0365
G01 X11.7754 Y10.0522
G01 X11.7911 Y10.0667
G01 X11.8079 Y10.0801
G01 X11.8257 Y10.0921
G01 X11.8443 Y10.1028
G01 X11.8636 Y10.1121
G01 X11.8836 Y10.1199
G01 X11.8972 Y10.1242
G01 X11.9720 Y10.1461
G01 X11.9920 Y10.1507
G01 X12.0055 Y10.1530
G01 X12.0260 Y10.1552
G01 X12.0465 Y10.1559
G01 X17.0628 Y10.1559
G01 X17.0917 Y10.1586
G01 X17.1910 Y10.1897
G01 X17.2764 Y10.2414
G01 X17.3470 Y10.3120
G01 X17.3987 Y10.3974
G01 X17.4298 Y10.4967
G01 X17.4325 Y10.5256
G01 X17.4325 Y14.6112
G01 X17.4298 Y14.6401
G01 X17.3987 Y14.7394
G01 X17.3470 Y14.8248
G01 X17.2764 Y14.8954
G01 X17.1910 Y14.9471
G01 X17.0917 Y14.9782
G01 X17.0628 Y14.9809
G01 X16.3465 Y14.9809
G01 X16.3328 Y14.9812
G01 X16.3191 Y14.9822
G01 X16.2987 Y14.9849
G01 X16.2853 Y14.9875
G01 X16.2329 Y14.9989
G01 X16.2190 Y15.0023
G01 X16.2052 Y15.0064
G01 X16.1916 Y15.0112
G01 X16.1717 Y15.0196
G01 X16.1589 Y15.0260
G01 X16.1463 Y15.0331
G01 X16.1282 Y15.0449
G01 X16.1111 Y15.0580
G01 X16.0466 Y15.1139
G01 X16.0362 Y15.1238
G01 X16.0264 Y15.1342
G01 X16.0171 Y15.1450
G01 X16.0083 Y15.1563
G01 X15.9963 Y15.1741
G01 X15.9856 Y15.1927
G01 X15.9763 Y15.2120
G01 X15.9685 Y15.2320
G01 X15.9642 Y15.2456
G01 X15.9442 Y15.3138
G01 X15.9406 Y15.3270
G01 X15.9377 Y15.3404
G01 X15.9354 Y15.3539
G01 X15.9338 Y15.3675
G01 X15.9328 Y15.3812
G01 X15.9325 Y15.3949
G01 X15.9325 Y17.1111
G01 X15.9330 Y17.1317
G01 X15.9362 Y17.1955
G01 X15.9336 Y17.2235
G01 X15.9295 Y17.3031
G01 X15.9207 Y17.3528
G01 X15.9185 Y17.3682
G01 X15.9143 Y17.4093
G01 X15.9041 Y17.4484
G01 X15.8997 Y17.4677
G01 X15.8903 Y17.5179
G01 X15.8769 Y17.5570
G01 X15.8723 Y17.5718
G01 X15.8603 Y17.6173
G01 X15.8403 Y17.6643
G01 X15.8334 Y17.6828
G01 X15.8202 Y17.7210
G01 X15.8010 Y17.7576
G01 X15.7942 Y17.7716
G01 X15.7755 Y17.8147
G01 X15.7486 Y17.8582
G01 X15.7389 Y17.8754
G01 X15.7201 Y17.9112
G01 X15.6923 Y17.9492
G01 X15.6837 Y17.9620
G01 X15.6617 Y17.9971
G01 X15.6286 Y18.0359
G01 X15.6165 Y18.0515
G01 X15.5924 Y18.0841
G01 X15.4927 Y18.1833
G01 X13.1610 Y20.5150
G01 X13.1504 Y20.5262
G01 X13.1404 Y20.5379
G01 X13.1191 Y20.5644
G01 X13.1069 Y20.5817
G01 X13.0994 Y20.5937
G01 X13.0926 Y20.6061
G01 X13.0863 Y20.6188
G01 X13.0807 Y20.6318
G01 X13.0757 Y20.6450
G01 X13.0714 Y20.6585
G01 X13.0514 Y20.7266
G01 X13.0479 Y20.7398
G01 X13.0450 Y20.7532
G01 X13.0427 Y20.7667
G01 X13.0411 Y20.7803
G01 X13.0401 Y20.7940
G01 X13.0397 Y20.8077
G01 X13.0397 Y25.7519
G01 X13.0401 Y25.7656
G01 X13.0411 Y25.7793
G01 X13.0437 Y25.7997
G01 X13.0463 Y25.8131
G01 X13.0577 Y25.8655
G01 X13.0611 Y25.8794
G01 X13.0675 Y25.9001
G01 X13.0727 Y25.9135
G01 X13.0785 Y25.9267
G01 X13.0884 Y25.9459
G01 X13.0957 Y25.9582
G01 X13.1037 Y25.9702
G01 X13.1168 Y25.9873
G01 X13.1680 Y26.0465
G01 X13.1826 Y26.0622
G01 X13.1984 Y26.0767
G01 X13.2152 Y26.0901
G01 X13.2329 Y26.1021
G01 X13.2515 Y26.1128
G01 X13.2709 Y26.1221
G01 X13.2841 Y26.1274
G01 X13.2976 Y26.1321
G01 X13.3792 Y26.1561
G01 X13.3992 Y26.1607
G01 X13.4128 Y26.1630
G01 X13.4264 Y26.1646
G01 X13.4469 Y26.1658
G01 X14.1700 Y26.1659
G01 X14.1990 Y26.1686
G01 X14.2982 Y26.1997
G01 X14.3837 Y26.2514
G01 X14.4543 Y26.3220
G01 X14.5060 Y26.4074
G01 X14.5371 Y26.5067
G01 X14.5397 Y26.5356
G01 X14.5397 Y31.6212
G01 X14.5371 Y31.6501
G01 X14.5060 Y31.7494
G01 X14.4543 Y31.8348
G01 X14.3837 Y31.9054
G01 X14.2982 Y31.9571
G01 X14.1990 Y31.9882
G01 X14.1700 Y31.9909
G01 X13.4537 Y31.9909
G01 X13.4400 Y31.9912
G01 X13.4196 Y31.9929
G01 X13.4060 Y31.9949
G01 X13.3925 Y31.9975
G01 X13.3332 Y32.0105
G01 X13.3124 Y32.0164
G01 X13.2988 Y32.0212
G01 X13.2855 Y32.0266
G01 X13.2725 Y32.0327
G01 X13.2598 Y32.0395
G01 X13.2474 Y32.0469
G01 X13.2296 Y32.0591
G01 X13.2128 Y32.0726
G01 X13.1591 Y32.1191
G01 X13.1435 Y32.1338
G01 X13.1336 Y32.1442
G01 X13.1199 Y32.1606
G01 X13.1074 Y32.1781
G01 X13.0998 Y32.1902
G01 X13.0896 Y32.2091
G01 X13.0808 Y32.2286
G01 X13.0735 Y32.2488
G01 X13.0514 Y32.3238
G01 X13.0479 Y32.3370
G01 X13.0450 Y32.3504
G01 X13.0427 Y32.3639
G01 X13.0411 Y32.3775
G01 X13.0401 Y32.3912
G01 X13.0397 Y32.4049
G01 X13.0397 Y56.2392
G01 X13.0405 Y56.2597
G01 X13.0427 Y56.2802
G01 X13.0463 Y56.3004
G01 X13.0637 Y56.3718
G01 X13.0677 Y56.3855
G01 X13.0725 Y56.3991
G01 X13.0779 Y56.4124
G01 X13.0840 Y56.4254
G01 X13.0907 Y56.4381
G01 X13.1020 Y56.4564
G01 X13.1102 Y56.4682
G01 X13.1191 Y56.4795
G01 X13.1333 Y56.4957
G01 X13.1871 Y56.5519
G01 X13.1971 Y56.5615
G01 X13.2076 Y56.5706
G01 X13.2186 Y56.5791
G01 X13.2299 Y56.5872
G01 X13.5486 Y56.7938
G01 X13.8265 Y57.0189
G01 X14.0795 Y57.2719
G01 X14.3046 Y57.5498
G01 X14.4994 Y57.8498
G01 X14.6618 Y58.1685
G01 X14.7221 Y58.3255
G01 X14.7278 Y58.3384
G01 X14.7375 Y58.3572
G01 X14.7448 Y58.3694
G01 X14.7526 Y58.3811
G01 X14.7877 Y58.4312
G01 X14.7960 Y58.4424
G01 X14.8047 Y58.4531
G01 X14.8140 Y58.4635
G01 X14.8238 Y58.4733
G01 X14.8340 Y58.4827
G01 X14.8447 Y58.4916
G01 X14.8615 Y58.5039
G01 X14.8792 Y58.5150
G01 X14.8913 Y58.5217
G01 X14.9038 Y58.5278
G01 X14.9684 Y58.5573
G01 X14.9816 Y58.5629
G01 X14.9950 Y58.5678
G01 X15.0155 Y58.5740
G01 X15.0295 Y58.5773
G01 X15.0435 Y58.5798
G01 X15.0648 Y58.5824
G01 X15.0863 Y58.5833
G01 X15.1006 Y58.5830
G01 X15.1149 Y58.5820
G01 X15.1291 Y58.5804
G01 X15.2064 Y58.5692
G01 X15.2204 Y58.5664
G01 X15.2343 Y58.5630
G01 X15.2548 Y58.5566
G01 X15.2681 Y58.5514
G01 X15.2877 Y58.5425
G01 X15.3003 Y58.5358
G01 X15.3185 Y58.5245
G01 X15.3359 Y58.5119
G01 X15.3469 Y58.5028
G01 X15.4059 Y58.4516
G01 X15.4213 Y58.4366
G01 X15.4308 Y58.4259
G01 X15.4398 Y58.4148
G01 X15.4520 Y58.3979
G01 X15.4520 Y60.7202
G01 X15.4412 Y60.7059
G01 X15.4275 Y60.6902
G01 X15.3679 Y60.6295
G01 X15.3574 Y60.6198
G01 X15.3408 Y60.6062
G01 X15.3292 Y60.5979
G01 X15.3171 Y60.5902
G01 X15.3047 Y60.5830
G01 X15.2920 Y60.5765
G01 X15.2723 Y60.5680
G01 X15.2589 Y60.5631
G01 X15.2383 Y60.5571
G01 X15.1551 Y60.5381
G01 X15.1410 Y60.5357
G01 X15.1268 Y60.5339
G01 X15.1126 Y60.5328
G01 X15.0983 Y60.5325
G01 X15.0840 Y60.5328
G01 X15.0626 Y60.5347
G01 X15.0485 Y60.5368
G01 X15.0344 Y60.5396
G01 X15.0206 Y60.5431
G01 X15.0069 Y60.5473
G01 X14.9267 Y60.5764
G01 X14.9135 Y60.5819
G01 X14.9006 Y60.5881
G01 X14.8880 Y60.5949
G01 X14.8758 Y60.6023
G01 X14.8582 Y60.6146
G01 X14.8416 Y60.6281
G01 X14.8310 Y60.6378
G01 X14.8162 Y60.6533
G01 X14.8026 Y60.6699
G01 X14.7595 Y60.7263
G01 X14.7514 Y60.7374
G01 X14.7403 Y60.7547
G01 X14.7305 Y60.7728
G01 X14.7220 Y60.7915
G01 X14.6618 Y60.9483
G01 X14.4994 Y61.2670
G01 X14.3046 Y61.5670
G01 X14.0795 Y61.8449
G01 X13.8265 Y62.0979
G01 X13.5486 Y62.3230
G01 X13.2486 Y62.5178
G01 X12.9299 Y62.6802
G01 X12.6241 Y62.7975
G01 X12.5960 Y62.8083
G01 X12.2505 Y62.9009
G01 X11.8972 Y62.9569
G01 X11.5400 Y62.9756
G01 X11.1828 Y62.9569
G01 X10.8295 Y62.9009
G01 X10.4840 Y62.8083
G01 X10.1501 Y62.6802
G01 X9.8314 Y62.5178
G01 X9.5314 Y62.3230
G01 X9.2535 Y62.0979
G01 X9.0005 Y61.8449
G01 X8.7754 Y61.5670
G01 X8.5806 Y61.2670
G01 X8.4182 Y60.9483
G01 X8.2901 Y60.6144
G01 X8.1975 Y60.2689
G01 X8.1415 Y59.9156
G01 X8.1228 Y59.5584
G01 X8.1415 Y59.2012
G01 X8.1975 Y58.8479
G01 X8.2901 Y58.5024
G01 X8.4182 Y58.1685
G01 X8.5806 Y57.8498
G01 X8.7754 Y57.5498
G01 X9.0005 Y57.2719
G01 X9.2535 Y57.0189
G01 X9.5314 Y56.7938
G01 X9.8314 Y56.5990
G01 X9.9887 Y56.5189
G01 X10.0009 Y56.5123
G01 X10.0127 Y56.5052
G01 X10.0298 Y56.4934
G01 X10.0460 Y56.4804
G01 X10.1000 Y56.4317
G01 X10.1154 Y56.4166
G01 X10.1251 Y56.4060
G01 X10.1342 Y56.3948
G01 X10.1427 Y56.3832
G01 X10.1507 Y56.3712
G01 X10.1580 Y56.3589
G01 X10.1647 Y56.3461
G01 X10.1708 Y56.3331
G01 X10.1762 Y56.3197
G01 X10.1831 Y56.2993
G01 X10.2031 Y56.2312
G01 X10.2066 Y56.2179
G01 X10.2095 Y56.2045
G01 X10.2127 Y56.1842
G01 X10.2140 Y56.1706
G01 X10.2147 Y56.1569
G01 X10.2147 Y32.4049
G01 X10.2144 Y32.3912
G01 X10.2127 Y32.3707
G01 X10.2095 Y32.3504
G01 X10.1968 Y32.2913
G01 X10.1914 Y32.2704
G01 X10.1845 Y32.2500
G01 X10.1790 Y32.2367
G01 X10.1696 Y32.2173
G01 X10.1587 Y32.1986
G01 X10.1465 Y32.1808
G01 X10.1377 Y32.1695
G01 X10.0865 Y32.1103
G01 X10.0719 Y32.0946
G01 X10.0561 Y32.0801
G01 X10.0450 Y32.0711
G01 X10.0335 Y32.0626
G01 X10.0154 Y32.0510
G01 X9.9966 Y32.0408
G01 X9.9770 Y32.0320
G01 X9.9568 Y32.0247
G01 X9.8753 Y32.0007
G01 X9.8553 Y31.9961
G01 X9.8417 Y31.9938
G01 X9.8281 Y31.9922
G01 X9.8144 Y31.9912
G01 X9.8007 Y31.9909
G01 X9.0845 Y31.9909
G01 X9.0555 Y31.9882
G01 X8.9562 Y31.9571
G01 X8.8708 Y31.9054
G01 X8.8002 Y31.8348
G01 X8.7485 Y31.7494
G01 X8.7174 Y31.6501
G01 X8.7147 Y31.6212
G01 X8.7147 Y26.5356
G01 X8.7174 Y26.5067
G01 X8.7485 Y26.4074
G01 X8.8002 Y26.3220
G01 X8.8708 Y26.2514
G01 X8.9562 Y26.1997
G01 X9.0555 Y26.1686
G01 X9.0845 Y26.1659
G01 X9.8076 Y26.1658
G01 X9.8281 Y26.1646
G01 X9.8485 Y26.1619
G01 X9.8620 Y26.1593
G01 X9.9143 Y26.1479
G01 X9.9352 Y26.1426
G01 X9.9489 Y26.1381
G01 X9.9623 Y26.1330
G01 X9.9820 Y26.1241
G01 X9.9947 Y26.1173
G01 X10.0131 Y26.1060
G01 X10.0306 Y26.0933
G01 X10.0417 Y26.0842
G01 X10.1007 Y26.0329
G01 X10.1110 Y26.0230
G01 X10.1256 Y26.0073
G01 X10.1346 Y25.9962
G01 X10.1431 Y25.9846
G01 X10.1547 Y25.9666
G01 X10.1649 Y25.9477
G01 X10.1737 Y25.9282
G01 X10.1787 Y25.9148
G01 X10.1831 Y25.9012
G01 X10.2031 Y25.8330
G01 X10.2066 Y25.8198
G01 X10.2095 Y25.8064
G01 X10.2127 Y25.7861
G01 X10.2144 Y25.7656
G01 X10.2147 Y25.7519
G01 X10.2147 Y20.0984
G01 X10.2142 Y20.0778
G01 X10.2111 Y20.0141
G01 X10.2136 Y19.9861
G01 X10.2177 Y19.9064
G01 X10.2266 Y19.8568
G01 X10.2287 Y19.8414
G01 X10.2330 Y19.8003
G01 X10.2431 Y19.7611
G01 X10.2476 Y19.7419
G01 X10.2569 Y19.6917
G01 X10.2704 Y19.6526
G01 X10.2749 Y19.6377
G01 X10.2870 Y19.5923
G01 X10.3069 Y19.5453
G01 X10.3139 Y19.5268
G01 X10.3271 Y19.4885
G01 X10.3463 Y19.4519
G01 X10.3530 Y19.4379
G01 X10.3718 Y19.3948
G01 X10.3986 Y19.3514
G01 X10.4083 Y19.3342
G01 X10.4272 Y19.2983
G01 X10.4549 Y19.2604
G01 X10.4636 Y19.2475
G01 X10.4855 Y19.2125
G01 X10.5119 Y19.1818
G01 X10.5244 Y19.1664
G01 X10.5548 Y19.1255
G01 X10.6545 Y19.0263
G01 X12.9862 Y16.6946
G01 X12.9968 Y16.6834
G01 X13.0068 Y16.6717
G01 X13.0281 Y16.6451
G01 X13.0404 Y16.6278
G01 X13.0513 Y16.6097
G01 X13.0579 Y16.5972
G01 X13.0665 Y16.5778
G01 X13.0738 Y16.5579
G01 X13.0958 Y16.4830
G01 X13.0994 Y16.4697
G01 X13.1023 Y16.4563
G01 X13.1046 Y16.4428
G01 X13.1062 Y16.4292
G01 X13.1072 Y16.4155
G01 X13.1075 Y16.4018
G01 X13.1075 Y15.3949
G01 X13.1068 Y15.3744
G01 X13.1055 Y15.3607
G01 X13.1023 Y15.3404
G01 X13.0895 Y15.2813
G01 X13.0842 Y15.2604
G01 X13.0772 Y15.2400
G01 X13.0688 Y15.2201
G01 X13.0589 Y15.2009
G01 X13.0476 Y15.1826
G01 X13.0349 Y15.1651
G01 X13.0258 Y15.1540
G01 X12.9745 Y15.0950
G01 X12.9646 Y15.0846
G01 X12.9542 Y15.0748
G01 X12.9434 Y15.0655
G01 X12.9321 Y15.0567
G01 X12.9143 Y15.0447
G01 X12.8957 Y15.0340
G01 X12.8764 Y15.0247
G01 X12.8631 Y15.0194
G01 X12.8496 Y15.0147
G01 X12.7680 Y14.9907
G01 X12.7547 Y14.9875
G01 X12.7413 Y14.9849
G01 X12.7277 Y14.9829
G01 X12.7072 Y14.9812
G01 X12.6935 Y14.9809
G01 X11.9772 Y14.9809
G01 X11.9483 Y14.9782
G01 X11.8490 Y14.9471
G01 X11.7636 Y14.8954
G01 X11.6930 Y14.8248
G01 X11.6413 Y14.7394
G01 X11.6102 Y14.6401
G01 X11.6075 Y14.6112
G01 X11.6075 Y12.7248
G01 X11.6072 Y12.7106
G01 X11.6061 Y12.6965
G01 X11.6032 Y12.6754
G01 X11.5988 Y12.6546
G01 X11.5770 Y12.5762
G01 X11.5727 Y12.5629
G01 X11.5677 Y12.5499
G01 X11.5590 Y12.5309
G01 X11.5525 Y12.5186
G01 X11.5416 Y12.5008
G01 X11.5336 Y12.4894
G01 X11.5206 Y12.4730
G01 X11.5113 Y12.4626
G01 X11.4965 Y12.4479
G01 X11.4442 Y12.3998
G01 X11.4335 Y12.3904
G01 X11.4165 Y12.3773
G01 X11.4046 Y12.3693
G01 X11.3924 Y12.3619
G01 X11.3734 Y12.3519
G01 X11.3537 Y12.3434
G01 X11.3403 Y12.3386
G01 X11.3266 Y12.3344
G01 X11.3057 Y12.3294
G01 X11.2217 Y12.3147
G01 X11.2075 Y12.3130
G01 X11.1861 Y12.3117
G01 X11.1718 Y12.3117
G01 X11.1575 Y12.3124
G01 X11.1362 Y12.3148
G01 X11.1151 Y12.3188
G01 X11.0944 Y12.3244
G01 X11.0741 Y12.3315
G01 X11.0028 Y12.3614
G01 X10.9896 Y12.3674
G01 X10.9704 Y12.3775
G01 X10.9581 Y12.3851
G01 X10.9462 Y12.3932
G01 X10.7244 Y12.5510
G01 X10.4996 Y12.6695
G01 X10.2612 Y12.7572
G01 X10.0132 Y12.8126
G01 X9.7601 Y12.8348
G01 X9.5063 Y12.8232
G01 X9.2563 Y12.7783
G01 X9.0144 Y12.7006
G01 X8.7849 Y12.5916
G01 X8.5718 Y12.4532
G01 X8.3789 Y12.2879
G01 X8.2095 Y12.0985
G01 X8.0667 Y11.8884
G01 X7.9530 Y11.6612
G01 X7.8703 Y11.4210
G01 X7.8200 Y11.1719
G01 X7.8075 Y10.9830
G00 Z1.0000
G00 X7.7435 Y10.9851
G01 F50.00
G01 Z-0.1100
G01 F100.00
G01 X7.7435 Y8.3150
G01 X7.7469 Y8.2412
G01 X7.7883 Y7.9795
G01 X7.8633 Y7.7279
G01 X7.9709 Y7.4884
G01 X8.1093 Y7.2653
G01 X8.2760 Y7.0624
G01 X8.4680 Y6.8833
G01 X8.6820 Y6.7312
G01 X8.9143 Y6.6087
G01 X9.1607 Y6.5181
G01 X9.4169 Y6.4608
G01 X9.6785 Y6.4379
G01 X9.9408 Y6.4498
G01 X10.1992 Y6.4963
G01 X10.4492 Y6.5766
G01 X10.6864 Y6.6892
G01 X10.9066 Y6.8322
G01 X11.1060 Y7.0031
G01 X11.1935 Y7.1010
G01 X11.2045 Y7.1124
G01 X11.2123 Y7.1196
G01 X11.2246 Y7.1297
G01 X11.2623 Y7.1585
G01 X11.2760 Y7.1682
G01 X11.2904 Y7.1768
G01 X11.3054 Y7.1843
G01 X11.3210 Y7.1907
G01 X11.3369 Y7.1959
G01 X11.3478 Y7.1987
G01 X11.3587 Y7.2009
G01 X11.4341 Y7.2144
G01 X11.4507 Y7.2163
G01 X11.4618 Y7.2169
G01 X11.4729 Y7.2169
G01 X11.4896 Y7.2159
G01 X11.5061 Y7.2137
G01 X11.5170 Y7.2115
G01 X11.5278 Y7.2088
G01 X11.5437 Y7.2038
G01 X11.6248 Y7.1703
G01 X11.6348 Y7.1655
G01 X11.6446 Y7.1603
G01 X11.6541 Y7.1545
G01 X11.6634 Y7.1483
G01 X11.6766 Y7.1381
G01 X11.6890 Y7.1270
G01 X11.7006 Y7.1150
G01 X11.7113 Y7.1022
G01 X11.7178 Y7.0932
G01 X11.7582 Y7.0348
G01 X11.7672 Y7.0207
G01 X11.7751 Y7.0060
G01 X11.7819 Y6.9908
G01 X11.7875 Y6.9751
G01 X11.7920 Y6.9590
G01 X11.7943 Y6.9481
G01 X11.7960 Y6.9372
G01 X11.7977 Y6.9205
G01 X11.8003 Y6.8440
G01 X11.8003 Y6.8280
G01 X11.7992 Y6.8121
G01 X11.7969 Y6.7963
G01 X11.7934 Y6.7807
G01 X11.7846 Y6.7464
G01 X11.8495 Y6.7464
G01 X11.8888 Y6.9034
G01 X11.8918 Y6.9140
G01 X11.8952 Y6.9244
G01 X11.9613 Y7.1092
G01 X11.9653 Y7.1195
G01 X11.9697 Y7.1295
G01 X12.0537 Y7.3070
G01 X12.0586 Y7.3168
G01 X12.0640 Y7.3264
G01 X12.1649 Y7.4947
G01 X12.1708 Y7.5040
G01 X12.1771 Y7.5130
G01 X12.2941 Y7.6706
G01 X12.3008 Y7.6793
G01 X12.3080 Y7.6876
G01 X12.4398 Y7.8330
G01 X12.4474 Y7.8410
G01 X12.4554 Y7.8486
G01 X12.6008 Y7.9804
G01 X12.6134 Y7.9910
G01 X12.7754 Y8.1113
G01 X12.7844 Y8.1176
G01 X12.7937 Y8.1235
G01 X12.9620 Y8.2244
G01 X12.9716 Y8.2298
G01 X12.9814 Y8.2347
G01 X13.1589 Y8.3187
G01 X13.1689 Y8.3231
G01 X13.1792 Y8.3271
G01 X13.3640 Y8.3932
G01 X13.3744 Y8.3966
G01 X13.3850 Y8.3996
G01 X13.5754 Y8.4473
G01 X13.5861 Y8.4497
G01 X13.5970 Y8.4515
G01 X13.7911 Y8.4803
G01 X13.8020 Y8.4817
G01 X13.8130 Y8.4825
G01 X14.0090 Y8.4921
G01 X14.0420 Y8.4924
G01 X14.0420 Y8.5524
G01 X13.9482 Y8.5524
G01 X13.7332 Y8.5389
G01 X13.4509 Y8.4850
G01 X13.1775 Y8.3962
G01 X12.9175 Y8.2738
G01 X12.6748 Y8.1198
G01 X12.4534 Y7.9367
G01 X12.2577 Y7.7282
G01 X12.2498 Y7.7202
G01 X12.2372 Y7.7090
G01 X12.1987 Y7.6787
G01 X12.1898 Y7.6724
G01 X12.1807 Y7.6666
G01 X12.1664 Y7.6587
G01 X12.1567 Y7.6540
G01 X12.1466 Y7.6497
G01 X12.1364 Y7.6460
G01 X12.1261 Y7.6428
G01 X12.0410 Y7.6227
G01 X12.0245 Y7.6199
G01 X12.0135 Y7.6188
G01 X11.9968 Y7.6180
G01 X11.9801 Y7.6186
G01 X11.9690 Y7.6196
G01 X11.9526 Y7.6222
G01 X11.9363 Y7.6260
G01 X11.9204 Y7.6310
G01 X11.8535 Y7.6548
G01 X11.8380 Y7.6610
G01 X11.8280 Y7.6657
G01 X11.8181 Y7.6710
G01 X11.8086 Y7.6767
G01 X11.7994 Y7.6829
G01 X11.7861 Y7.6930
G01 X11.7777 Y7.7003
G01 X11.7658 Y7.7120
G01 X11.7548 Y7.7245
G01 X11.7013 Y7.7940
G01 X11.6952 Y7.8033
G01 X11.6896 Y7.8129
G01 X11.6820 Y7.8278
G01 X11.6755 Y7.8431
G01 X11.6702 Y7.8590
G01 X11.6661 Y7.8751
G01 X11.6641 Y7.8861
G01 X11.6620 Y7.9026
G01 X11.6552 Y7.9840
G01 X11.6550 Y7.9947
G01 X11.6554 Y8.0053
G01 X11.6562 Y8.0159
G01 X11.6576 Y8.0265
G01 X11.6835 Y8.1564
G01 X11.6965 Y8.3517
G01 X11.6966 Y9.7472
G01 X11.6971 Y9.7579
G01 X11.6981 Y9.7685
G01 X11.7005 Y9.7843
G01 X11.7157 Y9.8527
G01 X11.7206 Y9.8688
G01 X11.7268 Y9.8844
G01 X11.7316 Y9.8945
G01 X11.7397 Y9.9092
G01 X11.7488 Y9.9233
G01 X11.7590 Y9.9367
G01 X11.8091 Y9.9946
G01 X11.8205 Y10.0068
G01 X11.8327 Y10.0181
G01 X11.8458 Y10.0285
G01 X11.8596 Y10.0378
G01 X11.8741 Y10.0461
G01 X11.8891 Y10.0534
G01 X11.8994 Y10.0575
G01 X11.9100 Y10.0612
G01 X11.9885 Y10.0843
G01 X12.0041 Y10.0879
G01 X12.0199 Y10.0903
G01 X12.0358 Y10.0916
G01 X12.0465 Y10.0919
G01 X17.0657 Y10.0919
G01 X17.1044 Y10.0954
G01 X17.2175 Y10.1309
G01 X17.3162 Y10.1907
G01 X17.3977 Y10.2722
G01 X17.4575 Y10.3709
G01 X17.4929 Y10.4840
G01 X17.4965 Y10.5227
G01 X17.4965 Y14.6141
G01 X17.4930 Y14.6528
G01 X17.4575 Y14.7659
G01 X17.3977 Y14.8646
G01 X17.3162 Y14.9461
G01 X17.2175 Y15.0059
G01 X17.1044 Y15.0413
G01 X17.0657 Y15.0449
G01 X16.3465 Y15.0449
G01 X16.3305 Y15.0455
G01 X16.3146 Y15.0472
G01 X16.2989 Y15.0500
G01 X16.2465 Y15.0614
G01 X16.2303 Y15.0656
G01 X16.2196 Y15.0690
G01 X16.2092 Y15.0730
G01 X16.1939 Y15.0800
G01 X16.1840 Y15.0852
G01 X16.1697 Y15.0940
G01 X16.1561 Y15.1039
G01 X16.0938 Y15.1575
G01 X16.0856 Y15.1650
G01 X16.0777 Y15.1729
G01 X16.0667 Y15.1854
G01 X16.0599 Y15.1942
G01 X16.0506 Y15.2080
G01 X16.0423 Y15.2225
G01 X16.0350 Y15.2375
G01 X16.0309 Y15.2478
G01 X16.0272 Y15.2584
G01 X16.0028 Y15.3421
G01 X16.0005 Y15.3525
G01 X15.9981 Y15.3683
G01 X15.9971 Y15.3789
G01 X15.9966 Y15.3896
G01 X15.9965 Y17.1111
G01 X15.9969 Y17.1285
G01 X16.0003 Y17.1972
G01 X15.9975 Y17.2271
G01 X15.9932 Y17.3106
G01 X15.9840 Y17.3618
G01 X15.9816 Y17.3803
G01 X15.9775 Y17.4206
G01 X15.9661 Y17.4645
G01 X15.9622 Y17.4815
G01 X15.9524 Y17.5342
G01 X15.9392 Y17.5725
G01 X15.9336 Y17.5903
G01 X15.9210 Y17.6381
G01 X15.9000 Y17.6874
G01 X15.8939 Y17.7037
G01 X15.8791 Y17.7465
G01 X15.8602 Y17.7824
G01 X15.8520 Y17.7992
G01 X15.8323 Y17.8445
G01 X15.8041 Y17.8900
G01 X15.7956 Y17.9052
G01 X15.7745 Y17.9453
G01 X15.7453 Y17.9851
G01 X15.7349 Y18.0007
G01 X15.7135 Y18.0351
G01 X15.6787 Y18.0758
G01 X15.6679 Y18.0896
G01 X15.6410 Y18.1260
G01 X15.5380 Y18.2285
G01 X13.2021 Y20.5645
G01 X13.1902 Y20.5781
G01 X13.1699 Y20.6034
G01 X13.1635 Y20.6122
G01 X13.1574 Y20.6214
G01 X13.1519 Y20.6309
G01 X13.1468 Y20.6407
G01 X13.1422 Y20.6506
G01 X13.1380 Y20.6608
G01 X13.1344 Y20.6712
G01 X13.1114 Y20.7497
G01 X13.1078 Y20.7653
G01 X13.1060 Y20.7758
G01 X13.1048 Y20.7864
G01 X13.1040 Y20.7971
G01 X13.1037 Y20.8077
G01 X13.1037 Y25.7519
G01 X13.1040 Y25.7626
G01 X13.1048 Y25.7732
G01 X13.1068 Y25.7890
G01 X13.1203 Y25.8519
G01 X13.1229 Y25.8627
G01 X13.1279 Y25.8788
G01 X13.1319 Y25.8892
G01 X13.1364 Y25.8995
G01 X13.1441 Y25.9144
G01 X13.1498 Y25.9240
G01 X13.1561 Y25.9333
G01 X13.1627 Y25.9423
G01 X13.1698 Y25.9509
G01 X13.2163 Y26.0046
G01 X13.2277 Y26.0168
G01 X13.2400 Y26.0281
G01 X13.2531 Y26.0385
G01 X13.2622 Y26.0448
G01 X13.2716 Y26.0507
G01 X13.2863 Y26.0587
G01 X13.3015 Y26.0655
G01 X13.3119 Y26.0694
G01 X13.3225 Y26.0728
G01 X13.4009 Y26.0956
G01 X13.4114 Y26.0979
G01 X13.4272 Y26.1003
G01 X13.4431 Y26.1016
G01 X13.4537 Y26.1019
G01 X14.1730 Y26.1019
G01 X14.2116 Y26.1054
G01 X14.3248 Y26.1409
G01 X14.4234 Y26.2007
G01 X14.5050 Y26.2822
G01 X14.5647 Y26.3809
G01 X14.6002 Y26.4940
G01 X14.6037 Y26.5327
G01 X14.6037 Y31.6241
G01 X14.6002 Y31.6628
G01 X14.5647 Y31.7759
G01 X14.5050 Y31.8746
G01 X14.4234 Y31.9561
G01 X14.3248 Y32.0159
G01 X14.2116 Y32.0513
G01 X14.1730 Y32.0549
G01 X13.4484 Y32.0550
G01 X13.4325 Y32.0559
G01 X13.4219 Y32.0572
G01 X13.4114 Y32.0589
G01 X13.3538 Y32.0714
G01 X13.3375 Y32.0756
G01 X13.3216 Y32.0810
G01 X13.3113 Y32.0852
G01 X13.3011 Y32.0900
G01 X13.2913 Y32.0952
G01 X13.2816 Y32.1010
G01 X13.2678 Y32.1105
G01 X13.2547 Y32.1210
G01 X13.1969 Y32.1712
G01 X13.1889 Y32.1789
G01 X13.1812 Y32.1870
G01 X13.1740 Y32.1954
G01 X13.1672 Y32.2042
G01 X13.1578 Y32.2180
G01 X13.1495 Y32.2325
G01 X13.1423 Y32.2475
G01 X13.1362 Y32.2631
G01 X13.1328 Y32.2737
G01 X13.1101 Y32.3521
G01 X13.1068 Y32.3678
G01 X13.1053 Y32.3783
G01 X13.1043 Y32.3889
G01 X13.1037 Y32.4049
G01 X13.1038 Y56.2445
G01 X13.1048 Y56.2605
G01 X13.1060 Y56.2711
G01 X13.1078 Y56.2816
G01 X13.1241 Y56.3497
G01 X13.1286 Y56.3658
G01 X13.1323 Y56.3764
G01 X13.1365 Y56.3867
G01 X13.1413 Y56.3968
G01 X13.1493 Y56.4115
G01 X13.1553 Y56.4210
G01 X13.1617 Y56.4301
G01 X13.1685 Y56.4389
G01 X13.1796 Y56.4515
G01 X13.2362 Y56.5104
G01 X13.2483 Y56.5211
G01 X13.2568 Y56.5278
G01 X13.2656 Y56.5341
G01 X13.5862 Y56.7420
G01 X13.8694 Y56.9713
G01 X14.1271 Y57.2290
G01 X14.3564 Y57.5122
G01 X14.5549 Y57.8178
G01 X14.7203 Y58.1424
G01 X14.7792 Y58.2960
G01 X14.7834 Y58.3062
G01 X14.7881 Y58.3161
G01 X14.7933 Y58.3258
G01 X14.8019 Y58.3398
G01 X14.8433 Y58.3988
G01 X14.8533 Y58.4115
G01 X14.8606 Y58.4195
G01 X14.8682 Y58.4272
G01 X14.8803 Y58.4380
G01 X14.8887 Y58.4447
G01 X14.9020 Y58.4540
G01 X14.9112 Y58.4596
G01 X14.9255 Y58.4673
G01 X15.0001 Y58.5013
G01 X15.0104 Y58.5054
G01 X15.0210 Y58.5090
G01 X15.0371 Y58.5134
G01 X15.0534 Y58.5166
G01 X15.0700 Y58.5186
G01 X15.0867 Y58.5193
G01 X15.1034 Y58.5188
G01 X15.1144 Y58.5177
G01 X15.2012 Y58.5051
G01 X15.2174 Y58.5013
G01 X15.2334 Y58.4963
G01 X15.2489 Y58.4901
G01 X15.2639 Y58.4828
G01 X15.2783 Y58.4744
G01 X15.2875 Y58.4682
G01 X15.2964 Y58.4616
G01 X15.3587 Y58.4080
G01 X15.3669 Y58.4005
G01 X15.3785 Y58.3885
G01 X15.3892 Y58.3757
G01 X15.3989 Y58.3621
G01 X15.4076 Y58.3479
G01 X15.4128 Y58.3380
G01 X15.4175 Y58.3279
G01 X15.4216 Y58.3176
G01 X15.4253 Y58.3071
G01 X15.4484 Y58.2286
G01 X15.4520 Y58.2130
G01 X15.4544 Y58.1972
G01 X15.4554 Y58.1866
G01 X15.4560 Y58.1706
G01 X15.4560 Y57.9510
G01 X15.4580 Y57.9054
G01 X15.4975 Y57.6561
G01 X15.5704 Y57.4175
G01 X15.6759 Y57.1914
G01 X15.8118 Y56.9821
G01 X15.9754 Y56.7938
G01 X16.1637 Y56.6302
G01 X16.3730 Y56.4943
G01 X16.5991 Y56.3888
G01 X16.8377 Y56.3159
G01 X17.0870 Y56.2764
G01 X17.1326 Y56.2744
G01 X18.2620 Y56.2744
G01 X18.2620 Y56.3344
G01 X17.2400 Y56.3344
G01 X17.2290 Y56.3347
G01 X17.0820 Y56.3419
G01 X17.0656 Y56.3433
G01 X16.9145 Y56.3656
G01 X16.9037 Y56.3675
G01 X16.8929 Y56.3699
G01 X16.7501 Y56.4057
G01 X16.7395 Y56.4086
G01 X16.7291 Y56.4121
G01 X16.5854 Y56.4636
G01 X16.5702 Y56.4701
G01 X16.4371 Y56.5330
G01 X16.4273 Y56.5380
G01 X16.4177 Y56.5434
G01 X16.2915 Y56.6191
G01 X16.2822 Y56.6249
G01 X16.2732 Y56.6313
G01 X16.1550 Y56.7190
G01 X16.1463 Y56.7257
G01 X16.1380 Y56.7329
G01 X16.0289 Y56.8318
G01 X16.0209 Y56.8393
G01 X16.0134 Y56.8473
G01 X15.9145 Y56.9564
G01 X15.9073 Y56.9647
G01 X15.9006 Y56.9734
G01 X15.8129 Y57.0916
G01 X15.8065 Y57.1006
G01 X15.8007 Y57.1099
G01 X15.7222 Y57.2409
G01 X15.7146 Y57.2555
G01 X15.6517 Y57.3886
G01 X15.6472 Y57.3987
G01 X15.6433 Y57.4089
G01 X15.5937 Y57.5475
G01 X15.5902 Y57.5579
G01 X15.5873 Y57.5685
G01 X15.5515 Y57.7113
G01 X15.5491 Y57.7221
G01 X15.5472 Y57.7329
G01 X15.5256 Y57.8785
G01 X15.5243 Y57.8894
G01 X15.5235 Y57.9004
G01 X15.5163 Y58.0474
G01 X15.5160 Y58.0584
G01 X15.5160 Y61.0584
G01 X15.5163 Y61.0694
G01 X15.5235 Y61.2164
G01 X15.5243 Y61.2274
G01 X15.5256 Y61.2383
G01 X15.5472 Y61.3839
G01 X15.5491 Y61.3947
G01 X15.5515 Y61.4055
G01 X15.5873 Y61.5483
G01 X15.5902 Y61.5589
G01 X15.5937 Y61.5693
G01 X15.6433 Y61.7079
G01 X15.6472 Y61.7181
G01 X15.6517 Y61.7282
G01 X15.7146 Y61.8613
G01 X15.7196 Y61.8711
G01 X15.7250 Y61.8807
G01 X15.8007 Y62.0069
G01 X15.8065 Y62.0162
G01 X15.8129 Y62.0252
G01 X15.9006 Y62.1434
G01 X15.9073 Y62.1521
G01 X15.9145 Y62.1604
G01 X16.0134 Y62.2695
G01 X16.0209 Y62.2775
G01 X16.0289 Y62.2850
G01 X16.1380 Y62.3839
G01 X16.1463 Y62.3911
G01 X16.1550 Y62.3978
G01 X16.2732 Y62.4855
G01 X16.2868 Y62.4949
G01 X16.4177 Y62.5734
G01 X16.4273 Y62.5788
G01 X16.4371 Y62.5838
G01 X16.5702 Y62.6467
G01 X16.5803 Y62.6512
G01 X16.5905 Y62.6551
G01 X16.7291 Y62.7047
G01 X16.7395 Y62.7082
G01 X16.7501 Y62.7111
G01 X16.8929 Y62.7469
G01 X16.9091 Y62.7503
G01 X17.0601 Y62.7728
G01 X17.0710 Y62.7741
G01 X17.0820 Y62.7749
G01 X17.2345 Y62.7823
G01 X18.2620 Y62.7824
G01 X18.2620 Y62.8424
G01 X17.1326 Y62.8424
G01 X17.0870 Y62.8404
G01 X16.8377 Y62.8009
G01 X16.5991 Y62.7280
G01 X16.3730 Y62.6225
G01 X16.1637 Y62.4866
G01 X15.9754 Y62.3230
G01 X15.8118 Y62.1347
G01 X15.6759 Y61.9254
G01 X15.5704 Y61.6993
G01 X15.4975 Y61.4607
G01 X15.4580 Y61.2114
G01 X15.4560 Y61.1658
G01 X15.4560 Y60.9462
G01 X15.4557 Y60.9352
G01 X15.4543 Y60.9188
G01 X15.4527 Y60.9080
G01 X15.4506 Y60.8972
G01 X15.4316 Y60.8221
G01 X15.4263 Y60.8068
G01 X15.4222 Y60.7968
G01 X15.4176 Y60.7870
G01 X15.4126 Y60.7774
G01 X15.4071 Y60.7681
G01 X15.4011 Y60.7591
G01 X15.3948 Y60.7504
G01 X15.3880 Y60.7420
G01 X15.3771 Y60.7300
G01 X15.3273 Y60.6793
G01 X15.3193 Y60.6716
G01 X15.3067 Y60.6607
G01 X15.2932 Y60.6509
G01 X15.2791 Y60.6420
G01 X15.2643 Y60.6342
G01 X15.2490 Y60.6276
G01 X15.2333 Y60.6221
G01 X15.2225 Y60.6191
G01 X15.1370 Y60.5998
G01 X15.1260 Y60.5982
G01 X15.1149 Y60.5971
G01 X15.1038 Y60.5965
G01 X15.0927 Y60.5965
G01 X15.0816 Y60.5971
G01 X15.0650 Y60.5989
G01 X15.0486 Y60.6020
G01 X15.0325 Y60.6063
G01 X14.9500 Y60.6360
G01 X14.9397 Y60.6403
G01 X14.9297 Y60.6451
G01 X14.9151 Y60.6532
G01 X14.9012 Y60.6624
G01 X14.8880 Y60.6726
G01 X14.8796 Y60.6800
G01 X14.8678 Y60.6917
G01 X14.8604 Y60.7000
G01 X14.8534 Y60.7087
G01 X14.8103 Y60.7651
G01 X14.8011 Y60.7782
G01 X14.7955 Y60.7872
G01 X14.7878 Y60.8013
G01 X14.7833 Y60.8109
G01 X14.7203 Y60.9744
G01 X14.5549 Y61.2990
G01 X14.3564 Y61.6046
G01 X14.1271 Y61.8878
G01 X13.8694 Y62.1455
G01 X13.5862 Y62.3748
G01 X13.2806 Y62.5733
G01 X12.9560 Y62.7387
G01 X12.6471 Y62.8573
G01 X12.6158 Y62.8693
G01 X12.2638 Y62.9636
G01 X11.9039 Y63.0206
G01 X11.5400 Y63.0397
G01 X11.1761 Y63.0206
G01 X10.8162 Y62.9636
G01 X10.4642 Y62.8693
G01 X10.3080 Y62.8093
G01 X10.1240 Y62.7387
G01 X9.7994 Y62.5733
G01 X9.4938 Y62.3748
G01 X9.2106 Y62.1455
G01 X8.9529 Y61.8878
G01 X8.7236 Y61.6046
G01 X8.5251 Y61.2990
G01 X8.3597 Y60.9744
G01 X8.2291 Y60.6342
G01 X8.1348 Y60.2822
G01 X8.0778 Y59.9223
G01 X8.0587 Y59.5584
G01 X8.0778 Y59.1945
G01 X8.1348 Y58.8346
G01 X8.2291 Y58.4826
G01 X8.3597 Y58.1424
G01 X8.5251 Y57.8178
G01 X8.7236 Y57.5122
G01 X8.9529 Y57.2290
G01 X9.2106 Y56.9713
G01 X9.4938 Y56.7420
G01 X9.7994 Y56.5435
G01 X9.9644 Y56.4594
G01 X9.9737 Y56.4540
G01 X9.9873 Y56.4452
G01 X10.0001 Y56.4354
G01 X10.0082 Y56.4284
G01 X10.0611 Y56.3804
G01 X10.0729 Y56.3684
G01 X10.0836 Y56.3556
G01 X10.0903 Y56.3465
G01 X10.0994 Y56.3324
G01 X10.1049 Y56.3227
G01 X10.1121 Y56.3075
G01 X10.1163 Y56.2972
G01 X10.1200 Y56.2866
G01 X10.1431 Y56.2080
G01 X10.1467 Y56.1924
G01 X10.1485 Y56.1819
G01 X10.1497 Y56.1713
G01 X10.1507 Y56.1553
G01 X10.1507 Y32.4049
G01 X10.1505 Y32.3942
G01 X10.1492 Y32.3783
G01 X10.1467 Y32.3625
G01 X10.1342 Y32.3049
G01 X10.1301 Y32.2887
G01 X10.1247 Y32.2728
G01 X10.1181 Y32.2573
G01 X10.1104 Y32.2424
G01 X10.1047 Y32.2328
G01 X10.0984 Y32.2235
G01 X10.0918 Y32.2145
G01 X10.0846 Y32.2059
G01 X10.0382 Y32.1522
G01 X10.0268 Y32.1400
G01 X10.0145 Y32.1287
G01 X10.0059 Y32.1217
G01 X9.9969 Y32.1151
G01 X9.9876 Y32.1090
G01 X9.9780 Y32.1033
G01 X9.9682 Y32.0981
G01 X9.9581 Y32.0934
G01 X9.9478 Y32.0893
G01 X9.9373 Y32.0856
G01 X9.8536 Y32.0612
G01 X9.8431 Y32.0589
G01 X9.8326 Y32.0572
G01 X9.8220 Y32.0559
G01 X9.8114 Y32.0552
G01 X9.8007 Y32.0549
G01 X9.0815 Y32.0549
G01 X9.0429 Y32.0514
G01 X8.9297 Y32.0159
G01 X8.8311 Y31.9561
G01 X8.7495 Y31.8746
G01 X8.6898 Y31.7759
G01 X8.6543 Y31.6628
G01 X8.6507 Y31.6241
G01 X8.6507 Y26.5327
G01 X8.6543 Y26.4940
G01 X8.6898 Y26.3809
G01 X8.7495 Y26.2822
G01 X8.8311 Y26.2007
G01 X8.9297 Y26.1409
G01 X9.0429 Y26.1055
G01 X9.0815 Y26.1019
G01 X9.8007 Y26.1019
G01 X9.8114 Y26.1016
G01 X9.8220 Y26.1009
G01 X9.8326 Y26.0996
G01 X9.8431 Y26.0979
G01 X9.9062 Y26.0841
G01 X9.9170 Y26.0812
G01 X9.9276 Y26.0778
G01 X9.9381 Y26.0738
G01 X9.9534 Y26.0668
G01 X9.9681 Y26.0587
G01 X9.9822 Y26.0496
G01 X9.9911 Y26.0429
G01 X9.9998 Y26.0358
G01 X10.0534 Y25.9893
G01 X10.0656 Y25.9779
G01 X10.0733 Y25.9698
G01 X10.0840 Y25.9570
G01 X10.0905 Y25.9481
G01 X10.0967 Y25.9388
G01 X10.1050 Y25.9243
G01 X10.1099 Y25.9143
G01 X10.1144 Y25.9041
G01 X10.1183 Y25.8937
G01 X10.1217 Y25.8831
G01 X10.1444 Y25.8047
G01 X10.1467 Y25.7943
G01 X10.1492 Y25.7785
G01 X10.1505 Y25.7626
G01 X10.1507 Y25.7519
G01 X10.1507 Y20.0984
G01 X10.1503 Y20.0810
G01 X10.1469 Y20.0124
G01 X10.1497 Y19.9825
G01 X10.1540 Y19.8990
G01 X10.1632 Y19.8478
G01 X10.1657 Y19.8293
G01 X10.1698 Y19.7889
G01 X10.1812 Y19.7450
G01 X10.1851 Y19.7280
G01 X10.1949 Y19.6754
G01 X10.2081 Y19.6370
G01 X10.2137 Y19.6192
G01 X10.2262 Y19.5715
G01 X10.2472 Y19.5222
G01 X10.2534 Y19.5059
G01 X10.2682 Y19.4630
G01 X10.2871 Y19.4272
G01 X10.2953 Y19.4104
G01 X10.3149 Y19.3651
G01 X10.3431 Y19.3195
G01 X10.3517 Y19.3044
G01 X10.3728 Y19.2642
G01 X10.4020 Y19.2244
G01 X10.4123 Y19.2089
G01 X10.4338 Y19.1745
G01 X10.4633 Y19.1401
G01 X10.4743 Y19.1265
G01 X10.5062 Y19.0835
G01 X10.6093 Y18.9810
G01 X12.9410 Y16.6493
G01 X12.9492 Y16.6406
G01 X12.9570 Y16.6315
G01 X12.9773 Y16.6062
G01 X12.9868 Y16.5927
G01 X12.9926 Y16.5834
G01 X13.0005 Y16.5689
G01 X13.0072 Y16.5538
G01 X13.0128 Y16.5383
G01 X13.0372 Y16.4546
G01 X13.0395 Y16.4442
G01 X13.0412 Y16.4337
G01 X13.0425 Y16.4231
G01 X13.0432 Y16.4125
G01 X13.0435 Y16.4018
G01 X13.0435 Y15.3949
G01 X13.0432 Y15.3842
G01 X13.0425 Y15.3736
G01 X13.0404 Y15.3578
G01 X13.0270 Y15.2949
G01 X13.0243 Y15.2841
G01 X13.0194 Y15.2680
G01 X13.0132 Y15.2524
G01 X13.0059 Y15.2373
G01 X12.9974 Y15.2228
G01 X12.9879 Y15.2090
G01 X12.9774 Y15.1959
G01 X12.9309 Y15.1422
G01 X12.9234 Y15.1340
G01 X12.9155 Y15.1261
G01 X12.9030 Y15.1151
G01 X12.8942 Y15.1083
G01 X12.8851 Y15.1020
G01 X12.8756 Y15.0961
G01 X12.8659 Y15.0907
G01 X12.8509 Y15.0834
G01 X12.8406 Y15.0793
G01 X12.8300 Y15.0756
G01 X12.7515 Y15.0525
G01 X12.7411 Y15.0500
G01 X12.7306 Y15.0480
G01 X12.7148 Y15.0459
G01 X12.7042 Y15.0452
G01 X12.6935 Y15.0449
G01 X11.9743 Y15.0449
G01 X11.9356 Y15.0414
G01 X11.8225 Y15.0059
G01 X11.7238 Y14.9461
G01 X11.6423 Y14.8646
G01 X11.5825 Y14.7659
G01 X11.5471 Y14.6528
G01 X11.5435 Y14.6141
G01 X11.5435 Y12.7248
G01 X11.5429 Y12.7083
G01 X11.5411 Y12.6918
G01 X11.5392 Y12.6810
G01 X11.5368 Y12.6702
G01 X11.5158 Y12.5948
G01 X11.5124 Y12.5845
G01 X11.5085 Y12.5744
G01 X11.5018 Y12.5596
G01 X11.4967 Y12.5500
G01 X11.4912 Y12.5407
G01 X11.4820 Y12.5273
G01 X11.4719 Y12.5145
G01 X11.4647 Y12.5064
G01 X11.4531 Y12.4950
G01 X11.3925 Y12.4396
G01 X11.3793 Y12.4294
G01 X11.3701 Y12.4232
G01 X11.3606 Y12.4174
G01 X11.3458 Y12.4097
G01 X11.3305 Y12.4031
G01 X11.3200 Y12.3993
G01 X11.3040 Y12.3946
G01 X11.2932 Y12.3921
G01 X11.2123 Y12.3780
G01 X11.2012 Y12.3767
G01 X11.1901 Y12.3759
G01 X11.1735 Y12.3757
G01 X11.1623 Y12.3762
G01 X11.1513 Y12.3774
G01 X11.1348 Y12.3801
G01 X11.1240 Y12.3825
G01 X11.1133 Y12.3856
G01 X11.1027 Y12.3891
G01 X11.0924 Y12.3932
G01 X11.0276 Y12.4204
