(G-CODE GENERATED BY FLATCAM v8.994 - www.flatcam.org - Version Date: 2020/11/7)

(Name: xt60_adapter-Edge_Cuts.gbr_cutout_cnc)
(Type: G-code from Geometry)
(Units: MM)

(Created on Friday, 13 January 2023 at 11:58)

(This preprocessor is the default preprocessor used by FlatCAM.)
(It is made to work with MACH3 compatible motion controllers.)

(TOOL DIAMETER: 0.8 mm)
(Feedrate_XY: 20.0 mm/min)
(Feedrate_Z: 10.0 mm/min)
(Feedrate rapids 1500.0 mm/min)

(Z_Cut: -1.8 mm)
(DepthPerCut: 0.6 mm <=>3 passes)
(Z_Move: 1.0 mm)
(Z Start: None mm)
(Z End: 15.0 mm)
(X,Y End: 0.0000, 0.0000 mm)
(Steps per circle: 64)
(Preprocessor Geometry: default)

(X range:    0.3900 ...   29.3900  mm)
(Y range:   -0.3100 ...   66.1884  mm)

(Spindle Speed: 1500.0 RPM)
G21
G90
G94

G01 F20.00

M5
G00 Z15.0000
G00 X0.0000 Y0.0000
T1
M6    
(MSG, Change to Tool Dia = 0.8000)
M0
G00 Z15.0000

M03 S1500.0
G01 F20.00
G00 X0.3900 Y0.2400
G01 F10.00
G01 Z-0.6000
G01 F20.00
G01 X0.3900 Y65.6384
G01 X0.3908 Y65.6678
G01 X0.3956 Y65.7167
G01 X0.4059 Y65.7696
G01 X0.4214 Y65.8214
G01 X0.4418 Y65.8713
G01 X0.4695 Y65.9232
G01 X0.4968 Y65.9640
G01 X0.5309 Y66.0059
G01 X0.5725 Y66.0475
G01 X0.6144 Y66.0816
G01 X0.6552 Y66.1089
G01 X0.7071 Y66.1366
G01 X0.7524 Y66.1554
G01 X0.8040 Y66.1713
G01 X0.8617 Y66.1828
G01 X0.9106 Y66.1876
G01 X0.9400 Y66.1884
G01 X28.8400 Y66.1884
G01 X28.8694 Y66.1876
G01 X28.9183 Y66.1828
G01 X28.9712 Y66.1725
G01 X29.0230 Y66.1570
G01 X29.0729 Y66.1366
G01 X29.1248 Y66.1089
G01 X29.1656 Y66.0816
G01 X29.2075 Y66.0475
G01 X29.2491 Y66.0059
G01 X29.2832 Y65.9640
G01 X29.3105 Y65.9232
G01 X29.3382 Y65.8713
G01 X29.3570 Y65.8260
G01 X29.3729 Y65.7744
G01 X29.3844 Y65.7167
G01 X29.3892 Y65.6678
G01 X29.3900 Y65.6384
G01 X29.3900 Y0.2400
G01 X29.3892 Y0.2106
G01 X29.3844 Y0.1617
G01 X29.3741 Y0.1088
G01 X29.3586 Y0.0570
G01 X29.3382 Y0.0071
G01 X29.3105 Y-0.0448
G01 X29.2832 Y-0.0856
G01 X29.2491 Y-0.1275
G01 X29.2075 Y-0.1691
G01 X29.1696 Y-0.2003
G01 X29.1248 Y-0.2305
G01 X29.0729 Y-0.2582
G01 X29.0276 Y-0.2770
G01 X28.9760 Y-0.2929
G01 X28.9183 Y-0.3044
G01 X28.8694 Y-0.3092
G01 X28.8400 Y-0.3100
G01 X0.9400 Y-0.3100
G01 X0.9106 Y-0.3092
G01 X0.8569 Y-0.3037
G01 X0.8040 Y-0.2929
G01 X0.7524 Y-0.2770
G01 X0.7026 Y-0.2561
G01 X0.6552 Y-0.2305
G01 X0.6104 Y-0.2003
G01 X0.5688 Y-0.1658
G01 X0.5309 Y-0.1275
G01 X0.4968 Y-0.0856
G01 X0.4670 Y-0.0406
G01 X0.4418 Y0.0071
G01 X0.4214 Y0.0570
G01 X0.4059 Y0.1088
G01 X0.3956 Y0.1617
G01 X0.3908 Y0.2106
G01 X0.3900 Y0.2400
G00 X0.3900 Y0.2400
G01 F10.00
G01 Z-1.2000
G01 F20.00
G01 X0.3908 Y0.2106
G01 X0.3956 Y0.1617
G01 X0.4059 Y0.1088
G01 X0.4214 Y0.0570
G01 X0.4418 Y0.0071
G01 X0.4670 Y-0.0406
G01 X0.4968 Y-0.0856
G01 X0.5309 Y-0.1275
G01 X0.5688 Y-0.1658
G01 X0.6104 Y-0.2003
G01 X0.6552 Y-0.2305
G01 X0.7026 Y-0.2561
G01 X0.7524 Y-0.2770
G01 X0.8040 Y-0.2929
G01 X0.8569 Y-0.3037
G01 X0.9106 Y-0.3092
G01 X0.9400 Y-0.3100
G01 X28.8400 Y-0.3100
G01 X28.8694 Y-0.3092
G01 X28.9183 Y-0.3044
G01 X28.9760 Y-0.2929
G01 X29.0276 Y-0.2770
G01 X29.0729 Y-0.2582
G01 X29.1248 Y-0.2305
G01 X29.1696 Y-0.2003
G01 X29.2075 Y-0.1691
G01 X29.2491 Y-0.1275
G01 X29.2832 Y-0.0856
G01 X29.3105 Y-0.0448
G01 X29.3382 Y0.0071
G01 X29.3586 Y0.0570
G01 X29.3741 Y0.1088
G01 X29.3844 Y0.1617
G01 X29.3892 Y0.2106
G01 X29.3900 Y0.2400
G01 X29.3900 Y65.6384
G01 X29.3892 Y65.6678
G01 X29.3844 Y65.7167
G01 X29.3729 Y65.7744
G01 X29.3570 Y65.8260
G01 X29.3382 Y65.8713
G01 X29.3105 Y65.9232
G01 X29.2832 Y65.9640
G01 X29.2491 Y66.0059
G01 X29.2075 Y66.0475
G01 X29.1656 Y66.0816
G01 X29.1248 Y66.1089
G01 X29.0729 Y66.1366
G01 X29.0230 Y66.1570
G01 X28.9712 Y66.1725
G01 X28.9183 Y66.1828
G01 X28.8694 Y66.1876
G01 X28.8400 Y66.1884
G01 X0.9400 Y66.1884
G01 X0.9106 Y66.1876
G01 X0.8617 Y66.1828
G01 X0.8040 Y66.1713
G01 X0.7524 Y66.1554
G01 X0.7071 Y66.1366
G01 X0.6552 Y66.1089
G01 X0.6144 Y66.0816
G01 X0.5725 Y66.0475
G01 X0.5309 Y66.0059
G01 X0.4968 Y65.9640
G01 X0.4695 Y65.9232
G01 X0.4418 Y65.8713
G01 X0.4214 Y65.8214
G01 X0.4059 Y65.7696
G01 X0.3956 Y65.7167
G01 X0.3908 Y65.6678
G01 X0.3900 Y65.6384
G01 X0.3900 Y0.2400
G00 X0.3900 Y0.2400
G01 F10.00
G01 Z-1.8000
G01 F20.00
G01 X0.3900 Y65.6384
G01 X0.3908 Y65.6678
G01 X0.3956 Y65.7167
G01 X0.4059 Y65.7696
G01 X0.4214 Y65.8214
G01 X0.4418 Y65.8713
G01 X0.4695 Y65.9232
G01 X0.4968 Y65.9640
G01 X0.5309 Y66.0059
G01 X0.5725 Y66.0475
G01 X0.6144 Y66.0816
G01 X0.6552 Y66.1089
G01 X0.7071 Y66.1366
G01 X0.7524 Y66.1554
G01 X0.8040 Y66.1713
G01 X0.8617 Y66.1828
G01 X0.9106 Y66.1876
G01 X0.9400 Y66.1884
G01 X28.8400 Y66.1884
G01 X28.8694 Y66.1876
G01 X28.9183 Y66.1828
G01 X28.9712 Y66.1725
G01 X29.0230 Y66.1570
G01 X29.0729 Y66.1366
G01 X29.1248 Y66.1089
G01 X29.1656 Y66.0816
G01 X29.2075 Y66.0475
G01 X29.2491 Y66.0059
G01 X29.2832 Y65.9640
G01 X29.3105 Y65.9232
G01 X29.3382 Y65.8713
G01 X29.3570 Y65.8260
G01 X29.3729 Y65.7744
G01 X29.3844 Y65.7167
G01 X29.3892 Y65.6678
G01 X29.3900 Y65.6384
G01 X29.3900 Y0.2400
G01 X29.3892 Y0.2106
G01 X29.3844 Y0.1617
G01 X29.3741 Y0.1088
G01 X29.3586 Y0.0570
G01 X29.3382 Y0.0071
G01 X29.3105 Y-0.0448
G01 X29.2832 Y-0.0856
G01 X29.2491 Y-0.1275
G01 X29.2075 Y-0.1691
G01 X29.1696 Y-0.2003
G01 X29.1248 Y-0.2305
G01 X29.0729 Y-0.2582
G01 X29.0276 Y-0.2770
G01 X28.9760 Y-0.2929
G01 X28.9183 Y-0.3044
G01 X28.8694 Y-0.3092
G01 X28.8400 Y-0.3100
G01 X0.9400 Y-0.3100
G01 X0.9106 Y-0.3092
G01 X0.8569 Y-0.3037
G01 X0.8040 Y-0.2929
G01 X0.7524 Y-0.2770
G01 X0.7026 Y-0.2561
G01 X0.6552 Y-0.2305
G01 X0.6104 Y-0.2003
G01 X0.5688 Y-0.1658
G01 X0.5309 Y-0.1275
G01 X0.4968 Y-0.0856
G01 X0.4670 Y-0.0406
G01 X0.4418 Y0.0071
G01 X0.4214 Y0.0570
G01 X0.4059 Y0.1088
G01 X0.3956 Y0.1617
G01 X0.3908 Y0.2106
G01 X0.3900 Y0.2400
G00 Z1.0000
M05
G00 Z1.0000
G00 Z15.00
G00 X0.0 Y0.0


