(G-CODE GENERATED BY FLATCAM v8.994 - www.flatcam.org - Version Date: 2020/11/7)

(Name: xt60_adapter-PTH-drl.gbr_inverted_iso_combined_cnc)
(Type: G-code from Geometry)
(Units: MM)

(Created on Friday, 13 January 2023 at 11:38)

(This preprocessor is the default preprocessor used by FlatCAM.)
(It is made to work with MACH3 compatible motion controllers.)

(TOOL DIAMETER: 0.8 mm)
(Feedrate_XY: 30.0 mm/min)
(Feedrate_Z: 20.0 mm/min)
(Feedrate rapids 1500.0 mm/min)

(Z_Cut: -2.0 mm)
(DepthPerCut: 0.5 mm <=>4 passes)
(Z_Move: 1.0 mm)
(Z Start: None mm)
(Z End: 15.0 mm)
(X,Y End: 0.0000, 0.0000 mm)
(Steps per circle: 64)
(Preprocessor Geometry: default)

(X range:    2.9005 ...   27.0995  mm)
(Y range:    2.7789 ...   63.1979  mm)

(Spindle Speed: 1500.0 RPM)
G21
G90
G94

G01 F30.00

M5
G00 Z15.0000
G00 X0.0000 Y0.0000
T1
M6    
(MSG, Change to Tool Dia = 0.8000)
M0
G00 Z15.0000

M03 S1500.0
G01 F30.00
G00 X5.0995 Y3.8784
G01 F20.00
G01 Z-0.5000
G01 F30.00
G01 X5.0942 Y3.7706
G01 X5.0784 Y3.6639
G01 X5.0522 Y3.5592
G01 X5.0158 Y3.4576
G01 X4.9697 Y3.3601
G01 X4.9142 Y3.2675
G01 X4.8499 Y3.1809
G01 X4.7775 Y3.1009
G01 X4.6975 Y3.0285
G01 X4.6109 Y2.9642
G01 X4.5183 Y2.9087
G01 X4.4208 Y2.8626
G01 X4.3192 Y2.8262
G01 X4.2145 Y2.8000
G01 X4.1078 Y2.7842
G01 X4.0000 Y2.7789
G01 X3.8922 Y2.7842
G01 X3.7855 Y2.8000
G01 X3.6808 Y2.8262
G01 X3.5792 Y2.8626
G01 X3.4817 Y2.9087
G01 X3.3891 Y2.9642
G01 X3.3025 Y3.0285
G01 X3.2225 Y3.1009
G01 X3.1501 Y3.1809
G01 X3.0858 Y3.2675
G01 X3.0303 Y3.3601
G01 X2.9842 Y3.4576
G01 X2.9478 Y3.5592
G01 X2.9216 Y3.6639
G01 X2.9058 Y3.7706
G01 X2.9005 Y3.8784
G01 X2.9058 Y3.9862
G01 X2.9216 Y4.0929
G01 X2.9478 Y4.1976
G01 X2.9842 Y4.2992
G01 X3.0303 Y4.3967
G01 X3.0858 Y4.4893
G01 X3.1501 Y4.5759
G01 X3.2225 Y4.6559
G01 X3.3025 Y4.7283
G01 X3.3891 Y4.7926
G01 X3.4817 Y4.8481
G01 X3.5792 Y4.8942
G01 X3.6808 Y4.9306
G01 X3.7855 Y4.9568
G01 X3.8922 Y4.9726
G01 X4.0000 Y4.9779
G01 X4.1078 Y4.9726
G01 X4.2145 Y4.9568
G01 X4.3192 Y4.9306
G01 X4.4208 Y4.8942
G01 X4.5183 Y4.8481
G01 X4.6109 Y4.7926
G01 X4.6975 Y4.7283
G01 X4.7775 Y4.6559
G01 X4.8499 Y4.5759
G01 X4.9142 Y4.4893
G01 X4.9697 Y4.3967
G01 X5.0158 Y4.2992
G01 X5.0522 Y4.1976
G01 X5.0784 Y4.0929
G01 X5.0942 Y3.9862
G01 X5.0995 Y3.8784
G00 X5.0995 Y3.8784
G01 F20.00
G01 Z-1.0000
G01 F30.00
G01 X5.0942 Y3.7706
G01 X5.0784 Y3.6639
G01 X5.0522 Y3.5592
G01 X5.0158 Y3.4576
G01 X4.9697 Y3.3601
G01 X4.9142 Y3.2675
G01 X4.8499 Y3.1809
G01 X4.7775 Y3.1009
G01 X4.6975 Y3.0285
G01 X4.6109 Y2.9642
G01 X4.5183 Y2.9087
G01 X4.4208 Y2.8626
G01 X4.3192 Y2.8262
G01 X4.2145 Y2.8000
G01 X4.1078 Y2.7842
G01 X4.0000 Y2.7789
G01 X3.8922 Y2.7842
G01 X3.7855 Y2.8000
G01 X3.6808 Y2.8262
G01 X3.5792 Y2.8626
G01 X3.4817 Y2.9087
G01 X3.3891 Y2.9642
G01 X3.3025 Y3.0285
G01 X3.2225 Y3.1009
G01 X3.1501 Y3.1809
G01 X3.0858 Y3.2675
G01 X3.0303 Y3.3601
G01 X2.9842 Y3.4576
G01 X2.9478 Y3.5592
G01 X2.9216 Y3.6639
G01 X2.9058 Y3.7706
G01 X2.9005 Y3.8784
G01 X2.9058 Y3.9862
G01 X2.9216 Y4.0929
G01 X2.9478 Y4.1976
G01 X2.9842 Y4.2992
G01 X3.0303 Y4.3967
G01 X3.0858 Y4.4893
G01 X3.1501 Y4.5759
G01 X3.2225 Y4.6559
G01 X3.3025 Y4.7283
G01 X3.3891 Y4.7926
G01 X3.4817 Y4.8481
G01 X3.5792 Y4.8942
G01 X3.6808 Y4.9306
G01 X3.7855 Y4.9568
G01 X3.8922 Y4.9726
G01 X4.0000 Y4.9779
G01 X4.1078 Y4.9726
G01 X4.2145 Y4.9568
G01 X4.3192 Y4.9306
G01 X4.4208 Y4.8942
G01 X4.5183 Y4.8481
G01 X4.6109 Y4.7926
G01 X4.6975 Y4.7283
G01 X4.7775 Y4.6559
G01 X4.8499 Y4.5759
G01 X4.9142 Y4.4893
G01 X4.9697 Y4.3967
G01 X5.0158 Y4.2992
G01 X5.0522 Y4.1976
G01 X5.0784 Y4.0929
G01 X5.0942 Y3.9862
G01 X5.0995 Y3.8784
G00 X5.0995 Y3.8784
G01 F20.00
G01 Z-1.5000
G01 F30.00
G01 X5.0942 Y3.7706
G01 X5.0784 Y3.6639
G01 X5.0522 Y3.5592
G01 X5.0158 Y3.4576
G01 X4.9697 Y3.3601
G01 X4.9142 Y3.2675
G01 X4.8499 Y3.1809
G01 X4.7775 Y3.1009
G01 X4.6975 Y3.0285
G01 X4.6109 Y2.9642
G01 X4.5183 Y2.9087
G01 X4.4208 Y2.8626
G01 X4.3192 Y2.8262
G01 X4.2145 Y2.8000
G01 X4.1078 Y2.7842
G01 X4.0000 Y2.7789
G01 X3.8922 Y2.7842
G01 X3.7855 Y2.8000
G01 X3.6808 Y2.8262
G01 X3.5792 Y2.8626
G01 X3.4817 Y2.9087
G01 X3.3891 Y2.9642
G01 X3.3025 Y3.0285
G01 X3.2225 Y3.1009
G01 X3.1501 Y3.1809
G01 X3.0858 Y3.2675
G01 X3.0303 Y3.3601
G01 X2.9842 Y3.4576
G01 X2.9478 Y3.5592
G01 X2.9216 Y3.6639
G01 X2.9058 Y3.7706
G01 X2.9005 Y3.8784
G01 X2.9058 Y3.9862
G01 X2.9216 Y4.0929
G01 X2.9478 Y4.1976
G01 X2.9842 Y4.2992
G01 X3.0303 Y4.3967
G01 X3.0858 Y4.4893
G01 X3.1501 Y4.5759
G01 X3.2225 Y4.6559
G01 X3.3025 Y4.7283
G01 X3.3891 Y4.7926
G01 X3.4817 Y4.8481
G01 X3.5792 Y4.8942
G01 X3.6808 Y4.9306
G01 X3.7855 Y4.9568
G01 X3.8922 Y4.9726
G01 X4.0000 Y4.9779
G01 X4.1078 Y4.9726
G01 X4.2145 Y4.9568
G01 X4.3192 Y4.9306
G01 X4.4208 Y4.8942
G01 X4.5183 Y4.8481
G01 X4.6109 Y4.7926
G01 X4.6975 Y4.7283
G01 X4.7775 Y4.6559
G01 X4.8499 Y4.5759
G01 X4.9142 Y4.4893
G01 X4.9697 Y4.3967
G01 X5.0158 Y4.2992
G01 X5.0522 Y4.1976
G01 X5.0784 Y4.0929
G01 X5.0942 Y3.9862
G01 X5.0995 Y3.8784
G00 X5.0995 Y3.8784
G01 F20.00
G01 Z-2.0000
G01 F30.00
G01 X5.0942 Y3.7706
G01 X5.0784 Y3.6639
G01 X5.0522 Y3.5592
G01 X5.0158 Y3.4576
G01 X4.9697 Y3.3601
G01 X4.9142 Y3.2675
G01 X4.8499 Y3.1809
G01 X4.7775 Y3.1009
G01 X4.6975 Y3.0285
G01 X4.6109 Y2.9642
G01 X4.5183 Y2.9087
G01 X4.4208 Y2.8626
G01 X4.3192 Y2.8262
G01 X4.2145 Y2.8000
G01 X4.1078 Y2.7842
G01 X4.0000 Y2.7789
G01 X3.8922 Y2.7842
G01 X3.7855 Y2.8000
G01 X3.6808 Y2.8262
G01 X3.5792 Y2.8626
G01 X3.4817 Y2.9087
G01 X3.3891 Y2.9642
G01 X3.3025 Y3.0285
G01 X3.2225 Y3.1009
G01 X3.1501 Y3.1809
G01 X3.0858 Y3.2675
G01 X3.0303 Y3.3601
G01 X2.9842 Y3.4576
G01 X2.9478 Y3.5592
G01 X2.9216 Y3.6639
G01 X2.9058 Y3.7706
G01 X2.9005 Y3.8784
G01 X2.9058 Y3.9862
G01 X2.9216 Y4.0929
G01 X2.9478 Y4.1976
G01 X2.9842 Y4.2992
G01 X3.0303 Y4.3967
G01 X3.0858 Y4.4893
G01 X3.1501 Y4.5759
G01 X3.2225 Y4.6559
G01 X3.3025 Y4.7283
G01 X3.3891 Y4.7926
G01 X3.4817 Y4.8481
G01 X3.5792 Y4.8942
G01 X3.6808 Y4.9306
G01 X3.7855 Y4.9568
G01 X3.8922 Y4.9726
G01 X4.0000 Y4.9779
G01 X4.1078 Y4.9726
G01 X4.2145 Y4.9568
G01 X4.3192 Y4.9306
G01 X4.4208 Y4.8942
G01 X4.5183 Y4.8481
G01 X4.6109 Y4.7926
G01 X4.6975 Y4.7283
G01 X4.7775 Y4.6559
G01 X4.8499 Y4.5759
G01 X4.9142 Y4.4893
G01 X4.9697 Y4.3967
G01 X5.0158 Y4.2992
G01 X5.0522 Y4.1976
G01 X5.0784 Y4.0929
G01 X5.0942 Y3.9862
G01 X5.0995 Y3.8784
G00 Z1.0000
G00 X9.7200 Y10.8679
G01 F20.00
G01 Z-0.5000
G01 F30.00
G01 X9.7298 Y10.8674
G01 X9.7394 Y10.8660
G01 X9.7489 Y10.8636
G01 X9.7581 Y10.8603
G01 X9.7669 Y10.8562
G01 X9.7753 Y10.8511
G01 X9.7831 Y10.8453
G01 X9.7904 Y10.8388
G01 X9.7969 Y10.8315
G01 X9.8027 Y10.8237
G01 X9.8078 Y10.8153
G01 X9.8119 Y10.8065
G01 X9.8152 Y10.7973
G01 X9.8176 Y10.7878
G01 X9.8190 Y10.7782
G01 X9.8200 Y10.7586
G01 X9.8200 Y8.5782
G01 X9.8190 Y8.5586
G01 X9.8176 Y8.5490
G01 X9.8152 Y8.5395
G01 X9.8119 Y8.5303
G01 X9.8078 Y8.5215
G01 X9.8027 Y8.5131
G01 X9.7969 Y8.5053
G01 X9.7904 Y8.4980
G01 X9.7831 Y8.4915
G01 X9.7753 Y8.4857
G01 X9.7669 Y8.4806
G01 X9.7581 Y8.4765
G01 X9.7489 Y8.4732
G01 X9.7394 Y8.4708
G01 X9.7298 Y8.4694
G01 X9.7200 Y8.4689
G01 X9.7102 Y8.4694
G01 X9.7006 Y8.4708
G01 X9.6911 Y8.4732
G01 X9.6819 Y8.4765
G01 X9.6731 Y8.4806
G01 X9.6647 Y8.4857
G01 X9.6569 Y8.4915
G01 X9.6496 Y8.4980
G01 X9.6431 Y8.5053
G01 X9.6373 Y8.5131
G01 X9.6322 Y8.5215
G01 X9.6281 Y8.5303
G01 X9.6248 Y8.5395
G01 X9.6224 Y8.5490
G01 X9.6210 Y8.5586
G01 X9.6200 Y8.5782
G01 X9.6200 Y10.7586
G01 X9.6210 Y10.7782
G01 X9.6224 Y10.7878
G01 X9.6248 Y10.7973
G01 X9.6281 Y10.8065
G01 X9.6322 Y10.8153
G01 X9.6373 Y10.8237
G01 X9.6431 Y10.8315
G01 X9.6496 Y10.8388
G01 X9.6569 Y10.8453
G01 X9.6647 Y10.8511
G01 X9.6731 Y10.8562
G01 X9.6819 Y10.8603
G01 X9.6911 Y10.8636
G01 X9.7006 Y10.8660
G01 X9.7102 Y10.8674
G01 X9.7200 Y10.8679
G00 X9.7200 Y10.8679
G01 F20.00
G01 Z-1.0000
G01 F30.00
G01 X9.7298 Y10.8674
G01 X9.7394 Y10.8660
G01 X9.7489 Y10.8636
G01 X9.7581 Y10.8603
G01 X9.7669 Y10.8562
G01 X9.7753 Y10.8511
G01 X9.7831 Y10.8453
G01 X9.7904 Y10.8388
G01 X9.7969 Y10.8315
G01 X9.8027 Y10.8237
G01 X9.8078 Y10.8153
G01 X9.8119 Y10.8065
G01 X9.8152 Y10.7973
G01 X9.8176 Y10.7878
G01 X9.8190 Y10.7782
G01 X9.8200 Y10.7586
G01 X9.8200 Y8.5782
G01 X9.8190 Y8.5586
G01 X9.8176 Y8.5490
G01 X9.8152 Y8.5395
G01 X9.8119 Y8.5303
G01 X9.8078 Y8.5215
G01 X9.8027 Y8.5131
G01 X9.7969 Y8.5053
G01 X9.7904 Y8.4980
G01 X9.7831 Y8.4915
G01 X9.7753 Y8.4857
G01 X9.7669 Y8.4806
G01 X9.7581 Y8.4765
G01 X9.7489 Y8.4732
G01 X9.7394 Y8.4708
G01 X9.7298 Y8.4694
G01 X9.7200 Y8.4689
G01 X9.7102 Y8.4694
G01 X9.7006 Y8.4708
G01 X9.6911 Y8.4732
G01 X9.6819 Y8.4765
G01 X9.6731 Y8.4806
G01 X9.6647 Y8.4857
G01 X9.6569 Y8.4915
G01 X9.6496 Y8.4980
G01 X9.6431 Y8.5053
G01 X9.6373 Y8.5131
G01 X9.6322 Y8.5215
G01 X9.6281 Y8.5303
G01 X9.6248 Y8.5395
G01 X9.6224 Y8.5490
G01 X9.6210 Y8.5586
G01 X9.6200 Y8.5782
G01 X9.6200 Y10.7586
G01 X9.6210 Y10.7782
G01 X9.6224 Y10.7878
G01 X9.6248 Y10.7973
G01 X9.6281 Y10.8065
G01 X9.6322 Y10.8153
G01 X9.6373 Y10.8237
G01 X9.6431 Y10.8315
G01 X9.6496 Y10.8388
G01 X9.6569 Y10.8453
G01 X9.6647 Y10.8511
G01 X9.6731 Y10.8562
G01 X9.6819 Y10.8603
G01 X9.6911 Y10.8636
G01 X9.7006 Y10.8660
G01 X9.7102 Y10.8674
G01 X9.7200 Y10.8679
G00 X9.7200 Y10.8679
G01 F20.00
G01 Z-1.5000
G01 F30.00
G01 X9.7298 Y10.8674
G01 X9.7394 Y10.8660
G01 X9.7489 Y10.8636
G01 X9.7581 Y10.8603
G01 X9.7669 Y10.8562
G01 X9.7753 Y10.8511
G01 X9.7831 Y10.8453
G01 X9.7904 Y10.8388
G01 X9.7969 Y10.8315
G01 X9.8027 Y10.8237
G01 X9.8078 Y10.8153
G01 X9.8119 Y10.8065
G01 X9.8152 Y10.7973
G01 X9.8176 Y10.7878
G01 X9.8190 Y10.7782
G01 X9.8200 Y10.7586
G01 X9.8200 Y8.5782
G01 X9.8190 Y8.5586
G01 X9.8176 Y8.5490
G01 X9.8152 Y8.5395
G01 X9.8119 Y8.5303
G01 X9.8078 Y8.5215
G01 X9.8027 Y8.5131
G01 X9.7969 Y8.5053
G01 X9.7904 Y8.4980
G01 X9.7831 Y8.4915
G01 X9.7753 Y8.4857
G01 X9.7669 Y8.4806
G01 X9.7581 Y8.4765
G01 X9.7489 Y8.4732
G01 X9.7394 Y8.4708
G01 X9.7298 Y8.4694
G01 X9.7200 Y8.4689
G01 X9.7102 Y8.4694
G01 X9.7006 Y8.4708
G01 X9.6911 Y8.4732
G01 X9.6819 Y8.4765
G01 X9.6731 Y8.4806
G01 X9.6647 Y8.4857
G01 X9.6569 Y8.4915
G01 X9.6496 Y8.4980
G01 X9.6431 Y8.5053
G01 X9.6373 Y8.5131
G01 X9.6322 Y8.5215
G01 X9.6281 Y8.5303
G01 X9.6248 Y8.5395
G01 X9.6224 Y8.5490
G01 X9.6210 Y8.5586
G01 X9.6200 Y8.5782
G01 X9.6200 Y10.7586
G01 X9.6210 Y10.7782
G01 X9.6224 Y10.7878
G01 X9.6248 Y10.7973
G01 X9.6281 Y10.8065
G01 X9.6322 Y10.8153
G01 X9.6373 Y10.8237
G01 X9.6431 Y10.8315
G01 X9.6496 Y10.8388
G01 X9.6569 Y10.8453
G01 X9.6647 Y10.8511
G01 X9.6731 Y10.8562
G01 X9.6819 Y10.8603
G01 X9.6911 Y10.8636
G01 X9.7006 Y10.8660
G01 X9.7102 Y10.8674
G01 X9.7200 Y10.8679
G00 X9.7200 Y10.8679
G01 F20.00
G01 Z-2.0000
G01 F30.00
G01 X9.7298 Y10.8674
G01 X9.7394 Y10.8660
G01 X9.7489 Y10.8636
G01 X9.7581 Y10.8603
G01 X9.7669 Y10.8562
G01 X9.7753 Y10.8511
G01 X9.7831 Y10.8453
G01 X9.7904 Y10.8388
G01 X9.7969 Y10.8315
G01 X9.8027 Y10.8237
G01 X9.8078 Y10.8153
G01 X9.8119 Y10.8065
G01 X9.8152 Y10.7973
G01 X9.8176 Y10.7878
G01 X9.8190 Y10.7782
G01 X9.8200 Y10.7586
G01 X9.8200 Y8.5782
G01 X9.8190 Y8.5586
G01 X9.8176 Y8.5490
G01 X9.8152 Y8.5395
G01 X9.8119 Y8.5303
G01 X9.8078 Y8.5215
G01 X9.8027 Y8.5131
G01 X9.7969 Y8.5053
G01 X9.7904 Y8.4980
G01 X9.7831 Y8.4915
G01 X9.7753 Y8.4857
G01 X9.7669 Y8.4806
G01 X9.7581 Y8.4765
G01 X9.7489 Y8.4732
G01 X9.7394 Y8.4708
G01 X9.7298 Y8.4694
G01 X9.7200 Y8.4689
G01 X9.7102 Y8.4694
G01 X9.7006 Y8.4708
G01 X9.6911 Y8.4732
G01 X9.6819 Y8.4765
G01 X9.6731 Y8.4806
G01 X9.6647 Y8.4857
G01 X9.6569 Y8.4915
G01 X9.6496 Y8.4980
G01 X9.6431 Y8.5053
G01 X9.6373 Y8.5131
G01 X9.6322 Y8.5215
G01 X9.6281 Y8.5303
G01 X9.6248 Y8.5395
G01 X9.6224 Y8.5490
G01 X9.6210 Y8.5586
G01 X9.6200 Y8.5782
G01 X9.6200 Y10.7586
G01 X9.6210 Y10.7782
G01 X9.6224 Y10.7878
G01 X9.6248 Y10.7973
G01 X9.6281 Y10.8065
G01 X9.6322 Y10.8153
G01 X9.6373 Y10.8237
G01 X9.6431 Y10.8315
G01 X9.6496 Y10.8388
G01 X9.6569 Y10.8453
G01 X9.6647 Y10.8511
G01 X9.6731 Y10.8562
G01 X9.6819 Y10.8603
G01 X9.6911 Y10.8636
G01 X9.7006 Y10.8660
G01 X9.7102 Y10.8674
G01 X9.7200 Y10.8679
G00 Z1.0000
G00 X13.2298 Y12.6684
G01 F20.00
G01 Z-0.5000
G01 F30.00
G01 X15.8102 Y12.6684
G01 X15.8298 Y12.6674
G01 X15.8394 Y12.6660
G01 X15.8489 Y12.6636
G01 X15.8581 Y12.6603
G01 X15.8669 Y12.6562
G01 X15.8753 Y12.6511
G01 X15.8831 Y12.6453
G01 X15.8904 Y12.6388
G01 X15.8969 Y12.6315
G01 X15.9027 Y12.6237
G01 X15.9078 Y12.6153
G01 X15.9119 Y12.6065
G01 X15.9152 Y12.5973
G01 X15.9176 Y12.5878
G01 X15.9190 Y12.5782
G01 X15.9195 Y12.5684
G01 X15.9190 Y12.5586
G01 X15.9176 Y12.5490
G01 X15.9152 Y12.5395
G01 X15.9119 Y12.5303
G01 X15.9078 Y12.5215
G01 X15.9027 Y12.5131
G01 X15.8969 Y12.5053
G01 X15.8904 Y12.4980
G01 X15.8831 Y12.4915
G01 X15.8753 Y12.4857
G01 X15.8669 Y12.4806
G01 X15.8581 Y12.4765
G01 X15.8489 Y12.4732
G01 X15.8394 Y12.4708
G01 X15.8298 Y12.4694
G01 X15.8102 Y12.4684
G01 X13.2298 Y12.4684
G01 X13.2102 Y12.4694
G01 X13.2006 Y12.4708
G01 X13.1911 Y12.4732
G01 X13.1819 Y12.4765
G01 X13.1731 Y12.4806
G01 X13.1647 Y12.4857
G01 X13.1569 Y12.4915
G01 X13.1496 Y12.4980
G01 X13.1431 Y12.5053
G01 X13.1373 Y12.5131
G01 X13.1322 Y12.5215
G01 X13.1281 Y12.5303
G01 X13.1248 Y12.5395
G01 X13.1224 Y12.5490
G01 X13.1210 Y12.5586
G01 X13.1205 Y12.5684
G01 X13.1210 Y12.5782
G01 X13.1224 Y12.5878
G01 X13.1248 Y12.5973
G01 X13.1281 Y12.6065
G01 X13.1322 Y12.6153
G01 X13.1373 Y12.6237
G01 X13.1431 Y12.6315
G01 X13.1496 Y12.6388
G01 X13.1569 Y12.6453
G01 X13.1647 Y12.6511
G01 X13.1731 Y12.6562
G01 X13.1819 Y12.6603
G01 X13.1911 Y12.6636
G01 X13.2006 Y12.6660
G01 X13.2102 Y12.6674
G01 X13.2298 Y12.6684
G00 X13.2298 Y12.6684
G01 F20.00
G01 Z-1.0000
G01 F30.00
G01 X15.8102 Y12.6684
G01 X15.8298 Y12.6674
G01 X15.8394 Y12.6660
G01 X15.8489 Y12.6636
G01 X15.8581 Y12.6603
G01 X15.8669 Y12.6562
G01 X15.8753 Y12.6511
G01 X15.8831 Y12.6453
G01 X15.8904 Y12.6388
G01 X15.8969 Y12.6315
G01 X15.9027 Y12.6237
G01 X15.9078 Y12.6153
G01 X15.9119 Y12.6065
G01 X15.9152 Y12.5973
G01 X15.9176 Y12.5878
G01 X15.9190 Y12.5782
G01 X15.9195 Y12.5684
G01 X15.9190 Y12.5586
G01 X15.9176 Y12.5490
G01 X15.9152 Y12.5395
G01 X15.9119 Y12.5303
G01 X15.9078 Y12.5215
G01 X15.9027 Y12.5131
G01 X15.8969 Y12.5053
G01 X15.8904 Y12.4980
G01 X15.8831 Y12.4915
G01 X15.8753 Y12.4857
G01 X15.8669 Y12.4806
G01 X15.8581 Y12.4765
G01 X15.8489 Y12.4732
G01 X15.8394 Y12.4708
G01 X15.8298 Y12.4694
G01 X15.8102 Y12.4684
G01 X13.2298 Y12.4684
G01 X13.2102 Y12.4694
G01 X13.2006 Y12.4708
G01 X13.1911 Y12.4732
G01 X13.1819 Y12.4765
G01 X13.1731 Y12.4806
G01 X13.1647 Y12.4857
G01 X13.1569 Y12.4915
G01 X13.1496 Y12.4980
G01 X13.1431 Y12.5053
G01 X13.1373 Y12.5131
G01 X13.1322 Y12.5215
G01 X13.1281 Y12.5303
G01 X13.1248 Y12.5395
G01 X13.1224 Y12.5490
G01 X13.1210 Y12.5586
G01 X13.1205 Y12.5684
G01 X13.1210 Y12.5782
G01 X13.1224 Y12.5878
G01 X13.1248 Y12.5973
G01 X13.1281 Y12.6065
G01 X13.1322 Y12.6153
G01 X13.1373 Y12.6237
G01 X13.1431 Y12.6315
G01 X13.1496 Y12.6388
G01 X13.1569 Y12.6453
G01 X13.1647 Y12.6511
G01 X13.1731 Y12.6562
G01 X13.1819 Y12.6603
G01 X13.1911 Y12.6636
G01 X13.2006 Y12.6660
G01 X13.2102 Y12.6674
G01 X13.2298 Y12.6684
G00 X13.2298 Y12.6684
G01 F20.00
G01 Z-1.5000
G01 F30.00
G01 X15.8102 Y12.6684
G01 X15.8298 Y12.6674
G01 X15.8394 Y12.6660
G01 X15.8489 Y12.6636
G01 X15.8581 Y12.6603
G01 X15.8669 Y12.6562
G01 X15.8753 Y12.6511
G01 X15.8831 Y12.6453
G01 X15.8904 Y12.6388
G01 X15.8969 Y12.6315
G01 X15.9027 Y12.6237
G01 X15.9078 Y12.6153
G01 X15.9119 Y12.6065
G01 X15.9152 Y12.5973
G01 X15.9176 Y12.5878
G01 X15.9190 Y12.5782
G01 X15.9195 Y12.5684
G01 X15.9190 Y12.5586
G01 X15.9176 Y12.5490
G01 X15.9152 Y12.5395
G01 X15.9119 Y12.5303
G01 X15.9078 Y12.5215
G01 X15.9027 Y12.5131
G01 X15.8969 Y12.5053
G01 X15.8904 Y12.4980
G01 X15.8831 Y12.4915
G01 X15.8753 Y12.4857
G01 X15.8669 Y12.4806
G01 X15.8581 Y12.4765
G01 X15.8489 Y12.4732
G01 X15.8394 Y12.4708
G01 X15.8298 Y12.4694
G01 X15.8102 Y12.4684
G01 X13.2298 Y12.4684
G01 X13.2102 Y12.4694
G01 X13.2006 Y12.4708
G01 X13.1911 Y12.4732
G01 X13.1819 Y12.4765
G01 X13.1731 Y12.4806
G01 X13.1647 Y12.4857
G01 X13.1569 Y12.4915
G01 X13.1496 Y12.4980
G01 X13.1431 Y12.5053
G01 X13.1373 Y12.5131
G01 X13.1322 Y12.5215
G01 X13.1281 Y12.5303
G01 X13.1248 Y12.5395
G01 X13.1224 Y12.5490
G01 X13.1210 Y12.5586
G01 X13.1205 Y12.5684
G01 X13.1210 Y12.5782
G01 X13.1224 Y12.5878
G01 X13.1248 Y12.5973
G01 X13.1281 Y12.6065
G01 X13.1322 Y12.6153
G01 X13.1373 Y12.6237
G01 X13.1431 Y12.6315
G01 X13.1496 Y12.6388
G01 X13.1569 Y12.6453
G01 X13.1647 Y12.6511
G01 X13.1731 Y12.6562
G01 X13.1819 Y12.6603
G01 X13.1911 Y12.6636
G01 X13.2006 Y12.6660
G01 X13.2102 Y12.6674
G01 X13.2298 Y12.6684
G00 X13.2298 Y12.6684
G01 F20.00
G01 Z-2.0000
G01 F30.00
G01 X15.8102 Y12.6684
G01 X15.8298 Y12.6674
G01 X15.8394 Y12.6660
G01 X15.8489 Y12.6636
G01 X15.8581 Y12.6603
G01 X15.8669 Y12.6562
G01 X15.8753 Y12.6511
G01 X15.8831 Y12.6453
G01 X15.8904 Y12.6388
G01 X15.8969 Y12.6315
G01 X15.9027 Y12.6237
G01 X15.9078 Y12.6153
G01 X15.9119 Y12.6065
G01 X15.9152 Y12.5973
G01 X15.9176 Y12.5878
G01 X15.9190 Y12.5782
G01 X15.9195 Y12.5684
G01 X15.9190 Y12.5586
G01 X15.9176 Y12.5490
G01 X15.9152 Y12.5395
G01 X15.9119 Y12.5303
G01 X15.9078 Y12.5215
G01 X15.9027 Y12.5131
G01 X15.8969 Y12.5053
G01 X15.8904 Y12.4980
G01 X15.8831 Y12.4915
G01 X15.8753 Y12.4857
G01 X15.8669 Y12.4806
G01 X15.8581 Y12.4765
G01 X15.8489 Y12.4732
G01 X15.8394 Y12.4708
G01 X15.8298 Y12.4694
G01 X15.8102 Y12.4684
G01 X13.2298 Y12.4684
G01 X13.2102 Y12.4694
G01 X13.2006 Y12.4708
G01 X13.1911 Y12.4732
G01 X13.1819 Y12.4765
G01 X13.1731 Y12.4806
G01 X13.1647 Y12.4857
G01 X13.1569 Y12.4915
G01 X13.1496 Y12.4980
G01 X13.1431 Y12.5053
G01 X13.1373 Y12.5131
G01 X13.1322 Y12.5215
G01 X13.1281 Y12.5303
G01 X13.1248 Y12.5395
G01 X13.1224 Y12.5490
G01 X13.1210 Y12.5586
G01 X13.1205 Y12.5684
G01 X13.1210 Y12.5782
G01 X13.1224 Y12.5878
G01 X13.1248 Y12.5973
G01 X13.1281 Y12.6065
G01 X13.1322 Y12.6153
G01 X13.1373 Y12.6237
G01 X13.1431 Y12.6315
G01 X13.1496 Y12.6388
G01 X13.1569 Y12.6453
G01 X13.1647 Y12.6511
G01 X13.1731 Y12.6562
G01 X13.1819 Y12.6603
G01 X13.1911 Y12.6636
G01 X13.2006 Y12.6660
G01 X13.2102 Y12.6674
G01 X13.2298 Y12.6684
G00 Z1.0000
G00 X13.4298 Y6.3684
G01 F20.00
G01 Z-0.5000
G01 F30.00
G01 X15.6102 Y6.3684
G01 X15.6298 Y6.3674
G01 X15.6394 Y6.3660
G01 X15.6489 Y6.3636
G01 X15.6581 Y6.3603
G01 X15.6669 Y6.3562
G01 X15.6753 Y6.3511
G01 X15.6831 Y6.3453
G01 X15.6904 Y6.3388
G01 X15.6969 Y6.3315
G01 X15.7027 Y6.3237
G01 X15.7078 Y6.3153
G01 X15.7119 Y6.3065
G01 X15.7152 Y6.2973
G01 X15.7176 Y6.2878
G01 X15.7190 Y6.2782
G01 X15.7195 Y6.2684
G01 X15.7190 Y6.2586
G01 X15.7176 Y6.2490
G01 X15.7152 Y6.2395
G01 X15.7119 Y6.2303
G01 X15.7078 Y6.2215
G01 X15.7027 Y6.2131
G01 X15.6969 Y6.2053
G01 X15.6904 Y6.1980
G01 X15.6831 Y6.1915
G01 X15.6753 Y6.1857
G01 X15.6669 Y6.1806
G01 X15.6581 Y6.1765
G01 X15.6489 Y6.1732
G01 X15.6394 Y6.1708
G01 X15.6298 Y6.1694
G01 X15.6102 Y6.1684
G01 X13.4298 Y6.1684
G01 X13.4102 Y6.1694
G01 X13.4006 Y6.1708
G01 X13.3911 Y6.1732
G01 X13.3819 Y6.1765
G01 X13.3731 Y6.1806
G01 X13.3647 Y6.1857
G01 X13.3569 Y6.1915
G01 X13.3496 Y6.1980
G01 X13.3431 Y6.2053
G01 X13.3373 Y6.2131
G01 X13.3322 Y6.2215
G01 X13.3281 Y6.2303
G01 X13.3248 Y6.2395
G01 X13.3224 Y6.2490
G01 X13.3210 Y6.2586
G01 X13.3205 Y6.2684
G01 X13.3210 Y6.2782
G01 X13.3224 Y6.2878
G01 X13.3248 Y6.2973
G01 X13.3281 Y6.3065
G01 X13.3322 Y6.3153
G01 X13.3373 Y6.3237
G01 X13.3431 Y6.3315
G01 X13.3496 Y6.3388
G01 X13.3569 Y6.3453
G01 X13.3647 Y6.3511
G01 X13.3731 Y6.3562
G01 X13.3819 Y6.3603
G01 X13.3911 Y6.3636
G01 X13.4006 Y6.3660
G01 X13.4102 Y6.3674
G01 X13.4298 Y6.3684
G00 X13.4298 Y6.3684
G01 F20.00
G01 Z-1.0000
G01 F30.00
G01 X15.6102 Y6.3684
G01 X15.6298 Y6.3674
G01 X15.6394 Y6.3660
G01 X15.6489 Y6.3636
G01 X15.6581 Y6.3603
G01 X15.6669 Y6.3562
G01 X15.6753 Y6.3511
G01 X15.6831 Y6.3453
G01 X15.6904 Y6.3388
G01 X15.6969 Y6.3315
G01 X15.7027 Y6.3237
G01 X15.7078 Y6.3153
G01 X15.7119 Y6.3065
G01 X15.7152 Y6.2973
G01 X15.7176 Y6.2878
G01 X15.7190 Y6.2782
G01 X15.7195 Y6.2684
G01 X15.7190 Y6.2586
G01 X15.7176 Y6.2490
G01 X15.7152 Y6.2395
G01 X15.7119 Y6.2303
G01 X15.7078 Y6.2215
G01 X15.7027 Y6.2131
G01 X15.6969 Y6.2053
G01 X15.6904 Y6.1980
G01 X15.6831 Y6.1915
G01 X15.6753 Y6.1857
G01 X15.6669 Y6.1806
G01 X15.6581 Y6.1765
G01 X15.6489 Y6.1732
G01 X15.6394 Y6.1708
G01 X15.6298 Y6.1694
G01 X15.6102 Y6.1684
G01 X13.4298 Y6.1684
G01 X13.4102 Y6.1694
G01 X13.4006 Y6.1708
G01 X13.3911 Y6.1732
G01 X13.3819 Y6.1765
G01 X13.3731 Y6.1806
G01 X13.3647 Y6.1857
G01 X13.3569 Y6.1915
G01 X13.3496 Y6.1980
G01 X13.3431 Y6.2053
G01 X13.3373 Y6.2131
G01 X13.3322 Y6.2215
G01 X13.3281 Y6.2303
G01 X13.3248 Y6.2395
G01 X13.3224 Y6.2490
G01 X13.3210 Y6.2586
G01 X13.3205 Y6.2684
G01 X13.3210 Y6.2782
G01 X13.3224 Y6.2878
G01 X13.3248 Y6.2973
G01 X13.3281 Y6.3065
G01 X13.3322 Y6.3153
G01 X13.3373 Y6.3237
G01 X13.3431 Y6.3315
G01 X13.3496 Y6.3388
G01 X13.3569 Y6.3453
G01 X13.3647 Y6.3511
G01 X13.3731 Y6.3562
G01 X13.3819 Y6.3603
G01 X13.3911 Y6.3636
G01 X13.4006 Y6.3660
G01 X13.4102 Y6.3674
G01 X13.4298 Y6.3684
G00 X13.4298 Y6.3684
G01 F20.00
G01 Z-1.5000
G01 F30.00
G01 X15.6102 Y6.3684
G01 X15.6298 Y6.3674
G01 X15.6394 Y6.3660
G01 X15.6489 Y6.3636
G01 X15.6581 Y6.3603
G01 X15.6669 Y6.3562
G01 X15.6753 Y6.3511
G01 X15.6831 Y6.3453
G01 X15.6904 Y6.3388
G01 X15.6969 Y6.3315
G01 X15.7027 Y6.3237
G01 X15.7078 Y6.3153
G01 X15.7119 Y6.3065
G01 X15.7152 Y6.2973
G01 X15.7176 Y6.2878
G01 X15.7190 Y6.2782
G01 X15.7195 Y6.2684
G01 X15.7190 Y6.2586
G01 X15.7176 Y6.2490
G01 X15.7152 Y6.2395
G01 X15.7119 Y6.2303
G01 X15.7078 Y6.2215
G01 X15.7027 Y6.2131
G01 X15.6969 Y6.2053
G01 X15.6904 Y6.1980
G01 X15.6831 Y6.1915
G01 X15.6753 Y6.1857
G01 X15.6669 Y6.1806
G01 X15.6581 Y6.1765
G01 X15.6489 Y6.1732
G01 X15.6394 Y6.1708
G01 X15.6298 Y6.1694
G01 X15.6102 Y6.1684
G01 X13.4298 Y6.1684
G01 X13.4102 Y6.1694
G01 X13.4006 Y6.1708
G01 X13.3911 Y6.1732
G01 X13.3819 Y6.1765
G01 X13.3731 Y6.1806
G01 X13.3647 Y6.1857
G01 X13.3569 Y6.1915
G01 X13.3496 Y6.1980
G01 X13.3431 Y6.2053
G01 X13.3373 Y6.2131
G01 X13.3322 Y6.2215
G01 X13.3281 Y6.2303
G01 X13.3248 Y6.2395
G01 X13.3224 Y6.2490
G01 X13.3210 Y6.2586
G01 X13.3205 Y6.2684
G01 X13.3210 Y6.2782
G01 X13.3224 Y6.2878
G01 X13.3248 Y6.2973
G01 X13.3281 Y6.3065
G01 X13.3322 Y6.3153
G01 X13.3373 Y6.3237
G01 X13.3431 Y6.3315
G01 X13.3496 Y6.3388
G01 X13.3569 Y6.3453
G01 X13.3647 Y6.3511
G01 X13.3731 Y6.3562
G01 X13.3819 Y6.3603
G01 X13.3911 Y6.3636
G01 X13.4006 Y6.3660
G01 X13.4102 Y6.3674
G01 X13.4298 Y6.3684
G00 X13.4298 Y6.3684
G01 F20.00
G01 Z-2.0000
G01 F30.00
G01 X15.6102 Y6.3684
G01 X15.6298 Y6.3674
G01 X15.6394 Y6.3660
G01 X15.6489 Y6.3636
G01 X15.6581 Y6.3603
G01 X15.6669 Y6.3562
G01 X15.6753 Y6.3511
G01 X15.6831 Y6.3453
G01 X15.6904 Y6.3388
G01 X15.6969 Y6.3315
G01 X15.7027 Y6.3237
G01 X15.7078 Y6.3153
G01 X15.7119 Y6.3065
G01 X15.7152 Y6.2973
G01 X15.7176 Y6.2878
G01 X15.7190 Y6.2782
G01 X15.7195 Y6.2684
G01 X15.7190 Y6.2586
G01 X15.7176 Y6.2490
G01 X15.7152 Y6.2395
G01 X15.7119 Y6.2303
G01 X15.7078 Y6.2215
G01 X15.7027 Y6.2131
G01 X15.6969 Y6.2053
G01 X15.6904 Y6.1980
G01 X15.6831 Y6.1915
G01 X15.6753 Y6.1857
G01 X15.6669 Y6.1806
G01 X15.6581 Y6.1765
G01 X15.6489 Y6.1732
G01 X15.6394 Y6.1708
G01 X15.6298 Y6.1694
G01 X15.6102 Y6.1684
G01 X13.4298 Y6.1684
G01 X13.4102 Y6.1694
G01 X13.4006 Y6.1708
G01 X13.3911 Y6.1732
G01 X13.3819 Y6.1765
G01 X13.3731 Y6.1806
G01 X13.3647 Y6.1857
G01 X13.3569 Y6.1915
G01 X13.3496 Y6.1980
G01 X13.3431 Y6.2053
G01 X13.3373 Y6.2131
G01 X13.3322 Y6.2215
G01 X13.3281 Y6.2303
G01 X13.3248 Y6.2395
G01 X13.3224 Y6.2490
G01 X13.3210 Y6.2586
G01 X13.3205 Y6.2684
G01 X13.3210 Y6.2782
G01 X13.3224 Y6.2878
G01 X13.3248 Y6.2973
G01 X13.3281 Y6.3065
G01 X13.3322 Y6.3153
G01 X13.3373 Y6.3237
G01 X13.3431 Y6.3315
G01 X13.3496 Y6.3388
G01 X13.3569 Y6.3453
G01 X13.3647 Y6.3511
G01 X13.3731 Y6.3562
G01 X13.3819 Y6.3603
G01 X13.3911 Y6.3636
G01 X13.4006 Y6.3660
G01 X13.4102 Y6.3674
G01 X13.4298 Y6.3684
G00 Z1.0000
G00 X27.0995 Y3.8784
G01 F20.00
G01 Z-0.5000
G01 F30.00
G01 X27.0942 Y3.7706
G01 X27.0784 Y3.6639
G01 X27.0522 Y3.5592
G01 X27.0158 Y3.4576
G01 X26.9697 Y3.3601
G01 X26.9142 Y3.2675
G01 X26.8499 Y3.1809
G01 X26.7775 Y3.1009
G01 X26.6975 Y3.0285
G01 X26.6109 Y2.9642
G01 X26.5183 Y2.9087
G01 X26.4208 Y2.8626
G01 X26.3192 Y2.8262
G01 X26.2145 Y2.8000
G01 X26.1078 Y2.7842
G01 X26.0000 Y2.7789
G01 X25.8922 Y2.7842
G01 X25.7855 Y2.8000
G01 X25.6808 Y2.8262
G01 X25.5792 Y2.8626
G01 X25.4817 Y2.9087
G01 X25.3891 Y2.9642
G01 X25.3025 Y3.0285
G01 X25.2225 Y3.1009
G01 X25.1501 Y3.1809
G01 X25.0858 Y3.2675
G01 X25.0303 Y3.3601
G01 X24.9842 Y3.4576
G01 X24.9478 Y3.5592
G01 X24.9216 Y3.6639
G01 X24.9058 Y3.7706
G01 X24.9005 Y3.8784
G01 X24.9058 Y3.9862
G01 X24.9216 Y4.0929
G01 X24.9478 Y4.1976
G01 X24.9842 Y4.2992
G01 X25.0303 Y4.3967
G01 X25.0858 Y4.4893
G01 X25.1501 Y4.5759
G01 X25.2225 Y4.6559
G01 X25.3025 Y4.7283
G01 X25.3891 Y4.7926
G01 X25.4817 Y4.8481
G01 X25.5792 Y4.8942
G01 X25.6808 Y4.9306
G01 X25.7855 Y4.9568
G01 X25.8922 Y4.9726
G01 X26.0000 Y4.9779
G01 X26.1078 Y4.9726
G01 X26.2145 Y4.9568
G01 X26.3192 Y4.9306
G01 X26.4208 Y4.8942
G01 X26.5183 Y4.8481
G01 X26.6109 Y4.7926
G01 X26.6975 Y4.7283
G01 X26.7775 Y4.6559
G01 X26.8499 Y4.5759
G01 X26.9142 Y4.4893
G01 X26.9697 Y4.3967
G01 X27.0158 Y4.2992
G01 X27.0522 Y4.1976
G01 X27.0784 Y4.0929
G01 X27.0942 Y3.9862
G01 X27.0995 Y3.8784
G00 X27.0995 Y3.8784
G01 F20.00
G01 Z-1.0000
G01 F30.00
G01 X27.0942 Y3.7706
G01 X27.0784 Y3.6639
G01 X27.0522 Y3.5592
G01 X27.0158 Y3.4576
G01 X26.9697 Y3.3601
G01 X26.9142 Y3.2675
G01 X26.8499 Y3.1809
G01 X26.7775 Y3.1009
G01 X26.6975 Y3.0285
G01 X26.6109 Y2.9642
G01 X26.5183 Y2.9087
G01 X26.4208 Y2.8626
G01 X26.3192 Y2.8262
G01 X26.2145 Y2.8000
G01 X26.1078 Y2.7842
G01 X26.0000 Y2.7789
G01 X25.8922 Y2.7842
G01 X25.7855 Y2.8000
G01 X25.6808 Y2.8262
G01 X25.5792 Y2.8626
G01 X25.4817 Y2.9087
G01 X25.3891 Y2.9642
G01 X25.3025 Y3.0285
G01 X25.2225 Y3.1009
G01 X25.1501 Y3.1809
G01 X25.0858 Y3.2675
G01 X25.0303 Y3.3601
G01 X24.9842 Y3.4576
G01 X24.9478 Y3.5592
G01 X24.9216 Y3.6639
G01 X24.9058 Y3.7706
G01 X24.9005 Y3.8784
G01 X24.9058 Y3.9862
G01 X24.9216 Y4.0929
G01 X24.9478 Y4.1976
G01 X24.9842 Y4.2992
G01 X25.0303 Y4.3967
G01 X25.0858 Y4.4893
G01 X25.1501 Y4.5759
G01 X25.2225 Y4.6559
G01 X25.3025 Y4.7283
G01 X25.3891 Y4.7926
G01 X25.4817 Y4.8481
G01 X25.5792 Y4.8942
G01 X25.6808 Y4.9306
G01 X25.7855 Y4.9568
G01 X25.8922 Y4.9726
G01 X26.0000 Y4.9779
G01 X26.1078 Y4.9726
G01 X26.2145 Y4.9568
G01 X26.3192 Y4.9306
G01 X26.4208 Y4.8942
G01 X26.5183 Y4.8481
G01 X26.6109 Y4.7926
G01 X26.6975 Y4.7283
G01 X26.7775 Y4.6559
G01 X26.8499 Y4.5759
G01 X26.9142 Y4.4893
G01 X26.9697 Y4.3967
G01 X27.0158 Y4.2992
G01 X27.0522 Y4.1976
G01 X27.0784 Y4.0929
G01 X27.0942 Y3.9862
G01 X27.0995 Y3.8784
G00 X27.0995 Y3.8784
G01 F20.00
G01 Z-1.5000
G01 F30.00
G01 X27.0942 Y3.7706
G01 X27.0784 Y3.6639
G01 X27.0522 Y3.5592
G01 X27.0158 Y3.4576
G01 X26.9697 Y3.3601
G01 X26.9142 Y3.2675
G01 X26.8499 Y3.1809
G01 X26.7775 Y3.1009
G01 X26.6975 Y3.0285
G01 X26.6109 Y2.9642
G01 X26.5183 Y2.9087
G01 X26.4208 Y2.8626
G01 X26.3192 Y2.8262
G01 X26.2145 Y2.8000
G01 X26.1078 Y2.7842
G01 X26.0000 Y2.7789
G01 X25.8922 Y2.7842
G01 X25.7855 Y2.8000
G01 X25.6808 Y2.8262
G01 X25.5792 Y2.8626
G01 X25.4817 Y2.9087
G01 X25.3891 Y2.9642
G01 X25.3025 Y3.0285
G01 X25.2225 Y3.1009
G01 X25.1501 Y3.1809
G01 X25.0858 Y3.2675
G01 X25.0303 Y3.3601
G01 X24.9842 Y3.4576
G01 X24.9478 Y3.5592
G01 X24.9216 Y3.6639
G01 X24.9058 Y3.7706
G01 X24.9005 Y3.8784
G01 X24.9058 Y3.9862
G01 X24.9216 Y4.0929
G01 X24.9478 Y4.1976
G01 X24.9842 Y4.2992
G01 X25.0303 Y4.3967
G01 X25.0858 Y4.4893
G01 X25.1501 Y4.5759
G01 X25.2225 Y4.6559
G01 X25.3025 Y4.7283
G01 X25.3891 Y4.7926
G01 X25.4817 Y4.8481
G01 X25.5792 Y4.8942
G01 X25.6808 Y4.9306
G01 X25.7855 Y4.9568
G01 X25.8922 Y4.9726
G01 X26.0000 Y4.9779
G01 X26.1078 Y4.9726
G01 X26.2145 Y4.9568
G01 X26.3192 Y4.9306
G01 X26.4208 Y4.8942
G01 X26.5183 Y4.8481
G01 X26.6109 Y4.7926
G01 X26.6975 Y4.7283
G01 X26.7775 Y4.6559
G01 X26.8499 Y4.5759
G01 X26.9142 Y4.4893
G01 X26.9697 Y4.3967
G01 X27.0158 Y4.2992
G01 X27.0522 Y4.1976
G01 X27.0784 Y4.0929
G01 X27.0942 Y3.9862
G01 X27.0995 Y3.8784
G00 X27.0995 Y3.8784
G01 F20.00
G01 Z-2.0000
G01 F30.00
G01 X27.0942 Y3.7706
G01 X27.0784 Y3.6639
G01 X27.0522 Y3.5592
G01 X27.0158 Y3.4576
G01 X26.9697 Y3.3601
G01 X26.9142 Y3.2675
G01 X26.8499 Y3.1809
G01 X26.7775 Y3.1009
G01 X26.6975 Y3.0285
G01 X26.6109 Y2.9642
G01 X26.5183 Y2.9087
G01 X26.4208 Y2.8626
G01 X26.3192 Y2.8262
G01 X26.2145 Y2.8000
G01 X26.1078 Y2.7842
G01 X26.0000 Y2.7789
G01 X25.8922 Y2.7842
G01 X25.7855 Y2.8000
G01 X25.6808 Y2.8262
G01 X25.5792 Y2.8626
G01 X25.4817 Y2.9087
G01 X25.3891 Y2.9642
G01 X25.3025 Y3.0285
G01 X25.2225 Y3.1009
G01 X25.1501 Y3.1809
G01 X25.0858 Y3.2675
G01 X25.0303 Y3.3601
G01 X24.9842 Y3.4576
G01 X24.9478 Y3.5592
G01 X24.9216 Y3.6639
G01 X24.9058 Y3.7706
G01 X24.9005 Y3.8784
G01 X24.9058 Y3.9862
G01 X24.9216 Y4.0929
G01 X24.9478 Y4.1976
G01 X24.9842 Y4.2992
G01 X25.0303 Y4.3967
G01 X25.0858 Y4.4893
G01 X25.1501 Y4.5759
G01 X25.2225 Y4.6559
G01 X25.3025 Y4.7283
G01 X25.3891 Y4.7926
G01 X25.4817 Y4.8481
G01 X25.5792 Y4.8942
G01 X25.6808 Y4.9306
G01 X25.7855 Y4.9568
G01 X25.8922 Y4.9726
G01 X26.0000 Y4.9779
G01 X26.1078 Y4.9726
G01 X26.2145 Y4.9568
G01 X26.3192 Y4.9306
G01 X26.4208 Y4.8942
G01 X26.5183 Y4.8481
G01 X26.6109 Y4.7926
G01 X26.6975 Y4.7283
G01 X26.7775 Y4.6559
G01 X26.8499 Y4.5759
G01 X26.9142 Y4.4893
G01 X26.9697 Y4.3967
G01 X27.0158 Y4.2992
G01 X27.0522 Y4.1976
G01 X27.0784 Y4.0929
G01 X27.0942 Y3.9862
G01 X27.0995 Y3.8784
G00 Z1.0000
G00 X19.3268 Y29.0784
G01 F20.00
G01 Z-0.5000
G01 F30.00
G01 X19.3258 Y29.0588
G01 X19.3229 Y29.0395
G01 X19.3182 Y29.0205
G01 X19.3116 Y29.0020
G01 X19.3032 Y28.9843
G01 X19.2931 Y28.9676
G01 X19.2815 Y28.9518
G01 X19.2683 Y28.9373
G01 X19.2538 Y28.9242
G01 X19.2381 Y28.9125
G01 X19.2213 Y28.9024
G01 X19.2036 Y28.8941
G01 X19.1852 Y28.8875
G01 X19.1662 Y28.8827
G01 X19.1468 Y28.8798
G01 X19.1272 Y28.8789
G01 X19.1077 Y28.8798
G01 X19.0883 Y28.8827
G01 X19.0693 Y28.8875
G01 X19.0509 Y28.8941
G01 X19.0332 Y28.9024
G01 X19.0164 Y28.9125
G01 X19.0007 Y28.9242
G01 X18.9862 Y28.9373
G01 X18.9730 Y28.9518
G01 X18.9614 Y28.9676
G01 X18.9513 Y28.9843
G01 X18.9429 Y29.0020
G01 X18.9363 Y29.0205
G01 X18.9316 Y29.0395
G01 X18.9287 Y29.0588
G01 X18.9277 Y29.0784
G01 X18.9287 Y29.0980
G01 X18.9316 Y29.1173
G01 X18.9363 Y29.1363
G01 X18.9429 Y29.1548
G01 X18.9513 Y29.1725
G01 X18.9614 Y29.1892
G01 X18.9730 Y29.2050
G01 X18.9862 Y29.2195
G01 X19.0007 Y29.2326
G01 X19.0164 Y29.2443
G01 X19.0332 Y29.2544
G01 X19.0509 Y29.2627
G01 X19.0693 Y29.2693
G01 X19.0883 Y29.2741
G01 X19.1077 Y29.2770
G01 X19.1272 Y29.2779
G01 X19.1468 Y29.2770
G01 X19.1662 Y29.2741
G01 X19.1852 Y29.2693
G01 X19.2036 Y29.2627
G01 X19.2213 Y29.2544
G01 X19.2381 Y29.2443
G01 X19.2538 Y29.2326
G01 X19.2683 Y29.2195
G01 X19.2815 Y29.2050
G01 X19.2931 Y29.1892
G01 X19.3032 Y29.1725
G01 X19.3116 Y29.1548
G01 X19.3182 Y29.1363
G01 X19.3229 Y29.1173
G01 X19.3258 Y29.0980
G01 X19.3268 Y29.0784
G00 X19.3268 Y29.0784
G01 F20.00
G01 Z-1.0000
G01 F30.00
G01 X19.3258 Y29.0588
G01 X19.3229 Y29.0395
G01 X19.3182 Y29.0205
G01 X19.3116 Y29.0020
G01 X19.3032 Y28.9843
G01 X19.2931 Y28.9676
G01 X19.2815 Y28.9518
G01 X19.2683 Y28.9373
G01 X19.2538 Y28.9242
G01 X19.2381 Y28.9125
G01 X19.2213 Y28.9024
G01 X19.2036 Y28.8941
G01 X19.1852 Y28.8875
G01 X19.1662 Y28.8827
G01 X19.1468 Y28.8798
G01 X19.1272 Y28.8789
G01 X19.1077 Y28.8798
G01 X19.0883 Y28.8827
G01 X19.0693 Y28.8875
G01 X19.0509 Y28.8941
G01 X19.0332 Y28.9024
G01 X19.0164 Y28.9125
G01 X19.0007 Y28.9242
G01 X18.9862 Y28.9373
G01 X18.9730 Y28.9518
G01 X18.9614 Y28.9676
G01 X18.9513 Y28.9843
G01 X18.9429 Y29.0020
G01 X18.9363 Y29.0205
G01 X18.9316 Y29.0395
G01 X18.9287 Y29.0588
G01 X18.9277 Y29.0784
G01 X18.9287 Y29.0980
G01 X18.9316 Y29.1173
G01 X18.9363 Y29.1363
G01 X18.9429 Y29.1548
G01 X18.9513 Y29.1725
G01 X18.9614 Y29.1892
G01 X18.9730 Y29.2050
G01 X18.9862 Y29.2195
G01 X19.0007 Y29.2326
G01 X19.0164 Y29.2443
G01 X19.0332 Y29.2544
G01 X19.0509 Y29.2627
G01 X19.0693 Y29.2693
G01 X19.0883 Y29.2741
G01 X19.1077 Y29.2770
G01 X19.1272 Y29.2779
G01 X19.1468 Y29.2770
G01 X19.1662 Y29.2741
G01 X19.1852 Y29.2693
G01 X19.2036 Y29.2627
G01 X19.2213 Y29.2544
G01 X19.2381 Y29.2443
G01 X19.2538 Y29.2326
G01 X19.2683 Y29.2195
G01 X19.2815 Y29.2050
G01 X19.2931 Y29.1892
G01 X19.3032 Y29.1725
G01 X19.3116 Y29.1548
G01 X19.3182 Y29.1363
G01 X19.3229 Y29.1173
G01 X19.3258 Y29.0980
G01 X19.3268 Y29.0784
G00 X19.3268 Y29.0784
G01 F20.00
G01 Z-1.5000
G01 F30.00
G01 X19.3258 Y29.0588
G01 X19.3229 Y29.0395
G01 X19.3182 Y29.0205
G01 X19.3116 Y29.0020
G01 X19.3032 Y28.9843
G01 X19.2931 Y28.9676
G01 X19.2815 Y28.9518
G01 X19.2683 Y28.9373
G01 X19.2538 Y28.9242
G01 X19.2381 Y28.9125
G01 X19.2213 Y28.9024
G01 X19.2036 Y28.8941
G01 X19.1852 Y28.8875
G01 X19.1662 Y28.8827
G01 X19.1468 Y28.8798
G01 X19.1272 Y28.8789
G01 X19.1077 Y28.8798
G01 X19.0883 Y28.8827
G01 X19.0693 Y28.8875
G01 X19.0509 Y28.8941
G01 X19.0332 Y28.9024
G01 X19.0164 Y28.9125
G01 X19.0007 Y28.9242
G01 X18.9862 Y28.9373
G01 X18.9730 Y28.9518
G01 X18.9614 Y28.9676
G01 X18.9513 Y28.9843
G01 X18.9429 Y29.0020
G01 X18.9363 Y29.0205
G01 X18.9316 Y29.0395
G01 X18.9287 Y29.0588
G01 X18.9277 Y29.0784
G01 X18.9287 Y29.0980
G01 X18.9316 Y29.1173
G01 X18.9363 Y29.1363
G01 X18.9429 Y29.1548
G01 X18.9513 Y29.1725
G01 X18.9614 Y29.1892
G01 X18.9730 Y29.2050
G01 X18.9862 Y29.2195
G01 X19.0007 Y29.2326
G01 X19.0164 Y29.2443
G01 X19.0332 Y29.2544
G01 X19.0509 Y29.2627
G01 X19.0693 Y29.2693
G01 X19.0883 Y29.2741
G01 X19.1077 Y29.2770
G01 X19.1272 Y29.2779
G01 X19.1468 Y29.2770
G01 X19.1662 Y29.2741
G01 X19.1852 Y29.2693
G01 X19.2036 Y29.2627
G01 X19.2213 Y29.2544
G01 X19.2381 Y29.2443
G01 X19.2538 Y29.2326
G01 X19.2683 Y29.2195
G01 X19.2815 Y29.2050
G01 X19.2931 Y29.1892
G01 X19.3032 Y29.1725
G01 X19.3116 Y29.1548
G01 X19.3182 Y29.1363
G01 X19.3229 Y29.1173
G01 X19.3258 Y29.0980
G01 X19.3268 Y29.0784
G00 X19.3268 Y29.0784
G01 F20.00
G01 Z-2.0000
G01 F30.00
G01 X19.3258 Y29.0588
G01 X19.3229 Y29.0395
G01 X19.3182 Y29.0205
G01 X19.3116 Y29.0020
G01 X19.3032 Y28.9843
G01 X19.2931 Y28.9676
G01 X19.2815 Y28.9518
G01 X19.2683 Y28.9373
G01 X19.2538 Y28.9242
G01 X19.2381 Y28.9125
G01 X19.2213 Y28.9024
G01 X19.2036 Y28.8941
G01 X19.1852 Y28.8875
G01 X19.1662 Y28.8827
G01 X19.1468 Y28.8798
G01 X19.1272 Y28.8789
G01 X19.1077 Y28.8798
G01 X19.0883 Y28.8827
G01 X19.0693 Y28.8875
G01 X19.0509 Y28.8941
G01 X19.0332 Y28.9024
G01 X19.0164 Y28.9125
G01 X19.0007 Y28.9242
G01 X18.9862 Y28.9373
G01 X18.9730 Y28.9518
G01 X18.9614 Y28.9676
G01 X18.9513 Y28.9843
G01 X18.9429 Y29.0020
G01 X18.9363 Y29.0205
G01 X18.9316 Y29.0395
G01 X18.9287 Y29.0588
G01 X18.9277 Y29.0784
G01 X18.9287 Y29.0980
G01 X18.9316 Y29.1173
G01 X18.9363 Y29.1363
G01 X18.9429 Y29.1548
G01 X18.9513 Y29.1725
G01 X18.9614 Y29.1892
G01 X18.9730 Y29.2050
G01 X18.9862 Y29.2195
G01 X19.0007 Y29.2326
G01 X19.0164 Y29.2443
G01 X19.0332 Y29.2544
G01 X19.0509 Y29.2627
G01 X19.0693 Y29.2693
G01 X19.0883 Y29.2741
G01 X19.1077 Y29.2770
G01 X19.1272 Y29.2779
G01 X19.1468 Y29.2770
G01 X19.1662 Y29.2741
G01 X19.1852 Y29.2693
G01 X19.2036 Y29.2627
G01 X19.2213 Y29.2544
G01 X19.2381 Y29.2443
G01 X19.2538 Y29.2326
G01 X19.2683 Y29.2195
G01 X19.2815 Y29.2050
G01 X19.2931 Y29.1892
G01 X19.3032 Y29.1725
G01 X19.3116 Y29.1548
G01 X19.3182 Y29.1363
G01 X19.3229 Y29.1173
G01 X19.3258 Y29.0980
G01 X19.3268 Y29.0784
G00 Z1.0000
G00 X11.8268 Y29.0784
G01 F20.00
G01 Z-0.5000
G01 F30.00
G01 X11.8258 Y29.0588
G01 X11.8229 Y29.0395
G01 X11.8182 Y29.0205
G01 X11.8116 Y29.0020
G01 X11.8032 Y28.9843
G01 X11.7931 Y28.9676
G01 X11.7815 Y28.9518
G01 X11.7683 Y28.9373
G01 X11.7538 Y28.9242
G01 X11.7381 Y28.9125
G01 X11.7213 Y28.9024
G01 X11.7036 Y28.8941
G01 X11.6852 Y28.8875
G01 X11.6662 Y28.8827
G01 X11.6468 Y28.8798
G01 X11.6272 Y28.8789
G01 X11.6077 Y28.8798
G01 X11.5883 Y28.8827
G01 X11.5693 Y28.8875
G01 X11.5509 Y28.8941
G01 X11.5332 Y28.9024
G01 X11.5164 Y28.9125
G01 X11.5007 Y28.9242
G01 X11.4862 Y28.9373
G01 X11.4730 Y28.9518
G01 X11.4614 Y28.9676
G01 X11.4513 Y28.9843
G01 X11.4429 Y29.0020
G01 X11.4363 Y29.0205
G01 X11.4316 Y29.0395
G01 X11.4287 Y29.0588
G01 X11.4277 Y29.0784
G01 X11.4287 Y29.0980
G01 X11.4316 Y29.1173
G01 X11.4363 Y29.1363
G01 X11.4429 Y29.1548
G01 X11.4513 Y29.1725
G01 X11.4614 Y29.1892
G01 X11.4730 Y29.2050
G01 X11.4862 Y29.2195
G01 X11.5007 Y29.2326
G01 X11.5164 Y29.2443
G01 X11.5332 Y29.2544
G01 X11.5509 Y29.2627
G01 X11.5693 Y29.2693
G01 X11.5883 Y29.2741
G01 X11.6077 Y29.2770
G01 X11.6272 Y29.2779
G01 X11.6468 Y29.2770
G01 X11.6662 Y29.2741
G01 X11.6852 Y29.2693
G01 X11.7036 Y29.2627
G01 X11.7213 Y29.2544
G01 X11.7381 Y29.2443
G01 X11.7538 Y29.2326
G01 X11.7683 Y29.2195
G01 X11.7815 Y29.2050
G01 X11.7931 Y29.1892
G01 X11.8032 Y29.1725
G01 X11.8116 Y29.1548
G01 X11.8182 Y29.1363
G01 X11.8229 Y29.1173
G01 X11.8258 Y29.0980
G01 X11.8268 Y29.0784
G00 X11.8268 Y29.0784
G01 F20.00
G01 Z-1.0000
G01 F30.00
G01 X11.8258 Y29.0588
G01 X11.8229 Y29.0395
G01 X11.8182 Y29.0205
G01 X11.8116 Y29.0020
G01 X11.8032 Y28.9843
G01 X11.7931 Y28.9676
G01 X11.7815 Y28.9518
G01 X11.7683 Y28.9373
G01 X11.7538 Y28.9242
G01 X11.7381 Y28.9125
G01 X11.7213 Y28.9024
G01 X11.7036 Y28.8941
G01 X11.6852 Y28.8875
G01 X11.6662 Y28.8827
G01 X11.6468 Y28.8798
G01 X11.6272 Y28.8789
G01 X11.6077 Y28.8798
G01 X11.5883 Y28.8827
G01 X11.5693 Y28.8875
G01 X11.5509 Y28.8941
G01 X11.5332 Y28.9024
G01 X11.5164 Y28.9125
G01 X11.5007 Y28.9242
G01 X11.4862 Y28.9373
G01 X11.4730 Y28.9518
G01 X11.4614 Y28.9676
G01 X11.4513 Y28.9843
G01 X11.4429 Y29.0020
G01 X11.4363 Y29.0205
G01 X11.4316 Y29.0395
G01 X11.4287 Y29.0588
G01 X11.4277 Y29.0784
G01 X11.4287 Y29.0980
G01 X11.4316 Y29.1173
G01 X11.4363 Y29.1363
G01 X11.4429 Y29.1548
G01 X11.4513 Y29.1725
G01 X11.4614 Y29.1892
G01 X11.4730 Y29.2050
G01 X11.4862 Y29.2195
G01 X11.5007 Y29.2326
G01 X11.5164 Y29.2443
G01 X11.5332 Y29.2544
G01 X11.5509 Y29.2627
G01 X11.5693 Y29.2693
G01 X11.5883 Y29.2741
G01 X11.6077 Y29.2770
G01 X11.6272 Y29.2779
G01 X11.6468 Y29.2770
G01 X11.6662 Y29.2741
G01 X11.6852 Y29.2693
G01 X11.7036 Y29.2627
G01 X11.7213 Y29.2544
G01 X11.7381 Y29.2443
G01 X11.7538 Y29.2326
G01 X11.7683 Y29.2195
G01 X11.7815 Y29.2050
G01 X11.7931 Y29.1892
G01 X11.8032 Y29.1725
G01 X11.8116 Y29.1548
G01 X11.8182 Y29.1363
G01 X11.8229 Y29.1173
G01 X11.8258 Y29.0980
G01 X11.8268 Y29.0784
G00 X11.8268 Y29.0784
G01 F20.00
G01 Z-1.5000
G01 F30.00
G01 X11.8258 Y29.0588
G01 X11.8229 Y29.0395
G01 X11.8182 Y29.0205
G01 X11.8116 Y29.0020
G01 X11.8032 Y28.9843
G01 X11.7931 Y28.9676
G01 X11.7815 Y28.9518
G01 X11.7683 Y28.9373
G01 X11.7538 Y28.9242
G01 X11.7381 Y28.9125
G01 X11.7213 Y28.9024
G01 X11.7036 Y28.8941
G01 X11.6852 Y28.8875
G01 X11.6662 Y28.8827
G01 X11.6468 Y28.8798
G01 X11.6272 Y28.8789
G01 X11.6077 Y28.8798
G01 X11.5883 Y28.8827
G01 X11.5693 Y28.8875
G01 X11.5509 Y28.8941
G01 X11.5332 Y28.9024
G01 X11.5164 Y28.9125
G01 X11.5007 Y28.9242
G01 X11.4862 Y28.9373
G01 X11.4730 Y28.9518
G01 X11.4614 Y28.9676
G01 X11.4513 Y28.9843
G01 X11.4429 Y29.0020
G01 X11.4363 Y29.0205
G01 X11.4316 Y29.0395
G01 X11.4287 Y29.0588
G01 X11.4277 Y29.0784
G01 X11.4287 Y29.0980
G01 X11.4316 Y29.1173
G01 X11.4363 Y29.1363
G01 X11.4429 Y29.1548
G01 X11.4513 Y29.1725
G01 X11.4614 Y29.1892
G01 X11.4730 Y29.2050
G01 X11.4862 Y29.2195
G01 X11.5007 Y29.2326
G01 X11.5164 Y29.2443
G01 X11.5332 Y29.2544
G01 X11.5509 Y29.2627
G01 X11.5693 Y29.2693
G01 X11.5883 Y29.2741
G01 X11.6077 Y29.2770
G01 X11.6272 Y29.2779
G01 X11.6468 Y29.2770
G01 X11.6662 Y29.2741
G01 X11.6852 Y29.2693
G01 X11.7036 Y29.2627
G01 X11.7213 Y29.2544
G01 X11.7381 Y29.2443
G01 X11.7538 Y29.2326
G01 X11.7683 Y29.2195
G01 X11.7815 Y29.2050
G01 X11.7931 Y29.1892
G01 X11.8032 Y29.1725
G01 X11.8116 Y29.1548
G01 X11.8182 Y29.1363
G01 X11.8229 Y29.1173
G01 X11.8258 Y29.0980
G01 X11.8268 Y29.0784
G00 X11.8268 Y29.0784
G01 F20.00
G01 Z-2.0000
G01 F30.00
G01 X11.8258 Y29.0588
G01 X11.8229 Y29.0395
G01 X11.8182 Y29.0205
G01 X11.8116 Y29.0020
G01 X11.8032 Y28.9843
G01 X11.7931 Y28.9676
G01 X11.7815 Y28.9518
G01 X11.7683 Y28.9373
G01 X11.7538 Y28.9242
G01 X11.7381 Y28.9125
G01 X11.7213 Y28.9024
G01 X11.7036 Y28.8941
G01 X11.6852 Y28.8875
G01 X11.6662 Y28.8827
G01 X11.6468 Y28.8798
G01 X11.6272 Y28.8789
G01 X11.6077 Y28.8798
G01 X11.5883 Y28.8827
G01 X11.5693 Y28.8875
G01 X11.5509 Y28.8941
G01 X11.5332 Y28.9024
G01 X11.5164 Y28.9125
G01 X11.5007 Y28.9242
G01 X11.4862 Y28.9373
G01 X11.4730 Y28.9518
G01 X11.4614 Y28.9676
G01 X11.4513 Y28.9843
G01 X11.4429 Y29.0020
G01 X11.4363 Y29.0205
G01 X11.4316 Y29.0395
G01 X11.4287 Y29.0588
G01 X11.4277 Y29.0784
G01 X11.4287 Y29.0980
G01 X11.4316 Y29.1173
G01 X11.4363 Y29.1363
G01 X11.4429 Y29.1548
G01 X11.4513 Y29.1725
G01 X11.4614 Y29.1892
G01 X11.4730 Y29.2050
G01 X11.4862 Y29.2195
G01 X11.5007 Y29.2326
G01 X11.5164 Y29.2443
G01 X11.5332 Y29.2544
G01 X11.5509 Y29.2627
G01 X11.5693 Y29.2693
G01 X11.5883 Y29.2741
G01 X11.6077 Y29.2770
G01 X11.6272 Y29.2779
G01 X11.6468 Y29.2770
G01 X11.6662 Y29.2741
G01 X11.6852 Y29.2693
G01 X11.7036 Y29.2627
G01 X11.7213 Y29.2544
G01 X11.7381 Y29.2443
G01 X11.7538 Y29.2326
G01 X11.7683 Y29.2195
G01 X11.7815 Y29.2050
G01 X11.7931 Y29.1892
G01 X11.8032 Y29.1725
G01 X11.8116 Y29.1548
G01 X11.8182 Y29.1363
G01 X11.8229 Y29.1173
G01 X11.8258 Y29.0980
G01 X11.8268 Y29.0784
G00 Z1.0000
G00 X13.3895 Y59.5584
G01 F20.00
G01 Z-0.5000
G01 F30.00
G01 X13.3806 Y59.3771
G01 X13.3540 Y59.1976
G01 X13.3099 Y59.0215
G01 X13.2487 Y58.8506
G01 X13.1711 Y58.6865
G01 X13.0778 Y58.5309
G01 X12.9697 Y58.3851
G01 X12.8478 Y58.2506
G01 X12.7133 Y58.1287
G01 X12.5675 Y58.0206
G01 X12.4119 Y57.9273
G01 X12.2478 Y57.8497
G01 X12.0769 Y57.7885
G01 X11.9008 Y57.7444
G01 X11.7213 Y57.7178
G01 X11.5400 Y57.7089
G01 X11.3587 Y57.7178
G01 X11.1792 Y57.7444
G01 X11.0031 Y57.7885
G01 X10.8322 Y57.8497
G01 X10.6681 Y57.9273
G01 X10.5125 Y58.0206
G01 X10.3667 Y58.1287
G01 X10.2322 Y58.2506
G01 X10.1103 Y58.3851
G01 X10.0022 Y58.5309
G01 X9.9089 Y58.6865
G01 X9.8313 Y58.8506
G01 X9.7701 Y59.0215
G01 X9.7260 Y59.1976
G01 X9.6994 Y59.3771
G01 X9.6905 Y59.5584
G01 X9.6994 Y59.7397
G01 X9.7260 Y59.9192
G01 X9.7701 Y60.0953
G01 X9.8313 Y60.2662
G01 X9.9089 Y60.4303
G01 X10.0022 Y60.5859
G01 X10.1103 Y60.7317
G01 X10.2322 Y60.8662
G01 X10.3667 Y60.9881
G01 X10.5125 Y61.0962
G01 X10.6681 Y61.1895
G01 X10.8322 Y61.2671
G01 X11.0031 Y61.3283
G01 X11.1792 Y61.3724
G01 X11.3587 Y61.3990
G01 X11.5400 Y61.4079
G01 X11.7213 Y61.3990
G01 X11.9008 Y61.3724
G01 X12.0769 Y61.3283
G01 X12.2478 Y61.2671
G01 X12.4119 Y61.1895
G01 X12.5675 Y61.0962
G01 X12.7133 Y60.9881
G01 X12.8478 Y60.8662
G01 X12.9697 Y60.7317
G01 X13.0778 Y60.5859
G01 X13.1711 Y60.4303
G01 X13.2487 Y60.2662
G01 X13.3099 Y60.0953
G01 X13.3540 Y59.9192
G01 X13.3806 Y59.7397
G01 X13.3895 Y59.5584
G00 X13.3895 Y59.5584
G01 F20.00
G01 Z-1.0000
G01 F30.00
G01 X13.3806 Y59.3771
G01 X13.3540 Y59.1976
G01 X13.3099 Y59.0215
G01 X13.2487 Y58.8506
G01 X13.1711 Y58.6865
G01 X13.0778 Y58.5309
G01 X12.9697 Y58.3851
G01 X12.8478 Y58.2506
G01 X12.7133 Y58.1287
G01 X12.5675 Y58.0206
G01 X12.4119 Y57.9273
G01 X12.2478 Y57.8497
G01 X12.0769 Y57.7885
G01 X11.9008 Y57.7444
G01 X11.7213 Y57.7178
G01 X11.5400 Y57.7089
G01 X11.3587 Y57.7178
G01 X11.1792 Y57.7444
G01 X11.0031 Y57.7885
G01 X10.8322 Y57.8497
G01 X10.6681 Y57.9273
G01 X10.5125 Y58.0206
G01 X10.3667 Y58.1287
G01 X10.2322 Y58.2506
G01 X10.1103 Y58.3851
G01 X10.0022 Y58.5309
G01 X9.9089 Y58.6865
G01 X9.8313 Y58.8506
G01 X9.7701 Y59.0215
G01 X9.7260 Y59.1976
G01 X9.6994 Y59.3771
G01 X9.6905 Y59.5584
G01 X9.6994 Y59.7397
G01 X9.7260 Y59.9192
G01 X9.7701 Y60.0953
G01 X9.8313 Y60.2662
G01 X9.9089 Y60.4303
G01 X10.0022 Y60.5859
G01 X10.1103 Y60.7317
G01 X10.2322 Y60.8662
G01 X10.3667 Y60.9881
G01 X10.5125 Y61.0962
G01 X10.6681 Y61.1895
G01 X10.8322 Y61.2671
G01 X11.0031 Y61.3283
G01 X11.1792 Y61.3724
G01 X11.3587 Y61.3990
G01 X11.5400 Y61.4079
G01 X11.7213 Y61.3990
G01 X11.9008 Y61.3724
G01 X12.0769 Y61.3283
G01 X12.2478 Y61.2671
G01 X12.4119 Y61.1895
G01 X12.5675 Y61.0962
G01 X12.7133 Y60.9881
G01 X12.8478 Y60.8662
G01 X12.9697 Y60.7317
G01 X13.0778 Y60.5859
G01 X13.1711 Y60.4303
G01 X13.2487 Y60.2662
G01 X13.3099 Y60.0953
G01 X13.3540 Y59.9192
G01 X13.3806 Y59.7397
G01 X13.3895 Y59.5584
G00 X13.3895 Y59.5584
G01 F20.00
G01 Z-1.5000
G01 F30.00
G01 X13.3806 Y59.3771
G01 X13.3540 Y59.1976
G01 X13.3099 Y59.0215
G01 X13.2487 Y58.8506
G01 X13.1711 Y58.6865
G01 X13.0778 Y58.5309
G01 X12.9697 Y58.3851
G01 X12.8478 Y58.2506
G01 X12.7133 Y58.1287
G01 X12.5675 Y58.0206
G01 X12.4119 Y57.9273
G01 X12.2478 Y57.8497
G01 X12.0769 Y57.7885
G01 X11.9008 Y57.7444
G01 X11.7213 Y57.7178
G01 X11.5400 Y57.7089
G01 X11.3587 Y57.7178
G01 X11.1792 Y57.7444
G01 X11.0031 Y57.7885
G01 X10.8322 Y57.8497
G01 X10.6681 Y57.9273
G01 X10.5125 Y58.0206
G01 X10.3667 Y58.1287
G01 X10.2322 Y58.2506
G01 X10.1103 Y58.3851
G01 X10.0022 Y58.5309
G01 X9.9089 Y58.6865
G01 X9.8313 Y58.8506
G01 X9.7701 Y59.0215
G01 X9.7260 Y59.1976
G01 X9.6994 Y59.3771
G01 X9.6905 Y59.5584
G01 X9.6994 Y59.7397
G01 X9.7260 Y59.9192
G01 X9.7701 Y60.0953
G01 X9.8313 Y60.2662
G01 X9.9089 Y60.4303
G01 X10.0022 Y60.5859
G01 X10.1103 Y60.7317
G01 X10.2322 Y60.8662
G01 X10.3667 Y60.9881
G01 X10.5125 Y61.0962
G01 X10.6681 Y61.1895
G01 X10.8322 Y61.2671
G01 X11.0031 Y61.3283
G01 X11.1792 Y61.3724
G01 X11.3587 Y61.3990
G01 X11.5400 Y61.4079
G01 X11.7213 Y61.3990
G01 X11.9008 Y61.3724
G01 X12.0769 Y61.3283
G01 X12.2478 Y61.2671
G01 X12.4119 Y61.1895
G01 X12.5675 Y61.0962
G01 X12.7133 Y60.9881
G01 X12.8478 Y60.8662
G01 X12.9697 Y60.7317
G01 X13.0778 Y60.5859
G01 X13.1711 Y60.4303
G01 X13.2487 Y60.2662
G01 X13.3099 Y60.0953
G01 X13.3540 Y59.9192
G01 X13.3806 Y59.7397
G01 X13.3895 Y59.5584
G00 X13.3895 Y59.5584
G01 F20.00
G01 Z-2.0000
G01 F30.00
G01 X13.3806 Y59.3771
G01 X13.3540 Y59.1976
G01 X13.3099 Y59.0215
G01 X13.2487 Y58.8506
G01 X13.1711 Y58.6865
G01 X13.0778 Y58.5309
G01 X12.9697 Y58.3851
G01 X12.8478 Y58.2506
G01 X12.7133 Y58.1287
G01 X12.5675 Y58.0206
G01 X12.4119 Y57.9273
G01 X12.2478 Y57.8497
G01 X12.0769 Y57.7885
G01 X11.9008 Y57.7444
G01 X11.7213 Y57.7178
G01 X11.5400 Y57.7089
G01 X11.3587 Y57.7178
G01 X11.1792 Y57.7444
G01 X11.0031 Y57.7885
G01 X10.8322 Y57.8497
G01 X10.6681 Y57.9273
G01 X10.5125 Y58.0206
G01 X10.3667 Y58.1287
G01 X10.2322 Y58.2506
G01 X10.1103 Y58.3851
G01 X10.0022 Y58.5309
G01 X9.9089 Y58.6865
G01 X9.8313 Y58.8506
G01 X9.7701 Y59.0215
G01 X9.7260 Y59.1976
G01 X9.6994 Y59.3771
G01 X9.6905 Y59.5584
G01 X9.6994 Y59.7397
G01 X9.7260 Y59.9192
G01 X9.7701 Y60.0953
G01 X9.8313 Y60.2662
G01 X9.9089 Y60.4303
G01 X10.0022 Y60.5859
G01 X10.1103 Y60.7317
G01 X10.2322 Y60.8662
G01 X10.3667 Y60.9881
G01 X10.5125 Y61.0962
G01 X10.6681 Y61.1895
G01 X10.8322 Y61.2671
G01 X11.0031 Y61.3283
G01 X11.1792 Y61.3724
G01 X11.3587 Y61.3990
G01 X11.5400 Y61.4079
G01 X11.7213 Y61.3990
G01 X11.9008 Y61.3724
G01 X12.0769 Y61.3283
G01 X12.2478 Y61.2671
G01 X12.4119 Y61.1895
G01 X12.5675 Y61.0962
G01 X12.7133 Y60.9881
G01 X12.8478 Y60.8662
G01 X12.9697 Y60.7317
G01 X13.0778 Y60.5859
G01 X13.1711 Y60.4303
G01 X13.2487 Y60.2662
G01 X13.3099 Y60.0953
G01 X13.3540 Y59.9192
G01 X13.3806 Y59.7397
G01 X13.3895 Y59.5584
G00 Z1.0000
G00 X20.5895 Y59.5584
G01 F20.00
G01 Z-0.5000
G01 F30.00
G01 X20.5806 Y59.3771
G01 X20.5540 Y59.1976
G01 X20.5099 Y59.0215
G01 X20.4487 Y58.8506
G01 X20.3711 Y58.6865
G01 X20.2778 Y58.5309
G01 X20.1697 Y58.3851
G01 X20.0478 Y58.2506
G01 X19.9133 Y58.1287
G01 X19.7675 Y58.0206
G01 X19.6119 Y57.9273
G01 X19.4478 Y57.8497
G01 X19.2769 Y57.7885
G01 X19.1008 Y57.7444
G01 X18.9213 Y57.7178
G01 X18.7400 Y57.7089
G01 X18.5587 Y57.7178
G01 X18.3792 Y57.7444
G01 X18.2031 Y57.7885
G01 X18.0322 Y57.8497
G01 X17.8681 Y57.9273
G01 X17.7125 Y58.0206
G01 X17.5667 Y58.1287
G01 X17.4322 Y58.2506
G01 X17.3103 Y58.3851
G01 X17.2022 Y58.5309
G01 X17.1089 Y58.6865
G01 X17.0313 Y58.8506
G01 X16.9701 Y59.0215
G01 X16.9260 Y59.1976
G01 X16.8994 Y59.3771
G01 X16.8905 Y59.5584
G01 X16.8994 Y59.7397
G01 X16.9260 Y59.9192
G01 X16.9701 Y60.0953
G01 X17.0313 Y60.2662
G01 X17.1089 Y60.4303
G01 X17.2022 Y60.5859
G01 X17.3103 Y60.7317
G01 X17.4322 Y60.8662
G01 X17.5667 Y60.9881
G01 X17.7125 Y61.0962
G01 X17.8681 Y61.1895
G01 X18.0322 Y61.2671
G01 X18.2031 Y61.3283
G01 X18.3792 Y61.3724
G01 X18.5587 Y61.3990
G01 X18.7400 Y61.4079
G01 X18.9213 Y61.3990
G01 X19.1008 Y61.3724
G01 X19.2769 Y61.3283
G01 X19.4478 Y61.2671
G01 X19.6119 Y61.1895
G01 X19.7675 Y61.0962
G01 X19.9133 Y60.9881
G01 X20.0478 Y60.8662
G01 X20.1697 Y60.7317
G01 X20.2778 Y60.5859
G01 X20.3711 Y60.4303
G01 X20.4487 Y60.2662
G01 X20.5099 Y60.0953
G01 X20.5540 Y59.9192
G01 X20.5806 Y59.7397
G01 X20.5895 Y59.5584
G00 X20.5895 Y59.5584
G01 F20.00
G01 Z-1.0000
G01 F30.00
G01 X20.5806 Y59.3771
G01 X20.5540 Y59.1976
G01 X20.5099 Y59.0215
G01 X20.4487 Y58.8506
G01 X20.3711 Y58.6865
G01 X20.2778 Y58.5309
G01 X20.1697 Y58.3851
G01 X20.0478 Y58.2506
G01 X19.9133 Y58.1287
G01 X19.7675 Y58.0206
G01 X19.6119 Y57.9273
G01 X19.4478 Y57.8497
G01 X19.2769 Y57.7885
G01 X19.1008 Y57.7444
G01 X18.9213 Y57.7178
G01 X18.7400 Y57.7089
G01 X18.5587 Y57.7178
G01 X18.3792 Y57.7444
G01 X18.2031 Y57.7885
G01 X18.0322 Y57.8497
G01 X17.8681 Y57.9273
G01 X17.7125 Y58.0206
G01 X17.5667 Y58.1287
G01 X17.4322 Y58.2506
G01 X17.3103 Y58.3851
G01 X17.2022 Y58.5309
G01 X17.1089 Y58.6865
G01 X17.0313 Y58.8506
G01 X16.9701 Y59.0215
G01 X16.9260 Y59.1976
G01 X16.8994 Y59.3771
G01 X16.8905 Y59.5584
G01 X16.8994 Y59.7397
G01 X16.9260 Y59.9192
G01 X16.9701 Y60.0953
G01 X17.0313 Y60.2662
G01 X17.1089 Y60.4303
G01 X17.2022 Y60.5859
G01 X17.3103 Y60.7317
G01 X17.4322 Y60.8662
G01 X17.5667 Y60.9881
G01 X17.7125 Y61.0962
G01 X17.8681 Y61.1895
G01 X18.0322 Y61.2671
G01 X18.2031 Y61.3283
G01 X18.3792 Y61.3724
G01 X18.5587 Y61.3990
G01 X18.7400 Y61.4079
G01 X18.9213 Y61.3990
G01 X19.1008 Y61.3724
G01 X19.2769 Y61.3283
G01 X19.4478 Y61.2671
G01 X19.6119 Y61.1895
G01 X19.7675 Y61.0962
G01 X19.9133 Y60.9881
G01 X20.0478 Y60.8662
G01 X20.1697 Y60.7317
G01 X20.2778 Y60.5859
G01 X20.3711 Y60.4303
G01 X20.4487 Y60.2662
G01 X20.5099 Y60.0953
G01 X20.5540 Y59.9192
G01 X20.5806 Y59.7397
G01 X20.5895 Y59.5584
G00 X20.5895 Y59.5584
G01 F20.00
G01 Z-1.5000
G01 F30.00
G01 X20.5806 Y59.3771
G01 X20.5540 Y59.1976
G01 X20.5099 Y59.0215
G01 X20.4487 Y58.8506
G01 X20.3711 Y58.6865
G01 X20.2778 Y58.5309
G01 X20.1697 Y58.3851
G01 X20.0478 Y58.2506
G01 X19.9133 Y58.1287
G01 X19.7675 Y58.0206
G01 X19.6119 Y57.9273
G01 X19.4478 Y57.8497
G01 X19.2769 Y57.7885
G01 X19.1008 Y57.7444
G01 X18.9213 Y57.7178
G01 X18.7400 Y57.7089
G01 X18.5587 Y57.7178
G01 X18.3792 Y57.7444
G01 X18.2031 Y57.7885
G01 X18.0322 Y57.8497
G01 X17.8681 Y57.9273
G01 X17.7125 Y58.0206
G01 X17.5667 Y58.1287
G01 X17.4322 Y58.2506
G01 X17.3103 Y58.3851
G01 X17.2022 Y58.5309
G01 X17.1089 Y58.6865
G01 X17.0313 Y58.8506
G01 X16.9701 Y59.0215
G01 X16.9260 Y59.1976
G01 X16.8994 Y59.3771
G01 X16.8905 Y59.5584
G01 X16.8994 Y59.7397
G01 X16.9260 Y59.9192
G01 X16.9701 Y60.0953
G01 X17.0313 Y60.2662
G01 X17.1089 Y60.4303
G01 X17.2022 Y60.5859
G01 X17.3103 Y60.7317
G01 X17.4322 Y60.8662
G01 X17.5667 Y60.9881
G01 X17.7125 Y61.0962
G01 X17.8681 Y61.1895
G01 X18.0322 Y61.2671
G01 X18.2031 Y61.3283
G01 X18.3792 Y61.3724
G01 X18.5587 Y61.3990
G01 X18.7400 Y61.4079
G01 X18.9213 Y61.3990
G01 X19.1008 Y61.3724
G01 X19.2769 Y61.3283
G01 X19.4478 Y61.2671
G01 X19.6119 Y61.1895
G01 X19.7675 Y61.0962
G01 X19.9133 Y60.9881
G01 X20.0478 Y60.8662
G01 X20.1697 Y60.7317
G01 X20.2778 Y60.5859
G01 X20.3711 Y60.4303
G01 X20.4487 Y60.2662
G01 X20.5099 Y60.0953
G01 X20.5540 Y59.9192
G01 X20.5806 Y59.7397
G01 X20.5895 Y59.5584
G00 X20.5895 Y59.5584
G01 F20.00
G01 Z-2.0000
G01 F30.00
G01 X20.5806 Y59.3771
G01 X20.5540 Y59.1976
G01 X20.5099 Y59.0215
G01 X20.4487 Y58.8506
G01 X20.3711 Y58.6865
G01 X20.2778 Y58.5309
G01 X20.1697 Y58.3851
G01 X20.0478 Y58.2506
G01 X19.9133 Y58.1287
G01 X19.7675 Y58.0206
G01 X19.6119 Y57.9273
G01 X19.4478 Y57.8497
G01 X19.2769 Y57.7885
G01 X19.1008 Y57.7444
G01 X18.9213 Y57.7178
G01 X18.7400 Y57.7089
G01 X18.5587 Y57.7178
G01 X18.3792 Y57.7444
G01 X18.2031 Y57.7885
G01 X18.0322 Y57.8497
G01 X17.8681 Y57.9273
G01 X17.7125 Y58.0206
G01 X17.5667 Y58.1287
G01 X17.4322 Y58.2506
G01 X17.3103 Y58.3851
G01 X17.2022 Y58.5309
G01 X17.1089 Y58.6865
G01 X17.0313 Y58.8506
G01 X16.9701 Y59.0215
G01 X16.9260 Y59.1976
G01 X16.8994 Y59.3771
G01 X16.8905 Y59.5584
G01 X16.8994 Y59.7397
G01 X16.9260 Y59.9192
G01 X16.9701 Y60.0953
G01 X17.0313 Y60.2662
G01 X17.1089 Y60.4303
G01 X17.2022 Y60.5859
G01 X17.3103 Y60.7317
G01 X17.4322 Y60.8662
G01 X17.5667 Y60.9881
G01 X17.7125 Y61.0962
G01 X17.8681 Y61.1895
G01 X18.0322 Y61.2671
G01 X18.2031 Y61.3283
G01 X18.3792 Y61.3724
G01 X18.5587 Y61.3990
G01 X18.7400 Y61.4079
G01 X18.9213 Y61.3990
G01 X19.1008 Y61.3724
G01 X19.2769 Y61.3283
G01 X19.4478 Y61.2671
G01 X19.6119 Y61.1895
G01 X19.7675 Y61.0962
G01 X19.9133 Y60.9881
G01 X20.0478 Y60.8662
G01 X20.1697 Y60.7317
G01 X20.2778 Y60.5859
G01 X20.3711 Y60.4303
G01 X20.4487 Y60.2662
G01 X20.5099 Y60.0953
G01 X20.5540 Y59.9192
G01 X20.5806 Y59.7397
G01 X20.5895 Y59.5584
G00 Z1.0000
G00 X27.0995 Y62.0984
G01 F20.00
G01 Z-0.5000
G01 F30.00
G01 X27.0942 Y61.9906
G01 X27.0784 Y61.8839
G01 X27.0522 Y61.7792
G01 X27.0158 Y61.6776
G01 X26.9697 Y61.5801
G01 X26.9142 Y61.4875
G01 X26.8499 Y61.4009
G01 X26.7775 Y61.3209
G01 X26.6975 Y61.2485
G01 X26.6109 Y61.1842
G01 X26.5183 Y61.1287
G01 X26.4208 Y61.0826
G01 X26.3192 Y61.0462
G01 X26.2145 Y61.0200
G01 X26.1078 Y61.0042
G01 X26.0000 Y60.9989
G01 X25.8922 Y61.0042
G01 X25.7855 Y61.0200
G01 X25.6808 Y61.0462
G01 X25.5792 Y61.0826
G01 X25.4817 Y61.1287
G01 X25.3891 Y61.1842
G01 X25.3025 Y61.2485
G01 X25.2225 Y61.3209
G01 X25.1501 Y61.4009
G01 X25.0858 Y61.4875
G01 X25.0303 Y61.5801
G01 X24.9842 Y61.6776
G01 X24.9478 Y61.7792
G01 X24.9216 Y61.8839
G01 X24.9058 Y61.9906
G01 X24.9005 Y62.0984
G01 X24.9058 Y62.2062
G01 X24.9216 Y62.3129
G01 X24.9478 Y62.4176
G01 X24.9842 Y62.5192
G01 X25.0303 Y62.6167
G01 X25.0858 Y62.7093
G01 X25.1501 Y62.7959
G01 X25.2225 Y62.8759
G01 X25.3025 Y62.9483
G01 X25.3891 Y63.0126
G01 X25.4817 Y63.0681
G01 X25.5792 Y63.1142
G01 X25.6808 Y63.1506
G01 X25.7855 Y63.1768
G01 X25.8922 Y63.1926
G01 X26.0000 Y63.1979
G01 X26.1078 Y63.1926
G01 X26.2145 Y63.1768
G01 X26.3192 Y63.1506
G01 X26.4208 Y63.1142
G01 X26.5183 Y63.0681
G01 X26.6109 Y63.0126
G01 X26.6975 Y62.9483
G01 X26.7775 Y62.8759
G01 X26.8499 Y62.7959
G01 X26.9142 Y62.7093
G01 X26.9697 Y62.6167
G01 X27.0158 Y62.5192
G01 X27.0522 Y62.4176
G01 X27.0784 Y62.3129
G01 X27.0942 Y62.2062
G01 X27.0995 Y62.0984
G00 X27.0995 Y62.0984
G01 F20.00
G01 Z-1.0000
G01 F30.00
G01 X27.0942 Y61.9906
G01 X27.0784 Y61.8839
G01 X27.0522 Y61.7792
G01 X27.0158 Y61.6776
G01 X26.9697 Y61.5801
G01 X26.9142 Y61.4875
G01 X26.8499 Y61.4009
G01 X26.7775 Y61.3209
G01 X26.6975 Y61.2485
G01 X26.6109 Y61.1842
G01 X26.5183 Y61.1287
G01 X26.4208 Y61.0826
G01 X26.3192 Y61.0462
G01 X26.2145 Y61.0200
G01 X26.1078 Y61.0042
G01 X26.0000 Y60.9989
G01 X25.8922 Y61.0042
G01 X25.7855 Y61.0200
G01 X25.6808 Y61.0462
G01 X25.5792 Y61.0826
G01 X25.4817 Y61.1287
G01 X25.3891 Y61.1842
G01 X25.3025 Y61.2485
G01 X25.2225 Y61.3209
G01 X25.1501 Y61.4009
G01 X25.0858 Y61.4875
G01 X25.0303 Y61.5801
G01 X24.9842 Y61.6776
G01 X24.9478 Y61.7792
G01 X24.9216 Y61.8839
G01 X24.9058 Y61.9906
G01 X24.9005 Y62.0984
G01 X24.9058 Y62.2062
G01 X24.9216 Y62.3129
G01 X24.9478 Y62.4176
G01 X24.9842 Y62.5192
G01 X25.0303 Y62.6167
G01 X25.0858 Y62.7093
G01 X25.1501 Y62.7959
G01 X25.2225 Y62.8759
G01 X25.3025 Y62.9483
G01 X25.3891 Y63.0126
G01 X25.4817 Y63.0681
G01 X25.5792 Y63.1142
G01 X25.6808 Y63.1506
G01 X25.7855 Y63.1768
G01 X25.8922 Y63.1926
G01 X26.0000 Y63.1979
G01 X26.1078 Y63.1926
G01 X26.2145 Y63.1768
G01 X26.3192 Y63.1506
G01 X26.4208 Y63.1142
G01 X26.5183 Y63.0681
G01 X26.6109 Y63.0126
G01 X26.6975 Y62.9483
G01 X26.7775 Y62.8759
G01 X26.8499 Y62.7959
G01 X26.9142 Y62.7093
G01 X26.9697 Y62.6167
G01 X27.0158 Y62.5192
G01 X27.0522 Y62.4176
G01 X27.0784 Y62.3129
G01 X27.0942 Y62.2062
G01 X27.0995 Y62.0984
G00 X27.0995 Y62.0984
G01 F20.00
G01 Z-1.5000
G01 F30.00
G01 X27.0942 Y61.9906
G01 X27.0784 Y61.8839
G01 X27.0522 Y61.7792
G01 X27.0158 Y61.6776
G01 X26.9697 Y61.5801
G01 X26.9142 Y61.4875
G01 X26.8499 Y61.4009
G01 X26.7775 Y61.3209
G01 X26.6975 Y61.2485
G01 X26.6109 Y61.1842
G01 X26.5183 Y61.1287
G01 X26.4208 Y61.0826
G01 X26.3192 Y61.0462
G01 X26.2145 Y61.0200
G01 X26.1078 Y61.0042
G01 X26.0000 Y60.9989
G01 X25.8922 Y61.0042
G01 X25.7855 Y61.0200
G01 X25.6808 Y61.0462
G01 X25.5792 Y61.0826
G01 X25.4817 Y61.1287
G01 X25.3891 Y61.1842
G01 X25.3025 Y61.2485
G01 X25.2225 Y61.3209
G01 X25.1501 Y61.4009
G01 X25.0858 Y61.4875
G01 X25.0303 Y61.5801
G01 X24.9842 Y61.6776
G01 X24.9478 Y61.7792
G01 X24.9216 Y61.8839
G01 X24.9058 Y61.9906
G01 X24.9005 Y62.0984
G01 X24.9058 Y62.2062
G01 X24.9216 Y62.3129
G01 X24.9478 Y62.4176
G01 X24.9842 Y62.5192
G01 X25.0303 Y62.6167
G01 X25.0858 Y62.7093
G01 X25.1501 Y62.7959
G01 X25.2225 Y62.8759
G01 X25.3025 Y62.9483
G01 X25.3891 Y63.0126
G01 X25.4817 Y63.0681
G01 X25.5792 Y63.1142
G01 X25.6808 Y63.1506
G01 X25.7855 Y63.1768
G01 X25.8922 Y63.1926
G01 X26.0000 Y63.1979
G01 X26.1078 Y63.1926
G01 X26.2145 Y63.1768
G01 X26.3192 Y63.1506
G01 X26.4208 Y63.1142
G01 X26.5183 Y63.0681
G01 X26.6109 Y63.0126
G01 X26.6975 Y62.9483
G01 X26.7775 Y62.8759
G01 X26.8499 Y62.7959
G01 X26.9142 Y62.7093
G01 X26.9697 Y62.6167
G01 X27.0158 Y62.5192
G01 X27.0522 Y62.4176
G01 X27.0784 Y62.3129
G01 X27.0942 Y62.2062
G01 X27.0995 Y62.0984
G00 X27.0995 Y62.0984
G01 F20.00
G01 Z-2.0000
G01 F30.00
G01 X27.0942 Y61.9906
G01 X27.0784 Y61.8839
G01 X27.0522 Y61.7792
G01 X27.0158 Y61.6776
G01 X26.9697 Y61.5801
G01 X26.9142 Y61.4875
G01 X26.8499 Y61.4009
G01 X26.7775 Y61.3209
G01 X26.6975 Y61.2485
G01 X26.6109 Y61.1842
G01 X26.5183 Y61.1287
G01 X26.4208 Y61.0826
G01 X26.3192 Y61.0462
G01 X26.2145 Y61.0200
G01 X26.1078 Y61.0042
G01 X26.0000 Y60.9989
G01 X25.8922 Y61.0042
G01 X25.7855 Y61.0200
G01 X25.6808 Y61.0462
G01 X25.5792 Y61.0826
G01 X25.4817 Y61.1287
G01 X25.3891 Y61.1842
G01 X25.3025 Y61.2485
G01 X25.2225 Y61.3209
G01 X25.1501 Y61.4009
G01 X25.0858 Y61.4875
G01 X25.0303 Y61.5801
G01 X24.9842 Y61.6776
G01 X24.9478 Y61.7792
G01 X24.9216 Y61.8839
G01 X24.9058 Y61.9906
G01 X24.9005 Y62.0984
G01 X24.9058 Y62.2062
G01 X24.9216 Y62.3129
G01 X24.9478 Y62.4176
G01 X24.9842 Y62.5192
G01 X25.0303 Y62.6167
G01 X25.0858 Y62.7093
G01 X25.1501 Y62.7959
G01 X25.2225 Y62.8759
G01 X25.3025 Y62.9483
G01 X25.3891 Y63.0126
G01 X25.4817 Y63.0681
G01 X25.5792 Y63.1142
G01 X25.6808 Y63.1506
G01 X25.7855 Y63.1768
G01 X25.8922 Y63.1926
G01 X26.0000 Y63.1979
G01 X26.1078 Y63.1926
G01 X26.2145 Y63.1768
G01 X26.3192 Y63.1506
G01 X26.4208 Y63.1142
G01 X26.5183 Y63.0681
G01 X26.6109 Y63.0126
G01 X26.6975 Y62.9483
G01 X26.7775 Y62.8759
G01 X26.8499 Y62.7959
G01 X26.9142 Y62.7093
G01 X26.9697 Y62.6167
G01 X27.0158 Y62.5192
G01 X27.0522 Y62.4176
G01 X27.0784 Y62.3129
G01 X27.0942 Y62.2062
G01 X27.0995 Y62.0984
G00 Z1.0000
G00 X5.0995 Y62.0984
G01 F20.00
G01 Z-0.5000
G01 F30.00
G01 X5.0942 Y61.9906
G01 X5.0784 Y61.8839
G01 X5.0522 Y61.7792
G01 X5.0158 Y61.6776
G01 X4.9697 Y61.5801
G01 X4.9142 Y61.4875
G01 X4.8499 Y61.4009
G01 X4.7775 Y61.3209
G01 X4.6975 Y61.2485
G01 X4.6109 Y61.1842
G01 X4.5183 Y61.1287
G01 X4.4208 Y61.0826
G01 X4.3192 Y61.0462
G01 X4.2145 Y61.0200
G01 X4.1078 Y61.0042
G01 X4.0000 Y60.9989
G01 X3.8922 Y61.0042
G01 X3.7855 Y61.0200
G01 X3.6808 Y61.0462
G01 X3.5792 Y61.0826
G01 X3.4817 Y61.1287
G01 X3.3891 Y61.1842
G01 X3.3025 Y61.2485
G01 X3.2225 Y61.3209
G01 X3.1501 Y61.4009
G01 X3.0858 Y61.4875
G01 X3.0303 Y61.5801
G01 X2.9842 Y61.6776
G01 X2.9478 Y61.7792
G01 X2.9216 Y61.8839
G01 X2.9058 Y61.9906
G01 X2.9005 Y62.0984
G01 X2.9058 Y62.2062
G01 X2.9216 Y62.3129
G01 X2.9478 Y62.4176
G01 X2.9842 Y62.5192
G01 X3.0303 Y62.6167
G01 X3.0858 Y62.7093
G01 X3.1501 Y62.7959
G01 X3.2225 Y62.8759
G01 X3.3025 Y62.9483
G01 X3.3891 Y63.0126
G01 X3.4817 Y63.0681
G01 X3.5792 Y63.1142
G01 X3.6808 Y63.1506
G01 X3.7855 Y63.1768
G01 X3.8922 Y63.1926
G01 X4.0000 Y63.1979
G01 X4.1078 Y63.1926
G01 X4.2145 Y63.1768
G01 X4.3192 Y63.1506
G01 X4.4208 Y63.1142
G01 X4.5183 Y63.0681
G01 X4.6109 Y63.0126
G01 X4.6975 Y62.9483
G01 X4.7775 Y62.8759
G01 X4.8499 Y62.7959
G01 X4.9142 Y62.7093
G01 X4.9697 Y62.6167
G01 X5.0158 Y62.5192
G01 X5.0522 Y62.4176
G01 X5.0784 Y62.3129
G01 X5.0942 Y62.2062
G01 X5.0995 Y62.0984
G00 X5.0995 Y62.0984
G01 F20.00
G01 Z-1.0000
G01 F30.00
G01 X5.0942 Y61.9906
G01 X5.0784 Y61.8839
G01 X5.0522 Y61.7792
G01 X5.0158 Y61.6776
G01 X4.9697 Y61.5801
G01 X4.9142 Y61.4875
G01 X4.8499 Y61.4009
G01 X4.7775 Y61.3209
G01 X4.6975 Y61.2485
G01 X4.6109 Y61.1842
G01 X4.5183 Y61.1287
G01 X4.4208 Y61.0826
G01 X4.3192 Y61.0462
G01 X4.2145 Y61.0200
G01 X4.1078 Y61.0042
G01 X4.0000 Y60.9989
G01 X3.8922 Y61.0042
G01 X3.7855 Y61.0200
G01 X3.6808 Y61.0462
G01 X3.5792 Y61.0826
G01 X3.4817 Y61.1287
G01 X3.3891 Y61.1842
G01 X3.3025 Y61.2485
G01 X3.2225 Y61.3209
G01 X3.1501 Y61.4009
G01 X3.0858 Y61.4875
G01 X3.0303 Y61.5801
G01 X2.9842 Y61.6776
G01 X2.9478 Y61.7792
G01 X2.9216 Y61.8839
G01 X2.9058 Y61.9906
G01 X2.9005 Y62.0984
G01 X2.9058 Y62.2062
G01 X2.9216 Y62.3129
G01 X2.9478 Y62.4176
G01 X2.9842 Y62.5192
G01 X3.0303 Y62.6167
G01 X3.0858 Y62.7093
G01 X3.1501 Y62.7959
G01 X3.2225 Y62.8759
G01 X3.3025 Y62.9483
G01 X3.3891 Y63.0126
G01 X3.4817 Y63.0681
G01 X3.5792 Y63.1142
G01 X3.6808 Y63.1506
G01 X3.7855 Y63.1768
G01 X3.8922 Y63.1926
G01 X4.0000 Y63.1979
G01 X4.1078 Y63.1926
G01 X4.2145 Y63.1768
G01 X4.3192 Y63.1506
G01 X4.4208 Y63.1142
G01 X4.5183 Y63.0681
G01 X4.6109 Y63.0126
G01 X4.6975 Y62.9483
G01 X4.7775 Y62.8759
G01 X4.8499 Y62.7959
G01 X4.9142 Y62.7093
G01 X4.9697 Y62.6167
G01 X5.0158 Y62.5192
G01 X5.0522 Y62.4176
G01 X5.0784 Y62.3129
G01 X5.0942 Y62.2062
G01 X5.0995 Y62.0984
G00 X5.0995 Y62.0984
G01 F20.00
G01 Z-1.5000
G01 F30.00
G01 X5.0942 Y61.9906
G01 X5.0784 Y61.8839
G01 X5.0522 Y61.7792
G01 X5.0158 Y61.6776
G01 X4.9697 Y61.5801
G01 X4.9142 Y61.4875
G01 X4.8499 Y61.4009
G01 X4.7775 Y61.3209
G01 X4.6975 Y61.2485
G01 X4.6109 Y61.1842
G01 X4.5183 Y61.1287
G01 X4.4208 Y61.0826
G01 X4.3192 Y61.0462
G01 X4.2145 Y61.0200
G01 X4.1078 Y61.0042
G01 X4.0000 Y60.9989
G01 X3.8922 Y61.0042
G01 X3.7855 Y61.0200
G01 X3.6808 Y61.0462
G01 X3.5792 Y61.0826
G01 X3.4817 Y61.1287
G01 X3.3891 Y61.1842
G01 X3.3025 Y61.2485
G01 X3.2225 Y61.3209
G01 X3.1501 Y61.4009
G01 X3.0858 Y61.4875
G01 X3.0303 Y61.5801
G01 X2.9842 Y61.6776
G01 X2.9478 Y61.7792
G01 X2.9216 Y61.8839
G01 X2.9058 Y61.9906
G01 X2.9005 Y62.0984
G01 X2.9058 Y62.2062
G01 X2.9216 Y62.3129
G01 X2.9478 Y62.4176
G01 X2.9842 Y62.5192
G01 X3.0303 Y62.6167
G01 X3.0858 Y62.7093
G01 X3.1501 Y62.7959
G01 X3.2225 Y62.8759
G01 X3.3025 Y62.9483
G01 X3.3891 Y63.0126
G01 X3.4817 Y63.0681
G01 X3.5792 Y63.1142
G01 X3.6808 Y63.1506
G01 X3.7855 Y63.1768
G01 X3.8922 Y63.1926
G01 X4.0000 Y63.1979
G01 X4.1078 Y63.1926
G01 X4.2145 Y63.1768
G01 X4.3192 Y63.1506
G01 X4.4208 Y63.1142
G01 X4.5183 Y63.0681
G01 X4.6109 Y63.0126
G01 X4.6975 Y62.9483
G01 X4.7775 Y62.8759
G01 X4.8499 Y62.7959
G01 X4.9142 Y62.7093
G01 X4.9697 Y62.6167
G01 X5.0158 Y62.5192
G01 X5.0522 Y62.4176
G01 X5.0784 Y62.3129
G01 X5.0942 Y62.2062
G01 X5.0995 Y62.0984
G00 X5.0995 Y62.0984
G01 F20.00
G01 Z-2.0000
G01 F30.00
G01 X5.0942 Y61.9906
G01 X5.0784 Y61.8839
G01 X5.0522 Y61.7792
G01 X5.0158 Y61.6776
G01 X4.9697 Y61.5801
G01 X4.9142 Y61.4875
G01 X4.8499 Y61.4009
G01 X4.7775 Y61.3209
G01 X4.6975 Y61.2485
G01 X4.6109 Y61.1842
G01 X4.5183 Y61.1287
G01 X4.4208 Y61.0826
G01 X4.3192 Y61.0462
G01 X4.2145 Y61.0200
G01 X4.1078 Y61.0042
G01 X4.0000 Y60.9989
G01 X3.8922 Y61.0042
G01 X3.7855 Y61.0200
G01 X3.6808 Y61.0462
G01 X3.5792 Y61.0826
G01 X3.4817 Y61.1287
G01 X3.3891 Y61.1842
G01 X3.3025 Y61.2485
G01 X3.2225 Y61.3209
G01 X3.1501 Y61.4009
G01 X3.0858 Y61.4875
G01 X3.0303 Y61.5801
G01 X2.9842 Y61.6776
G01 X2.9478 Y61.7792
G01 X2.9216 Y61.8839
G01 X2.9058 Y61.9906
G01 X2.9005 Y62.0984
G01 X2.9058 Y62.2062
G01 X2.9216 Y62.3129
G01 X2.9478 Y62.4176
G01 X2.9842 Y62.5192
G01 X3.0303 Y62.6167
G01 X3.0858 Y62.7093
G01 X3.1501 Y62.7959
G01 X3.2225 Y62.8759
G01 X3.3025 Y62.9483
G01 X3.3891 Y63.0126
G01 X3.4817 Y63.0681
G01 X3.5792 Y63.1142
G01 X3.6808 Y63.1506
G01 X3.7855 Y63.1768
G01 X3.8922 Y63.1926
G01 X4.0000 Y63.1979
G01 X4.1078 Y63.1926
G01 X4.2145 Y63.1768
G01 X4.3192 Y63.1506
G01 X4.4208 Y63.1142
G01 X4.5183 Y63.0681
G01 X4.6109 Y63.0126
G01 X4.6975 Y62.9483
G01 X4.7775 Y62.8759
G01 X4.8499 Y62.7959
G01 X4.9142 Y62.7093
G01 X4.9697 Y62.6167
G01 X5.0158 Y62.5192
G01 X5.0522 Y62.4176
G01 X5.0784 Y62.3129
G01 X5.0942 Y62.2062
G01 X5.0995 Y62.0984
G00 Z1.0000
M05
G00 Z1.0000
G00 Z15.00
G00 X0.0 Y0.0


