(G-CODE GENERATED BY FLATCAM v8.994 - www.flatcam.org - Version Date: 2020/11/7)

(Name: doom_day_lamp-B_Cu.gbr_iso_combined_cnc)
(Type: G-code from Geometry)
(Units: MM)

(Created on Friday, 13 January 2023 at 10:02)

(This preprocessor is the default preprocessor used by FlatCAM.)
(It is made to work with MACH3 compatible motion controllers.)

(TOOL DIAMETER: 0.32 mm)
(Feedrate_XY: 100.0 mm/min)
(Feedrate_Z: 40.0 mm/min)
(Feedrate rapids 1500.0 mm/min)

(Z_Cut: -0.1 mm)
(Z_Move: 1.0 mm)
(Z Start: None mm)
(Z End: 15.0 mm)
(X,Y End: 0.0000, 0.0000 mm)
(Steps per circle: 64)
(Preprocessor Geometry: default)

(X range:    0.4160 ...  130.2790  mm)
(Y range:    0.3110 ...   18.3335  mm)

(Spindle Speed: 1500.0 RPM)
G21
G90
G94

G01 F100.00

M5
G00 Z15.0000
G00 X0.0000 Y0.0000
T1
M6    
(MSG, Change to Tool Dia = 0.3200)
M0
G00 Z15.0000

M03 S1500.0
G01 F100.00
G00 X0.4298 Y3.3424
G01 F40.00
G01 Z-0.1000
G01 F100.00
G01 X0.4275 Y3.3237
G01 X0.4261 Y3.3049
G01 X0.4165 Y3.1088
G01 X0.4160 Y3.0900
G01 X0.4165 Y3.0712
G01 X0.4261 Y2.8751
G01 X0.4275 Y2.8563
G01 X0.4298 Y2.8376
G01 X0.4586 Y2.6435
G01 X0.4618 Y2.6249
G01 X0.4659 Y2.6065
G01 X0.5136 Y2.4161
G01 X0.5187 Y2.3980
G01 X0.5246 Y2.3801
G01 X0.5907 Y2.1953
G01 X0.5975 Y2.1777
G01 X0.6051 Y2.1605
G01 X0.6890 Y1.9830
G01 X0.6975 Y1.9662
G01 X0.7068 Y1.9498
G01 X0.8077 Y1.7814
G01 X0.8178 Y1.7655
G01 X0.8286 Y1.7501
G01 X0.9455 Y1.5925
G01 X0.9571 Y1.5776
G01 X0.9695 Y1.5633
G01 X1.1013 Y1.4179
G01 X1.1143 Y1.4043
G01 X1.1279 Y1.3913
G01 X1.2733 Y1.2595
G01 X1.2876 Y1.2471
G01 X1.3025 Y1.2355
G01 X1.4601 Y1.1186
G01 X1.4755 Y1.1078
G01 X1.4914 Y1.0977
G01 X1.6598 Y0.9968
G01 X1.6762 Y0.9875
G01 X1.6930 Y0.9790
G01 X1.8705 Y0.8951
G01 X1.8877 Y0.8875
G01 X1.9053 Y0.8807
G01 X2.0901 Y0.8146
G01 X2.1080 Y0.8087
G01 X2.1261 Y0.8036
G01 X2.3165 Y0.7559
G01 X2.3349 Y0.7518
G01 X2.3535 Y0.7486
G01 X2.5476 Y0.7198
G01 X2.5663 Y0.7175
G01 X2.5851 Y0.7161
G01 X2.7906 Y0.7061
G01 X2.8188 Y0.7065
G01 X3.0149 Y0.7161
G01 X3.0337 Y0.7175
G01 X3.0524 Y0.7198
G01 X3.2465 Y0.7486
G01 X3.2651 Y0.7518
G01 X3.2835 Y0.7559
G01 X3.4739 Y0.8036
G01 X3.4920 Y0.8087
G01 X3.5099 Y0.8146
G01 X3.6947 Y0.8807
G01 X3.7123 Y0.8875
G01 X3.7295 Y0.8951
G01 X3.9070 Y0.9790
G01 X3.9238 Y0.9875
G01 X3.9402 Y0.9968
G01 X4.1086 Y1.0977
G01 X4.1245 Y1.1078
G01 X4.1399 Y1.1186
G01 X4.2975 Y1.2355
G01 X4.3196 Y1.2532
G01 X4.3362 Y1.2681
G01 X4.3417 Y1.1943
G01 X4.3441 Y1.1754
G01 X4.3474 Y1.1566
G01 X4.3516 Y1.1380
G01 X4.3567 Y1.1196
G01 X4.3661 Y1.0926
G01 X4.3735 Y1.0750
G01 X4.3817 Y1.0578
G01 X4.3908 Y1.0410
G01 X4.4007 Y1.0247
G01 X4.4114 Y1.0089
G01 X4.4656 Y0.9370
G01 X4.4778 Y0.9223
G01 X4.4974 Y0.9015
G01 X4.5114 Y0.8885
G01 X4.5259 Y0.8762
G01 X4.5411 Y0.8646
G01 X4.5568 Y0.8538
G01 X4.5730 Y0.8438
G01 X4.5897 Y0.8346
G01 X4.6069 Y0.8262
G01 X4.6244 Y0.8187
G01 X4.7088 Y0.7875
G01 X4.7268 Y0.7818
G01 X4.7451 Y0.7770
G01 X4.7729 Y0.7715
G01 X4.7917 Y0.7690
G01 X4.8105 Y0.7675
G01 X4.8418 Y0.7665
G01 X99.9349 Y0.7665
G01 X99.9623 Y0.7675
G01 X99.9896 Y0.7704
G01 X100.0165 Y0.7753
G01 X100.0431 Y0.7821
G01 X100.1112 Y0.8021
G01 X100.1383 Y0.8111
G01 X100.1560 Y0.8183
G01 X100.1733 Y0.8263
G01 X100.1902 Y0.8352
G01 X100.2066 Y0.8449
G01 X100.2303 Y0.8610
G01 X100.2527 Y0.8787
G01 X100.2669 Y0.8915
G01 X100.2869 Y0.9119
G01 X100.3397 Y0.9727
G01 X100.3519 Y0.9874
G01 X100.3632 Y1.0027
G01 X100.3739 Y1.0186
G01 X100.3837 Y1.0349
G01 X100.3887 Y1.0441
G01 X100.3987 Y1.0262
G01 X100.4492 Y0.9420
G01 X100.4592 Y0.9261
G01 X100.4701 Y0.9107
G01 X100.5286 Y0.8319
G01 X100.5402 Y0.8170
G01 X100.5525 Y0.8027
G01 X100.6184 Y0.7300
G01 X100.6314 Y0.7164
G01 X100.6450 Y0.7034
G01 X100.7177 Y0.6375
G01 X100.7320 Y0.6252
G01 X100.7469 Y0.6136
G01 X100.8257 Y0.5551
G01 X100.8411 Y0.5442
G01 X100.8570 Y0.5342
G01 X100.9412 Y0.4837
G01 X100.9576 Y0.4744
G01 X100.9744 Y0.4659
G01 X101.0631 Y0.4240
G01 X101.0804 Y0.4164
G01 X101.0980 Y0.4096
G01 X101.1903 Y0.3765
G01 X101.2082 Y0.3706
G01 X101.2264 Y0.3656
G01 X101.3216 Y0.3417
G01 X101.3400 Y0.3376
G01 X101.3586 Y0.3344
G01 X101.4556 Y0.3200
G01 X101.4743 Y0.3177
G01 X101.4931 Y0.3163
G01 X101.5912 Y0.3115
G01 X101.6100 Y0.3110
G01 X102.1100 Y0.3110
G01 X102.1288 Y0.3115
G01 X102.2269 Y0.3163
G01 X102.2457 Y0.3177
G01 X102.2644 Y0.3200
G01 X102.3614 Y0.3344
G01 X102.3800 Y0.3376
G01 X102.3984 Y0.3417
G01 X102.4936 Y0.3656
G01 X102.5118 Y0.3706
G01 X102.5297 Y0.3765
G01 X102.6220 Y0.4096
G01 X102.6396 Y0.4164
G01 X102.6569 Y0.4240
G01 X102.7456 Y0.4659
G01 X102.7624 Y0.4744
G01 X102.7788 Y0.4837
G01 X102.8630 Y0.5342
G01 X102.8789 Y0.5442
G01 X102.8943 Y0.5551
G01 X102.9731 Y0.6136
G01 X102.9880 Y0.6252
G01 X103.0023 Y0.6375
G01 X103.0750 Y0.7034
G01 X103.0886 Y0.7164
G01 X103.1016 Y0.7300
G01 X103.1738 Y0.8098
G01 X103.1914 Y0.8319
G01 X103.2499 Y0.9107
G01 X103.2608 Y0.9261
G01 X103.2708 Y0.9420
G01 X103.3213 Y1.0262
G01 X103.3321 Y1.0456
G01 X103.3431 Y1.0273
G01 X103.3538 Y1.0115
G01 X103.4008 Y0.9461
G01 X103.4189 Y0.9239
G01 X103.4385 Y0.9031
G01 X103.4597 Y0.8839
G01 X103.4822 Y0.8663
G01 X103.5060 Y0.8504
G01 X103.5309 Y0.8363
G01 X103.5567 Y0.8241
G01 X103.6400 Y0.7909
G01 X103.6660 Y0.7824
G01 X103.6925 Y0.7757
G01 X103.7193 Y0.7709
G01 X103.7465 Y0.7680
G01 X103.7673 Y0.7669
G01 X103.7851 Y0.7665
G01 X115.1841 Y0.7666
G01 X115.2023 Y0.7675
G01 X115.2205 Y0.7692
G01 X115.2386 Y0.7718
G01 X115.2565 Y0.7753
G01 X115.2831 Y0.7821
G01 X115.3512 Y0.8021
G01 X115.3783 Y0.8111
G01 X115.4047 Y0.8222
G01 X115.4218 Y0.8307
G01 X115.4466 Y0.8449
G01 X115.4703 Y0.8610
G01 X115.4927 Y0.8787
G01 X115.5137 Y0.8981
G01 X115.5269 Y0.9119
G01 X115.5797 Y0.9727
G01 X115.5919 Y0.9874
G01 X115.6032 Y1.0027
G01 X115.6139 Y1.0186
G01 X115.6237 Y1.0349
G01 X115.6287 Y1.0441
G01 X115.6387 Y1.0262
G01 X115.6892 Y0.9420
G01 X115.6992 Y0.9261
G01 X115.7101 Y0.9107
G01 X115.7686 Y0.8319
G01 X115.7862 Y0.8098
G01 X115.8584 Y0.7300
G01 X115.8714 Y0.7164
G01 X115.8850 Y0.7034
G01 X115.9577 Y0.6375
G01 X115.9720 Y0.6252
G01 X115.9869 Y0.6136
G01 X116.0657 Y0.5551
G01 X116.0811 Y0.5442
G01 X116.0970 Y0.5342
G01 X116.1812 Y0.4837
G01 X116.1976 Y0.4744
G01 X116.2144 Y0.4659
G01 X116.3031 Y0.4240
G01 X116.3204 Y0.4164
G01 X116.3380 Y0.4096
G01 X116.4303 Y0.3765
G01 X116.4482 Y0.3706
G01 X116.4664 Y0.3656
G01 X116.5616 Y0.3417
G01 X116.5800 Y0.3376
G01 X116.5986 Y0.3344
G01 X116.6956 Y0.3200
G01 X116.7143 Y0.3177
G01 X116.7331 Y0.3163
G01 X116.8312 Y0.3115
G01 X116.8500 Y0.3110
G01 X117.3500 Y0.3110
G01 X117.3688 Y0.3115
G01 X117.4669 Y0.3163
G01 X117.4857 Y0.3177
G01 X117.5044 Y0.3200
G01 X117.6014 Y0.3344
G01 X117.6200 Y0.3376
G01 X117.6384 Y0.3417
G01 X117.7336 Y0.3656
G01 X117.7518 Y0.3706
G01 X117.7697 Y0.3765
G01 X117.8620 Y0.4096
G01 X117.8796 Y0.4164
G01 X117.8969 Y0.4240
G01 X117.9856 Y0.4659
G01 X118.0024 Y0.4744
G01 X118.0188 Y0.4837
G01 X118.1030 Y0.5342
G01 X118.1189 Y0.5442
G01 X118.1343 Y0.5551
G01 X118.2131 Y0.6136
G01 X118.2280 Y0.6252
G01 X118.2423 Y0.6375
G01 X118.3150 Y0.7034
G01 X118.3286 Y0.7164
G01 X118.3416 Y0.7300
G01 X118.4075 Y0.8027
G01 X118.4198 Y0.8170
G01 X118.4314 Y0.8319
G01 X118.4899 Y0.9107
G01 X118.5008 Y0.9261
G01 X118.5108 Y0.9420
G01 X118.5613 Y1.0262
G01 X118.5721 Y1.0456
G01 X118.5831 Y1.0273
G01 X118.5938 Y1.0115
G01 X118.6408 Y0.9461
G01 X118.6589 Y0.9239
G01 X118.6785 Y0.9031
G01 X118.6925 Y0.8901
G01 X118.7146 Y0.8719
G01 X118.7379 Y0.8555
G01 X118.7625 Y0.8408
G01 X118.7880 Y0.8279
G01 X118.8056 Y0.8204
G01 X118.8715 Y0.7942
G01 X118.8973 Y0.7850
G01 X118.9236 Y0.7777
G01 X118.9503 Y0.7723
G01 X118.9774 Y0.7687
G01 X119.0073 Y0.7669
G01 X119.0251 Y0.7665
G01 X125.8629 Y0.7666
G01 X125.8903 Y0.7682
G01 X125.9084 Y0.7704
G01 X125.9265 Y0.7734
G01 X125.9443 Y0.7773
G01 X125.9620 Y0.7821
G01 X126.0301 Y0.8021
G01 X126.0482 Y0.8079
G01 X126.0661 Y0.8146
G01 X126.0836 Y0.8222
G01 X126.1007 Y0.8307
G01 X126.1173 Y0.8400
G01 X126.1335 Y0.8501
G01 X126.1492 Y0.8610
G01 X126.1642 Y0.8726
G01 X126.1787 Y0.8850
G01 X126.1926 Y0.8981
G01 X126.2121 Y0.9190
G01 X126.2586 Y0.9727
G01 X126.2765 Y0.9950
G01 X126.2875 Y1.0106
G01 X126.2977 Y1.0267
G01 X126.3071 Y1.0433
G01 X126.3157 Y1.0603
G01 X126.3269 Y1.0866
G01 X126.3333 Y1.1046
G01 X126.3388 Y1.1229
G01 X126.3434 Y1.1414
G01 X126.3485 Y1.1695
G01 X126.3586 Y1.2398
G01 X126.3614 Y1.2657
G01 X126.3826 Y1.2471
G01 X126.3975 Y1.2355
G01 X126.5551 Y1.1186
G01 X126.5705 Y1.1078
G01 X126.5864 Y1.0977
G01 X126.7548 Y0.9968
G01 X126.7712 Y0.9875
G01 X126.7880 Y0.9790
G01 X126.9655 Y0.8951
G01 X126.9827 Y0.8875
G01 X127.0003 Y0.8807
G01 X127.1851 Y0.8146
G01 X127.2030 Y0.8087
G01 X127.2211 Y0.8036
G01 X127.4115 Y0.7559
G01 X127.4299 Y0.7518
G01 X127.4485 Y0.7486
G01 X127.6426 Y0.7198
G01 X127.6613 Y0.7175
G01 X127.6801 Y0.7161
G01 X127.8762 Y0.7065
G01 X127.8950 Y0.7060
G01 X127.9138 Y0.7065
G01 X128.1099 Y0.7161
G01 X128.1287 Y0.7175
G01 X128.1474 Y0.7198
G01 X128.3415 Y0.7486
G01 X128.3601 Y0.7518
G01 X128.3785 Y0.7559
G01 X128.5689 Y0.8036
G01 X128.5870 Y0.8087
G01 X128.6049 Y0.8146
G01 X128.7897 Y0.8807
G01 X128.8073 Y0.8875
G01 X128.8245 Y0.8951
G01 X129.0020 Y0.9790
G01 X129.0188 Y0.9875
G01 X129.0352 Y0.9968
G01 X129.2036 Y1.0977
G01 X129.2195 Y1.1078
G01 X129.2349 Y1.1186
G01 X129.3925 Y1.2355
G01 X129.4074 Y1.2471
G01 X129.4217 Y1.2595
G01 X129.5671 Y1.3913
G01 X129.5807 Y1.4043
G01 X129.5937 Y1.4179
G01 X129.7255 Y1.5633
G01 X129.7379 Y1.5776
G01 X129.7495 Y1.5925
G01 X129.8664 Y1.7501
G01 X129.8772 Y1.7655
G01 X129.8873 Y1.7814
G01 X129.9882 Y1.9498
G01 X129.9975 Y1.9662
G01 X130.0060 Y1.9830
G01 X130.0899 Y2.1605
G01 X130.0975 Y2.1777
G01 X130.1043 Y2.1953
G01 X130.1704 Y2.3801
G01 X130.1763 Y2.3980
G01 X130.1814 Y2.4161
G01 X130.2291 Y2.6065
G01 X130.2332 Y2.6249
G01 X130.2364 Y2.6435
G01 X130.2652 Y2.8376
G01 X130.2675 Y2.8563
G01 X130.2689 Y2.8751
G01 X130.2785 Y3.0712
G01 X130.2790 Y3.0900
G01 X130.2785 Y3.1088
G01 X130.2689 Y3.3049
G01 X130.2675 Y3.3237
G01 X130.2652 Y3.3424
G01 X130.2364 Y3.5365
G01 X130.2332 Y3.5551
G01 X130.2291 Y3.5735
G01 X130.1814 Y3.7639
G01 X130.1735 Y3.7910
G01 X130.1043 Y3.9847
G01 X130.0975 Y4.0023
G01 X130.0899 Y4.0195
G01 X130.0060 Y4.1970
G01 X129.9930 Y4.2221
G01 X129.8873 Y4.3986
G01 X129.8772 Y4.4145
G01 X129.8664 Y4.4299
G01 X129.7495 Y4.5875
G01 X129.7379 Y4.6024
G01 X129.7255 Y4.6167
G01 X129.6369 Y4.7145
G01 X129.6494 Y4.7163
G01 X129.6681 Y4.7198
G01 X129.7375 Y4.7346
G01 X129.7653 Y4.7416
G01 X129.7834 Y4.7474
G01 X129.8013 Y4.7541
G01 X129.8188 Y4.7617
G01 X129.8359 Y4.7701
G01 X129.8607 Y4.7844
G01 X129.8766 Y4.7949
G01 X129.8920 Y4.8061
G01 X129.9068 Y4.8182
G01 X129.9279 Y4.8375
G01 X129.9849 Y4.8942
G01 X129.9975 Y4.9081
G01 X130.0095 Y4.9225
G01 X130.0207 Y4.9375
G01 X130.0312 Y4.9531
G01 X130.0410 Y4.9691
G01 X130.0499 Y4.9856
G01 X130.0580 Y5.0025
G01 X130.0653 Y5.0198
G01 X130.0717 Y5.0375
G01 X130.0773 Y5.0554
G01 X130.0977 Y5.1347
G01 X130.1031 Y5.1632
G01 X130.1056 Y5.1823
G01 X130.1070 Y5.2016
G01 X130.1075 Y5.2210
G01 X130.1075 Y13.6603
G01 X130.1071 Y13.6785
G01 X130.1058 Y13.6968
G01 X130.1022 Y13.7239
G01 X130.0987 Y13.7419
G01 X130.0919 Y13.7684
G01 X130.0719 Y13.8366
G01 X130.0629 Y13.8637
G01 X130.0557 Y13.8814
G01 X130.0477 Y13.8987
G01 X130.0388 Y13.9155
G01 X130.0291 Y13.9320
G01 X130.0186 Y13.9479
G01 X130.0073 Y13.9632
G01 X129.9953 Y13.9780
G01 X129.9825 Y13.9922
G01 X129.9691 Y14.0057
G01 X129.9550 Y14.0186
G01 X129.9013 Y14.0651
G01 X129.8866 Y14.0772
G01 X129.8713 Y14.0886
G01 X129.8554 Y14.0992
G01 X129.8391 Y14.1090
G01 X129.8223 Y14.1180
G01 X129.8050 Y14.1261
G01 X129.7874 Y14.1334
G01 X129.7694 Y14.1398
G01 X129.7419 Y14.1477
G01 X129.7139 Y14.1535
G01 X129.6362 Y14.1648
G01 X129.7255 Y14.2633
G01 X129.7379 Y14.2776
G01 X129.7495 Y14.2925
G01 X129.8664 Y14.4501
G01 X129.8772 Y14.4655
G01 X129.8873 Y14.4814
G01 X129.9930 Y14.6579
G01 X130.0060 Y14.6830
G01 X130.0899 Y14.8605
G01 X130.0975 Y14.8777
G01 X130.1043 Y14.8953
G01 X130.1735 Y15.0890
G01 X130.1814 Y15.1161
G01 X130.2291 Y15.3065
G01 X130.2332 Y15.3249
G01 X130.2364 Y15.3435
G01 X130.2652 Y15.5376
G01 X130.2675 Y15.5563
G01 X130.2689 Y15.5751
G01 X130.2785 Y15.7712
G01 X130.2790 Y15.7900
G01 X130.2785 Y15.8088
G01 X130.2689 Y16.0049
G01 X130.2675 Y16.0237
G01 X130.2652 Y16.0424
G01 X130.2364 Y16.2365
G01 X130.2332 Y16.2551
G01 X130.2291 Y16.2735
G01 X130.1814 Y16.4639
G01 X130.1763 Y16.4820
G01 X130.1704 Y16.4999
G01 X130.1043 Y16.6847
G01 X130.0975 Y16.7023
G01 X130.0899 Y16.7195
G01 X130.0060 Y16.8970
G01 X129.9975 Y16.9138
G01 X129.9882 Y16.9302
G01 X129.8873 Y17.0986
G01 X129.8772 Y17.1145
G01 X129.8664 Y17.1299
G01 X129.7495 Y17.2875
G01 X129.7379 Y17.3024
G01 X129.7255 Y17.3167
G01 X129.5937 Y17.4621
G01 X129.5807 Y17.4757
G01 X129.5671 Y17.4887
G01 X129.4217 Y17.6205
G01 X129.4074 Y17.6329
G01 X129.3925 Y17.6445
G01 X129.2349 Y17.7614
G01 X129.2195 Y17.7722
G01 X129.2036 Y17.7823
G01 X129.0271 Y17.8880
G01 X129.0020 Y17.9010
G01 X128.8245 Y17.9849
G01 X128.8073 Y17.9925
G01 X128.7897 Y17.9993
G01 X128.6049 Y18.0654
G01 X128.5870 Y18.0713
G01 X128.5689 Y18.0764
G01 X128.3785 Y18.1241
G01 X128.3601 Y18.1282
G01 X128.3415 Y18.1314
G01 X128.1474 Y18.1602
G01 X128.1287 Y18.1625
G01 X128.1099 Y18.1639
G01 X127.9138 Y18.1735
G01 X127.8950 Y18.1740
G01 X127.8762 Y18.1735
G01 X127.6801 Y18.1639
G01 X127.6613 Y18.1625
G01 X127.6426 Y18.1602
G01 X127.4485 Y18.1314
G01 X127.4299 Y18.1282
G01 X127.4115 Y18.1241
G01 X127.2211 Y18.0764
G01 X127.2030 Y18.0713
G01 X127.1851 Y18.0654
G01 X127.0003 Y17.9993
G01 X126.9827 Y17.9925
G01 X126.9655 Y17.9849
G01 X126.7880 Y17.9010
G01 X126.7712 Y17.8925
G01 X126.7548 Y17.8832
G01 X126.5766 Y17.7762
G01 X126.5792 Y17.8504
G01 X126.5789 Y17.8694
G01 X126.5777 Y17.8885
G01 X126.5755 Y17.9074
G01 X126.5724 Y17.9262
G01 X126.5661 Y17.9541
G01 X126.5607 Y17.9724
G01 X126.5544 Y17.9904
G01 X126.5472 Y18.0081
G01 X126.5391 Y18.0254
G01 X126.5255 Y18.0505
G01 X126.4893 Y18.1116
G01 X126.4791 Y18.1277
G01 X126.4625 Y18.1510
G01 X126.4441 Y18.1729
G01 X126.4310 Y18.1867
G01 X126.4100 Y18.2062
G01 X126.3953 Y18.2183
G01 X126.3721 Y18.2351
G01 X126.3560 Y18.2453
G01 X126.3394 Y18.2547
G01 X126.2674 Y18.2908
G01 X126.2501 Y18.2990
G01 X126.2323 Y18.3063
G01 X126.2050 Y18.3155
G01 X126.1865 Y18.3205
G01 X126.1678 Y18.3246
G01 X126.1488 Y18.3278
G01 X126.1297 Y18.3300
G01 X126.0988 Y18.3326
G01 X126.0817 Y18.3334
G01 X122.7875 Y18.3335
G01 X122.7692 Y18.3331
G01 X122.7510 Y18.3318
G01 X122.7328 Y18.3296
G01 X122.7148 Y18.3266
G01 X122.6881 Y18.3204
G01 X122.6020 Y18.2951
G01 X122.5840 Y18.2889
G01 X122.5577 Y18.2778
G01 X122.5406 Y18.2693
G01 X122.5239 Y18.2600
G01 X122.5077 Y18.2499
G01 X122.4921 Y18.2390
G01 X122.4770 Y18.2274
G01 X122.4625 Y18.2150
G01 X122.4487 Y18.2019
G01 X122.4355 Y18.1881
G01 X122.3765 Y18.1200
G01 X122.3591 Y18.0973
G01 X122.3485 Y18.0814
G01 X122.3387 Y18.0651
G01 X122.3256 Y18.0397
G01 X122.3179 Y18.0222
G01 X122.3110 Y18.0044
G01 X122.3051 Y17.9863
G01 X122.3001 Y17.9679
G01 X122.2959 Y17.9493
G01 X122.2928 Y17.9305
G01 X122.2814 Y17.8508
G01 X122.2796 Y17.8318
G01 X122.2788 Y17.8099
G01 X122.2695 Y17.8164
G01 X122.2535 Y17.8265
G01 X122.1610 Y17.8820
G01 X122.1446 Y17.8913
G01 X122.1277 Y17.8997
G01 X122.0301 Y17.9459
G01 X122.0129 Y17.9535
G01 X121.9953 Y17.9603
G01 X121.8937 Y17.9967
G01 X121.8758 Y18.0026
G01 X121.8576 Y18.0076
G01 X121.7529 Y18.0339
G01 X121.7345 Y18.0380
G01 X121.7159 Y18.0412
G01 X121.6092 Y18.0570
G01 X121.5905 Y18.0594
G01 X121.5717 Y18.0607
G01 X121.4638 Y18.0660
G01 X121.4450 Y18.0665
G01 X121.4262 Y18.0660
G01 X121.3183 Y18.0607
G01 X121.2995 Y18.0594
G01 X121.2808 Y18.0570
G01 X121.1741 Y18.0412
G01 X121.1555 Y18.0380
G01 X121.1371 Y18.0339
G01 X121.0324 Y18.0076
G01 X121.0142 Y18.0026
G01 X120.9963 Y17.9967
G01 X120.8947 Y17.9603
G01 X120.8771 Y17.9535
G01 X120.8599 Y17.9459
G01 X120.7623 Y17.8997
G01 X120.7454 Y17.8913
G01 X120.7290 Y17.8820
G01 X120.6365 Y17.8265
G01 X120.6205 Y17.8164
G01 X120.6091 Y17.8085
G01 X120.6090 Y17.8188
G01 X120.6081 Y17.8379
G01 X120.6062 Y17.8568
G01 X120.6034 Y17.8757
G01 X120.5894 Y17.9550
G01 X120.5827 Y17.9828
G01 X120.5771 Y18.0010
G01 X120.5706 Y18.0190
G01 X120.5632 Y18.0366
G01 X120.5550 Y18.0538
G01 X120.5459 Y18.0705
G01 X120.5308 Y18.0948
G01 X120.5197 Y18.1103
G01 X120.5078 Y18.1253
G01 X120.4953 Y18.1396
G01 X120.4408 Y18.1985
G01 X120.4275 Y18.2116
G01 X120.4137 Y18.2239
G01 X120.3993 Y18.2356
G01 X120.3843 Y18.2466
G01 X120.3688 Y18.2568
G01 X120.3447 Y18.2708
G01 X120.3281 Y18.2791
G01 X120.3025 Y18.2900
G01 X120.2851 Y18.2962
G01 X120.2673 Y18.3016
G01 X120.2025 Y18.3196
G01 X120.1842 Y18.3242
G01 X120.1563 Y18.3293
G01 X120.1282 Y18.3325
G01 X120.0999 Y18.3335
G01 X118.6539 Y18.3335
G01 X118.6265 Y18.3325
G01 X118.6084 Y18.3308
G01 X118.5813 Y18.3266
G01 X118.5546 Y18.3204
G01 X118.4685 Y18.2951
G01 X118.4416 Y18.2854
G01 X118.4241 Y18.2778
G01 X118.4070 Y18.2693
G01 X118.3904 Y18.2600
G01 X118.3742 Y18.2499
G01 X118.3586 Y18.2390
G01 X118.3435 Y18.2274
G01 X118.3290 Y18.2150
G01 X118.3151 Y18.2019
G01 X118.2956 Y18.1810
G01 X118.2430 Y18.1200
G01 X118.2312 Y18.1050
G01 X118.2202 Y18.0894
G01 X118.2100 Y18.0733
G01 X118.2006 Y18.0567
G01 X118.1881 Y18.0310
G01 X118.1808 Y18.0134
G01 X118.1744 Y17.9954
G01 X118.1665 Y17.9679
G01 X118.1607 Y17.9399
G01 X118.1479 Y17.8508
G01 X118.1461 Y17.8318
G01 X118.1456 Y17.8213
G01 X118.1450 Y17.8355
G01 X118.1435 Y17.8545
G01 X118.1394 Y17.8828
G01 X118.1209 Y17.9710
G01 X118.1161 Y17.9894
G01 X118.1103 Y18.0076
G01 X118.1001 Y18.0343
G01 X118.0921 Y18.0516
G01 X118.0833 Y18.0686
G01 X118.0737 Y18.0850
G01 X118.0633 Y18.1010
G01 X118.0520 Y18.1164
G01 X118.0401 Y18.1313
G01 X118.0208 Y18.1524
G01 X117.9710 Y18.2030
G01 X117.9575 Y18.2161
G01 X117.9433 Y18.2285
G01 X117.9285 Y18.2402
G01 X117.9132 Y18.2511
G01 X117.8974 Y18.2614
G01 X117.8811 Y18.2708
G01 X117.8558 Y18.2834
G01 X117.8385 Y18.2907
G01 X117.8208 Y18.2972
G01 X117.7938 Y18.3053
G01 X117.7325 Y18.3212
G01 X117.7135 Y18.3256
G01 X117.6943 Y18.3291
G01 X117.6750 Y18.3315
G01 X117.6555 Y18.3330
G01 X117.6361 Y18.3335
G01 X115.6539 Y18.3335
G01 X115.6357 Y18.3331
G01 X115.6174 Y18.3318
G01 X115.5993 Y18.3296
G01 X115.5813 Y18.3266
G01 X115.5546 Y18.3204
G01 X115.4685 Y18.2951
G01 X115.4416 Y18.2854
G01 X115.4241 Y18.2778
G01 X115.4070 Y18.2693
G01 X115.3904 Y18.2600
G01 X115.3742 Y18.2499
G01 X115.3586 Y18.2390
G01 X115.3435 Y18.2274
G01 X115.3290 Y18.2150
G01 X115.3151 Y18.2019
G01 X115.3019 Y18.1881
G01 X115.2430 Y18.1200
G01 X115.2256 Y18.0973
G01 X115.2150 Y18.0814
G01 X115.2006 Y18.0567
G01 X115.1920 Y18.0397
G01 X115.1843 Y18.0222
G01 X115.1775 Y18.0044
G01 X115.1716 Y17.9863
G01 X115.1665 Y17.9679
G01 X115.1624 Y17.9493
G01 X115.1592 Y17.9305
G01 X115.1491 Y17.8602
G01 X115.1469 Y17.8413
G01 X115.1456 Y17.8213
G01 X115.1450 Y17.8355
G01 X115.1435 Y17.8545
G01 X115.1394 Y17.8828
G01 X115.1209 Y17.9710
G01 X115.1133 Y17.9985
G01 X115.1037 Y18.0255
G01 X115.0921 Y18.0516
G01 X115.0833 Y18.0686
G01 X115.0737 Y18.0850
G01 X115.0578 Y18.1088
G01 X115.0401 Y18.1313
G01 X115.0208 Y18.1524
G01 X114.9643 Y18.2096
G01 X114.9433 Y18.2285
G01 X114.9285 Y18.2402
G01 X114.9132 Y18.2511
G01 X114.8974 Y18.2614
G01 X114.8811 Y18.2708
G01 X114.8644 Y18.2794
G01 X114.8472 Y18.2871
G01 X114.8297 Y18.2941
G01 X114.8119 Y18.3001
G01 X114.7938 Y18.3053
G01 X114.7325 Y18.3212
G01 X114.7039 Y18.3275
G01 X114.6750 Y18.3315
G01 X114.6458 Y18.3334
G01 X113.2459 Y18.3335
G01 X113.2277 Y18.3331
G01 X113.2094 Y18.3318
G01 X113.1913 Y18.3296
G01 X113.1643 Y18.3247
G01 X113.1377 Y18.3179
G01 X113.0605 Y18.2951
G01 X113.0425 Y18.2889
G01 X113.0161 Y18.2778
G01 X112.9906 Y18.2648
G01 X112.9742 Y18.2551
G01 X112.9506 Y18.2390
G01 X112.9281 Y18.2213
G01 X112.9071 Y18.2019
G01 X112.8939 Y18.1881
G01 X112.8411 Y18.1273
G01 X112.8290 Y18.1126
G01 X112.8122 Y18.0894
G01 X112.8020 Y18.0733
G01 X112.7926 Y18.0567
G01 X112.7801 Y18.0310
G01 X112.7695 Y18.0044
G01 X112.7609 Y17.9771
G01 X112.7563 Y17.9586
G01 X112.7512 Y17.9305
G01 X112.7399 Y17.8508
G01 X112.7376 Y17.8223
G01 X112.7374 Y17.7936
G01 X112.7385 Y17.7746
G01 X112.7418 Y17.7462
G01 X112.7473 Y17.7181
G01 X112.7548 Y17.6905
G01 X112.7610 Y17.6725
G01 X112.7681 Y17.6548
G01 X112.8014 Y17.5815
G01 X112.8087 Y17.5665
G01 X111.4840 Y17.5665
G01 X111.4946 Y17.5872
G01 X111.5055 Y17.6127
G01 X111.5118 Y17.6301
G01 X111.5343 Y17.6975
G01 X111.5399 Y17.7157
G01 X111.5465 Y17.7435
G01 X111.5511 Y17.7717
G01 X111.5530 Y17.7907
G01 X111.5540 Y17.8193
G01 X111.5529 Y17.8479
G01 X111.5510 Y17.8669
G01 X111.5481 Y17.8857
G01 X111.5421 Y17.9137
G01 X111.5246 Y17.9825
G01 X111.5165 Y18.0099
G01 X111.5064 Y18.0367
G01 X111.4986 Y18.0541
G01 X111.4852 Y18.0794
G01 X111.4753 Y18.0957
G01 X111.4589 Y18.1191
G01 X111.4409 Y18.1413
G01 X111.4212 Y18.1620
G01 X111.3624 Y18.2170
G01 X111.3482 Y18.2296
G01 X111.3334 Y18.2415
G01 X111.3181 Y18.2526
G01 X111.2941 Y18.2678
G01 X111.2775 Y18.2769
G01 X111.2518 Y18.2891
G01 X111.2253 Y18.2993
G01 X111.1981 Y18.3075
G01 X111.1325 Y18.3232
G01 X111.1228 Y18.3253
G01 X111.1033 Y18.3289
G01 X111.0935 Y18.3303
G01 X111.0738 Y18.3323
G01 X111.0540 Y18.3334
G01 X111.0441 Y18.3335
G01 X110.1875 Y18.3335
G01 X110.1692 Y18.3331
G01 X110.1510 Y18.3318
G01 X110.1328 Y18.3296
G01 X110.1148 Y18.3266
G01 X110.0969 Y18.3227
G01 X110.0793 Y18.3179
G01 X110.0112 Y18.2979
G01 X109.9840 Y18.2889
G01 X109.9664 Y18.2817
G01 X109.9491 Y18.2737
G01 X109.9322 Y18.2648
G01 X109.9158 Y18.2551
G01 X109.8998 Y18.2446
G01 X109.8845 Y18.2333
G01 X109.8625 Y18.2150
G01 X109.8487 Y18.2019
G01 X109.8355 Y18.1881
G01 X109.7826 Y18.1273
G01 X109.7647 Y18.1050
G01 X109.7485 Y18.0814
G01 X109.7341 Y18.0567
G01 X109.7216 Y18.0310
G01 X109.7110 Y18.0044
G01 X109.7051 Y17.9863
G01 X109.7001 Y17.9679
G01 X109.6942 Y17.9399
G01 X109.6827 Y17.8602
G01 X109.6796 Y17.8318
G01 X109.6788 Y17.8099
G01 X109.6695 Y17.8164
G01 X109.6535 Y17.8265
G01 X109.5610 Y17.8820
G01 X109.5446 Y17.8913
G01 X109.5277 Y17.8997
G01 X109.4301 Y17.9459
G01 X109.4129 Y17.9535
G01 X109.3953 Y17.9603
G01 X109.2937 Y17.9967
G01 X109.2758 Y18.0026
G01 X109.2576 Y18.0076
G01 X109.1529 Y18.0339
G01 X109.1345 Y18.0380
G01 X109.1159 Y18.0412
G01 X109.0092 Y18.0570
G01 X108.9905 Y18.0594
G01 X108.9717 Y18.0607
G01 X108.8638 Y18.0660
G01 X108.8450 Y18.0665
G01 X108.8262 Y18.0660
G01 X108.7183 Y18.0607
G01 X108.6995 Y18.0594
G01 X108.6808 Y18.0570
G01 X108.5741 Y18.0412
G01 X108.5555 Y18.0380
G01 X108.5371 Y18.0339
G01 X108.4324 Y18.0076
G01 X108.4142 Y18.0026
G01 X108.3963 Y17.9967
G01 X108.2947 Y17.9603
G01 X108.2771 Y17.9535
G01 X108.2599 Y17.9459
G01 X108.1623 Y17.8997
G01 X108.1454 Y17.8913
G01 X108.1290 Y17.8820
G01 X108.0365 Y17.8265
G01 X108.0205 Y17.8164
G01 X108.0091 Y17.8085
G01 X108.0087 Y17.8283
G01 X108.0062 Y17.8568
G01 X108.0034 Y17.8757
G01 X107.9894 Y17.9550
G01 X107.9852 Y17.9736
G01 X107.9800 Y17.9920
G01 X107.9740 Y18.0100
G01 X107.9670 Y18.0278
G01 X107.9550 Y18.0538
G01 X107.9459 Y18.0705
G01 X107.9360 Y18.0868
G01 X107.9197 Y18.1103
G01 X107.9016 Y18.1325
G01 X107.8408 Y18.1985
G01 X107.8275 Y18.2116
G01 X107.8137 Y18.2239
G01 X107.7919 Y18.2412
G01 X107.7766 Y18.2518
G01 X107.7609 Y18.2617
G01 X107.7447 Y18.2708
G01 X107.7281 Y18.2791
G01 X107.7025 Y18.2900
G01 X107.6851 Y18.2962
G01 X107.6673 Y18.3016
G01 X107.6025 Y18.3196
G01 X107.5842 Y18.3242
G01 X107.5657 Y18.3278
G01 X107.5470 Y18.3306
G01 X107.5282 Y18.3325
G01 X107.4999 Y18.3335
G01 X4.6191 Y18.3335
G01 X4.5917 Y18.3325
G01 X4.5735 Y18.3308
G01 X4.5554 Y18.3282
G01 X4.5375 Y18.3247
G01 X4.5109 Y18.3179
G01 X4.4428 Y18.2979
G01 X4.4247 Y18.2921
G01 X4.4068 Y18.2854
G01 X4.3893 Y18.2778
G01 X4.3722 Y18.2693
G01 X4.3474 Y18.2551
G01 X4.3315 Y18.2446
G01 X4.3161 Y18.2333
G01 X4.3013 Y18.2213
G01 X4.2803 Y18.2019
G01 X4.2671 Y18.1881
G01 X4.2081 Y18.1200
G01 X4.1908 Y18.0973
G01 X4.1802 Y18.0814
G01 X4.1658 Y18.0567
G01 X4.1532 Y18.0310
G01 X4.1460 Y18.0134
G01 X4.1367 Y17.9863
G01 X4.1317 Y17.9679
G01 X4.1276 Y17.9493
G01 X4.1244 Y17.9305
G01 X4.1143 Y17.8602
G01 X4.1121 Y17.8413
G01 X4.1105 Y17.8127
G01 X4.1106 Y17.7936
G01 X4.1112 Y17.7807
G01 X3.9402 Y17.8832
G01 X3.9238 Y17.8925
G01 X3.9070 Y17.9010
G01 X3.7295 Y17.9849
G01 X3.7123 Y17.9925
G01 X3.6947 Y17.9993
G01 X3.5099 Y18.0654
G01 X3.4920 Y18.0713
G01 X3.4739 Y18.0764
G01 X3.2835 Y18.1241
G01 X3.2651 Y18.1282
G01 X3.2465 Y18.1314
G01 X3.0524 Y18.1602
G01 X3.0337 Y18.1625
G01 X3.0149 Y18.1639
G01 X2.8188 Y18.1735
G01 X2.8000 Y18.1740
G01 X2.7812 Y18.1735
G01 X2.5851 Y18.1639
G01 X2.5663 Y18.1625
G01 X2.5476 Y18.1602
G01 X2.3535 Y18.1314
G01 X2.3349 Y18.1282
G01 X2.3165 Y18.1241
G01 X2.1261 Y18.0764
G01 X2.1080 Y18.0713
G01 X2.0901 Y18.0654
G01 X1.9053 Y17.9993
G01 X1.8877 Y17.9925
G01 X1.8705 Y17.9849
G01 X1.6930 Y17.9010
G01 X1.6762 Y17.8925
G01 X1.6598 Y17.8832
G01 X1.4914 Y17.7823
G01 X1.4755 Y17.7722
G01 X1.4601 Y17.7614
G01 X1.3025 Y17.6445
G01 X1.2876 Y17.6329
G01 X1.2733 Y17.6205
G01 X1.1279 Y17.4887
G01 X1.1143 Y17.4757
G01 X1.1013 Y17.4621
G01 X0.9695 Y17.3167
G01 X0.9571 Y17.3024
G01 X0.9455 Y17.2875
G01 X0.8286 Y17.1299
G01 X0.8178 Y17.1145
G01 X0.8077 Y17.0986
G01 X0.7068 Y16.9302
G01 X0.6975 Y16.9138
G01 X0.6890 Y16.8970
G01 X0.6051 Y16.7195
G01 X0.5975 Y16.7023
G01 X0.5907 Y16.6847
G01 X0.5246 Y16.4999
G01 X0.5187 Y16.4820
G01 X0.5136 Y16.4639
G01 X0.4659 Y16.2735
G01 X0.4618 Y16.2551
G01 X0.4586 Y16.2365
G01 X0.4298 Y16.0424
G01 X0.4275 Y16.0237
G01 X0.4261 Y16.0049
G01 X0.4165 Y15.8088
G01 X0.4160 Y15.7900
G01 X0.4165 Y15.7712
G01 X0.4261 Y15.5751
G01 X0.4275 Y15.5563
G01 X0.4298 Y15.5376
G01 X0.4586 Y15.3435
G01 X0.4618 Y15.3249
G01 X0.4659 Y15.3065
G01 X0.5136 Y15.1161
G01 X0.5187 Y15.0980
G01 X0.5246 Y15.0801
G01 X0.5907 Y14.8953
G01 X0.5975 Y14.8777
G01 X0.6051 Y14.8605
G01 X0.6890 Y14.6830
G01 X0.6975 Y14.6662
G01 X0.7068 Y14.6498
G01 X0.8077 Y14.4814
G01 X0.8178 Y14.4655
G01 X0.8286 Y14.4501
G01 X0.9455 Y14.2925
G01 X0.9628 Y14.2709
G01 X0.8856 Y14.2646
G01 X0.8573 Y14.2606
G01 X0.8386 Y14.2568
G01 X0.8202 Y14.2520
G01 X0.8020 Y14.2463
G01 X0.7753 Y14.2361
G01 X0.7579 Y14.2282
G01 X0.7410 Y14.2194
G01 X0.7245 Y14.2099
G01 X0.7085 Y14.1995
G01 X0.6930 Y14.1883
G01 X0.6365 Y14.1453
G01 X0.6216 Y14.1334
G01 X0.6073 Y14.1208
G01 X0.5937 Y14.1074
G01 X0.5808 Y14.0934
G01 X0.5685 Y14.0788
G01 X0.5570 Y14.0636
G01 X0.5463 Y14.0478
G01 X0.5364 Y14.0315
G01 X0.5273 Y14.0148
G01 X0.5190 Y13.9976
G01 X0.5082 Y13.9711
G01 X0.4839 Y13.9044
G01 X0.4753 Y13.8776
G01 X0.4706 Y13.8595
G01 X0.4668 Y13.8411
G01 X0.4640 Y13.8226
G01 X0.4614 Y13.7946
G01 X0.4605 Y13.7650
G01 X0.4605 Y5.1174
G01 X0.4609 Y5.0991
G01 X0.4622 Y5.0809
G01 X0.4644 Y5.0627
G01 X0.4674 Y5.0447
G01 X0.4713 Y5.0269
G01 X0.4761 Y5.0092
G01 X0.4989 Y4.9320
G01 X0.5051 Y4.9140
G01 X0.5123 Y4.8963
G01 X0.5203 Y4.8790
G01 X0.5292 Y4.8621
G01 X0.5389 Y4.8457
G01 X0.5494 Y4.8298
G01 X0.5607 Y4.8144
G01 X0.5727 Y4.7996
G01 X0.5855 Y4.7854
G01 X0.5989 Y4.7719
G01 X0.6130 Y4.7591
G01 X0.6667 Y4.7126
G01 X0.6890 Y4.6947
G01 X0.7046 Y4.6837
G01 X0.7289 Y4.6686
G01 X0.7457 Y4.6597
G01 X0.7630 Y4.6515
G01 X0.7806 Y4.6443
G01 X0.7986 Y4.6379
G01 X0.8169 Y4.6324
G01 X0.8354 Y4.6278
G01 X0.8635 Y4.6227
G01 X0.9338 Y4.6126
G01 X0.9521 Y4.6104
G01 X0.9631 Y4.6095
G01 X0.9455 Y4.5875
G01 X0.8286 Y4.4299
G01 X0.8178 Y4.4145
G01 X0.8077 Y4.3986
G01 X0.7068 Y4.2302
G01 X0.6975 Y4.2138
G01 X0.6890 Y4.1970
G01 X0.6051 Y4.0195
G01 X0.5975 Y4.0023
G01 X0.5907 Y3.9847
G01 X0.5246 Y3.7999
G01 X0.5187 Y3.7820
G01 X0.5136 Y3.7639
G01 X0.4659 Y3.5735
G01 X0.4618 Y3.5551
G01 X0.4586 Y3.5365
G01 X0.4298 Y3.3424
G00 Z1.0000
G00 X0.6514 Y3.3095
G01 F40.00
G01 Z-0.1000
G01 F100.00
G01 X0.6498 Y3.2939
G01 X0.6400 Y3.0900
G01 X0.6504 Y2.8783
G01 X0.6815 Y2.6686
G01 X0.7330 Y2.4630
G01 X0.8044 Y2.2634
G01 X0.8951 Y2.0718
G01 X1.0040 Y1.8900
G01 X1.1303 Y1.7197
G01 X1.2726 Y1.5626
G01 X1.4297 Y1.4203
G01 X1.6000 Y1.2940
G01 X1.7818 Y1.1851
G01 X1.9734 Y1.0944
G01 X2.1730 Y1.0230
G01 X2.3786 Y0.9715
G01 X2.5883 Y0.9404
G01 X2.8000 Y0.9300
G01 X3.0117 Y0.9404
G01 X3.2214 Y0.9715
G01 X3.4270 Y1.0230
G01 X3.6266 Y1.0944
G01 X3.8182 Y1.1851
G01 X4.0000 Y1.2940
G01 X4.1703 Y1.4203
G01 X4.3274 Y1.5626
G01 X4.4697 Y1.7197
G01 X4.5960 Y1.8900
G01 X4.7049 Y2.0718
G01 X4.7956 Y2.2634
G01 X4.8670 Y2.4630
G01 X4.9185 Y2.6686
G01 X4.9496 Y2.8783
G01 X4.9600 Y3.0900
G01 X4.9496 Y3.3017
G01 X4.9185 Y3.5114
G01 X4.8670 Y3.7170
G01 X4.7956 Y3.9166
G01 X4.7049 Y4.1082
G01 X4.5960 Y4.2900
G01 X4.4697 Y4.4603
G01 X4.3274 Y4.6174
G01 X4.1703 Y4.7597
G01 X4.0000 Y4.8860
G01 X3.8182 Y4.9949
G01 X3.6266 Y5.0856
G01 X3.4270 Y5.1570
G01 X3.2214 Y5.2085
G01 X3.0117 Y5.2396
G01 X2.8000 Y5.2500
G01 X2.5883 Y5.2396
G01 X2.3786 Y5.2085
G01 X2.1730 Y5.1570
G01 X1.9734 Y5.0856
G01 X1.7818 Y4.9949
G01 X1.6000 Y4.8860
G01 X1.4297 Y4.7597
G01 X1.2726 Y4.6174
G01 X1.1303 Y4.4603
G01 X1.0040 Y4.2900
G01 X0.8951 Y4.1082
G01 X0.8044 Y3.9166
G01 X0.7330 Y3.7170
G01 X0.6815 Y3.5114
G01 X0.6514 Y3.3095
G00 Z1.0000
G00 X0.6845 Y5.1174
G01 F40.00
G01 Z-0.1000
G01 F100.00
G01 X0.6849 Y5.1060
G01 X0.6856 Y5.0984
G01 X0.6874 Y5.0871
G01 X0.6900 Y5.0760
G01 X0.7121 Y5.0004
G01 X0.7177 Y4.9855
G01 X0.7248 Y4.9713
G01 X0.7310 Y4.9611
G01 X0.7379 Y4.9514
G01 X0.7429 Y4.9452
G01 X0.7510 Y4.9365
G01 X0.7597 Y4.9284
G01 X0.8134 Y4.8819
G01 X0.8195 Y4.8768
G01 X0.8292 Y4.8698
G01 X0.8359 Y4.8656
G01 X0.8463 Y4.8598
G01 X0.8535 Y4.8564
G01 X0.8646 Y4.8520
G01 X0.8759 Y4.8484
G01 X0.8837 Y4.8465
G01 X0.8954 Y4.8444
G01 X0.9733 Y4.8334
G01 X0.9848 Y4.8327
G01 X0.9964 Y4.8329
G01 X1.0079 Y4.8339
G01 X1.0155 Y4.8350
G01 X1.0305 Y4.8383
G01 X1.0379 Y4.8405
G01 X1.0487 Y4.8445
G01 X1.1169 Y4.8742
G01 X1.1273 Y4.8795
G01 X1.1373 Y4.8855
G01 X1.1499 Y4.8947
G01 X1.3837 Y5.0830
G01 X1.6334 Y5.2387
G01 X1.8999 Y5.3633
G01 X2.1796 Y5.4549
G01 X2.4682 Y5.5123
G01 X2.7616 Y5.5347
G01 X3.0556 Y5.5216
G01 X3.3458 Y5.4733
G01 X3.6282 Y5.3904
G01 X3.8986 Y5.2743
G01 X4.1530 Y5.1265
G01 X4.3879 Y4.9492
G01 X4.5997 Y4.7449
G01 X4.7855 Y4.5167
G01 X4.9425 Y4.2679
G01 X5.0685 Y4.0019
G01 X5.1617 Y3.7228
G01 X5.2206 Y3.4345
G01 X5.2448 Y3.1372
G01 X5.2452 Y3.0940
G01 X5.2273 Y2.7963
G01 X5.1744 Y2.5068
G01 X5.0871 Y2.2258
G01 X4.9667 Y1.9573
G01 X4.8150 Y1.7052
G01 X4.6330 Y1.4719
G01 X4.6240 Y1.4614
G01 X4.6149 Y1.4488
G01 X4.6070 Y1.4353
G01 X4.5732 Y1.3698
G01 X4.5688 Y1.3591
G01 X4.5663 Y1.3519
G01 X4.5632 Y1.3408
G01 X4.5615 Y1.3332
G01 X4.5597 Y1.3218
G01 X4.5590 Y1.3142
G01 X4.5586 Y1.3027
G01 X4.5591 Y1.2911
G01 X4.5651 Y1.2124
G01 X4.5670 Y1.2007
G01 X4.5709 Y1.1853
G01 X4.5748 Y1.1740
G01 X4.5779 Y1.1667
G01 X4.5832 Y1.1560
G01 X4.5892 Y1.1457
G01 X4.5960 Y1.1359
G01 X4.6412 Y1.0761
G01 X4.6462 Y1.0700
G01 X4.6544 Y1.0613
G01 X4.6632 Y1.0533
G01 X4.6694 Y1.0483
G01 X4.6825 Y1.0393
G01 X4.6929 Y1.0334
G01 X4.7000 Y1.0299
G01 X4.7110 Y1.0254
G01 X4.7851 Y0.9982
G01 X4.7965 Y0.9951
G01 X4.8081 Y0.9928
G01 X4.8198 Y0.9914
G01 X4.8276 Y0.9909
G01 X4.8418 Y0.9905
G01 X99.9349 Y0.9905
G01 X99.9463 Y0.9909
G01 X99.9539 Y0.9916
G01 X99.9652 Y0.9934
G01 X99.9763 Y0.9960
G01 X100.0557 Y1.0194
G01 X100.0704 Y1.0254
G01 X100.0810 Y1.0308
G01 X100.0912 Y1.0370
G01 X100.1009 Y1.0439
G01 X100.1100 Y1.0516
G01 X100.1213 Y1.0628
G01 X100.1704 Y1.1194
G01 X100.1779 Y1.1287
G01 X100.1867 Y1.1419
G01 X100.1942 Y1.1559
G01 X100.2003 Y1.1706
G01 X100.2039 Y1.1819
G01 X100.2073 Y1.1975
G01 X100.2185 Y1.2754
G01 X100.2196 Y1.2906
G01 X100.2192 Y1.3057
G01 X100.2174 Y1.3208
G01 X100.2138 Y1.3396
G01 X100.1828 Y1.4690
G01 X100.1650 Y1.6950
G01 X100.1828 Y1.9210
G01 X100.2358 Y2.1415
G01 X100.3225 Y2.3510
G01 X100.4410 Y2.5443
G01 X100.5883 Y2.7167
G01 X100.7607 Y2.8640
G01 X100.7731 Y2.8717
G01 X100.7825 Y2.8782
G01 X100.7914 Y2.8854
G01 X100.7997 Y2.8932
G01 X100.8526 Y2.9514
G01 X100.8626 Y2.9637
G01 X100.8714 Y2.9769
G01 X100.8771 Y2.9874
G01 X100.8821 Y2.9982
G01 X100.8861 Y3.0094
G01 X100.8884 Y3.0170
G01 X100.8911 Y3.0286
G01 X100.9040 Y3.1065
G01 X100.9049 Y3.1144
G01 X100.9055 Y3.1263
G01 X100.9054 Y3.1343
G01 X100.9046 Y3.1462
G01 X100.9035 Y3.1540
G01 X100.9012 Y3.1657
G01 X100.8980 Y3.1772
G01 X100.8954 Y3.1847
G01 X100.8610 Y3.2645
G01 X100.8574 Y3.2715
G01 X100.8512 Y3.2817
G01 X100.8418 Y3.2946
G01 X100.8340 Y3.3036
G01 X100.8284 Y3.3092
G01 X100.8164 Y3.3197
G01 X100.8068 Y3.3267
G01 X100.7413 Y3.3705
G01 X100.7311 Y3.3762
G01 X100.7241 Y3.3796
G01 X100.7132 Y3.3840
G01 X100.7058 Y3.3865
G01 X100.6945 Y3.3895
G01 X100.6869 Y3.3911
G01 X100.6449 Y3.3976
G01 X100.6327 Y3.3990
G01 X100.6205 Y3.3995
G01 X99.3345 Y3.3995
G01 X99.3231 Y3.3991
G01 X99.3155 Y3.3984
G01 X99.3042 Y3.3966
G01 X99.2931 Y3.3940
G01 X99.2175 Y3.3719
G01 X99.2064 Y3.3679
G01 X99.1992 Y3.3647
G01 X99.1853 Y3.3575
G01 X99.1754 Y3.3511
G01 X99.1660 Y3.3441
G01 X99.1417 Y3.3244
G01 X99.1322 Y3.3157
G01 X98.4473 Y2.6308
G01 X98.4333 Y2.6157
G01 X98.4090 Y2.5870
G01 X98.3549 Y2.5456
G01 X98.3023 Y2.5033
G01 X98.2974 Y2.5003
G01 X98.2921 Y2.4969
G01 X98.2281 Y2.4671
G01 X98.1676 Y2.4371
G01 X98.1562 Y2.4330
G01 X98.0903 Y2.4183
G01 X98.0219 Y2.4013
G01 X98.0089 Y2.3995
G01 X97.9418 Y2.3995
G01 X97.8719 Y2.3976
G01 X97.8577 Y2.3988
G01 X97.8376 Y2.3995
G01 X96.0504 Y2.3995
G01 X96.0352 Y2.3988
G01 X96.0201 Y2.3966
G01 X96.0053 Y2.3930
G01 X95.9298 Y2.3706
G01 X95.9188 Y2.3664
G01 X95.9082 Y2.3613
G01 X95.8980 Y2.3555
G01 X95.8914 Y2.3512
G01 X95.8820 Y2.3442
G01 X95.8539 Y2.3205
G01 X95.8417 Y2.3090
G01 X95.7239 Y2.1796
G01 X95.5638 Y2.0532
G01 X95.3853 Y1.9546
G01 X95.1930 Y1.8865
G01 X94.9921 Y1.8508
G01 X94.7882 Y1.8483
G01 X94.5865 Y1.8791
G01 X94.3926 Y1.9425
G01 X94.2117 Y2.0367
G01 X94.0486 Y2.1592
G01 X93.9007 Y2.3138
G01 X93.8895 Y2.3240
G01 X93.8804 Y2.3310
G01 X93.8741 Y2.3352
G01 X93.8025 Y2.3766
G01 X93.7917 Y2.3820
G01 X93.7804 Y2.3865
G01 X93.7650 Y2.3912
G01 X93.7491 Y2.3943
G01 X93.7118 Y2.3988
G01 X93.6966 Y2.3995
G01 X87.1604 Y2.3995
G01 X87.1490 Y2.3991
G01 X87.1339 Y2.3973
G01 X87.1190 Y2.3940
G01 X87.0435 Y2.3719
G01 X87.0324 Y2.3679
G01 X87.0217 Y2.3631
G01 X87.0114 Y2.3575
G01 X87.0014 Y2.3512
G01 X86.9920 Y2.3442
G01 X86.9639 Y2.3205
G01 X86.9517 Y2.3090
G01 X86.8339 Y2.1796
G01 X86.6738 Y2.0532
G01 X86.4953 Y1.9546
G01 X86.3030 Y1.8865
G01 X86.1021 Y1.8508
G01 X85.8982 Y1.8483
G01 X85.6965 Y1.8791
G01 X85.5026 Y1.9425
G01 X85.3217 Y2.0367
G01 X85.1586 Y2.1592
G01 X85.0107 Y2.3138
G01 X84.9995 Y2.3240
G01 X84.9935 Y2.3287
G01 X84.9841 Y2.3352
G01 X84.9125 Y2.3766
G01 X84.9017 Y2.3820
G01 X84.8904 Y2.3865
G01 X84.8750 Y2.3912
G01 X84.8591 Y2.3943
G01 X84.8218 Y2.3988
G01 X84.8066 Y2.3995
G01 X78.2704 Y2.3995
G01 X78.2590 Y2.3991
G01 X78.2439 Y2.3973
G01 X78.2290 Y2.3940
G01 X78.1535 Y2.3719
G01 X78.1424 Y2.3679
G01 X78.1317 Y2.3631
G01 X78.1214 Y2.3575
G01 X78.1114 Y2.3512
G01 X78.1020 Y2.3442
G01 X78.0739 Y2.3205
G01 X78.0617 Y2.3090
G01 X77.9439 Y2.1796
G01 X77.7838 Y2.0532
G01 X77.6053 Y1.9546
G01 X77.4130 Y1.8865
G01 X77.2121 Y1.8508
G01 X77.0082 Y1.8483
G01 X76.8065 Y1.8791
G01 X76.6126 Y1.9425
G01 X76.4317 Y2.0367
G01 X76.2686 Y2.1592
G01 X76.1207 Y2.3138
G01 X76.1095 Y2.3240
G01 X76.1004 Y2.3310
G01 X76.0941 Y2.3352
G01 X76.0225 Y2.3766
G01 X76.0117 Y2.3820
G01 X76.0004 Y2.3865
G01 X75.9850 Y2.3912
G01 X75.9691 Y2.3943
G01 X75.9318 Y2.3988
G01 X75.9166 Y2.3995
G01 X69.3804 Y2.3995
G01 X69.3690 Y2.3991
G01 X69.3539 Y2.3973
G01 X69.3390 Y2.3940
G01 X69.2635 Y2.3719
G01 X69.2524 Y2.3679
G01 X69.2417 Y2.3631
G01 X69.2314 Y2.3575
G01 X69.2214 Y2.3512
G01 X69.2120 Y2.3442
G01 X69.1839 Y2.3205
G01 X69.1717 Y2.3090
G01 X69.0539 Y2.1796
G01 X68.8938 Y2.0532
G01 X68.7153 Y1.9546
G01 X68.5230 Y1.8865
G01 X68.3221 Y1.8508
G01 X68.1182 Y1.8483
G01 X67.9165 Y1.8791
G01 X67.7226 Y1.9425
G01 X67.5417 Y2.0367
G01 X67.3786 Y2.1592
G01 X67.2307 Y2.3138
G01 X67.2195 Y2.3240
G01 X67.2104 Y2.3310
G01 X67.2041 Y2.3352
G01 X67.1325 Y2.3766
G01 X67.1217 Y2.3820
G01 X67.1104 Y2.3865
G01 X67.0950 Y2.3912
G01 X67.0791 Y2.3943
G01 X67.0418 Y2.3988
G01 X67.0266 Y2.3995
G01 X60.4904 Y2.3995
G01 X60.4790 Y2.3991
G01 X60.4639 Y2.3973
G01 X60.4490 Y2.3940
G01 X60.3735 Y2.3719
G01 X60.3624 Y2.3679
G01 X60.3517 Y2.3631
G01 X60.3414 Y2.3575
G01 X60.3314 Y2.3512
G01 X60.3220 Y2.3442
G01 X60.2939 Y2.3205
G01 X60.2817 Y2.3090
G01 X60.1639 Y2.1796
G01 X60.0038 Y2.0532
G01 X59.8253 Y1.9546
G01 X59.6330 Y1.8865
G01 X59.4321 Y1.8508
G01 X59.2282 Y1.8483
G01 X59.0265 Y1.8791
G01 X58.8326 Y1.9425
G01 X58.6517 Y2.0367
G01 X58.4886 Y2.1592
G01 X58.3407 Y2.3138
G01 X58.3295 Y2.3240
G01 X58.3173 Y2.3332
G01 X58.3076 Y2.3392
G01 X58.2425 Y2.3766
G01 X58.2353 Y2.3803
G01 X58.2242 Y2.3851
G01 X58.2089 Y2.3902
G01 X58.1931 Y2.3937
G01 X58.1555 Y2.3984
G01 X58.1404 Y2.3995
G01 X51.6004 Y2.3995
G01 X51.5890 Y2.3991
G01 X51.5739 Y2.3973
G01 X51.5590 Y2.3940
G01 X51.4835 Y2.3719
G01 X51.4724 Y2.3679
G01 X51.4617 Y2.3631
G01 X51.4514 Y2.3575
G01 X51.4414 Y2.3512
G01 X51.4320 Y2.3442
G01 X51.4039 Y2.3205
G01 X51.3917 Y2.3090
G01 X51.2739 Y2.1796
G01 X51.1138 Y2.0532
G01 X50.9353 Y1.9546
G01 X50.7430 Y1.8865
G01 X50.5421 Y1.8508
G01 X50.3382 Y1.8483
G01 X50.1365 Y1.8791
G01 X49.9426 Y1.9425
G01 X49.7617 Y2.0367
G01 X49.5986 Y2.1592
G01 X49.4507 Y2.3138
G01 X49.4395 Y2.3240
G01 X49.4273 Y2.3332
G01 X49.4176 Y2.3392
G01 X49.3525 Y2.3766
G01 X49.3453 Y2.3803
G01 X49.3342 Y2.3851
G01 X49.3189 Y2.3902
G01 X49.3031 Y2.3937
G01 X49.2655 Y2.3984
G01 X49.2504 Y2.3995
G01 X42.7104 Y2.3995
G01 X42.6990 Y2.3991
G01 X42.6839 Y2.3973
G01 X42.6690 Y2.3940
G01 X42.5935 Y2.3719
G01 X42.5824 Y2.3679
G01 X42.5717 Y2.3631
G01 X42.5614 Y2.3575
G01 X42.5514 Y2.3512
G01 X42.5420 Y2.3442
G01 X42.5139 Y2.3205
G01 X42.5017 Y2.3090
G01 X42.3839 Y2.1796
G01 X42.2238 Y2.0532
G01 X42.0453 Y1.9546
G01 X41.8530 Y1.8865
G01 X41.6521 Y1.8508
G01 X41.4482 Y1.8483
G01 X41.2465 Y1.8791
G01 X41.0526 Y1.9425
G01 X40.8717 Y2.0367
G01 X40.7086 Y2.1592
G01 X40.5607 Y2.3138
G01 X40.5495 Y2.3240
G01 X40.5373 Y2.3332
G01 X40.5276 Y2.3392
G01 X40.4625 Y2.3766
G01 X40.4553 Y2.3803
G01 X40.4442 Y2.3851
G01 X40.4289 Y2.3902
G01 X40.4131 Y2.3937
G01 X40.3755 Y2.3984
G01 X40.3604 Y2.3995
G01 X33.8204 Y2.3995
G01 X33.8090 Y2.3991
G01 X33.7939 Y2.3973
G01 X33.7790 Y2.3940
G01 X33.7035 Y2.3719
G01 X33.6924 Y2.3679
G01 X33.6817 Y2.3631
G01 X33.6714 Y2.3575
G01 X33.6614 Y2.3512
G01 X33.6520 Y2.3442
G01 X33.6239 Y2.3205
G01 X33.6117 Y2.3090
G01 X33.4939 Y2.1796
G01 X33.3338 Y2.0532
G01 X33.1553 Y1.9546
G01 X32.9630 Y1.8865
G01 X32.7621 Y1.8508
G01 X32.5582 Y1.8483
G01 X32.3565 Y1.8791
G01 X32.1626 Y1.9425
G01 X31.9817 Y2.0367
G01 X31.8186 Y2.1592
G01 X31.6707 Y2.3138
G01 X31.6595 Y2.3240
G01 X31.6473 Y2.3332
G01 X31.6376 Y2.3392
G01 X31.5725 Y2.3766
G01 X31.5653 Y2.3803
G01 X31.5542 Y2.3851
G01 X31.5427 Y2.3891
G01 X31.5271 Y2.3930
G01 X31.5151 Y2.3949
G01 X31.4780 Y2.3991
G01 X31.4666 Y2.3995
G01 X24.9266 Y2.3995
G01 X24.9114 Y2.3984
G01 X24.9001 Y2.3966
G01 X24.8927 Y2.3950
G01 X24.8135 Y2.3719
G01 X24.8024 Y2.3679
G01 X24.7917 Y2.3631
G01 X24.7814 Y2.3575
G01 X24.7714 Y2.3512
G01 X24.7620 Y2.3442
G01 X24.7339 Y2.3205
G01 X24.7217 Y2.3090
G01 X24.6039 Y2.1796
G01 X24.4438 Y2.0532
G01 X24.2653 Y1.9546
G01 X24.0730 Y1.8865
G01 X23.8721 Y1.8508
G01 X23.6682 Y1.8483
G01 X23.4665 Y1.8791
G01 X23.2726 Y1.9425
G01 X23.0917 Y2.0367
G01 X22.9286 Y2.1592
G01 X22.7807 Y2.3138
G01 X22.7695 Y2.3240
G01 X22.7573 Y2.3332
G01 X22.7476 Y2.3392
G01 X22.6825 Y2.3766
G01 X22.6753 Y2.3803
G01 X22.6642 Y2.3851
G01 X22.6527 Y2.3891
G01 X22.6371 Y2.3930
G01 X22.6251 Y2.3949
G01 X22.5880 Y2.3991
G01 X22.5766 Y2.3995
G01 X16.0404 Y2.3995
G01 X16.0290 Y2.3991
G01 X16.0214 Y2.3984
G01 X16.0101 Y2.3966
G01 X16.0027 Y2.3950
G01 X15.9272 Y2.3730
G01 X15.9161 Y2.3693
G01 X15.9052 Y2.3648
G01 X15.8948 Y2.3595
G01 X15.8847 Y2.3534
G01 X15.8782 Y2.3489
G01 X15.8690 Y2.3417
G01 X15.8408 Y2.3177
G01 X15.8317 Y2.3090
G01 X15.7139 Y2.1796
G01 X15.5538 Y2.0532
G01 X15.3753 Y1.9546
G01 X15.1830 Y1.8865
G01 X14.9821 Y1.8508
G01 X14.7782 Y1.8483
G01 X14.5765 Y1.8791
G01 X14.3826 Y1.9425
G01 X14.2017 Y2.0367
G01 X14.0386 Y2.1592
G01 X13.8976 Y2.3066
G01 X13.7827 Y2.4752
G01 X13.6968 Y2.6602
G01 X13.6423 Y2.8568
G01 X13.6206 Y3.0596
G01 X13.6324 Y3.2632
G01 X13.6772 Y3.4622
G01 X13.7539 Y3.6512
G01 X13.8605 Y3.8252
G01 X13.9941 Y3.9793
G01 X14.1510 Y4.1096
G01 X14.1673 Y4.1196
G01 X14.1765 Y4.1264
G01 X14.1824 Y4.1313
G01 X14.1933 Y4.1419
G01 X14.2420 Y4.1935
G01 X14.2499 Y4.2025
G01 X14.2593 Y4.2153
G01 X14.2673 Y4.2290
G01 X14.2740 Y4.2434
G01 X14.2792 Y4.2584
G01 X14.2829 Y4.2739
G01 X14.2960 Y4.3436
G01 X14.2978 Y4.3554
G01 X14.2986 Y4.3673
G01 X14.2984 Y4.3832
G01 X14.2966 Y4.3990
G01 X14.2933 Y4.4145
G01 X14.2884 Y4.4296
G01 X14.2602 Y4.4991
G01 X14.2554 Y4.5097
G01 X14.2499 Y4.5200
G01 X14.2436 Y4.5298
G01 X14.2366 Y4.5392
G01 X14.2290 Y4.5480
G01 X14.2006 Y4.5759
G01 X14.1883 Y4.5867
G01 X14.0386 Y4.6992
G01 X13.8934 Y4.8511
G01 X13.8824 Y4.8616
G01 X13.8704 Y4.8710
G01 X13.8608 Y4.8773
G01 X13.7925 Y4.9166
G01 X13.7853 Y4.9203
G01 X13.7742 Y4.9251
G01 X13.7627 Y4.9291
G01 X13.7510 Y4.9321
G01 X13.7391 Y4.9343
G01 X13.7055 Y4.9384
G01 X13.6942 Y4.9393
G01 X13.6866 Y4.9395
G01 X11.7256 Y4.9395
G01 X11.7103 Y4.9388
G01 X11.6953 Y4.9366
G01 X11.6805 Y4.9330
G01 X11.6124 Y4.9130
G01 X11.6010 Y4.9092
G01 X11.5864 Y4.9029
G01 X11.5759 Y4.8972
G01 X11.5658 Y4.8907
G01 X11.5563 Y4.8835
G01 X11.5445 Y4.8728
G01 X11.5016 Y4.8298
G01 X11.4942 Y4.8211
G01 X11.4857 Y4.8093
G01 X11.3374 Y4.6463
G01 X11.1644 Y4.5096
G01 X10.9714 Y4.4031
G01 X10.7636 Y4.3295
G01 X10.5466 Y4.2909
G01 X10.3262 Y4.2882
G01 X10.1083 Y4.3215
G01 X9.8988 Y4.3900
G01 X9.7032 Y4.4918
G01 X9.5270 Y4.6241
G01 X9.3747 Y4.7835
G01 X9.2504 Y4.9656
G01 X9.1576 Y5.1655
G01 X9.0987 Y5.3780
G01 X9.0753 Y5.5971
G01 X9.0880 Y5.8172
G01 X9.1364 Y6.0322
G01 X9.2194 Y6.2365
G01 X9.3346 Y6.4244
G01 X9.4257 Y6.5297
G01 X9.4326 Y6.5388
G01 X9.4409 Y6.5516
G01 X9.4478 Y6.5651
G01 X9.4773 Y6.6297
G01 X9.4819 Y6.6407
G01 X9.4844 Y6.6482
G01 X9.4884 Y6.6636
G01 X9.4909 Y6.6793
G01 X9.4918 Y6.6952
G01 X9.4914 Y6.7071
G01 X9.4901 Y6.7189
G01 X9.4800 Y6.7892
G01 X9.4770 Y6.8048
G01 X9.4737 Y6.8162
G01 X9.4696 Y6.8274
G01 X9.4628 Y6.8418
G01 X9.4568 Y6.8521
G01 X9.4500 Y6.8619
G01 X9.4426 Y6.8712
G01 X9.3934 Y6.9278
G01 X9.3822 Y6.9389
G01 X9.3700 Y6.9489
G01 X9.3565 Y6.9578
G01 X9.2713 Y7.0214
G01 X9.2116 Y7.1012
G01 X9.1756 Y7.1971
G01 X9.1720 Y7.2306
G01 X9.1720 Y7.7560
G01 X9.3600 Y7.7560
G01 X9.3600 Y7.2700
G01 X9.3602 Y7.2621
G01 X9.3612 Y7.2504
G01 X9.3624 Y7.2426
G01 X9.3648 Y7.2311
G01 X9.3694 Y7.2161
G01 X9.3737 Y7.2052
G01 X9.3789 Y7.1946
G01 X9.3870 Y7.1811
G01 X9.3939 Y7.1716
G01 X9.4041 Y7.1597
G01 X9.4126 Y7.1514
G01 X9.4216 Y7.1439
G01 X9.4344 Y7.1348
G01 X9.4446 Y7.1289
G01 X9.4552 Y7.1237
G01 X9.4698 Y7.1181
G01 X9.4811 Y7.1148
G01 X9.4965 Y7.1117
G01 X9.5082 Y7.1104
G01 X9.5200 Y7.1100
G01 X11.3200 Y7.1100
G01 X11.3318 Y7.1104
G01 X11.3435 Y7.1117
G01 X11.3551 Y7.1139
G01 X11.3664 Y7.1169
G01 X11.3776 Y7.1207
G01 X11.3848 Y7.1237
G01 X11.3954 Y7.1289
G01 X11.4056 Y7.1348
G01 X11.4153 Y7.1415
G01 X11.4245 Y7.1488
G01 X11.4303 Y7.1541
G01 X11.4386 Y7.1626
G01 X11.4461 Y7.1716
G01 X11.4530 Y7.1811
G01 X11.4592 Y7.1911
G01 X11.4646 Y7.2016
G01 X11.4678 Y7.2088
G01 X11.4719 Y7.2198
G01 X11.4752 Y7.2311
G01 X11.4776 Y7.2426
G01 X11.4792 Y7.2543
G01 X11.4800 Y7.2700
G01 X11.4800 Y7.7560
G01 X11.6680 Y7.7560
G01 X11.6680 Y7.2306
G01 X11.6644 Y7.1971
G01 X11.6284 Y7.1012
G01 X11.5686 Y7.0214
G01 X11.4705 Y6.9479
G01 X11.4584 Y6.9378
G01 X11.4474 Y6.9267
G01 X11.4383 Y6.9156
G01 X11.4059 Y6.8828
G01 X11.3982 Y6.8737
G01 X11.3891 Y6.8607
G01 X11.3813 Y6.8468
G01 X11.3764 Y6.8359
G01 X11.3724 Y6.8247
G01 X11.3691 Y6.8133
G01 X11.3524 Y6.7361
G01 X11.3502 Y6.7204
G01 X11.3496 Y6.7045
G01 X11.3502 Y6.6926
G01 X11.3516 Y6.6808
G01 X11.3540 Y6.6691
G01 X11.3571 Y6.6576
G01 X11.3860 Y6.5800
G01 X11.3906 Y6.5696
G01 X11.3941 Y6.5628
G01 X11.4021 Y6.5498
G01 X11.4112 Y6.5376
G01 X11.4281 Y6.5182
G01 X11.4443 Y6.5018
G01 X11.4890 Y6.4396
G01 X11.4936 Y6.4335
G01 X11.5010 Y6.4248
G01 X11.5090 Y6.4167
G01 X11.5176 Y6.4092
G01 X11.5766 Y6.3631
G01 X11.5896 Y6.3540
G01 X11.6000 Y6.3480
G01 X11.6108 Y6.3428
G01 X11.6182 Y6.3397
G01 X11.6333 Y6.3348
G01 X11.6450 Y6.3322
G01 X11.6950 Y6.3227
G01 X11.7062 Y6.3212
G01 X11.7213 Y6.3205
G01 X13.6912 Y6.3205
G01 X13.7026 Y6.3209
G01 X13.7177 Y6.3227
G01 X13.7289 Y6.3250
G01 X13.7363 Y6.3270
G01 X13.8121 Y6.3494
G01 X13.8233 Y6.3539
G01 X13.8342 Y6.3591
G01 X13.8447 Y6.3652
G01 X13.8514 Y6.3697
G01 X13.8641 Y6.3796
G01 X13.8941 Y6.4056
G01 X13.9023 Y6.4136
G01 X13.9941 Y6.5193
G01 X14.1510 Y6.6496
G01 X14.3272 Y6.7526
G01 X14.5177 Y6.8253
G01 X14.7176 Y6.8660
G01 X14.9215 Y6.8735
G01 X15.1238 Y6.8476
G01 X15.3192 Y6.7889
G01 X15.5024 Y6.6992
G01 X15.6684 Y6.5807
G01 X15.8129 Y6.4368
G01 X15.9320 Y6.2711
G01 X16.0223 Y6.0882
G01 X16.0816 Y5.8931
G01 X16.1089 Y5.6862
G01 X16.1101 Y5.6346
G01 X16.0930 Y5.4267
G01 X16.0434 Y5.2289
G01 X15.9620 Y5.0418
G01 X15.8512 Y4.8705
G01 X15.7139 Y4.7196
G01 X15.5435 Y4.5851
G01 X15.5346 Y4.5775
G01 X15.5290 Y4.5721
G01 X15.5210 Y4.5634
G01 X15.4769 Y4.5093
G01 X15.4700 Y4.5000
G01 X15.4637 Y4.4903
G01 X15.4599 Y4.4836
G01 X15.4533 Y4.4696
G01 X15.4492 Y4.4588
G01 X15.4470 Y4.4514
G01 X15.4436 Y4.4363
G01 X15.4334 Y4.3583
G01 X15.4323 Y4.3464
G01 X15.4321 Y4.3385
G01 X15.4325 Y4.3265
G01 X15.4332 Y4.3186
G01 X15.4351 Y4.3069
G01 X15.4390 Y4.2914
G01 X15.4443 Y4.2765
G01 X15.4798 Y4.2016
G01 X15.4855 Y4.1911
G01 X15.4921 Y4.1812
G01 X15.4993 Y4.1718
G01 X15.5045 Y4.1658
G01 X15.5158 Y4.1546
G01 X15.5392 Y4.1337
G01 X15.5475 Y4.1270
G01 X15.6684 Y4.0407
G01 X15.8131 Y3.8966
G01 X15.8229 Y3.8848
G01 X15.8309 Y3.8767
G01 X15.8366 Y3.8716
G01 X15.9049 Y3.8184
G01 X15.9184 Y3.8099
G01 X15.9326 Y3.8028
G01 X15.9400 Y3.7997
G01 X15.9514 Y3.7959
G01 X15.9669 Y3.7922
G01 X16.0206 Y3.7821
G01 X16.0319 Y3.7809
G01 X16.0431 Y3.7805
G01 X18.8655 Y3.7807
G01 X18.8807 Y3.7821
G01 X18.8956 Y3.7850
G01 X18.9749 Y3.8081
G01 X18.9861 Y3.8122
G01 X18.9934 Y3.8154
G01 X19.0040 Y3.8208
G01 X19.0142 Y3.8270
G01 X19.0239 Y3.8339
G01 X19.0331 Y3.8416
G01 X19.0388 Y3.8470
G01 X19.0470 Y3.8557
G01 X19.0985 Y3.9155
G01 X19.1077 Y3.9285
G01 X19.1155 Y3.9423
G01 X19.1205 Y3.9532
G01 X19.1246 Y3.9643
G01 X19.1279 Y3.9758
G01 X19.1303 Y3.9875
G01 X19.1420 Y4.0696
G01 X19.1425 Y4.0775
G01 X19.1426 Y4.0894
G01 X19.1413 Y4.1052
G01 X19.1393 Y4.1170
G01 X19.1364 Y4.1286
G01 X19.1341 Y4.1361
G01 X19.1298 Y4.1473
G01 X19.0953 Y4.2224
G01 X19.0876 Y4.2358
G01 X19.0785 Y4.2484
G01 X19.0710 Y4.2572
G01 X19.0629 Y4.2655
G01 X19.0571 Y4.2706
G01 X19.0480 Y4.2779
G01 X18.9856 Y4.3195
G01 X18.9755 Y4.3257
G01 X18.9686 Y4.3294
G01 X18.9579 Y4.3343
G01 X18.9468 Y4.3383
G01 X18.7888 Y4.3900
G01 X18.5932 Y4.4918
G01 X18.4170 Y4.6241
G01 X18.2647 Y4.7835
G01 X18.1404 Y4.9656
G01 X18.0476 Y5.1655
G01 X17.9887 Y5.3780
G01 X17.9653 Y5.5971
G01 X17.9780 Y5.8172
G01 X18.0264 Y6.0322
G01 X18.1094 Y6.2365
G01 X18.2246 Y6.4244
G01 X18.3157 Y6.5297
G01 X18.3226 Y6.5388
G01 X18.3289 Y6.5483
G01 X18.3327 Y6.5549
G01 X18.3378 Y6.5651
G01 X18.3673 Y6.6297
G01 X18.3719 Y6.6407
G01 X18.3756 Y6.6520
G01 X18.3792 Y6.6675
G01 X18.3809 Y6.6793
G01 X18.3817 Y6.6912
G01 X18.3816 Y6.7031
G01 X18.3806 Y6.7150
G01 X18.3700 Y6.7892
G01 X18.3679 Y6.8009
G01 X18.3649 Y6.8125
G01 X18.3596 Y6.8274
G01 X18.3528 Y6.8418
G01 X18.3468 Y6.8521
G01 X18.3400 Y6.8619
G01 X18.3326 Y6.8712
G01 X18.2834 Y6.9278
G01 X18.2722 Y6.9389
G01 X18.2600 Y6.9489
G01 X18.2465 Y6.9578
G01 X18.1613 Y7.0214
G01 X18.1016 Y7.1012
G01 X18.0656 Y7.1971
G01 X18.0620 Y7.2306
G01 X18.0620 Y7.7560
G01 X18.2500 Y7.7560
G01 X18.2500 Y7.2700
G01 X18.2504 Y7.2582
G01 X18.2512 Y7.2504
G01 X18.2524 Y7.2426
G01 X18.2548 Y7.2311
G01 X18.2594 Y7.2161
G01 X18.2637 Y7.2052
G01 X18.2689 Y7.1946
G01 X18.2748 Y7.1844
G01 X18.2839 Y7.1716
G01 X18.2914 Y7.1626
G01 X18.3026 Y7.1514
G01 X18.3116 Y7.1439
G01 X18.3244 Y7.1348
G01 X18.3346 Y7.1289
G01 X18.3452 Y7.1237
G01 X18.3598 Y7.1181
G01 X18.3711 Y7.1148
G01 X18.3865 Y7.1117
G01 X18.3982 Y7.1104
G01 X18.4100 Y7.1100
G01 X20.2100 Y7.1100
G01 X20.2218 Y7.1104
G01 X20.2335 Y7.1117
G01 X20.2451 Y7.1139
G01 X20.2564 Y7.1169
G01 X20.2676 Y7.1207
G01 X20.2784 Y7.1254
G01 X20.2854 Y7.1289
G01 X20.2956 Y7.1348
G01 X20.3053 Y7.1415
G01 X20.3145 Y7.1488
G01 X20.3203 Y7.1541
G01 X20.3286 Y7.1626
G01 X20.3361 Y7.1716
G01 X20.3430 Y7.1811
G01 X20.3492 Y7.1911
G01 X20.3529 Y7.1981
G01 X20.3578 Y7.2088
G01 X20.3619 Y7.2198
G01 X20.3652 Y7.2311
G01 X20.3676 Y7.2426
G01 X20.3696 Y7.2582
G01 X20.3700 Y7.2700
G01 X20.3700 Y7.7560
G01 X20.5580 Y7.7560
G01 X20.5580 Y7.2306
G01 X20.5544 Y7.1971
G01 X20.5184 Y7.1012
G01 X20.4586 Y7.0214
G01 X20.3605 Y6.9479
G01 X20.3484 Y6.9378
G01 X20.3374 Y6.9267
G01 X20.3283 Y6.9156
G01 X20.2959 Y6.8828
G01 X20.2858 Y6.8705
G01 X20.2791 Y6.8607
G01 X20.2713 Y6.8468
G01 X20.2664 Y6.8359
G01 X20.2624 Y6.8247
G01 X20.2591 Y6.8133
G01 X20.2424 Y6.7361
G01 X20.2402 Y6.7204
G01 X20.2396 Y6.7045
G01 X20.2402 Y6.6926
G01 X20.2416 Y6.6808
G01 X20.2440 Y6.6691
G01 X20.2471 Y6.6576
G01 X20.2760 Y6.5800
G01 X20.2790 Y6.5730
G01 X20.2841 Y6.5628
G01 X20.2921 Y6.5498
G01 X20.3012 Y6.5376
G01 X20.3181 Y6.5182
G01 X20.3343 Y6.5018
G01 X20.3790 Y6.4396
G01 X20.3860 Y6.4306
G01 X20.3910 Y6.4248
G01 X20.3990 Y6.4167
G01 X20.4076 Y6.4092
G01 X20.4666 Y6.3631
G01 X20.4797 Y6.3540
G01 X20.4900 Y6.3480
G01 X20.5045 Y6.3412
G01 X20.5157 Y6.3371
G01 X20.5234 Y6.3348
G01 X20.5350 Y6.3322
G01 X20.5851 Y6.3227
G01 X20.6000 Y6.3209
G01 X20.6113 Y6.3205
G01 X22.5812 Y6.3205
G01 X22.5926 Y6.3209
G01 X22.6077 Y6.3227
G01 X22.6189 Y6.3250
G01 X22.6263 Y6.3270
G01 X22.7021 Y6.3494
G01 X22.7096 Y6.3523
G01 X22.7206 Y6.3573
G01 X22.7313 Y6.3631
G01 X22.7414 Y6.3697
G01 X22.7541 Y6.3796
G01 X22.7841 Y6.4056
G01 X22.7923 Y6.4136
G01 X22.8841 Y6.5193
G01 X23.0410 Y6.6496
G01 X23.2172 Y6.7526
G01 X23.4077 Y6.8253
G01 X23.6076 Y6.8660
G01 X23.8115 Y6.8735
G01 X24.0138 Y6.8476
G01 X24.2092 Y6.7889
G01 X24.3924 Y6.6992
G01 X24.5584 Y6.5807
G01 X24.7029 Y6.4368
G01 X24.8220 Y6.2711
G01 X24.9123 Y6.0882
G01 X24.9716 Y5.8931
G01 X24.9989 Y5.6862
G01 X25.0001 Y5.6346
G01 X24.9830 Y5.4267
G01 X24.9334 Y5.2289
G01 X24.8520 Y5.0418
G01 X24.7412 Y4.8705
G01 X24.6039 Y4.7196
G01 X24.4335 Y4.5851
G01 X24.4246 Y4.5775
G01 X24.4190 Y4.5721
G01 X24.4110 Y4.5634
G01 X24.3622 Y4.5032
G01 X24.3537 Y4.4903
G01 X24.3481 Y4.4802
G01 X24.3448 Y4.4732
G01 X24.3392 Y4.4588
G01 X24.3360 Y4.4476
G01 X24.3343 Y4.4401
G01 X24.3324 Y4.4287
G01 X24.3225 Y4.3504
G01 X24.3221 Y4.3385
G01 X24.3222 Y4.3305
G01 X24.3228 Y4.3226
G01 X24.3244 Y4.3108
G01 X24.3259 Y4.3030
G01 X24.3290 Y4.2914
G01 X24.3343 Y4.2765
G01 X24.3680 Y4.2051
G01 X24.3735 Y4.1946
G01 X24.3821 Y4.1812
G01 X24.3893 Y4.1718
G01 X24.3945 Y4.1658
G01 X24.4029 Y4.1573
G01 X24.4266 Y4.1360
G01 X24.4404 Y4.1249
G01 X24.5584 Y4.0407
G01 X24.7031 Y3.8966
G01 X24.7104 Y3.8877
G01 X24.7209 Y3.8767
G01 X24.7325 Y3.8668
G01 X24.7949 Y3.8184
G01 X24.8049 Y3.8119
G01 X24.8154 Y3.8061
G01 X24.8300 Y3.7997
G01 X24.8414 Y3.7959
G01 X24.8530 Y3.7929
G01 X24.9032 Y3.7833
G01 X24.9144 Y3.7816
G01 X24.9256 Y3.7807
G01 X27.7555 Y3.7807
G01 X27.7707 Y3.7821
G01 X27.7856 Y3.7850
G01 X27.8649 Y3.8081
G01 X27.8761 Y3.8122
G01 X27.8834 Y3.8154
G01 X27.8940 Y3.8208
G01 X27.9042 Y3.8270
G01 X27.9139 Y3.8339
G01 X27.9231 Y3.8416
G01 X27.9288 Y3.8470
G01 X27.9370 Y3.8557
G01 X27.9885 Y3.9155
G01 X27.9977 Y3.9285
G01 X28.0055 Y3.9423
G01 X28.0105 Y3.9532
G01 X28.0146 Y3.9643
G01 X28.0179 Y3.9758
G01 X28.0203 Y3.9875
G01 X28.0320 Y4.0696
G01 X28.0325 Y4.0775
G01 X28.0326 Y4.0894
G01 X28.0313 Y4.1052
G01 X28.0293 Y4.1170
G01 X28.0264 Y4.1286
G01 X28.0241 Y4.1361
G01 X28.0198 Y4.1473
G01 X27.9853 Y4.2224
G01 X27.9776 Y4.2358
G01 X27.9685 Y4.2484
G01 X27.9610 Y4.2572
G01 X27.9529 Y4.2655
G01 X27.9471 Y4.2706
G01 X27.9380 Y4.2779
G01 X27.8756 Y4.3195
G01 X27.8655 Y4.3257
G01 X27.8586 Y4.3294
G01 X27.8479 Y4.3343
G01 X27.8368 Y4.3383
G01 X27.6788 Y4.3900
G01 X27.4832 Y4.4918
G01 X27.3070 Y4.6241
G01 X27.1547 Y4.7835
G01 X27.0304 Y4.9656
G01 X26.9376 Y5.1655
G01 X26.8787 Y5.3780
G01 X26.8553 Y5.5971
G01 X26.8680 Y5.8172
G01 X26.9164 Y6.0322
G01 X26.9994 Y6.2365
G01 X27.1146 Y6.4244
G01 X27.2057 Y6.5297
G01 X27.2126 Y6.5388
G01 X27.2189 Y6.5483
G01 X27.2227 Y6.5549
G01 X27.2278 Y6.5651
G01 X27.2573 Y6.6297
G01 X27.2619 Y6.6407
G01 X27.2656 Y6.6520
G01 X27.2692 Y6.6675
G01 X27.2709 Y6.6793
G01 X27.2717 Y6.6912
G01 X27.2716 Y6.7031
G01 X27.2706 Y6.7150
G01 X27.2600 Y6.7892
G01 X27.2579 Y6.8009
G01 X27.2549 Y6.8125
G01 X27.2496 Y6.8274
G01 X27.2428 Y6.8418
G01 X27.2368 Y6.8521
G01 X27.2300 Y6.8619
G01 X27.2226 Y6.8712
G01 X27.1734 Y6.9278
G01 X27.1622 Y6.9389
G01 X27.1500 Y6.9489
G01 X27.1365 Y6.9578
G01 X27.0513 Y7.0214
G01 X26.9916 Y7.1012
G01 X26.9556 Y7.1971
G01 X26.9520 Y7.2306
G01 X26.9520 Y7.7560
G01 X27.1400 Y7.7560
G01 X27.1400 Y7.2700
G01 X27.1404 Y7.2582
G01 X27.1412 Y7.2504
G01 X27.1424 Y7.2426
G01 X27.1448 Y7.2311
G01 X27.1494 Y7.2161
G01 X27.1537 Y7.2052
G01 X27.1589 Y7.1946
G01 X27.1648 Y7.1844
G01 X27.1739 Y7.1716
G01 X27.1814 Y7.1626
G01 X27.1926 Y7.1514
G01 X27.2016 Y7.1439
G01 X27.2144 Y7.1348
G01 X27.2246 Y7.1289
G01 X27.2352 Y7.1237
G01 X27.2498 Y7.1181
G01 X27.2611 Y7.1148
G01 X27.2765 Y7.1117
G01 X27.2882 Y7.1104
G01 X27.3000 Y7.1100
G01 X29.1000 Y7.1100
G01 X29.1118 Y7.1104
G01 X29.1235 Y7.1117
G01 X29.1351 Y7.1139
G01 X29.1464 Y7.1169
G01 X29.1576 Y7.1207
G01 X29.1684 Y7.1254
G01 X29.1754 Y7.1289
G01 X29.1856 Y7.1348
G01 X29.1953 Y7.1415
G01 X29.2045 Y7.1488
G01 X29.2103 Y7.1541
G01 X29.2186 Y7.1626
G01 X29.2261 Y7.1716
G01 X29.2330 Y7.1811
G01 X29.2392 Y7.1911
G01 X29.2429 Y7.1981
G01 X29.2478 Y7.2088
G01 X29.2519 Y7.2198
G01 X29.2552 Y7.2311
G01 X29.2576 Y7.2426
G01 X29.2596 Y7.2582
G01 X29.2600 Y7.2700
G01 X29.2600 Y7.7560
G01 X29.4480 Y7.7560
G01 X29.4480 Y7.2306
G01 X29.4444 Y7.1971
G01 X29.4084 Y7.1012
G01 X29.3486 Y7.0214
G01 X29.2505 Y6.9479
G01 X29.2384 Y6.9378
G01 X29.2274 Y6.9267
G01 X29.2183 Y6.9156
G01 X29.1859 Y6.8828
G01 X29.1758 Y6.8705
G01 X29.1691 Y6.8607
G01 X29.1613 Y6.8468
G01 X29.1564 Y6.8359
G01 X29.1524 Y6.8247
G01 X29.1491 Y6.8133
G01 X29.1324 Y6.7361
G01 X29.1302 Y6.7204
G01 X29.1296 Y6.7045
G01 X29.1302 Y6.6926
G01 X29.1316 Y6.6808
G01 X29.1340 Y6.6691
G01 X29.1371 Y6.6576
G01 X29.1660 Y6.5800
G01 X29.1690 Y6.5730
G01 X29.1741 Y6.5628
G01 X29.1821 Y6.5498
G01 X29.1912 Y6.5376
G01 X29.2081 Y6.5182
G01 X29.2243 Y6.5018
G01 X29.2690 Y6.4396
G01 X29.2760 Y6.4306
G01 X29.2810 Y6.4248
G01 X29.2890 Y6.4167
G01 X29.2976 Y6.4092
G01 X29.3566 Y6.3631
G01 X29.3697 Y6.3540
G01 X29.3800 Y6.3480
G01 X29.3945 Y6.3412
G01 X29.4057 Y6.3371
G01 X29.4134 Y6.3348
G01 X29.4250 Y6.3322
G01 X29.4751 Y6.3227
G01 X29.4900 Y6.3209
G01 X29.5013 Y6.3205
G01 X31.4712 Y6.3205
G01 X31.4826 Y6.3209
G01 X31.4977 Y6.3227
G01 X31.5089 Y6.3250
G01 X31.5163 Y6.3270
G01 X31.5921 Y6.3494
G01 X31.5996 Y6.3523
G01 X31.6106 Y6.3573
G01 X31.6213 Y6.3631
G01 X31.6314 Y6.3697
G01 X31.6441 Y6.3796
G01 X31.6741 Y6.4056
G01 X31.6823 Y6.4136
G01 X31.7741 Y6.5193
G01 X31.9310 Y6.6496
G01 X32.1072 Y6.7526
G01 X32.2977 Y6.8253
G01 X32.4976 Y6.8660
G01 X32.7015 Y6.8735
G01 X32.9038 Y6.8476
G01 X33.0992 Y6.7889
G01 X33.2824 Y6.6992
G01 X33.4484 Y6.5807
G01 X33.5929 Y6.4368
G01 X33.7120 Y6.2711
G01 X33.8023 Y6.0882
G01 X33.8616 Y5.8931
G01 X33.8889 Y5.6862
G01 X33.8901 Y5.6346
G01 X33.8730 Y5.4267
G01 X33.8234 Y5.2289
G01 X33.7420 Y5.0418
G01 X33.6312 Y4.8705
G01 X33.4939 Y4.7196
G01 X33.3235 Y4.5851
G01 X33.3146 Y4.5775
G01 X33.3090 Y4.5721
G01 X33.3010 Y4.5634
G01 X33.2522 Y4.5032
G01 X33.2437 Y4.4903
G01 X33.2381 Y4.4802
G01 X33.2348 Y4.4732
G01 X33.2292 Y4.4588
G01 X33.2260 Y4.4476
G01 X33.2243 Y4.4401
G01 X33.2224 Y4.4287
G01 X33.2125 Y4.3504
G01 X33.2121 Y4.3385
G01 X33.2122 Y4.3305
G01 X33.2128 Y4.3226
G01 X33.2144 Y4.3108
G01 X33.2159 Y4.3030
G01 X33.2190 Y4.2914
G01 X33.2243 Y4.2765
G01 X33.2580 Y4.2051
G01 X33.2635 Y4.1946
G01 X33.2721 Y4.1812
G01 X33.2793 Y4.1718
G01 X33.2845 Y4.1658
G01 X33.2929 Y4.1573
G01 X33.3166 Y4.1360
G01 X33.3304 Y4.1249
G01 X33.4484 Y4.0407
G01 X33.5931 Y3.8966
G01 X33.6004 Y3.8877
G01 X33.6109 Y3.8767
G01 X33.6225 Y3.8668
G01 X33.6849 Y3.8184
G01 X33.6949 Y3.8119
G01 X33.7054 Y3.8061
G01 X33.7200 Y3.7997
G01 X33.7314 Y3.7959
G01 X33.7430 Y3.7929
G01 X33.7932 Y3.7833
G01 X33.8044 Y3.7816
G01 X33.8119 Y3.7809
G01 X33.8231 Y3.7805
G01 X36.6455 Y3.7807
G01 X36.6607 Y3.7821
G01 X36.6756 Y3.7850
G01 X36.7549 Y3.8081
G01 X36.7661 Y3.8122
G01 X36.7734 Y3.8154
G01 X36.7840 Y3.8208
G01 X36.7942 Y3.8270
G01 X36.8039 Y3.8339
G01 X36.8131 Y3.8416
G01 X36.8188 Y3.8470
G01 X36.8270 Y3.8557
G01 X36.8785 Y3.9155
G01 X36.8877 Y3.9285
G01 X36.8955 Y3.9423
G01 X36.9005 Y3.9532
G01 X36.9046 Y3.9643
G01 X36.9079 Y3.9758
G01 X36.9103 Y3.9875
G01 X36.9220 Y4.0696
G01 X36.9225 Y4.0775
G01 X36.9226 Y4.0894
G01 X36.9213 Y4.1052
G01 X36.9193 Y4.1170
G01 X36.9164 Y4.1286
G01 X36.9141 Y4.1361
G01 X36.9098 Y4.1473
G01 X36.8753 Y4.2224
G01 X36.8676 Y4.2358
G01 X36.8585 Y4.2484
G01 X36.8510 Y4.2572
G01 X36.8429 Y4.2655
G01 X36.8371 Y4.2706
G01 X36.8280 Y4.2779
G01 X36.7656 Y4.3195
G01 X36.7555 Y4.3257
G01 X36.7486 Y4.3294
G01 X36.7379 Y4.3343
G01 X36.7268 Y4.3383
G01 X36.5688 Y4.3900
G01 X36.3732 Y4.4918
G01 X36.1970 Y4.6241
G01 X36.0447 Y4.7835
G01 X35.9204 Y4.9656
G01 X35.8276 Y5.1655
G01 X35.7687 Y5.3780
G01 X35.7453 Y5.5971
G01 X35.7580 Y5.8172
G01 X35.8064 Y6.0322
G01 X35.8894 Y6.2365
G01 X36.0046 Y6.4244
G01 X36.0957 Y6.5297
G01 X36.1026 Y6.5388
G01 X36.1089 Y6.5483
G01 X36.1127 Y6.5549
G01 X36.1178 Y6.5651
G01 X36.1473 Y6.6297
G01 X36.1519 Y6.6407
G01 X36.1556 Y6.6520
G01 X36.1592 Y6.6675
G01 X36.1609 Y6.6793
G01 X36.1617 Y6.6912
G01 X36.1616 Y6.7031
G01 X36.1606 Y6.7150
G01 X36.1500 Y6.7892
G01 X36.1479 Y6.8009
G01 X36.1449 Y6.8125
G01 X36.1396 Y6.8274
G01 X36.1328 Y6.8418
G01 X36.1268 Y6.8521
G01 X36.1200 Y6.8619
G01 X36.1126 Y6.8712
G01 X36.0634 Y6.9278
G01 X36.0522 Y6.9389
G01 X36.0400 Y6.9489
G01 X36.0265 Y6.9578
G01 X35.9413 Y7.0214
G01 X35.8816 Y7.1012
G01 X35.8456 Y7.1971
G01 X35.8420 Y7.2306
G01 X35.8420 Y7.7560
G01 X36.0300 Y7.7560
G01 X36.0300 Y7.2700
G01 X36.0304 Y7.2582
G01 X36.0312 Y7.2504
G01 X36.0324 Y7.2426
G01 X36.0348 Y7.2311
G01 X36.0394 Y7.2161
G01 X36.0437 Y7.2052
G01 X36.0489 Y7.1946
G01 X36.0548 Y7.1844
G01 X36.0639 Y7.1716
G01 X36.0714 Y7.1626
G01 X36.0826 Y7.1514
G01 X36.0916 Y7.1439
G01 X36.1044 Y7.1348
G01 X36.1146 Y7.1289
G01 X36.1252 Y7.1237
G01 X36.1398 Y7.1181
G01 X36.1511 Y7.1148
G01 X36.1665 Y7.1117
G01 X36.1782 Y7.1104
G01 X36.1900 Y7.1100
G01 X37.9900 Y7.1100
G01 X38.0018 Y7.1104
G01 X38.0135 Y7.1117
G01 X38.0251 Y7.1139
G01 X38.0364 Y7.1169
G01 X38.0476 Y7.1207
G01 X38.0584 Y7.1254
G01 X38.0654 Y7.1289
G01 X38.0756 Y7.1348
G01 X38.0853 Y7.1415
G01 X38.0945 Y7.1488
G01 X38.1003 Y7.1541
G01 X38.1086 Y7.1626
G01 X38.1161 Y7.1716
G01 X38.1230 Y7.1811
G01 X38.1292 Y7.1911
G01 X38.1329 Y7.1981
G01 X38.1378 Y7.2088
G01 X38.1419 Y7.2198
G01 X38.1452 Y7.2311
G01 X38.1476 Y7.2426
G01 X38.1496 Y7.2582
G01 X38.1500 Y7.2700
G01 X38.1500 Y7.7560
G01 X38.3380 Y7.7560
G01 X38.3380 Y7.2306
G01 X38.3344 Y7.1971
G01 X38.2984 Y7.1012
G01 X38.2386 Y7.0214
G01 X38.1405 Y6.9479
G01 X38.1284 Y6.9378
G01 X38.1174 Y6.9267
G01 X38.1083 Y6.9156
G01 X38.0759 Y6.8828
G01 X38.0682 Y6.8737
G01 X38.0591 Y6.8607
G01 X38.0513 Y6.8468
G01 X38.0464 Y6.8359
G01 X38.0424 Y6.8247
G01 X38.0391 Y6.8133
G01 X38.0224 Y6.7361
G01 X38.0202 Y6.7204
G01 X38.0196 Y6.7045
G01 X38.0202 Y6.6926
G01 X38.0216 Y6.6808
G01 X38.0240 Y6.6691
G01 X38.0271 Y6.6576
G01 X38.0560 Y6.5800
G01 X38.0590 Y6.5730
G01 X38.0641 Y6.5628
G01 X38.0721 Y6.5498
G01 X38.0812 Y6.5376
G01 X38.0981 Y6.5182
G01 X38.1143 Y6.5018
G01 X38.1590 Y6.4396
G01 X38.1660 Y6.4306
G01 X38.1710 Y6.4248
G01 X38.1790 Y6.4167
G01 X38.1876 Y6.4092
G01 X38.2466 Y6.3631
G01 X38.2597 Y6.3540
G01 X38.2700 Y6.3480
G01 X38.2845 Y6.3412
G01 X38.2957 Y6.3371
G01 X38.3034 Y6.3348
G01 X38.3150 Y6.3322
G01 X38.3651 Y6.3227
G01 X38.3800 Y6.3209
G01 X38.3913 Y6.3205
G01 X40.3612 Y6.3205
G01 X40.3726 Y6.3209
G01 X40.3877 Y6.3227
G01 X40.3989 Y6.3250
G01 X40.4063 Y6.3270
G01 X40.4821 Y6.3494
G01 X40.4896 Y6.3523
G01 X40.5006 Y6.3573
G01 X40.5113 Y6.3631
G01 X40.5214 Y6.3697
G01 X40.5341 Y6.3796
G01 X40.5641 Y6.4056
G01 X40.5723 Y6.4136
G01 X40.6641 Y6.5193
G01 X40.8210 Y6.6496
G01 X40.9972 Y6.7526
G01 X41.1877 Y6.8253
G01 X41.3876 Y6.8660
G01 X41.5915 Y6.8735
G01 X41.7938 Y6.8476
G01 X41.9892 Y6.7889
G01 X42.1724 Y6.6992
G01 X42.3384 Y6.5807
G01 X42.4829 Y6.4368
G01 X42.6020 Y6.2711
G01 X42.6923 Y6.0882
G01 X42.7516 Y5.8931
G01 X42.7789 Y5.6862
G01 X42.7801 Y5.6346
G01 X42.7630 Y5.4267
G01 X42.7134 Y5.2289
G01 X42.6320 Y5.0418
G01 X42.5212 Y4.8705
G01 X42.3839 Y4.7196
G01 X42.2135 Y4.5851
G01 X42.2046 Y4.5775
G01 X42.1990 Y4.5721
G01 X42.1910 Y4.5634
G01 X42.1422 Y4.5032
G01 X42.1337 Y4.4903
G01 X42.1281 Y4.4802
G01 X42.1248 Y4.4732
G01 X42.1192 Y4.4588
G01 X42.1160 Y4.4476
G01 X42.1143 Y4.4401
G01 X42.1124 Y4.4287
G01 X42.1025 Y4.3504
G01 X42.1021 Y4.3385
G01 X42.1022 Y4.3305
G01 X42.1028 Y4.3226
G01 X42.1044 Y4.3108
G01 X42.1059 Y4.3030
G01 X42.1090 Y4.2914
G01 X42.1143 Y4.2765
G01 X42.1480 Y4.2051
G01 X42.1535 Y4.1946
G01 X42.1621 Y4.1812
G01 X42.1693 Y4.1718
G01 X42.1745 Y4.1658
G01 X42.1829 Y4.1573
G01 X42.2066 Y4.1360
G01 X42.2204 Y4.1249
G01 X42.3384 Y4.0407
G01 X42.4831 Y3.8966
G01 X42.4904 Y3.8877
G01 X42.5009 Y3.8767
G01 X42.5125 Y3.8668
G01 X42.5716 Y3.8207
G01 X42.5849 Y3.8119
G01 X42.5954 Y3.8061
G01 X42.6063 Y3.8012
G01 X42.6176 Y3.7971
G01 X42.6291 Y3.7938
G01 X42.6369 Y3.7922
G01 X42.6832 Y3.7833
G01 X42.6981 Y3.7812
G01 X42.7131 Y3.7805
G01 X45.5355 Y3.7807
G01 X45.5507 Y3.7821
G01 X45.5656 Y3.7850
G01 X45.6449 Y3.8081
G01 X45.6561 Y3.8122
G01 X45.6634 Y3.8154
G01 X45.6740 Y3.8208
G01 X45.6842 Y3.8270
G01 X45.6939 Y3.8339
G01 X45.7031 Y3.8416
G01 X45.7088 Y3.8470
G01 X45.7170 Y3.8557
G01 X45.7685 Y3.9155
G01 X45.7777 Y3.9285
G01 X45.7855 Y3.9423
G01 X45.7905 Y3.9532
G01 X45.7946 Y3.9643
G01 X45.7979 Y3.9758
G01 X45.8003 Y3.9875
G01 X45.8120 Y4.0696
G01 X45.8125 Y4.0775
G01 X45.8126 Y4.0894
G01 X45.8113 Y4.1052
G01 X45.8093 Y4.1170
G01 X45.8064 Y4.1286
G01 X45.8041 Y4.1361
G01 X45.7998 Y4.1473
G01 X45.7653 Y4.2224
G01 X45.7576 Y4.2358
G01 X45.7485 Y4.2484
G01 X45.7410 Y4.2572
G01 X45.7329 Y4.2655
G01 X45.7271 Y4.2706
G01 X45.7180 Y4.2779
G01 X45.6556 Y4.3195
G01 X45.6455 Y4.3257
G01 X45.6386 Y4.3294
G01 X45.6279 Y4.3343
G01 X45.6168 Y4.3383
G01 X45.4588 Y4.3900
G01 X45.2632 Y4.4918
G01 X45.0870 Y4.6241
G01 X44.9347 Y4.7835
G01 X44.8104 Y4.9656
G01 X44.7176 Y5.1655
G01 X44.6587 Y5.3780
G01 X44.6353 Y5.5971
G01 X44.6480 Y5.8172
G01 X44.6964 Y6.0322
G01 X44.7794 Y6.2365
G01 X44.8946 Y6.4244
G01 X44.9857 Y6.5297
G01 X44.9926 Y6.5388
G01 X44.9989 Y6.5483
G01 X45.0027 Y6.5549
G01 X45.0078 Y6.5651
G01 X45.0373 Y6.6297
G01 X45.0419 Y6.6407
G01 X45.0456 Y6.6520
G01 X45.0492 Y6.6675
G01 X45.0509 Y6.6793
G01 X45.0517 Y6.6912
G01 X45.0516 Y6.7031
G01 X45.0506 Y6.7150
G01 X45.0400 Y6.7892
G01 X45.0379 Y6.8009
G01 X45.0349 Y6.8125
G01 X45.0296 Y6.8274
G01 X45.0228 Y6.8418
G01 X45.0168 Y6.8521
G01 X45.0100 Y6.8619
G01 X45.0026 Y6.8712
G01 X44.9534 Y6.9278
G01 X44.9422 Y6.9389
G01 X44.9300 Y6.9489
G01 X44.9165 Y6.9578
G01 X44.8313 Y7.0214
G01 X44.7716 Y7.1012
G01 X44.7356 Y7.1971
G01 X44.7320 Y7.2306
G01 X44.7320 Y7.7560
G01 X44.9200 Y7.7560
G01 X44.9200 Y7.2700
G01 X44.9204 Y7.2582
G01 X44.9212 Y7.2504
G01 X44.9224 Y7.2426
G01 X44.9248 Y7.2311
G01 X44.9294 Y7.2161
G01 X44.9337 Y7.2052
G01 X44.9389 Y7.1946
G01 X44.9448 Y7.1844
G01 X44.9539 Y7.1716
G01 X44.9614 Y7.1626
G01 X44.9726 Y7.1514
G01 X44.9816 Y7.1439
G01 X44.9944 Y7.1348
G01 X45.0046 Y7.1289
G01 X45.0152 Y7.1237
G01 X45.0298 Y7.1181
G01 X45.0411 Y7.1148
G01 X45.0565 Y7.1117
G01 X45.0682 Y7.1104
G01 X45.0800 Y7.1100
G01 X46.8800 Y7.1100
G01 X46.8918 Y7.1104
G01 X46.9035 Y7.1117
G01 X46.9151 Y7.1139
G01 X46.9264 Y7.1169
G01 X46.9376 Y7.1207
G01 X46.9484 Y7.1254
G01 X46.9554 Y7.1289
G01 X46.9656 Y7.1348
G01 X46.9753 Y7.1415
G01 X46.9845 Y7.1488
G01 X46.9903 Y7.1541
G01 X46.9986 Y7.1626
G01 X47.0061 Y7.1716
G01 X47.0130 Y7.1811
G01 X47.0192 Y7.1911
G01 X47.0229 Y7.1981
G01 X47.0278 Y7.2088
G01 X47.0319 Y7.2198
G01 X47.0352 Y7.2311
G01 X47.0376 Y7.2426
G01 X47.0396 Y7.2582
G01 X47.0400 Y7.2700
G01 X47.0400 Y7.7560
G01 X47.2280 Y7.7560
G01 X47.2280 Y7.2306
G01 X47.2244 Y7.1971
G01 X47.1884 Y7.1012
G01 X47.1286 Y7.0214
G01 X47.0305 Y6.9479
G01 X47.0184 Y6.9378
G01 X47.0074 Y6.9267
G01 X46.9983 Y6.9156
G01 X46.9659 Y6.8828
G01 X46.9558 Y6.8705
G01 X46.9491 Y6.8607
G01 X46.9432 Y6.8503
G01 X46.9364 Y6.8359
G01 X46.9324 Y6.8247
G01 X46.9291 Y6.8133
G01 X46.9124 Y6.7361
G01 X46.9102 Y6.7204
G01 X46.9096 Y6.7045
G01 X46.9102 Y6.6926
G01 X46.9116 Y6.6808
G01 X46.9140 Y6.6691
G01 X46.9171 Y6.6576
G01 X46.9460 Y6.5800
G01 X46.9506 Y6.5696
G01 X46.9541 Y6.5628
G01 X46.9621 Y6.5498
G01 X46.9712 Y6.5376
G01 X46.9881 Y6.5182
G01 X47.0043 Y6.5018
G01 X47.0490 Y6.4396
G01 X47.0560 Y6.4306
G01 X47.0610 Y6.4248
G01 X47.0690 Y6.4167
G01 X47.0776 Y6.4092
G01 X47.1366 Y6.3631
G01 X47.1497 Y6.3540
G01 X47.1600 Y6.3480
G01 X47.1745 Y6.3412
G01 X47.1857 Y6.3371
G01 X47.1934 Y6.3348
G01 X47.2050 Y6.3322
G01 X47.2551 Y6.3227
G01 X47.2700 Y6.3209
G01 X47.2813 Y6.3205
G01 X49.2512 Y6.3205
G01 X49.2626 Y6.3209
G01 X49.2777 Y6.3227
G01 X49.2852 Y6.3242
G01 X49.2963 Y6.3270
G01 X49.3721 Y6.3494
G01 X49.3833 Y6.3539
G01 X49.3942 Y6.3591
G01 X49.4013 Y6.3631
G01 X49.4114 Y6.3697
G01 X49.4241 Y6.3796
G01 X49.4541 Y6.4056
G01 X49.4623 Y6.4136
G01 X49.5541 Y6.5193
G01 X49.7110 Y6.6496
G01 X49.8872 Y6.7526
G01 X50.0777 Y6.8253
G01 X50.2776 Y6.8660
G01 X50.4815 Y6.8735
G01 X50.6838 Y6.8476
G01 X50.8792 Y6.7889
G01 X51.0624 Y6.6992
G01 X51.2284 Y6.5807
G01 X51.3729 Y6.4368
G01 X51.4920 Y6.2711
G01 X51.5823 Y6.0882
G01 X51.6416 Y5.8931
G01 X51.6689 Y5.6862
G01 X51.6701 Y5.6346
G01 X51.6530 Y5.4267
G01 X51.6034 Y5.2289
G01 X51.5220 Y5.0418
G01 X51.4112 Y4.8705
G01 X51.2739 Y4.7196
G01 X51.1035 Y4.5851
G01 X51.0946 Y4.5775
G01 X51.0890 Y4.5721
G01 X51.0810 Y4.5634
G01 X51.0322 Y4.5032
G01 X51.0237 Y4.4903
G01 X51.0181 Y4.4802
G01 X51.0148 Y4.4732
G01 X51.0092 Y4.4588
G01 X51.0060 Y4.4476
G01 X51.0043 Y4.4401
G01 X51.0024 Y4.4287
G01 X50.9925 Y4.3504
G01 X50.9921 Y4.3385
G01 X50.9922 Y4.3305
G01 X50.9928 Y4.3226
G01 X50.9944 Y4.3108
G01 X50.9959 Y4.3030
G01 X50.9990 Y4.2914
G01 X51.0043 Y4.2765
G01 X51.0398 Y4.2016
G01 X51.0476 Y4.1878
G01 X51.0568 Y4.1748
G01 X51.0672 Y4.1629
G01 X51.0758 Y4.1546
G01 X51.0992 Y4.1337
G01 X51.1075 Y4.1270
G01 X51.2284 Y4.0407
G01 X51.3731 Y3.8966
G01 X51.3804 Y3.8877
G01 X51.3909 Y3.8767
G01 X51.4025 Y3.8668
G01 X51.4616 Y3.8207
G01 X51.4749 Y3.8119
G01 X51.4854 Y3.8061
G01 X51.4963 Y3.8012
G01 X51.5076 Y3.7971
G01 X51.5230 Y3.7929
G01 X51.5806 Y3.7821
G01 X51.5919 Y3.7809
G01 X51.6031 Y3.7805
G01 X54.4255 Y3.7807
G01 X54.4407 Y3.7821
G01 X54.4556 Y3.7850
G01 X54.5349 Y3.8081
G01 X54.5461 Y3.8122
G01 X54.5534 Y3.8154
G01 X54.5640 Y3.8208
G01 X54.5742 Y3.8270
G01 X54.5839 Y3.8339
G01 X54.5931 Y3.8416
G01 X54.5988 Y3.8470
G01 X54.6070 Y3.8557
G01 X54.6585 Y3.9155
G01 X54.6677 Y3.9285
G01 X54.6755 Y3.9423
G01 X54.6805 Y3.9532
G01 X54.6846 Y3.9643
G01 X54.6879 Y3.9758
G01 X54.6903 Y3.9875
G01 X54.7020 Y4.0696
G01 X54.7025 Y4.0775
G01 X54.7026 Y4.0894
G01 X54.7013 Y4.1052
G01 X54.6993 Y4.1170
G01 X54.6964 Y4.1286
G01 X54.6941 Y4.1361
G01 X54.6898 Y4.1473
G01 X54.6553 Y4.2224
G01 X54.6476 Y4.2358
G01 X54.6385 Y4.2484
G01 X54.6310 Y4.2572
G01 X54.6229 Y4.2655
G01 X54.6171 Y4.2706
G01 X54.6080 Y4.2779
G01 X54.5456 Y4.3195
G01 X54.5355 Y4.3257
G01 X54.5286 Y4.3294
G01 X54.5179 Y4.3343
G01 X54.5068 Y4.3383
G01 X54.3488 Y4.3900
G01 X54.1532 Y4.4918
G01 X53.9770 Y4.6241
G01 X53.8247 Y4.7835
G01 X53.7004 Y4.9656
G01 X53.6076 Y5.1655
G01 X53.5487 Y5.3780
G01 X53.5253 Y5.5971
G01 X53.5380 Y5.8172
G01 X53.5864 Y6.0322
G01 X53.6694 Y6.2365
G01 X53.7846 Y6.4244
G01 X53.8757 Y6.5297
G01 X53.8826 Y6.5388
G01 X53.8889 Y6.5483
G01 X53.8927 Y6.5549
G01 X53.8978 Y6.5651
G01 X53.9273 Y6.6297
G01 X53.9319 Y6.6407
G01 X53.9356 Y6.6520
G01 X53.9392 Y6.6675
G01 X53.9409 Y6.6793
G01 X53.9417 Y6.6912
G01 X53.9416 Y6.7031
G01 X53.9406 Y6.7150
G01 X53.9300 Y6.7892
G01 X53.9279 Y6.8009
G01 X53.9249 Y6.8125
G01 X53.9196 Y6.8274
G01 X53.9128 Y6.8418
G01 X53.9068 Y6.8521
G01 X53.9000 Y6.8619
G01 X53.8926 Y6.8712
G01 X53.8434 Y6.9278
G01 X53.8322 Y6.9389
G01 X53.8200 Y6.9489
G01 X53.8065 Y6.9578
G01 X53.7213 Y7.0214
G01 X53.6616 Y7.1012
G01 X53.6256 Y7.1971
G01 X53.6220 Y7.2306
G01 X53.6220 Y7.7560
G01 X53.8100 Y7.7560
G01 X53.8100 Y7.2700
G01 X53.8104 Y7.2582
G01 X53.8112 Y7.2504
G01 X53.8124 Y7.2426
G01 X53.8148 Y7.2311
G01 X53.8194 Y7.2161
G01 X53.8237 Y7.2052
G01 X53.8289 Y7.1946
G01 X53.8348 Y7.1844
G01 X53.8439 Y7.1716
G01 X53.8514 Y7.1626
G01 X53.8626 Y7.1514
G01 X53.8716 Y7.1439
G01 X53.8844 Y7.1348
G01 X53.8946 Y7.1289
G01 X53.9052 Y7.1237
G01 X53.9198 Y7.1181
G01 X53.9311 Y7.1148
G01 X53.9465 Y7.1117
G01 X53.9582 Y7.1104
G01 X53.9700 Y7.1100
G01 X55.7700 Y7.1100
G01 X55.7818 Y7.1104
G01 X55.7935 Y7.1117
G01 X55.8051 Y7.1139
G01 X55.8164 Y7.1169
G01 X55.8276 Y7.1207
G01 X55.8384 Y7.1254
G01 X55.8454 Y7.1289
G01 X55.8556 Y7.1348
G01 X55.8653 Y7.1415
G01 X55.8745 Y7.1488
G01 X55.8803 Y7.1541
G01 X55.8886 Y7.1626
G01 X55.8961 Y7.1716
G01 X55.9030 Y7.1811
G01 X55.9092 Y7.1911
G01 X55.9129 Y7.1981
G01 X55.9178 Y7.2088
G01 X55.9219 Y7.2198
G01 X55.9252 Y7.2311
G01 X55.9276 Y7.2426
G01 X55.9296 Y7.2582
G01 X55.9300 Y7.2700
G01 X55.9300 Y7.7560
G01 X56.1180 Y7.7560
G01 X56.1180 Y7.2306
G01 X56.1144 Y7.1971
G01 X56.0784 Y7.1012
G01 X56.0186 Y7.0214
G01 X55.9205 Y6.9479
G01 X55.9084 Y6.9378
G01 X55.8974 Y6.9267
G01 X55.8883 Y6.9156
G01 X55.8559 Y6.8828
G01 X55.8458 Y6.8705
G01 X55.8391 Y6.8607
G01 X55.8332 Y6.8503
G01 X55.8264 Y6.8359
G01 X55.8224 Y6.8247
G01 X55.8191 Y6.8133
G01 X55.8024 Y6.7361
G01 X55.8002 Y6.7204
G01 X55.7996 Y6.7045
G01 X55.8002 Y6.6926
G01 X55.8016 Y6.6808
G01 X55.8040 Y6.6691
G01 X55.8071 Y6.6576
G01 X55.8360 Y6.5800
G01 X55.8406 Y6.5696
G01 X55.8441 Y6.5628
G01 X55.8521 Y6.5498
G01 X55.8612 Y6.5376
G01 X55.8781 Y6.5182
G01 X55.8943 Y6.5018
G01 X55.9390 Y6.4396
G01 X55.9436 Y6.4335
G01 X55.9510 Y6.4248
G01 X55.9590 Y6.4167
G01 X55.9676 Y6.4092
G01 X56.0266 Y6.3631
G01 X56.0397 Y6.3540
G01 X56.0500 Y6.3480
G01 X56.0572 Y6.3444
G01 X56.0682 Y6.3397
G01 X56.0834 Y6.3348
G01 X56.0950 Y6.3322
G01 X56.1451 Y6.3227
G01 X56.1600 Y6.3209
G01 X56.1713 Y6.3205
G01 X58.1412 Y6.3205
G01 X58.1526 Y6.3209
G01 X58.1602 Y6.3216
G01 X58.1715 Y6.3234
G01 X58.1826 Y6.3260
G01 X58.2621 Y6.3494
G01 X58.2733 Y6.3539
G01 X58.2842 Y6.3591
G01 X58.2947 Y6.3652
G01 X58.3047 Y6.3720
G01 X58.3141 Y6.3796
G01 X58.3412 Y6.4031
G01 X58.3523 Y6.4136
G01 X58.4441 Y6.5193
G01 X58.6010 Y6.6496
G01 X58.7772 Y6.7526
G01 X58.9677 Y6.8253
G01 X59.1676 Y6.8660
G01 X59.3715 Y6.8735
G01 X59.5738 Y6.8476
G01 X59.7692 Y6.7889
G01 X59.9524 Y6.6992
G01 X60.1184 Y6.5807
G01 X60.2629 Y6.4368
G01 X60.3820 Y6.2711
G01 X60.4723 Y6.0882
G01 X60.5316 Y5.8931
G01 X60.5589 Y5.6862
G01 X60.5601 Y5.6346
G01 X60.5430 Y5.4267
G01 X60.4934 Y5.2289
G01 X60.4120 Y5.0418
G01 X60.3012 Y4.8705
G01 X60.1639 Y4.7196
G01 X59.9935 Y4.5851
G01 X59.9846 Y4.5775
G01 X59.9790 Y4.5721
G01 X59.9710 Y4.5634
G01 X59.9269 Y4.5093
G01 X59.9200 Y4.5000
G01 X59.9137 Y4.4903
G01 X59.9064 Y4.4767
G01 X59.9005 Y4.4624
G01 X59.8960 Y4.4476
G01 X59.8929 Y4.4325
G01 X59.8834 Y4.3583
G01 X59.8823 Y4.3464
G01 X59.8821 Y4.3385
G01 X59.8828 Y4.3226
G01 X59.8844 Y4.3108
G01 X59.8859 Y4.3030
G01 X59.8890 Y4.2914
G01 X59.8915 Y4.2839
G01 X59.8976 Y4.2692
G01 X59.9298 Y4.2016
G01 X59.9335 Y4.1946
G01 X59.9398 Y4.1845
G01 X59.9493 Y4.1718
G01 X59.9572 Y4.1629
G01 X59.9629 Y4.1573
G01 X59.9866 Y4.1360
G01 X59.9947 Y4.1292
G01 X60.1184 Y4.0407
G01 X60.2631 Y3.8966
G01 X60.2704 Y3.8877
G01 X60.2782 Y3.8793
G01 X60.2895 Y3.8692
G01 X60.3549 Y3.8184
G01 X60.3684 Y3.8099
G01 X60.3826 Y3.8028
G01 X60.3976 Y3.7971
G01 X60.4130 Y3.7929
G01 X60.4669 Y3.7827
G01 X60.4781 Y3.7812
G01 X60.4894 Y3.7805
G01 X63.3079 Y3.7805
G01 X63.3193 Y3.7809
G01 X63.3269 Y3.7816
G01 X63.3345 Y3.7827
G01 X63.3456 Y3.7850
G01 X63.4211 Y3.8070
G01 X63.4324 Y3.8108
G01 X63.4434 Y3.8154
G01 X63.4505 Y3.8189
G01 X63.4609 Y3.8248
G01 X63.4707 Y3.8315
G01 X63.4770 Y3.8364
G01 X63.4860 Y3.8442
G01 X63.4916 Y3.8499
G01 X63.5435 Y3.9094
G01 X63.5533 Y3.9219
G01 X63.5598 Y3.9319
G01 X63.5672 Y3.9459
G01 X63.5719 Y3.9569
G01 X63.5769 Y3.9719
G01 X63.5803 Y3.9875
G01 X63.5915 Y4.0656
G01 X63.5925 Y4.0775
G01 X63.5926 Y4.0854
G01 X63.5921 Y4.0973
G01 X63.5913 Y4.1052
G01 X63.5901 Y4.1131
G01 X63.5875 Y4.1247
G01 X63.5841 Y4.1361
G01 X63.5813 Y4.1436
G01 X63.5487 Y4.2155
G01 X63.5453 Y4.2224
G01 X63.5396 Y4.2325
G01 X63.5309 Y4.2453
G01 X63.5236 Y4.2543
G01 X63.5129 Y4.2655
G01 X63.5041 Y4.2731
G01 X63.4917 Y4.2823
G01 X63.4356 Y4.3195
G01 X63.4221 Y4.3276
G01 X63.4079 Y4.3343
G01 X63.3968 Y4.3383
G01 X63.2388 Y4.3900
G01 X63.0432 Y4.4918
G01 X62.8670 Y4.6241
G01 X62.7147 Y4.7835
G01 X62.5904 Y4.9656
G01 X62.4976 Y5.1655
G01 X62.4387 Y5.3780
G01 X62.4153 Y5.5971
G01 X62.4280 Y5.8172
G01 X62.4764 Y6.0322
G01 X62.5594 Y6.2365
G01 X62.6746 Y6.4244
G01 X62.7657 Y6.5297
G01 X62.7726 Y6.5388
G01 X62.7789 Y6.5483
G01 X62.7827 Y6.5549
G01 X62.7878 Y6.5651
G01 X62.8173 Y6.6297
G01 X62.8219 Y6.6407
G01 X62.8256 Y6.6520
G01 X62.8292 Y6.6675
G01 X62.8309 Y6.6793
G01 X62.8317 Y6.6912
G01 X62.8316 Y6.7031
G01 X62.8306 Y6.7150
G01 X62.8200 Y6.7892
G01 X62.8179 Y6.8009
G01 X62.8149 Y6.8125
G01 X62.8096 Y6.8274
G01 X62.8028 Y6.8418
G01 X62.7968 Y6.8521
G01 X62.7900 Y6.8619
G01 X62.7826 Y6.8712
G01 X62.7334 Y6.9278
G01 X62.7222 Y6.9389
G01 X62.7100 Y6.9489
G01 X62.6965 Y6.9578
G01 X62.6113 Y7.0214
G01 X62.5516 Y7.1012
G01 X62.5156 Y7.1971
G01 X62.5120 Y7.2306
G01 X62.5120 Y7.7560
G01 X62.7000 Y7.7560
G01 X62.7000 Y7.2700
G01 X62.7004 Y7.2582
G01 X62.7012 Y7.2504
G01 X62.7024 Y7.2426
G01 X62.7048 Y7.2311
G01 X62.7094 Y7.2161
G01 X62.7137 Y7.2052
G01 X62.7189 Y7.1946
G01 X62.7248 Y7.1844
G01 X62.7339 Y7.1716
G01 X62.7414 Y7.1626
G01 X62.7526 Y7.1514
G01 X62.7616 Y7.1439
G01 X62.7744 Y7.1348
G01 X62.7846 Y7.1289
G01 X62.7952 Y7.1237
G01 X62.8098 Y7.1181
G01 X62.8211 Y7.1148
G01 X62.8365 Y7.1117
G01 X62.8482 Y7.1104
G01 X62.8600 Y7.1100
G01 X64.6600 Y7.1100
G01 X64.6718 Y7.1104
G01 X64.6835 Y7.1117
G01 X64.6951 Y7.1139
G01 X64.7064 Y7.1169
G01 X64.7176 Y7.1207
G01 X64.7284 Y7.1254
G01 X64.7354 Y7.1289
G01 X64.7456 Y7.1348
G01 X64.7553 Y7.1415
G01 X64.7645 Y7.1488
G01 X64.7703 Y7.1541
G01 X64.7786 Y7.1626
G01 X64.7861 Y7.1716
G01 X64.7930 Y7.1811
G01 X64.7992 Y7.1911
G01 X64.8029 Y7.1981
G01 X64.8078 Y7.2088
G01 X64.8119 Y7.2198
G01 X64.8152 Y7.2311
G01 X64.8176 Y7.2426
G01 X64.8196 Y7.2582
G01 X64.8200 Y7.2700
G01 X64.8200 Y7.7560
G01 X65.0080 Y7.7560
G01 X65.0080 Y7.2306
G01 X65.0044 Y7.1971
G01 X64.9684 Y7.1012
G01 X64.9086 Y7.0214
G01 X64.8105 Y6.9479
G01 X64.8013 Y6.9405
G01 X64.7900 Y6.9296
G01 X64.7848 Y6.9237
G01 X64.7783 Y6.9156
G01 X64.7459 Y6.8828
G01 X64.7382 Y6.8737
G01 X64.7313 Y6.8640
G01 X64.7251 Y6.8538
G01 X64.7196 Y6.8432
G01 X64.7150 Y6.8322
G01 X64.7101 Y6.8171
G01 X64.6924 Y6.7361
G01 X64.6906 Y6.7243
G01 X64.6897 Y6.7125
G01 X64.6899 Y6.6966
G01 X64.6910 Y6.6847
G01 X64.6940 Y6.6691
G01 X64.6984 Y6.6538
G01 X64.7275 Y6.5765
G01 X64.7324 Y6.5662
G01 X64.7360 Y6.5595
G01 X64.7421 Y6.5498
G01 X64.7465 Y6.5436
G01 X64.7537 Y6.5347
G01 X64.7681 Y6.5182
G01 X64.7843 Y6.5018
G01 X64.8313 Y6.4365
G01 X64.8410 Y6.4248
G01 X64.8490 Y6.4167
G01 X64.8606 Y6.4068
G01 X64.9166 Y6.3631
G01 X64.9263 Y6.3561
G01 X64.9365 Y6.3499
G01 X64.9472 Y6.3444
G01 X64.9582 Y6.3397
G01 X64.9695 Y6.3359
G01 X64.9850 Y6.3322
G01 X65.0351 Y6.3227
G01 X65.0500 Y6.3209
G01 X65.0613 Y6.3205
G01 X67.0312 Y6.3205
G01 X67.0426 Y6.3209
G01 X67.0577 Y6.3227
G01 X67.0652 Y6.3242
G01 X67.0763 Y6.3270
G01 X67.1521 Y6.3494
G01 X67.1633 Y6.3539
G01 X67.1742 Y6.3591
G01 X67.1813 Y6.3631
G01 X67.1914 Y6.3697
G01 X67.2041 Y6.3796
G01 X67.2341 Y6.4056
G01 X67.2423 Y6.4136
G01 X67.3341 Y6.5193
G01 X67.4910 Y6.6496
G01 X67.6672 Y6.7526
G01 X67.8577 Y6.8253
G01 X68.0576 Y6.8660
G01 X68.2615 Y6.8735
G01 X68.4638 Y6.8476
G01 X68.6592 Y6.7889
G01 X68.8424 Y6.6992
G01 X69.0084 Y6.5807
G01 X69.1529 Y6.4368
G01 X69.2720 Y6.2711
G01 X69.3623 Y6.0882
G01 X69.4216 Y5.8931
G01 X69.4489 Y5.6862
G01 X69.4501 Y5.6346
G01 X69.4330 Y5.4267
G01 X69.3834 Y5.2289
G01 X69.3020 Y5.0418
G01 X69.1912 Y4.8705
G01 X69.0539 Y4.7196
G01 X68.8835 Y4.5851
G01 X68.8746 Y4.5775
G01 X68.8690 Y4.5721
G01 X68.8610 Y4.5634
G01 X68.8122 Y4.5032
G01 X68.8037 Y4.4903
G01 X68.7964 Y4.4767
G01 X68.7933 Y4.4696
G01 X68.7892 Y4.4588
G01 X68.7851 Y4.4439
G01 X68.7824 Y4.4287
G01 X68.7729 Y4.3543
G01 X68.7721 Y4.3385
G01 X68.7728 Y4.3226
G01 X68.7744 Y4.3108
G01 X68.7779 Y4.2953
G01 X68.7828 Y4.2802
G01 X68.7876 Y4.2692
G01 X68.8180 Y4.2051
G01 X68.8235 Y4.1946
G01 X68.8298 Y4.1845
G01 X68.8344 Y4.1780
G01 X68.8393 Y4.1718
G01 X68.8472 Y4.1629
G01 X68.8558 Y4.1546
G01 X68.8766 Y4.1360
G01 X68.8875 Y4.1270
G01 X69.0084 Y4.0407
G01 X69.1531 Y3.8966
G01 X69.1604 Y3.8877
G01 X69.1709 Y3.8767
G01 X69.1825 Y3.8668
G01 X69.2385 Y3.8231
G01 X69.2482 Y3.8161
G01 X69.2584 Y3.8099
G01 X69.2690 Y3.8044
G01 X69.2800 Y3.7997
G01 X69.2914 Y3.7959
G01 X69.2991 Y3.7938
G01 X69.3569 Y3.7827
G01 X69.3681 Y3.7812
G01 X69.3831 Y3.7805
G01 X72.1979 Y3.7805
G01 X72.2093 Y3.7809
G01 X72.2169 Y3.7816
G01 X72.2282 Y3.7834
G01 X72.2393 Y3.7860
G01 X72.3149 Y3.8081
G01 X72.3261 Y3.8122
G01 X72.3370 Y3.8171
G01 X72.3440 Y3.8208
G01 X72.3542 Y3.8270
G01 X72.3639 Y3.8339
G01 X72.3701 Y3.8389
G01 X72.3788 Y3.8470
G01 X72.3870 Y3.8557
G01 X72.4385 Y3.9155
G01 X72.4477 Y3.9285
G01 X72.4555 Y3.9423
G01 X72.4605 Y3.9532
G01 X72.4646 Y3.9643
G01 X72.4679 Y3.9758
G01 X72.4703 Y3.9875
G01 X72.4815 Y4.0656
G01 X72.4826 Y4.0815
G01 X72.4821 Y4.0973
G01 X72.4807 Y4.1092
G01 X72.4784 Y4.1209
G01 X72.4764 Y4.1286
G01 X72.4727 Y4.1399
G01 X72.4682 Y4.1509
G01 X72.4387 Y4.2155
G01 X72.4335 Y4.2259
G01 X72.4254 Y4.2390
G01 X72.4161 Y4.2514
G01 X72.4084 Y4.2600
G01 X72.3971 Y4.2706
G01 X72.3911 Y4.2755
G01 X72.3817 Y4.2823
G01 X72.3189 Y4.3237
G01 X72.3051 Y4.3311
G01 X72.2905 Y4.3371
G01 X72.1288 Y4.3900
G01 X71.9332 Y4.4918
G01 X71.7570 Y4.6241
G01 X71.6047 Y4.7835
G01 X71.4804 Y4.9656
G01 X71.3876 Y5.1655
G01 X71.3287 Y5.3780
G01 X71.3053 Y5.5971
G01 X71.3180 Y5.8172
G01 X71.3664 Y6.0322
G01 X71.4494 Y6.2365
G01 X71.5646 Y6.4244
G01 X71.6557 Y6.5297
G01 X71.6626 Y6.5388
G01 X71.6689 Y6.5483
G01 X71.6727 Y6.5549
G01 X71.6778 Y6.5651
G01 X71.7073 Y6.6297
G01 X71.7119 Y6.6407
G01 X71.7156 Y6.6520
G01 X71.7192 Y6.6675
G01 X71.7209 Y6.6793
G01 X71.7217 Y6.6912
G01 X71.7216 Y6.7031
G01 X71.7206 Y6.7150
G01 X71.7100 Y6.7892
G01 X71.7079 Y6.8009
G01 X71.7049 Y6.8125
G01 X71.6996 Y6.8274
G01 X71.6928 Y6.8418
G01 X71.6868 Y6.8521
G01 X71.6800 Y6.8619
G01 X71.6726 Y6.8712
G01 X71.6234 Y6.9278
G01 X71.6122 Y6.9389
G01 X71.6000 Y6.9489
G01 X71.5865 Y6.9578
G01 X71.5013 Y7.0214
G01 X71.4416 Y7.1012
G01 X71.4056 Y7.1971
G01 X71.4020 Y7.2306
G01 X71.4020 Y7.7560
G01 X71.5900 Y7.7560
G01 X71.5900 Y7.2700
G01 X71.5904 Y7.2582
G01 X71.5912 Y7.2504
G01 X71.5924 Y7.2426
G01 X71.5948 Y7.2311
G01 X71.5994 Y7.2161
G01 X71.6037 Y7.2052
G01 X71.6089 Y7.1946
G01 X71.6148 Y7.1844
G01 X71.6239 Y7.1716
G01 X71.6314 Y7.1626
G01 X71.6426 Y7.1514
G01 X71.6516 Y7.1439
G01 X71.6644 Y7.1348
G01 X71.6746 Y7.1289
G01 X71.6852 Y7.1237
G01 X71.6998 Y7.1181
G01 X71.7111 Y7.1148
G01 X71.7265 Y7.1117
G01 X71.7382 Y7.1104
G01 X71.7500 Y7.1100
G01 X73.5500 Y7.1100
G01 X73.5618 Y7.1104
G01 X73.5735 Y7.1117
G01 X73.5851 Y7.1139
G01 X73.5964 Y7.1169
G01 X73.6076 Y7.1207
G01 X73.6184 Y7.1254
G01 X73.6254 Y7.1289
G01 X73.6356 Y7.1348
G01 X73.6453 Y7.1415
G01 X73.6545 Y7.1488
G01 X73.6603 Y7.1541
G01 X73.6686 Y7.1626
G01 X73.6761 Y7.1716
G01 X73.6830 Y7.1811
G01 X73.6892 Y7.1911
G01 X73.6929 Y7.1981
G01 X73.6978 Y7.2088
G01 X73.7019 Y7.2198
G01 X73.7052 Y7.2311
G01 X73.7076 Y7.2426
G01 X73.7096 Y7.2582
G01 X73.7100 Y7.2700
G01 X73.7100 Y7.7560
G01 X73.8980 Y7.7560
G01 X73.8980 Y7.2306
G01 X73.8944 Y7.1971
G01 X73.8584 Y7.1012
G01 X73.7986 Y7.0214
G01 X73.7005 Y6.9479
G01 X73.6913 Y6.9405
G01 X73.6800 Y6.9296
G01 X73.6748 Y6.9237
G01 X73.6683 Y6.9156
G01 X73.6359 Y6.8828
G01 X73.6282 Y6.8737
G01 X73.6213 Y6.8640
G01 X73.6151 Y6.8538
G01 X73.6096 Y6.8432
G01 X73.6050 Y6.8322
G01 X73.6001 Y6.8171
G01 X73.5824 Y6.7361
G01 X73.5806 Y6.7243
G01 X73.5797 Y6.7125
G01 X73.5799 Y6.6966
G01 X73.5810 Y6.6847
G01 X73.5840 Y6.6691
G01 X73.5884 Y6.6538
G01 X73.6175 Y6.5765
G01 X73.6224 Y6.5662
G01 X73.6260 Y6.5595
G01 X73.6321 Y6.5498
G01 X73.6365 Y6.5436
G01 X73.6437 Y6.5347
G01 X73.6581 Y6.5182
G01 X73.6743 Y6.5018
G01 X73.7213 Y6.4365
G01 X73.7310 Y6.4248
G01 X73.7390 Y6.4167
G01 X73.7506 Y6.4068
G01 X73.8066 Y6.3631
G01 X73.8163 Y6.3561
G01 X73.8265 Y6.3499
G01 X73.8372 Y6.3444
G01 X73.8482 Y6.3397
G01 X73.8595 Y6.3359
G01 X73.8750 Y6.3322
G01 X73.9251 Y6.3227
G01 X73.9400 Y6.3209
G01 X73.9513 Y6.3205
G01 X75.9212 Y6.3205
G01 X75.9326 Y6.3209
G01 X75.9477 Y6.3227
G01 X75.9552 Y6.3242
G01 X75.9663 Y6.3270
G01 X76.0421 Y6.3494
G01 X76.0533 Y6.3539
G01 X76.0642 Y6.3591
G01 X76.0713 Y6.3631
G01 X76.0814 Y6.3697
G01 X76.0941 Y6.3796
G01 X76.1241 Y6.4056
G01 X76.1323 Y6.4136
G01 X76.2241 Y6.5193
G01 X76.3810 Y6.6496
G01 X76.5572 Y6.7526
G01 X76.7477 Y6.8253
G01 X76.9476 Y6.8660
G01 X77.1515 Y6.8735
G01 X77.3538 Y6.8476
G01 X77.5492 Y6.7889
G01 X77.7324 Y6.6992
G01 X77.8984 Y6.5807
G01 X78.0429 Y6.4368
G01 X78.1620 Y6.2711
G01 X78.2523 Y6.0882
G01 X78.3116 Y5.8931
G01 X78.3389 Y5.6862
G01 X78.3401 Y5.6346
G01 X78.3230 Y5.4267
G01 X78.2734 Y5.2289
G01 X78.1920 Y5.0418
G01 X78.0812 Y4.8705
G01 X77.9439 Y4.7196
G01 X77.7735 Y4.5851
G01 X77.7646 Y4.5775
G01 X77.7590 Y4.5721
G01 X77.7510 Y4.5634
G01 X77.7022 Y4.5032
G01 X77.6937 Y4.4903
G01 X77.6864 Y4.4767
G01 X77.6819 Y4.4660
G01 X77.6792 Y4.4588
G01 X77.6751 Y4.4439
G01 X77.6724 Y4.4287
G01 X77.6629 Y4.3543
G01 X77.6621 Y4.3385
G01 X77.6628 Y4.3226
G01 X77.6651 Y4.3069
G01 X77.6679 Y4.2953
G01 X77.6728 Y4.2802
G01 X77.6776 Y4.2692
G01 X77.7080 Y4.2051
G01 X77.7135 Y4.1946
G01 X77.7176 Y4.1878
G01 X77.7244 Y4.1780
G01 X77.7293 Y4.1718
G01 X77.7372 Y4.1629
G01 X77.7458 Y4.1546
G01 X77.7666 Y4.1360
G01 X77.7775 Y4.1270
G01 X77.8984 Y4.0407
G01 X78.0431 Y3.8966
G01 X78.0504 Y3.8877
G01 X78.0609 Y3.8767
G01 X78.0725 Y3.8668
G01 X78.1285 Y3.8231
G01 X78.1382 Y3.8161
G01 X78.1484 Y3.8099
G01 X78.1590 Y3.8044
G01 X78.1700 Y3.7997
G01 X78.1814 Y3.7959
G01 X78.1891 Y3.7938
G01 X78.2469 Y3.7827
G01 X78.2581 Y3.7812
G01 X78.2731 Y3.7805
G01 X81.0879 Y3.7805
G01 X81.0993 Y3.7809
G01 X81.1145 Y3.7827
G01 X81.1293 Y3.7860
G01 X81.2049 Y3.8081
G01 X81.2124 Y3.8108
G01 X81.2234 Y3.8154
G01 X81.2340 Y3.8208
G01 X81.2442 Y3.8270
G01 X81.2539 Y3.8339
G01 X81.2631 Y3.8416
G01 X81.2688 Y3.8470
G01 X81.2770 Y3.8557
G01 X81.3285 Y3.9155
G01 X81.3377 Y3.9285
G01 X81.3455 Y3.9423
G01 X81.3505 Y3.9532
G01 X81.3546 Y3.9643
G01 X81.3579 Y3.9758
G01 X81.3603 Y3.9875
G01 X81.3715 Y4.0656
G01 X81.3726 Y4.0815
G01 X81.3721 Y4.0973
G01 X81.3707 Y4.1092
G01 X81.3693 Y4.1170
G01 X81.3664 Y4.1286
G01 X81.3627 Y4.1399
G01 X81.3582 Y4.1509
G01 X81.3287 Y4.2155
G01 X81.3235 Y4.2259
G01 X81.3176 Y4.2358
G01 X81.3085 Y4.2484
G01 X81.2984 Y4.2600
G01 X81.2871 Y4.2706
G01 X81.2811 Y4.2755
G01 X81.2717 Y4.2823
G01 X81.2089 Y4.3237
G01 X81.1951 Y4.3311
G01 X81.1805 Y4.3371
G01 X81.0188 Y4.3900
G01 X80.8232 Y4.4918
G01 X80.6470 Y4.6241
G01 X80.4947 Y4.7835
G01 X80.3704 Y4.9656
G01 X80.2776 Y5.1655
G01 X80.2187 Y5.3780
G01 X80.1953 Y5.5971
G01 X80.2080 Y5.8172
G01 X80.2564 Y6.0322
G01 X80.3394 Y6.2365
G01 X80.4546 Y6.4244
G01 X80.5457 Y6.5297
G01 X80.5526 Y6.5388
G01 X80.5589 Y6.5483
G01 X80.5645 Y6.5582
G01 X80.5678 Y6.5651
G01 X80.5973 Y6.6297
G01 X80.6019 Y6.6407
G01 X80.6066 Y6.6559
G01 X80.6092 Y6.6675
G01 X80.6109 Y6.6793
G01 X80.6117 Y6.6912
G01 X80.6116 Y6.7031
G01 X80.6106 Y6.7150
G01 X80.6000 Y6.7892
G01 X80.5979 Y6.8009
G01 X80.5949 Y6.8125
G01 X80.5896 Y6.8274
G01 X80.5828 Y6.8418
G01 X80.5768 Y6.8521
G01 X80.5700 Y6.8619
G01 X80.5626 Y6.8712
G01 X80.5134 Y6.9278
G01 X80.5022 Y6.9389
G01 X80.4900 Y6.9489
G01 X80.4765 Y6.9578
G01 X80.3913 Y7.0214
G01 X80.3316 Y7.1012
G01 X80.2956 Y7.1971
G01 X80.2920 Y7.2306
G01 X80.2920 Y7.7560
G01 X80.4800 Y7.7560
G01 X80.4800 Y7.2700
G01 X80.4804 Y7.2582
G01 X80.4812 Y7.2504
G01 X80.4831 Y7.2388
G01 X80.4848 Y7.2311
G01 X80.4894 Y7.2161
G01 X80.4937 Y7.2052
G01 X80.4989 Y7.1946
G01 X80.5048 Y7.1844
G01 X80.5139 Y7.1716
G01 X80.5214 Y7.1626
G01 X80.5326 Y7.1514
G01 X80.5416 Y7.1439
G01 X80.5511 Y7.1370
G01 X80.5646 Y7.1289
G01 X80.5752 Y7.1237
G01 X80.5861 Y7.1194
G01 X80.5973 Y7.1158
G01 X80.6126 Y7.1124
G01 X80.6282 Y7.1104
G01 X80.6400 Y7.1100
G01 X82.4400 Y7.1100
G01 X82.4518 Y7.1104
G01 X82.4635 Y7.1117
G01 X82.4751 Y7.1139
G01 X82.4864 Y7.1169
G01 X82.4976 Y7.1207
G01 X82.5048 Y7.1237
G01 X82.5154 Y7.1289
G01 X82.5256 Y7.1348
G01 X82.5353 Y7.1415
G01 X82.5415 Y7.1463
G01 X82.5503 Y7.1541
G01 X82.5586 Y7.1626
G01 X82.5661 Y7.1716
G01 X82.5730 Y7.1811
G01 X82.5792 Y7.1911
G01 X82.5846 Y7.2016
G01 X82.5893 Y7.2124
G01 X82.5919 Y7.2198
G01 X82.5952 Y7.2311
G01 X82.5976 Y7.2426
G01 X82.5992 Y7.2543
G01 X82.6000 Y7.2700
G01 X82.6000 Y7.7560
G01 X82.7880 Y7.7560
G01 X82.7880 Y7.2306
G01 X82.7844 Y7.1971
G01 X82.7484 Y7.1012
G01 X82.6886 Y7.0214
G01 X82.5905 Y6.9479
G01 X82.5813 Y6.9405
G01 X82.5700 Y6.9296
G01 X82.5648 Y6.9237
G01 X82.5583 Y6.9156
G01 X82.5259 Y6.8828
G01 X82.5182 Y6.8737
G01 X82.5113 Y6.8640
G01 X82.5051 Y6.8538
G01 X82.4996 Y6.8432
G01 X82.4936 Y6.8285
G01 X82.4901 Y6.8171
G01 X82.4724 Y6.7361
G01 X82.4706 Y6.7243
G01 X82.4697 Y6.7125
G01 X82.4699 Y6.6966
G01 X82.4716 Y6.6808
G01 X82.4749 Y6.6652
G01 X82.4784 Y6.6538
G01 X82.5075 Y6.5765
G01 X82.5106 Y6.5696
G01 X82.5160 Y6.5595
G01 X82.5200 Y6.5530
G01 X82.5265 Y6.5436
G01 X82.5337 Y6.5347
G01 X82.5481 Y6.5182
G01 X82.5643 Y6.5018
G01 X82.6113 Y6.4365
G01 X82.6210 Y6.4248
G01 X82.6290 Y6.4167
G01 X82.6406 Y6.4068
G01 X82.6966 Y6.3631
G01 X82.7063 Y6.3561
G01 X82.7165 Y6.3499
G01 X82.7272 Y6.3444
G01 X82.7382 Y6.3397
G01 X82.7495 Y6.3359
G01 X82.7650 Y6.3322
G01 X82.8151 Y6.3227
G01 X82.8300 Y6.3209
G01 X82.8413 Y6.3205
G01 X84.8112 Y6.3205
G01 X84.8226 Y6.3209
G01 X84.8377 Y6.3227
G01 X84.8489 Y6.3250
G01 X84.8563 Y6.3270
G01 X84.9321 Y6.3494
G01 X84.9396 Y6.3523
G01 X84.9506 Y6.3573
G01 X84.9613 Y6.3631
G01 X84.9714 Y6.3697
G01 X84.9841 Y6.3796
G01 X85.0141 Y6.4056
G01 X85.0223 Y6.4136
G01 X85.1141 Y6.5193
G01 X85.2710 Y6.6496
G01 X85.4472 Y6.7526
G01 X85.6377 Y6.8253
G01 X85.8376 Y6.8660
G01 X86.0415 Y6.8735
G01 X86.2438 Y6.8476
G01 X86.4392 Y6.7889
G01 X86.6224 Y6.6992
G01 X86.7884 Y6.5807
G01 X86.9329 Y6.4368
G01 X87.0520 Y6.2711
G01 X87.1423 Y6.0882
G01 X87.2016 Y5.8931
G01 X87.2289 Y5.6862
G01 X87.2301 Y5.6346
G01 X87.2130 Y5.4267
G01 X87.1634 Y5.2289
G01 X87.0820 Y5.0418
G01 X86.9712 Y4.8705
G01 X86.8339 Y4.7196
G01 X86.6635 Y4.5851
G01 X86.6546 Y4.5775
G01 X86.6463 Y4.5692
G01 X86.6410 Y4.5634
G01 X86.5922 Y4.5032
G01 X86.5857 Y4.4936
G01 X86.5817 Y4.4870
G01 X86.5748 Y4.4732
G01 X86.5692 Y4.4588
G01 X86.5651 Y4.4439
G01 X86.5624 Y4.4287
G01 X86.5529 Y4.3543
G01 X86.5521 Y4.3385
G01 X86.5528 Y4.3226
G01 X86.5551 Y4.3069
G01 X86.5579 Y4.2953
G01 X86.5615 Y4.2839
G01 X86.5676 Y4.2692
G01 X86.5980 Y4.2051
G01 X86.6035 Y4.1946
G01 X86.6076 Y4.1878
G01 X86.6144 Y4.1780
G01 X86.6193 Y4.1718
G01 X86.6272 Y4.1629
G01 X86.6358 Y4.1546
G01 X86.6566 Y4.1360
G01 X86.6675 Y4.1270
G01 X86.7884 Y4.0407
G01 X86.9331 Y3.8966
G01 X86.9404 Y3.8877
G01 X86.9509 Y3.8767
G01 X86.9625 Y3.8668
G01 X87.0185 Y3.8231
G01 X87.0282 Y3.8161
G01 X87.0384 Y3.8099
G01 X87.0490 Y3.8044
G01 X87.0600 Y3.7997
G01 X87.0714 Y3.7959
G01 X87.0791 Y3.7938
G01 X87.1369 Y3.7827
G01 X87.1519 Y3.7809
G01 X87.1631 Y3.7805
G01 X89.9855 Y3.7807
G01 X90.0007 Y3.7821
G01 X90.0156 Y3.7850
G01 X90.0949 Y3.8081
G01 X90.1061 Y3.8122
G01 X90.1134 Y3.8154
G01 X90.1240 Y3.8208
G01 X90.1342 Y3.8270
G01 X90.1439 Y3.8339
G01 X90.1501 Y3.8389
G01 X90.1588 Y3.8470
G01 X90.1670 Y3.8557
G01 X90.2185 Y3.9155
G01 X90.2277 Y3.9285
G01 X90.2355 Y3.9423
G01 X90.2405 Y3.9532
G01 X90.2446 Y3.9643
G01 X90.2479 Y3.9758
G01 X90.2503 Y3.9875
G01 X90.2615 Y4.0656
G01 X90.2626 Y4.0815
G01 X90.2621 Y4.0973
G01 X90.2607 Y4.1092
G01 X90.2593 Y4.1170
G01 X90.2564 Y4.1286
G01 X90.2527 Y4.1399
G01 X90.2482 Y4.1509
G01 X90.2187 Y4.2155
G01 X90.2135 Y4.2259
G01 X90.2054 Y4.2390
G01 X90.1961 Y4.2514
G01 X90.1856 Y4.2628
G01 X90.1771 Y4.2706
G01 X90.1711 Y4.2755
G01 X90.1617 Y4.2823
G01 X90.0989 Y4.3237
G01 X90.0851 Y4.3311
G01 X90.0705 Y4.3371
G01 X89.9088 Y4.3900
G01 X89.7132 Y4.4918
G01 X89.5370 Y4.6241
G01 X89.3847 Y4.7835
G01 X89.2604 Y4.9656
G01 X89.1676 Y5.1655
G01 X89.1087 Y5.3780
G01 X89.0853 Y5.5971
G01 X89.0980 Y5.8172
G01 X89.1464 Y6.0322
G01 X89.2294 Y6.2365
G01 X89.3446 Y6.4244
G01 X89.4357 Y6.5297
G01 X89.4426 Y6.5388
G01 X89.4489 Y6.5483
G01 X89.4527 Y6.5549
G01 X89.4578 Y6.5651
G01 X89.4873 Y6.6297
G01 X89.4919 Y6.6407
G01 X89.4966 Y6.6559
G01 X89.4992 Y6.6675
G01 X89.5009 Y6.6793
G01 X89.5017 Y6.6912
G01 X89.5016 Y6.7031
G01 X89.5006 Y6.7150
G01 X89.4900 Y6.7892
G01 X89.4879 Y6.8009
G01 X89.4837 Y6.8162
G01 X89.4796 Y6.8274
G01 X89.4728 Y6.8418
G01 X89.4668 Y6.8521
G01 X89.4600 Y6.8619
G01 X89.4526 Y6.8712
G01 X89.4034 Y6.9278
G01 X89.3922 Y6.9389
G01 X89.3800 Y6.9489
G01 X89.3665 Y6.9578
G01 X89.2813 Y7.0214
G01 X89.2216 Y7.1012
G01 X89.1856 Y7.1971
G01 X89.1820 Y7.2306
G01 X89.1820 Y7.7560
G01 X89.3700 Y7.7560
G01 X89.3700 Y7.2700
G01 X89.3704 Y7.2582
G01 X89.3712 Y7.2504
G01 X89.3731 Y7.2388
G01 X89.3748 Y7.2311
G01 X89.3794 Y7.2161
G01 X89.3837 Y7.2052
G01 X89.3889 Y7.1946
G01 X89.3948 Y7.1844
G01 X89.4039 Y7.1716
G01 X89.4114 Y7.1626
G01 X89.4226 Y7.1514
G01 X89.4316 Y7.1439
G01 X89.4411 Y7.1370
G01 X89.4546 Y7.1289
G01 X89.4652 Y7.1237
G01 X89.4761 Y7.1194
G01 X89.4873 Y7.1158
G01 X89.5026 Y7.1124
G01 X89.5182 Y7.1104
G01 X89.5300 Y7.1100
G01 X91.3300 Y7.1100
G01 X91.3418 Y7.1104
G01 X91.3535 Y7.1117
G01 X91.3651 Y7.1139
G01 X91.3764 Y7.1169
G01 X91.3876 Y7.1207
G01 X91.3948 Y7.1237
G01 X91.4054 Y7.1289
G01 X91.4156 Y7.1348
G01 X91.4253 Y7.1415
G01 X91.4315 Y7.1463
G01 X91.4403 Y7.1541
G01 X91.4486 Y7.1626
G01 X91.4561 Y7.1716
G01 X91.4630 Y7.1811
G01 X91.4692 Y7.1911
G01 X91.4746 Y7.2016
G01 X91.4793 Y7.2124
G01 X91.4819 Y7.2198
G01 X91.4852 Y7.2311
G01 X91.4876 Y7.2426
G01 X91.4892 Y7.2543
G01 X91.4900 Y7.2700
G01 X91.4900 Y7.7560
G01 X91.6780 Y7.7560
G01 X91.6780 Y7.2306
G01 X91.6744 Y7.1971
G01 X91.6384 Y7.1012
G01 X91.5786 Y7.0214
G01 X91.4805 Y6.9479
G01 X91.4684 Y6.9378
G01 X91.4574 Y6.9267
G01 X91.4483 Y6.9156
G01 X91.4159 Y6.8828
G01 X91.4058 Y6.8705
G01 X91.3991 Y6.8607
G01 X91.3932 Y6.8503
G01 X91.3880 Y6.8396
G01 X91.3836 Y6.8285
G01 X91.3801 Y6.8171
G01 X91.3624 Y6.7361
G01 X91.3602 Y6.7204
G01 X91.3596 Y6.7085
G01 X91.3602 Y6.6926
G01 X91.3616 Y6.6808
G01 X91.3640 Y6.6691
G01 X91.3684 Y6.6538
G01 X91.3975 Y6.5765
G01 X91.4006 Y6.5696
G01 X91.4060 Y6.5595
G01 X91.4121 Y6.5498
G01 X91.4165 Y6.5436
G01 X91.4237 Y6.5347
G01 X91.4381 Y6.5182
G01 X91.4543 Y6.5018
G01 X91.5013 Y6.4365
G01 X91.5110 Y6.4248
G01 X91.5218 Y6.4141
G01 X91.5306 Y6.4068
G01 X91.5866 Y6.3631
G01 X91.5963 Y6.3561
G01 X91.6065 Y6.3499
G01 X91.6172 Y6.3444
G01 X91.6282 Y6.3397
G01 X91.6434 Y6.3348
G01 X91.6550 Y6.3322
G01 X91.7051 Y6.3227
G01 X91.7200 Y6.3209
G01 X91.7313 Y6.3205
G01 X93.7012 Y6.3205
G01 X93.7126 Y6.3209
G01 X93.7277 Y6.3227
G01 X93.7389 Y6.3250
G01 X93.7463 Y6.3270
G01 X93.8221 Y6.3494
G01 X93.8333 Y6.3539
G01 X93.8442 Y6.3591
G01 X93.8513 Y6.3631
G01 X93.8614 Y6.3697
G01 X93.8741 Y6.3796
G01 X93.9041 Y6.4056
G01 X93.9123 Y6.4136
G01 X94.0041 Y6.5193
G01 X94.1610 Y6.6496
G01 X94.3372 Y6.7526
G01 X94.5277 Y6.8253
G01 X94.7276 Y6.8660
G01 X94.9315 Y6.8735
G01 X95.1338 Y6.8476
G01 X95.3292 Y6.7889
G01 X95.5124 Y6.6992
G01 X95.6784 Y6.5807
G01 X95.8229 Y6.4368
G01 X95.9420 Y6.2711
G01 X96.0323 Y6.0882
G01 X96.0916 Y5.8931
G01 X96.1189 Y5.6862
G01 X96.1201 Y5.6346
G01 X96.1030 Y5.4267
G01 X96.0534 Y5.2289
G01 X95.9720 Y5.0418
G01 X95.8612 Y4.8705
G01 X95.7239 Y4.7196
G01 X95.5535 Y4.5851
G01 X95.5475 Y4.5801
G01 X95.5390 Y4.5721
G01 X95.5285 Y4.5604
G01 X95.4822 Y4.5032
G01 X95.4757 Y4.4936
G01 X95.4717 Y4.4870
G01 X95.4681 Y4.4802
G01 X95.4633 Y4.4696
G01 X95.4592 Y4.4588
G01 X95.4570 Y4.4514
G01 X95.4536 Y4.4363
G01 X95.4434 Y4.3583
G01 X95.4423 Y4.3464
G01 X95.4421 Y4.3385
G01 X95.4425 Y4.3265
G01 X95.4438 Y4.3147
G01 X95.4459 Y4.3030
G01 X95.4479 Y4.2953
G01 X95.4515 Y4.2839
G01 X95.4559 Y4.2728
G01 X95.4898 Y4.2016
G01 X95.4955 Y4.1911
G01 X95.5021 Y4.1812
G01 X95.5119 Y4.1687
G01 X95.5200 Y4.1601
G01 X95.5466 Y4.1360
G01 X95.5547 Y4.1292
G01 X95.6784 Y4.0407
G01 X95.8231 Y3.8966
G01 X95.8304 Y3.8877
G01 X95.8382 Y3.8793
G01 X95.8495 Y3.8692
G01 X95.9116 Y3.8207
G01 X95.9249 Y3.8119
G01 X95.9354 Y3.8061
G01 X95.9500 Y3.7997
G01 X95.9614 Y3.7959
G01 X95.9769 Y3.7922
G01 X96.0306 Y3.7821
G01 X96.0419 Y3.7809
G01 X96.0531 Y3.7805
G01 X97.5255 Y3.7805
G01 X97.5407 Y3.7812
G01 X97.5521 Y3.7827
G01 X97.5669 Y3.7860
G01 X97.6387 Y3.8070
G01 X97.6499 Y3.8107
G01 X97.6572 Y3.8137
G01 X97.6713 Y3.8206
G01 X97.6846 Y3.8289
G01 X97.6940 Y3.8359
G01 X97.7215 Y3.8584
G01 X98.4127 Y4.5492
G01 X98.4267 Y4.5643
G01 X98.4510 Y4.5930
G01 X98.5051 Y4.6344
G01 X98.5577 Y4.6767
G01 X98.5679 Y4.6831
G01 X98.6319 Y4.7129
G01 X98.6924 Y4.7429
G01 X98.7037 Y4.7470
G01 X98.7697 Y4.7617
G01 X98.8381 Y4.7787
G01 X98.8511 Y4.7805
G01 X98.9182 Y4.7805
G01 X98.9881 Y4.7824
G01 X99.0023 Y4.7812
G01 X99.0224 Y4.7805
G01 X102.1955 Y4.7805
G01 X102.2069 Y4.7809
G01 X102.2145 Y4.7816
G01 X102.2221 Y4.7827
G01 X102.2332 Y4.7850
G01 X102.3087 Y4.8070
G01 X102.3199 Y4.8107
G01 X102.3272 Y4.8137
G01 X102.3413 Y4.8206
G01 X102.3513 Y4.8267
G01 X102.3578 Y4.8311
G01 X102.3883 Y4.8556
G01 X102.3978 Y4.8643
G01 X103.9757 Y6.4422
G01 X103.9810 Y6.4478
G01 X103.9884 Y6.4565
G01 X103.9951 Y6.4657
G01 X104.0012 Y6.4754
G01 X104.0389 Y6.5445
G01 X104.0454 Y6.5588
G01 X104.0504 Y6.5736
G01 X104.0533 Y6.5851
G01 X104.0552 Y6.5967
G01 X104.0590 Y6.6316
G01 X104.0595 Y6.6445
G01 X104.0595 Y11.0855
G01 X104.0591 Y11.0969
G01 X104.0584 Y11.1045
G01 X104.0566 Y11.1158
G01 X104.0550 Y11.1232
G01 X104.0330 Y11.1987
G01 X104.0279 Y11.2136
G01 X104.0213 Y11.2278
G01 X104.0133 Y11.2413
G01 X104.0065 Y11.2510
G01 X103.9844 Y11.2783
G01 X103.9757 Y11.2878
G01 X103.9169 Y11.3466
G01 X103.9114 Y11.3518
G01 X103.9027 Y11.3592
G01 X103.8935 Y11.3659
G01 X103.8838 Y11.3720
G01 X103.8182 Y11.4079
G01 X103.8075 Y11.4132
G01 X103.7927 Y11.4190
G01 X103.7774 Y11.4234
G01 X103.7618 Y11.4262
G01 X103.7499 Y11.4272
G01 X103.7420 Y11.4275
G01 X103.7301 Y11.4270
G01 X103.6592 Y11.4220
G01 X103.6435 Y11.4201
G01 X103.6280 Y11.4166
G01 X103.6129 Y11.4116
G01 X103.6019 Y11.4069
G01 X103.5879 Y11.3994
G01 X103.5748 Y11.3905
G01 X103.5148 Y11.3455
G01 X103.5057 Y11.3378
G01 X103.4945 Y11.3265
G01 X103.4869 Y11.3173
G01 X103.4822 Y11.3109
G01 X103.4758 Y11.3008
G01 X103.4720 Y11.2939
G01 X103.4653 Y11.2795
G01 X103.4539 Y11.2490
G01 X103.1926 Y11.2490
G01 X103.1845 Y11.2716
G01 X103.1802 Y11.2825
G01 X103.1348 Y11.3783
G01 X103.1292 Y11.3887
G01 X103.0787 Y11.4728
G01 X103.0723 Y11.4827
G01 X103.0067 Y11.5709
G01 X102.9357 Y11.6496
G01 X102.9246 Y11.6607
G01 X102.8518 Y11.7266
G01 X102.8428 Y11.7341
G01 X102.7609 Y11.7950
G01 X102.7478 Y11.8037
G01 X102.6568 Y11.8580
G01 X102.5575 Y11.9052
G01 X102.5466 Y11.9095
G01 X102.4542 Y11.9426
G01 X102.4430 Y11.9461
G01 X102.3401 Y11.9719
G01 X102.3286 Y11.9741
G01 X102.2740 Y11.9821
G01 X102.2740 Y12.1742
G01 X102.3262 Y12.1700
G01 X102.3485 Y12.1645
G01 X102.3597 Y12.1622
G01 X102.3710 Y12.1607
G01 X102.3824 Y12.1599
G01 X102.3939 Y12.1600
G01 X102.4688 Y12.1635
G01 X102.4845 Y12.1653
G01 X102.5000 Y12.1688
G01 X102.5114 Y12.1724
G01 X102.5261 Y12.1784
G01 X102.5367 Y12.1839
G01 X102.5501 Y12.1925
G01 X102.6080 Y12.2335
G01 X102.6175 Y12.2407
G01 X102.6264 Y12.2487
G01 X102.6347 Y12.2572
G01 X102.6398 Y12.2633
G01 X102.6470 Y12.2728
G01 X102.6554 Y12.2863
G01 X102.6624 Y12.3005
G01 X102.6920 Y12.3737
G01 X102.6957 Y12.3850
G01 X102.6987 Y12.3966
G01 X102.7001 Y12.4044
G01 X102.7016 Y12.4162
G01 X102.7022 Y12.4281
G01 X102.7020 Y12.4361
G01 X102.7011 Y12.4480
G01 X102.6994 Y12.4597
G01 X102.6845 Y12.5372
G01 X102.6824 Y12.5448
G01 X102.6787 Y12.5559
G01 X102.6725 Y12.5703
G01 X102.6669 Y12.5807
G01 X102.6583 Y12.5938
G01 X102.6327 Y12.6289
G01 X102.6275 Y12.6353
G01 X102.6190 Y12.6445
G01 X101.4008 Y13.8627
G01 X101.3857 Y13.8767
G01 X101.3570 Y13.9010
G01 X101.3156 Y13.9550
G01 X101.2733 Y14.0077
G01 X101.2669 Y14.0179
G01 X101.2371 Y14.0819
G01 X101.2071 Y14.1424
G01 X101.2030 Y14.1537
G01 X101.1883 Y14.2197
G01 X101.1713 Y14.2881
G01 X101.1695 Y14.3011
G01 X101.1695 Y14.3682
G01 X101.1676 Y14.4381
G01 X101.1688 Y14.4523
G01 X101.1695 Y14.4724
G01 X101.1695 Y14.5517
G01 X101.1688 Y14.5669
G01 X101.1666 Y14.5820
G01 X101.1640 Y14.5931
G01 X101.1430 Y14.6649
G01 X101.1379 Y14.6796
G01 X101.1314 Y14.6938
G01 X101.1235 Y14.7072
G01 X101.1143 Y14.7199
G01 X101.1067 Y14.7287
G01 X101.0735 Y14.7643
G01 X101.0647 Y14.7727
G01 X101.0584 Y14.7779
G01 X101.0003 Y14.8217
G01 X100.8536 Y14.9751
G01 X100.8472 Y14.9839
G01 X100.8423 Y14.9897
G01 X100.8317 Y15.0007
G01 X100.8232 Y15.0082
G01 X100.7683 Y15.0533
G01 X100.7558 Y15.0625
G01 X100.7458 Y15.0686
G01 X100.7320 Y15.0757
G01 X100.7212 Y15.0800
G01 X100.7100 Y15.0836
G01 X100.6987 Y15.0863
G01 X100.6456 Y15.0970
G01 X100.6337 Y15.0987
G01 X100.6177 Y15.0995
G01 X98.5904 Y15.0995
G01 X98.5790 Y15.0991
G01 X98.5677 Y15.0979
G01 X98.5601 Y15.0966
G01 X98.5490 Y15.0940
G01 X98.4698 Y15.0706
G01 X98.4552 Y15.0648
G01 X98.4448 Y15.0595
G01 X98.4347 Y15.0534
G01 X98.4251 Y15.0466
G01 X98.3939 Y15.0205
G01 X98.3817 Y15.0090
G01 X98.2639 Y14.8796
G01 X98.0935 Y14.7451
G01 X98.0846 Y14.7375
G01 X98.0763 Y14.7292
G01 X98.0685 Y14.7204
G01 X98.0269 Y14.6693
G01 X98.0178 Y14.6568
G01 X98.0117 Y14.6470
G01 X98.0048 Y14.6332
G01 X98.0005 Y14.6224
G01 X97.9970 Y14.6114
G01 X97.9943 Y14.6001
G01 X97.9924 Y14.5887
G01 X97.9834 Y14.5183
G01 X97.9821 Y14.5024
G01 X97.9825 Y14.4865
G01 X97.9844 Y14.4708
G01 X97.9879 Y14.4553
G01 X97.9928 Y14.4402
G01 X97.9976 Y14.4292
G01 X98.0316 Y14.3580
G01 X98.0398 Y14.3445
G01 X98.0444 Y14.3380
G01 X98.0519 Y14.3287
G01 X98.0629 Y14.3173
G01 X98.0866 Y14.2960
G01 X98.0947 Y14.2892
G01 X98.2184 Y14.2007
G01 X98.3629 Y14.0568
G01 X98.4820 Y13.8911
G01 X98.5723 Y13.7082
G01 X98.6316 Y13.5131
G01 X98.6589 Y13.3062
G01 X98.6601 Y13.2546
G01 X98.6430 Y13.0467
G01 X98.5934 Y12.8489
G01 X98.5120 Y12.6618
G01 X98.4012 Y12.4905
G01 X98.2639 Y12.3396
G01 X98.1038 Y12.2132
G01 X97.9253 Y12.1146
G01 X97.7330 Y12.0465
G01 X97.5321 Y12.0108
G01 X97.3282 Y12.0083
G01 X97.1265 Y12.0391
G01 X96.9326 Y12.1025
G01 X96.7517 Y12.1967
G01 X96.5886 Y12.3192
G01 X96.4407 Y12.4738
G01 X96.4295 Y12.4840
G01 X96.4204 Y12.4910
G01 X96.4076 Y12.4992
G01 X96.3460 Y12.5346
G01 X96.3353 Y12.5403
G01 X96.3242 Y12.5451
G01 X96.3089 Y12.5502
G01 X96.2971 Y12.5530
G01 X96.2851 Y12.5549
G01 X96.2518 Y12.5588
G01 X96.2366 Y12.5595
G01 X94.2717 Y12.5595
G01 X94.2566 Y12.5584
G01 X94.2490 Y12.5573
G01 X94.2378 Y12.5550
G01 X94.1624 Y12.5330
G01 X94.1510 Y12.5292
G01 X94.1400 Y12.5246
G01 X94.1329 Y12.5211
G01 X94.1225 Y12.5151
G01 X94.1126 Y12.5084
G01 X94.1003 Y12.4983
G01 X94.0541 Y12.4525
G01 X94.0442 Y12.4411
G01 X94.0357 Y12.4293
G01 X93.9688 Y12.3557
G01 X93.9616 Y12.3468
G01 X93.9551 Y12.3374
G01 X93.9475 Y12.3242
G01 X93.9147 Y12.2570
G01 X93.9099 Y12.2461
G01 X93.9071 Y12.2386
G01 X93.9028 Y12.2233
G01 X93.8999 Y12.2077
G01 X93.8987 Y12.1919
G01 X93.8990 Y12.1760
G01 X93.9081 Y12.0976
G01 X93.9108 Y12.0819
G01 X93.9150 Y12.0666
G01 X93.9191 Y12.0554
G01 X93.9259 Y12.0410
G01 X93.9319 Y12.0307
G01 X93.9411 Y12.0178
G01 X93.9887 Y11.9599
G01 X93.9963 Y11.9514
G01 X94.0045 Y11.9434
G01 X94.0162 Y11.9337
G01 X94.0224 Y11.9293
G01 X94.0326 Y11.9228
G01 X94.1187 Y11.8585
G01 X94.1784 Y11.7788
G01 X94.2144 Y11.6829
G01 X94.2180 Y11.6494
G01 X94.2180 Y11.1240
G01 X94.0300 Y11.1240
G01 X94.0300 Y11.6100
G01 X94.0296 Y11.6218
G01 X94.0288 Y11.6296
G01 X94.0269 Y11.6412
G01 X94.0252 Y11.6489
G01 X94.0206 Y11.6639
G01 X94.0163 Y11.6748
G01 X94.0111 Y11.6854
G01 X94.0052 Y11.6956
G01 X93.9961 Y11.7084
G01 X93.9886 Y11.7174
G01 X93.9774 Y11.7286
G01 X93.9684 Y11.7361
G01 X93.9589 Y11.7430
G01 X93.9454 Y11.7511
G01 X93.9348 Y11.7563
G01 X93.9239 Y11.7606
G01 X93.9127 Y11.7642
G01 X93.8974 Y11.7676
G01 X93.8818 Y11.7696
G01 X93.8700 Y11.7700
