(G-CODE GENERATED BY FLATCAM v8.994 - www.flatcam.org - Version Date: 2020/11/7)

(Name: shunt-F_Cu.gbr_cutout_1_cnc)
(Type: G-code from Geometry)
(Units: MM)

(Created on Sunday, 18 December 2022 at 03:42)

(This preprocessor is the default preprocessor used by FlatCAM.)
(It is made to work with MACH3 compatible motion controllers.)

(TOOL DIAMETER: 1.5 mm)
(Feedrate_XY: 30.0 mm/min)
(Feedrate_Z: 20.0 mm/min)
(Feedrate rapids 1500.0 mm/min)

(Z_Cut: -2.02 mm)
(Z_Move: 2.0 mm)
(Z Start: None mm)
(Z End: 15.0 mm)
(X,Y End: 0.0000, 0.0000 mm)
(Steps per circle: 64)
(Preprocessor Geometry: default)

(X range:    0.7500 ...   73.7700  mm)
(Y range:    0.7100 ...   43.2500  mm)

(Spindle Speed: 3000.0 RPM)
G21
G90
G94

G01 F30.00

M5
G00 Z15.0000
G00 X0.0000 Y0.0000
T1
M6    
(MSG, Change to Tool Dia = 1.5000)
M0
G00 Z15.0000

M03 S3000.0
G01 F30.00
G00 X0.7500 Y20.8300
G01 F20.00
G01 Z-2.0200
G01 F30.00
G01 X0.7500 Y1.5600
G01 X0.7540 Y1.4766
G01 X0.7663 Y1.3941
G01 X0.7866 Y1.3132
G01 X0.8147 Y1.2347
G01 X0.8503 Y1.1593
G01 X0.8932 Y1.0877
G01 X0.9429 Y1.0207
G01 X0.9989 Y0.9589
G01 X1.0607 Y0.9029
G01 X1.1277 Y0.8532
G01 X1.1993 Y0.8103
G01 X1.2747 Y0.7747
G01 X1.3532 Y0.7466
G01 X1.4341 Y0.7263
G01 X1.5166 Y0.7140
G01 X1.6000 Y0.7100
G01 X36.1100 Y0.7100
G00 Z2.0000
G00 X0.7500 Y23.3300
G01 F20.00
G01 Z-2.0200
G01 F30.00
G01 X0.7500 Y42.4000
G01 X0.7540 Y42.4834
G01 X0.7663 Y42.5659
G01 X0.7866 Y42.6468
G01 X0.8147 Y42.7253
G01 X0.8503 Y42.8007
G01 X0.8932 Y42.8723
G01 X0.9429 Y42.9393
G01 X0.9989 Y43.0011
G01 X1.0607 Y43.0571
G01 X1.1277 Y43.1068
G01 X1.1993 Y43.1497
G01 X1.2747 Y43.1853
G01 X1.3532 Y43.2134
G01 X1.4341 Y43.2337
G01 X1.5166 Y43.2460
G01 X1.6000 Y43.2500
G01 X36.1100 Y43.2500
G00 Z2.0000
G00 X38.6100 Y43.2500
G01 F20.00
G01 Z-2.0200
G01 F30.00
G01 X72.9200 Y43.2500
G01 X73.0034 Y43.2460
G01 X73.0859 Y43.2337
G01 X73.1668 Y43.2134
G01 X73.2453 Y43.1853
G01 X73.3207 Y43.1497
G01 X73.3923 Y43.1068
G01 X73.4593 Y43.0571
G01 X73.5211 Y43.0011
G01 X73.5771 Y42.9393
G01 X73.6268 Y42.8723
G01 X73.6697 Y42.8007
G01 X73.7053 Y42.7253
G01 X73.7334 Y42.6468
G01 X73.7537 Y42.5659
G01 X73.7660 Y42.4834
G01 X73.7700 Y42.4000
G01 X73.7700 Y23.3300
G00 Z2.0000
G00 X73.7700 Y20.8300
G01 F20.00
G01 Z-2.0200
G01 F30.00
G01 X73.7700 Y1.5600
G01 X73.7660 Y1.4766
G01 X73.7537 Y1.3941
G01 X73.7334 Y1.3132
G01 X73.7053 Y1.2347
G01 X73.6697 Y1.1593
G01 X73.6268 Y1.0877
G01 X73.5771 Y1.0207
G01 X73.5211 Y0.9589
G01 X73.4593 Y0.9029
G01 X73.3923 Y0.8532
G01 X73.3207 Y0.8103
G01 X73.2453 Y0.7747
G01 X73.1668 Y0.7466
G01 X73.0859 Y0.7263
G01 X73.0034 Y0.7140
G01 X72.9200 Y0.7100
G01 X38.6100 Y0.7100
G00 Z2.0000
M05
G00 Z2.0000
G00 Z15.00
G00 X0.0 Y0.0


