(G-CODE GENERATED BY FLATCAM v8.994 - www.flatcam.org - Version Date: 2020/11/7)

(Name: shunt-F_Cu.gbr_iso_combined_cnc)
(Type: G-code from Geometry)
(Units: MM)

(Created on Sunday, 18 December 2022 at 16:54)

(This preprocessor is the default preprocessor used by FlatCAM.)
(It is made to work with MACH3 compatible motion controllers.)

(TOOL DIAMETER: 0.3 mm)
(Feedrate_XY: 60.0 mm/min)
(Feedrate_Z: 30.0 mm/min)
(Feedrate rapids 1500.0 mm/min)

(Z_Cut: -0.085 mm)
(Z_Move: 1.0 mm)
(Z Start: None mm)
(Z End: 15.0 mm)
(X,Y End: 0.0000, 0.0000 mm)
(Steps per circle: 64)
(Preprocessor Geometry: default)

(X range:    7.4500 ...   65.5200  mm)
(Y range:    5.6700 ...   38.2900  mm)

(Spindle Speed: 3000.0 RPM)
G21
G90
G94

G01 F60.00

M5
G00 Z15.0000
G00 X0.0000 Y0.0000
T1
M6    
(MSG, Change to Tool Dia = 0.3000)
M0
G00 Z15.0000

M03 S3000.0
G01 F60.00
G00 X9.2492 Y14.8307
G01 F30.00
G01 Z-0.0850
G01 F60.00
G01 X9.2492 Y9.2800
G01 X9.2496 Y9.2528
G01 X9.2506 Y9.2255
G01 X9.2578 Y9.0784
G01 X9.2595 Y9.0512
G01 X9.2618 Y9.0241
G01 X9.2648 Y8.9970
G01 X9.2685 Y8.9700
G01 X9.2901 Y8.8243
G01 X9.2944 Y8.7975
G01 X9.2994 Y8.7707
G01 X9.3051 Y8.7440
G01 X9.3114 Y8.7175
G01 X9.3471 Y8.5746
G01 X9.3541 Y8.5483
G01 X9.3617 Y8.5221
G01 X9.3699 Y8.4962
G01 X9.3788 Y8.4704
G01 X9.4284 Y8.3317
G01 X9.4379 Y8.3062
G01 X9.4480 Y8.2809
G01 X9.4587 Y8.2559
G01 X9.4701 Y8.2311
G01 X9.5330 Y8.0980
G01 X9.5450 Y8.0735
G01 X9.5575 Y8.0493
G01 X9.5707 Y8.0254
G01 X9.5844 Y8.0019
G01 X9.6601 Y7.8756
G01 X9.6744 Y7.8524
G01 X9.6892 Y7.8295
G01 X9.7047 Y7.8071
G01 X9.7206 Y7.7850
G01 X9.8083 Y7.6667
G01 X9.8248 Y7.6450
G01 X9.8419 Y7.6238
G01 X9.8594 Y7.6029
G01 X9.8774 Y7.5825
G01 X9.9764 Y7.4734
G01 X9.9949 Y7.4534
G01 X10.0139 Y7.4339
G01 X10.0334 Y7.4149
G01 X10.0534 Y7.3964
G01 X10.1625 Y7.2974
G01 X10.1829 Y7.2794
G01 X10.2038 Y7.2619
G01 X10.2250 Y7.2448
G01 X10.2467 Y7.2283
G01 X10.3650 Y7.1406
G01 X10.3871 Y7.1247
G01 X10.4095 Y7.1092
G01 X10.4324 Y7.0944
G01 X10.4556 Y7.0801
G01 X10.5819 Y7.0044
G01 X10.6054 Y6.9907
G01 X10.6293 Y6.9775
G01 X10.6535 Y6.9650
G01 X10.6780 Y6.9530
G01 X10.8111 Y6.8901
G01 X10.8359 Y6.8787
G01 X10.8609 Y6.8680
G01 X10.8862 Y6.8579
G01 X10.9117 Y6.8484
G01 X11.0504 Y6.7988
G01 X11.0762 Y6.7899
G01 X11.1021 Y6.7817
G01 X11.1283 Y6.7741
G01 X11.1546 Y6.7671
G01 X11.2975 Y6.7314
G01 X11.3240 Y6.7251
G01 X11.3507 Y6.7194
G01 X11.3775 Y6.7144
G01 X11.4043 Y6.7101
G01 X11.5500 Y6.6885
G01 X11.5770 Y6.6848
G01 X11.6041 Y6.6818
G01 X11.6312 Y6.6795
G01 X11.6584 Y6.6778
G01 X11.8055 Y6.6706
G01 X11.8328 Y6.6696
G01 X11.8600 Y6.6692
G01 X30.0094 Y6.6692
G01 X30.1201 Y6.5471
G01 X30.1386 Y6.5272
G01 X30.1577 Y6.5077
G01 X30.1772 Y6.4886
G01 X30.1971 Y6.4701
G01 X30.3244 Y6.3548
G01 X30.3448 Y6.3367
G01 X30.3656 Y6.3192
G01 X30.3869 Y6.3022
G01 X30.4086 Y6.2857
G01 X30.5465 Y6.1834
G01 X30.5686 Y6.1674
G01 X30.5911 Y6.1520
G01 X30.6139 Y6.1371
G01 X30.6371 Y6.1228
G01 X30.7844 Y6.0346
G01 X30.8079 Y6.0208
G01 X30.8318 Y6.0077
G01 X30.8560 Y5.9952
G01 X30.8805 Y5.9832
G01 X31.0357 Y5.9098
G01 X31.0605 Y5.8984
G01 X31.0855 Y5.8877
G01 X31.1108 Y5.8776
G01 X31.1364 Y5.8681
G01 X31.2981 Y5.8102
G01 X31.3238 Y5.8014
G01 X31.3498 Y5.7932
G01 X31.3760 Y5.7856
G01 X31.4023 Y5.7786
G01 X31.5689 Y5.7369
G01 X31.5954 Y5.7306
G01 X31.6220 Y5.7250
G01 X31.6488 Y5.7200
G01 X31.6757 Y5.7156
G01 X31.8456 Y5.6904
G01 X31.8726 Y5.6868
G01 X31.8997 Y5.6838
G01 X31.9268 Y5.6814
G01 X31.9540 Y5.6798
G01 X32.1255 Y5.6713
G01 X32.1528 Y5.6703
G01 X32.1800 Y5.6700
G01 X32.2072 Y5.6703
G01 X32.2345 Y5.6713
G01 X32.4060 Y5.6798
G01 X32.4332 Y5.6814
G01 X32.4603 Y5.6838
G01 X32.4874 Y5.6868
G01 X32.5144 Y5.6904
G01 X32.6843 Y5.7156
G01 X32.7112 Y5.7200
G01 X32.7380 Y5.7250
G01 X32.7646 Y5.7306
G01 X32.7911 Y5.7369
G01 X32.9577 Y5.7786
G01 X32.9840 Y5.7856
G01 X33.0102 Y5.7932
G01 X33.0362 Y5.8014
G01 X33.0619 Y5.8102
G01 X33.2236 Y5.8681
G01 X33.2492 Y5.8776
G01 X33.2745 Y5.8877
G01 X33.2995 Y5.8984
G01 X33.3243 Y5.9098
G01 X33.4795 Y5.9832
G01 X33.5040 Y5.9952
G01 X33.5282 Y6.0077
G01 X33.5521 Y6.0208
G01 X33.5756 Y6.0346
G01 X33.7229 Y6.1228
G01 X33.7461 Y6.1371
G01 X33.7689 Y6.1520
G01 X33.7914 Y6.1674
G01 X33.8135 Y6.1834
G01 X33.9514 Y6.2857
G01 X33.9731 Y6.3022
G01 X33.9944 Y6.3192
G01 X34.0152 Y6.3367
G01 X34.0356 Y6.3548
G01 X34.1629 Y6.4701
G01 X34.1828 Y6.4886
G01 X34.2023 Y6.5077
G01 X34.2214 Y6.5272
G01 X34.2399 Y6.5471
G01 X34.3506 Y6.6692
G01 X40.1694 Y6.6692
G01 X40.2801 Y6.5471
G01 X40.2986 Y6.5272
G01 X40.3177 Y6.5077
G01 X40.3372 Y6.4886
G01 X40.3571 Y6.4701
G01 X40.4844 Y6.3548
G01 X40.5048 Y6.3367
G01 X40.5256 Y6.3192
G01 X40.5469 Y6.3022
G01 X40.5686 Y6.2857
G01 X40.7065 Y6.1834
G01 X40.7286 Y6.1674
G01 X40.7511 Y6.1520
G01 X40.7739 Y6.1371
G01 X40.7971 Y6.1228
G01 X40.9444 Y6.0346
G01 X40.9679 Y6.0208
G01 X40.9918 Y6.0077
G01 X41.0160 Y5.9952
G01 X41.0405 Y5.9832
G01 X41.1957 Y5.9098
G01 X41.2205 Y5.8984
G01 X41.2455 Y5.8877
G01 X41.2708 Y5.8776
G01 X41.2964 Y5.8681
G01 X41.4581 Y5.8102
G01 X41.4838 Y5.8014
G01 X41.5098 Y5.7932
G01 X41.5360 Y5.7856
G01 X41.5623 Y5.7786
G01 X41.7289 Y5.7369
G01 X41.7554 Y5.7306
G01 X41.7820 Y5.7250
G01 X41.8088 Y5.7200
G01 X41.8357 Y5.7156
G01 X42.0056 Y5.6904
G01 X42.0326 Y5.6868
G01 X42.0597 Y5.6838
G01 X42.0868 Y5.6814
G01 X42.1140 Y5.6798
G01 X42.2855 Y5.6713
G01 X42.3128 Y5.6703
G01 X42.3400 Y5.6700
G01 X42.3672 Y5.6703
G01 X42.3945 Y5.6713
G01 X42.5660 Y5.6798
G01 X42.5932 Y5.6814
G01 X42.6203 Y5.6838
G01 X42.6474 Y5.6868
G01 X42.6744 Y5.6904
G01 X42.8443 Y5.7156
G01 X42.8712 Y5.7200
G01 X42.8980 Y5.7250
G01 X42.9246 Y5.7306
G01 X42.9511 Y5.7369
G01 X43.1177 Y5.7786
G01 X43.1440 Y5.7856
G01 X43.1702 Y5.7932
G01 X43.1962 Y5.8014
G01 X43.2219 Y5.8102
G01 X43.3836 Y5.8681
G01 X43.4092 Y5.8776
G01 X43.4345 Y5.8877
G01 X43.4595 Y5.8984
G01 X43.4843 Y5.9098
G01 X43.6395 Y5.9832
G01 X43.6640 Y5.9952
G01 X43.6882 Y6.0077
G01 X43.7121 Y6.0208
G01 X43.7356 Y6.0346
G01 X43.8829 Y6.1228
G01 X43.9061 Y6.1371
G01 X43.9289 Y6.1520
G01 X43.9514 Y6.1674
G01 X43.9735 Y6.1834
G01 X44.1114 Y6.2857
G01 X44.1331 Y6.3022
G01 X44.1544 Y6.3192
G01 X44.1752 Y6.3367
G01 X44.1956 Y6.3548
G01 X44.3229 Y6.4701
G01 X44.3428 Y6.4886
G01 X44.3623 Y6.5077
G01 X44.3814 Y6.5272
G01 X44.3999 Y6.5471
G01 X44.5106 Y6.6692
G01 X50.3294 Y6.6692
G01 X50.4401 Y6.5471
G01 X50.4586 Y6.5272
G01 X50.4777 Y6.5077
G01 X50.4972 Y6.4886
G01 X50.5171 Y6.4701
G01 X50.6444 Y6.3548
G01 X50.6648 Y6.3367
G01 X50.6856 Y6.3192
G01 X50.7069 Y6.3022
G01 X50.7286 Y6.2857
G01 X50.8665 Y6.1834
G01 X50.8886 Y6.1674
G01 X50.9111 Y6.1520
G01 X50.9339 Y6.1371
G01 X50.9571 Y6.1228
G01 X51.1044 Y6.0346
G01 X51.1279 Y6.0208
G01 X51.1518 Y6.0077
G01 X51.1760 Y5.9952
G01 X51.2005 Y5.9832
G01 X51.3557 Y5.9098
G01 X51.3805 Y5.8984
G01 X51.4055 Y5.8877
G01 X51.4308 Y5.8776
G01 X51.4564 Y5.8681
G01 X51.6181 Y5.8102
G01 X51.6438 Y5.8014
G01 X51.6698 Y5.7932
G01 X51.6960 Y5.7856
G01 X51.7223 Y5.7786
G01 X51.8889 Y5.7369
G01 X51.9154 Y5.7306
G01 X51.9420 Y5.7250
G01 X51.9688 Y5.7200
G01 X51.9957 Y5.7156
G01 X52.1656 Y5.6904
G01 X52.1926 Y5.6868
G01 X52.2197 Y5.6838
G01 X52.2468 Y5.6814
G01 X52.2740 Y5.6798
G01 X52.4455 Y5.6713
G01 X52.4728 Y5.6703
G01 X52.5000 Y5.6700
G01 X52.5272 Y5.6703
G01 X52.5545 Y5.6713
G01 X52.7260 Y5.6798
G01 X52.7532 Y5.6814
G01 X52.7803 Y5.6838
G01 X52.8074 Y5.6868
G01 X52.8344 Y5.6904
G01 X53.0043 Y5.7156
G01 X53.0312 Y5.7200
G01 X53.0580 Y5.7250
G01 X53.0846 Y5.7306
G01 X53.1111 Y5.7369
G01 X53.2777 Y5.7786
G01 X53.3040 Y5.7856
G01 X53.3302 Y5.7932
G01 X53.3562 Y5.8014
G01 X53.3819 Y5.8102
G01 X53.5436 Y5.8681
G01 X53.5692 Y5.8776
G01 X53.5945 Y5.8877
G01 X53.6195 Y5.8984
G01 X53.6443 Y5.9098
G01 X53.7995 Y5.9832
G01 X53.8240 Y5.9952
G01 X53.8482 Y6.0077
G01 X53.8721 Y6.0208
G01 X53.8956 Y6.0346
G01 X54.0429 Y6.1228
G01 X54.0661 Y6.1371
G01 X54.0889 Y6.1520
G01 X54.1114 Y6.1674
G01 X54.1335 Y6.1834
G01 X54.2714 Y6.2857
G01 X54.2931 Y6.3022
G01 X54.3144 Y6.3192
G01 X54.3352 Y6.3367
G01 X54.3556 Y6.3548
G01 X54.4829 Y6.4701
G01 X54.5028 Y6.4886
G01 X54.5223 Y6.5077
G01 X54.5414 Y6.5272
G01 X54.5599 Y6.5471
G01 X54.6706 Y6.6692
G01 X60.4894 Y6.6692
G01 X60.6001 Y6.5471
G01 X60.6186 Y6.5272
G01 X60.6377 Y6.5077
G01 X60.6572 Y6.4886
G01 X60.6771 Y6.4701
G01 X60.8044 Y6.3548
G01 X60.8248 Y6.3367
G01 X60.8456 Y6.3192
G01 X60.8669 Y6.3022
G01 X60.8886 Y6.2857
G01 X61.0265 Y6.1834
G01 X61.0486 Y6.1674
G01 X61.0711 Y6.1520
G01 X61.0939 Y6.1371
G01 X61.1171 Y6.1228
G01 X61.2644 Y6.0346
G01 X61.2879 Y6.0208
G01 X61.3118 Y6.0077
G01 X61.3360 Y5.9952
G01 X61.3605 Y5.9832
G01 X61.5157 Y5.9098
G01 X61.5405 Y5.8984
G01 X61.5655 Y5.8877
G01 X61.5908 Y5.8776
G01 X61.6164 Y5.8681
G01 X61.7781 Y5.8102
G01 X61.8038 Y5.8014
G01 X61.8298 Y5.7932
G01 X61.8560 Y5.7856
G01 X61.8823 Y5.7786
G01 X62.0489 Y5.7369
G01 X62.0754 Y5.7306
G01 X62.1020 Y5.7250
G01 X62.1288 Y5.7200
G01 X62.1557 Y5.7156
G01 X62.3256 Y5.6904
G01 X62.3526 Y5.6868
G01 X62.3797 Y5.6838
G01 X62.4068 Y5.6814
G01 X62.4340 Y5.6798
G01 X62.6055 Y5.6713
G01 X62.6328 Y5.6703
G01 X62.6600 Y5.6700
G01 X62.6872 Y5.6703
G01 X62.7145 Y5.6713
G01 X62.8860 Y5.6798
G01 X62.9132 Y5.6814
G01 X62.9403 Y5.6838
G01 X62.9674 Y5.6868
G01 X62.9944 Y5.6904
G01 X63.1643 Y5.7156
G01 X63.1912 Y5.7200
G01 X63.2180 Y5.7250
G01 X63.2446 Y5.7306
G01 X63.2711 Y5.7369
G01 X63.4377 Y5.7786
G01 X63.4640 Y5.7856
G01 X63.4902 Y5.7932
G01 X63.5162 Y5.8014
G01 X63.5419 Y5.8102
G01 X63.7036 Y5.8681
G01 X63.7292 Y5.8776
G01 X63.7545 Y5.8877
G01 X63.7795 Y5.8984
G01 X63.8043 Y5.9098
G01 X63.9595 Y5.9832
G01 X63.9840 Y5.9952
G01 X64.0082 Y6.0077
G01 X64.0321 Y6.0208
G01 X64.0556 Y6.0346
G01 X64.2029 Y6.1228
G01 X64.2261 Y6.1371
G01 X64.2489 Y6.1520
G01 X64.2714 Y6.1674
G01 X64.2935 Y6.1834
G01 X64.4314 Y6.2857
G01 X64.4531 Y6.3022
G01 X64.4744 Y6.3192
G01 X64.4952 Y6.3367
G01 X64.5156 Y6.3548
G01 X64.6429 Y6.4701
G01 X64.6628 Y6.4886
G01 X64.6823 Y6.5077
G01 X64.7014 Y6.5272
G01 X64.7199 Y6.5471
G01 X64.8352 Y6.6744
G01 X64.8533 Y6.6948
G01 X64.8708 Y6.7156
G01 X64.8878 Y6.7369
G01 X64.9043 Y6.7586
G01 X65.0066 Y6.8965
G01 X65.0226 Y6.9186
G01 X65.0380 Y6.9411
G01 X65.0529 Y6.9639
G01 X65.0672 Y6.9871
G01 X65.1554 Y7.1344
G01 X65.1692 Y7.1579
G01 X65.1823 Y7.1818
G01 X65.1948 Y7.2060
G01 X65.2068 Y7.2305
G01 X65.2802 Y7.3857
G01 X65.2916 Y7.4105
G01 X65.3023 Y7.4355
G01 X65.3124 Y7.4608
G01 X65.3219 Y7.4864
G01 X65.3798 Y7.6481
G01 X65.3886 Y7.6738
G01 X65.3968 Y7.6998
G01 X65.4044 Y7.7260
G01 X65.4114 Y7.7523
G01 X65.4531 Y7.9189
G01 X65.4594 Y7.9454
G01 X65.4650 Y7.9720
G01 X65.4700 Y7.9988
G01 X65.4744 Y8.0257
G01 X65.4996 Y8.1956
G01 X65.5032 Y8.2226
G01 X65.5062 Y8.2497
G01 X65.5086 Y8.2768
G01 X65.5102 Y8.3040
G01 X65.5187 Y8.4755
G01 X65.5197 Y8.5028
G01 X65.5200 Y8.5300
G01 X65.5200 Y10.0300
G01 X65.5197 Y10.0572
G01 X65.5187 Y10.0845
G01 X65.5102 Y10.2560
G01 X65.5086 Y10.2832
G01 X65.5062 Y10.3103
G01 X65.5032 Y10.3374
G01 X65.4996 Y10.3644
G01 X65.4744 Y10.5343
G01 X65.4700 Y10.5612
G01 X65.4650 Y10.5880
G01 X65.4594 Y10.6146
G01 X65.4531 Y10.6411
G01 X65.4114 Y10.8077
G01 X65.4044 Y10.8340
G01 X65.3968 Y10.8602
G01 X65.3886 Y10.8862
G01 X65.3798 Y10.9119
G01 X65.3219 Y11.0736
G01 X65.3124 Y11.0992
G01 X65.3023 Y11.1245
G01 X65.2916 Y11.1495
G01 X65.2802 Y11.1743
G01 X65.2068 Y11.3295
G01 X65.1948 Y11.3540
G01 X65.1823 Y11.3782
G01 X65.1692 Y11.4021
G01 X65.1554 Y11.4256
G01 X65.0672 Y11.5729
G01 X65.0529 Y11.5961
G01 X65.0380 Y11.6189
G01 X65.0226 Y11.6414
G01 X65.0066 Y11.6635
G01 X64.9043 Y11.8014
G01 X64.8878 Y11.8231
G01 X64.8708 Y11.8444
G01 X64.8533 Y11.8652
G01 X64.8352 Y11.8856
G01 X64.7199 Y12.0129
G01 X64.7014 Y12.0328
G01 X64.6823 Y12.0523
G01 X64.6628 Y12.0714
G01 X64.6429 Y12.0899
G01 X64.5156 Y12.2052
G01 X64.4952 Y12.2233
G01 X64.4744 Y12.2408
G01 X64.4531 Y12.2578
G01 X64.4314 Y12.2743
G01 X64.2935 Y12.3766
G01 X64.2714 Y12.3926
G01 X64.2489 Y12.4080
G01 X64.2261 Y12.4229
G01 X64.2029 Y12.4372
G01 X64.0556 Y12.5254
G01 X64.0321 Y12.5392
G01 X64.0082 Y12.5523
G01 X63.9840 Y12.5648
G01 X63.9595 Y12.5768
G01 X63.8043 Y12.6502
G01 X63.7795 Y12.6616
G01 X63.7545 Y12.6723
G01 X63.7292 Y12.6824
G01 X63.7036 Y12.6919
G01 X63.5419 Y12.7498
G01 X63.5162 Y12.7586
G01 X63.4902 Y12.7668
G01 X63.4640 Y12.7744
G01 X63.4377 Y12.7814
G01 X63.2711 Y12.8231
G01 X63.2446 Y12.8294
G01 X63.2180 Y12.8350
G01 X63.1912 Y12.8400
G01 X63.1643 Y12.8444
G01 X62.9944 Y12.8696
G01 X62.9674 Y12.8732
G01 X62.9403 Y12.8762
G01 X62.9132 Y12.8786
G01 X62.8860 Y12.8802
G01 X62.7145 Y12.8887
G01 X62.6872 Y12.8897
G01 X62.6600 Y12.8900
G01 X62.6328 Y12.8897
G01 X62.6055 Y12.8887
G01 X62.4340 Y12.8802
G01 X62.4068 Y12.8786
G01 X62.3797 Y12.8762
G01 X62.3526 Y12.8732
G01 X62.3256 Y12.8696
G01 X62.1557 Y12.8444
G01 X62.1288 Y12.8400
G01 X62.1020 Y12.8350
G01 X62.0754 Y12.8294
G01 X62.0489 Y12.8231
G01 X61.8823 Y12.7814
G01 X61.8560 Y12.7744
G01 X61.8298 Y12.7668
G01 X61.8038 Y12.7586
G01 X61.7781 Y12.7498
G01 X61.6164 Y12.6919
G01 X61.5908 Y12.6824
G01 X61.5655 Y12.6723
G01 X61.5405 Y12.6616
G01 X61.5157 Y12.6502
G01 X61.3605 Y12.5768
G01 X61.3360 Y12.5648
G01 X61.3118 Y12.5523
G01 X61.2879 Y12.5392
G01 X61.2644 Y12.5254
G01 X61.1171 Y12.4372
G01 X61.0939 Y12.4229
G01 X61.0711 Y12.4080
G01 X61.0486 Y12.3926
G01 X61.0265 Y12.3766
G01 X60.8886 Y12.2743
G01 X60.8669 Y12.2578
G01 X60.8456 Y12.2408
G01 X60.8248 Y12.2233
G01 X60.8044 Y12.2052
G01 X60.6771 Y12.0899
G01 X60.6572 Y12.0714
G01 X60.6377 Y12.0523
G01 X60.6186 Y12.0328
G01 X60.6001 Y12.0129
G01 X60.4894 Y11.8908
G01 X54.6706 Y11.8908
G01 X54.5599 Y12.0129
G01 X54.5414 Y12.0328
G01 X54.5223 Y12.0523
G01 X54.5028 Y12.0714
G01 X54.4829 Y12.0899
G01 X54.3556 Y12.2052
G01 X54.3352 Y12.2233
G01 X54.3144 Y12.2408
G01 X54.2931 Y12.2578
G01 X54.2714 Y12.2743
G01 X54.1335 Y12.3766
G01 X54.1114 Y12.3926
G01 X54.0889 Y12.4080
G01 X54.0661 Y12.4229
G01 X54.0429 Y12.4372
G01 X53.8956 Y12.5254
G01 X53.8721 Y12.5392
G01 X53.8482 Y12.5523
G01 X53.8240 Y12.5648
G01 X53.7995 Y12.5768
G01 X53.6443 Y12.6502
G01 X53.6195 Y12.6616
G01 X53.5945 Y12.6723
G01 X53.5692 Y12.6824
G01 X53.5436 Y12.6919
G01 X53.3819 Y12.7498
G01 X53.3562 Y12.7586
G01 X53.3302 Y12.7668
G01 X53.3040 Y12.7744
G01 X53.2777 Y12.7814
G01 X53.1111 Y12.8231
G01 X53.0846 Y12.8294
G01 X53.0580 Y12.8350
G01 X53.0312 Y12.8400
G01 X53.0043 Y12.8444
G01 X52.8344 Y12.8696
G01 X52.8074 Y12.8732
G01 X52.7803 Y12.8762
G01 X52.7532 Y12.8786
G01 X52.7260 Y12.8802
G01 X52.5545 Y12.8887
G01 X52.5272 Y12.8897
G01 X52.5000 Y12.8900
G01 X52.4728 Y12.8897
G01 X52.4455 Y12.8887
G01 X52.2740 Y12.8802
G01 X52.2468 Y12.8786
G01 X52.2197 Y12.8762
G01 X52.1926 Y12.8732
G01 X52.1656 Y12.8696
G01 X51.9957 Y12.8444
G01 X51.9688 Y12.8400
G01 X51.9420 Y12.8350
G01 X51.9154 Y12.8294
G01 X51.8889 Y12.8231
G01 X51.7223 Y12.7814
G01 X51.6960 Y12.7744
G01 X51.6698 Y12.7668
G01 X51.6438 Y12.7586
G01 X51.6181 Y12.7498
G01 X51.4564 Y12.6919
G01 X51.4308 Y12.6824
G01 X51.4055 Y12.6723
G01 X51.3805 Y12.6616
G01 X51.3557 Y12.6502
G01 X51.2005 Y12.5768
G01 X51.1760 Y12.5648
G01 X51.1518 Y12.5523
G01 X51.1279 Y12.5392
G01 X51.1044 Y12.5254
G01 X50.9571 Y12.4372
G01 X50.9339 Y12.4229
G01 X50.9111 Y12.4080
G01 X50.8886 Y12.3926
G01 X50.8665 Y12.3766
G01 X50.7286 Y12.2743
G01 X50.7069 Y12.2578
G01 X50.6856 Y12.2408
G01 X50.6648 Y12.2233
G01 X50.6444 Y12.2052
G01 X50.5171 Y12.0899
G01 X50.4972 Y12.0714
G01 X50.4777 Y12.0523
G01 X50.4586 Y12.0328
G01 X50.4401 Y12.0129
G01 X50.3294 Y11.8908
G01 X44.5106 Y11.8908
G01 X44.3999 Y12.0129
G01 X44.3814 Y12.0328
G01 X44.3623 Y12.0523
G01 X44.3428 Y12.0714
G01 X44.3229 Y12.0899
G01 X44.1956 Y12.2052
G01 X44.1752 Y12.2233
G01 X44.1544 Y12.2408
G01 X44.1331 Y12.2578
G01 X44.1114 Y12.2743
G01 X43.9735 Y12.3766
G01 X43.9514 Y12.3926
G01 X43.9289 Y12.4080
G01 X43.9061 Y12.4229
G01 X43.8829 Y12.4372
G01 X43.7356 Y12.5254
G01 X43.7121 Y12.5392
G01 X43.6882 Y12.5523
G01 X43.6640 Y12.5648
G01 X43.6395 Y12.5768
G01 X43.4843 Y12.6502
G01 X43.4595 Y12.6616
G01 X43.4345 Y12.6723
G01 X43.4092 Y12.6824
G01 X43.3836 Y12.6919
G01 X43.2219 Y12.7498
G01 X43.1962 Y12.7586
G01 X43.1702 Y12.7668
G01 X43.1440 Y12.7744
G01 X43.1177 Y12.7814
G01 X42.9511 Y12.8231
G01 X42.9246 Y12.8294
G01 X42.8980 Y12.8350
G01 X42.8712 Y12.8400
G01 X42.8443 Y12.8444
G01 X42.6744 Y12.8696
G01 X42.6474 Y12.8732
G01 X42.6203 Y12.8762
G01 X42.5932 Y12.8786
G01 X42.5660 Y12.8802
G01 X42.3945 Y12.8887
G01 X42.3672 Y12.8897
G01 X42.3400 Y12.8900
G01 X42.3128 Y12.8897
G01 X42.2855 Y12.8887
G01 X42.1140 Y12.8802
G01 X42.0868 Y12.8786
G01 X42.0597 Y12.8762
G01 X42.0326 Y12.8732
G01 X42.0056 Y12.8696
G01 X41.8357 Y12.8444
G01 X41.8088 Y12.8400
G01 X41.7820 Y12.8350
G01 X41.7554 Y12.8294
G01 X41.7289 Y12.8231
G01 X41.5623 Y12.7814
G01 X41.5360 Y12.7744
G01 X41.5098 Y12.7668
G01 X41.4838 Y12.7586
G01 X41.4581 Y12.7498
G01 X41.2964 Y12.6919
G01 X41.2708 Y12.6824
G01 X41.2455 Y12.6723
G01 X41.2205 Y12.6616
G01 X41.1957 Y12.6502
G01 X41.0405 Y12.5768
G01 X41.0160 Y12.5648
G01 X40.9918 Y12.5523
G01 X40.9679 Y12.5392
G01 X40.9444 Y12.5254
G01 X40.7971 Y12.4372
G01 X40.7739 Y12.4229
G01 X40.7511 Y12.4080
G01 X40.7286 Y12.3926
G01 X40.7065 Y12.3766
G01 X40.5686 Y12.2743
G01 X40.5469 Y12.2578
G01 X40.5256 Y12.2408
G01 X40.5048 Y12.2233
G01 X40.4844 Y12.2052
G01 X40.3571 Y12.0899
G01 X40.3372 Y12.0714
G01 X40.3177 Y12.0523
G01 X40.2986 Y12.0328
G01 X40.2801 Y12.0129
G01 X40.1694 Y11.8908
G01 X34.3506 Y11.8908
G01 X34.2399 Y12.0129
G01 X34.2214 Y12.0328
G01 X34.2023 Y12.0523
G01 X34.1828 Y12.0714
G01 X34.1629 Y12.0899
G01 X34.0356 Y12.2052
G01 X34.0152 Y12.2233
G01 X33.9944 Y12.2408
G01 X33.9731 Y12.2578
G01 X33.9514 Y12.2743
G01 X33.8135 Y12.3766
G01 X33.7914 Y12.3926
G01 X33.7689 Y12.4080
G01 X33.7461 Y12.4229
G01 X33.7229 Y12.4372
G01 X33.5756 Y12.5254
G01 X33.5521 Y12.5392
G01 X33.5282 Y12.5523
G01 X33.5040 Y12.5648
G01 X33.4795 Y12.5768
G01 X33.3243 Y12.6502
G01 X33.2995 Y12.6616
G01 X33.2745 Y12.6723
G01 X33.2492 Y12.6824
G01 X33.2236 Y12.6919
G01 X33.0619 Y12.7498
G01 X33.0362 Y12.7586
G01 X33.0102 Y12.7668
G01 X32.9840 Y12.7744
G01 X32.9577 Y12.7814
G01 X32.7911 Y12.8231
G01 X32.7646 Y12.8294
G01 X32.7380 Y12.8350
G01 X32.7112 Y12.8400
G01 X32.6843 Y12.8444
G01 X32.5144 Y12.8696
G01 X32.4874 Y12.8732
G01 X32.4603 Y12.8762
G01 X32.4332 Y12.8786
G01 X32.4060 Y12.8802
G01 X32.2345 Y12.8887
G01 X32.2072 Y12.8897
G01 X32.1800 Y12.8900
G01 X32.1528 Y12.8897
G01 X32.1255 Y12.8887
G01 X31.9540 Y12.8802
G01 X31.9268 Y12.8786
G01 X31.8997 Y12.8762
G01 X31.8726 Y12.8732
G01 X31.8456 Y12.8696
G01 X31.6757 Y12.8444
G01 X31.6488 Y12.8400
G01 X31.6220 Y12.8350
G01 X31.5954 Y12.8294
G01 X31.5689 Y12.8231
G01 X31.4023 Y12.7814
G01 X31.3760 Y12.7744
G01 X31.3498 Y12.7668
G01 X31.3238 Y12.7586
G01 X31.2981 Y12.7498
G01 X31.1364 Y12.6919
G01 X31.1108 Y12.6824
G01 X31.0855 Y12.6723
G01 X31.0605 Y12.6616
G01 X31.0357 Y12.6502
G01 X30.8805 Y12.5768
G01 X30.8560 Y12.5648
G01 X30.8318 Y12.5523
G01 X30.8079 Y12.5392
G01 X30.7844 Y12.5254
G01 X30.6371 Y12.4372
G01 X30.6139 Y12.4229
G01 X30.5911 Y12.4080
G01 X30.5686 Y12.3926
G01 X30.5465 Y12.3766
G01 X30.4086 Y12.2743
G01 X30.3869 Y12.2578
G01 X30.3656 Y12.2408
G01 X30.3448 Y12.2233
G01 X30.3244 Y12.2052
G01 X30.1971 Y12.0899
G01 X30.1772 Y12.0714
G01 X30.1577 Y12.0523
G01 X30.1386 Y12.0328
G01 X30.1201 Y12.0129
G01 X30.0094 Y11.8908
G01 X14.4708 Y11.8908
G01 X14.4708 Y14.8307
G01 X14.6147 Y14.9375
G01 X14.6364 Y14.9540
G01 X14.6577 Y14.9710
G01 X14.6785 Y14.9886
G01 X14.6989 Y15.0066
G01 X14.9389 Y15.2241
G01 X14.9588 Y15.2426
G01 X14.9783 Y15.2617
G01 X14.9974 Y15.2812
G01 X15.0159 Y15.3011
G01 X15.2334 Y15.5411
G01 X15.2514 Y15.5615
G01 X15.2690 Y15.5823
G01 X15.2860 Y15.6036
G01 X15.3025 Y15.6253
G01 X15.4954 Y15.8854
G01 X15.5114 Y15.9075
G01 X15.5268 Y15.9299
G01 X15.5416 Y15.9528
G01 X15.5559 Y15.9760
G01 X15.7224 Y16.2537
G01 X15.7361 Y16.2773
G01 X15.7493 Y16.3011
G01 X15.7618 Y16.3253
G01 X15.7738 Y16.3498
G01 X15.9122 Y16.6426
G01 X15.9236 Y16.6673
G01 X15.9343 Y16.6924
G01 X15.9444 Y16.7177
G01 X15.9539 Y16.7432
G01 X16.0630 Y17.0481
G01 X16.0719 Y17.0739
G01 X16.0801 Y17.0998
G01 X16.0877 Y17.1260
G01 X16.0946 Y17.1524
G01 X16.1733 Y17.4665
G01 X16.1796 Y17.4930
G01 X16.1853 Y17.5197
G01 X16.1902 Y17.5464
G01 X16.1946 Y17.5733
G01 X16.2421 Y17.8937
G01 X16.2458 Y17.9207
G01 X16.2488 Y17.9477
G01 X16.2511 Y17.9749
G01 X16.2528 Y18.0021
G01 X16.2687 Y18.3255
G01 X16.2697 Y18.3528
G01 X16.2700 Y18.3800
G01 X16.2697 Y18.4072
G01 X16.2687 Y18.4345
G01 X16.2528 Y18.7579
G01 X16.2511 Y18.7851
G01 X16.2488 Y18.8123
G01 X16.2458 Y18.8393
G01 X16.2421 Y18.8663
G01 X16.1946 Y19.1867
G01 X16.1902 Y19.2136
G01 X16.1853 Y19.2403
G01 X16.1796 Y19.2670
G01 X16.1733 Y19.2935
G01 X16.0946 Y19.6076
G01 X16.0877 Y19.6340
G01 X16.0801 Y19.6602
G01 X16.0719 Y19.6861
G01 X16.0630 Y19.7119
G01 X15.9539 Y20.0168
G01 X15.9444 Y20.0423
G01 X15.9343 Y20.0676
G01 X15.9236 Y20.0927
G01 X15.9122 Y20.1174
G01 X15.7738 Y20.4102
G01 X15.7618 Y20.4347
G01 X15.7493 Y20.4589
G01 X15.7361 Y20.4827
G01 X15.7224 Y20.5063
G01 X15.5559 Y20.7840
G01 X15.5416 Y20.8072
G01 X15.5268 Y20.8301
G01 X15.5114 Y20.8525
G01 X15.4954 Y20.8746
G01 X15.3025 Y21.1347
G01 X15.2860 Y21.1564
G01 X15.2690 Y21.1777
G01 X15.2514 Y21.1985
G01 X15.2334 Y21.2189
G01 X15.0159 Y21.4589
G01 X14.9974 Y21.4788
G01 X14.9783 Y21.4983
G01 X14.9588 Y21.5174
G01 X14.9156 Y21.5570
G01 X14.9973 Y21.6060
G01 X15.0205 Y21.6203
G01 X15.0434 Y21.6351
G01 X15.0658 Y21.6506
G01 X15.0879 Y21.6665
G01 X15.2180 Y21.7630
G01 X15.2397 Y21.7795
G01 X15.2609 Y21.7965
G01 X15.2818 Y21.8140
G01 X15.3022 Y21.8321
G01 X15.4222 Y21.9408
G01 X15.4421 Y21.9594
G01 X15.4616 Y21.9784
G01 X15.4806 Y21.9979
G01 X15.4992 Y22.0178
G01 X15.6079 Y22.1378
G01 X15.6260 Y22.1582
G01 X15.6435 Y22.1791
G01 X15.6605 Y22.2003
G01 X15.6770 Y22.2220
G01 X15.7735 Y22.3521
G01 X15.7894 Y22.3742
G01 X15.8049 Y22.3966
G01 X15.8197 Y22.4195
G01 X15.8340 Y22.4427
G01 X15.9172 Y22.5815
G01 X15.9310 Y22.6051
G01 X15.9441 Y22.6289
G01 X15.9566 Y22.6531
G01 X15.9686 Y22.6776
G01 X16.0378 Y22.8240
G01 X16.0492 Y22.8488
G01 X16.0599 Y22.8738
G01 X16.0700 Y22.8991
G01 X16.0795 Y22.9246
G01 X16.1341 Y23.0771
G01 X16.1429 Y23.1028
G01 X16.1512 Y23.1288
G01 X16.1587 Y23.1550
G01 X16.1657 Y23.1813
G01 X16.2050 Y23.3384
G01 X16.2113 Y23.3649
G01 X16.2170 Y23.3916
G01 X16.2220 Y23.4183
G01 X16.2263 Y23.4452
G01 X16.2500 Y23.6054
G01 X16.2537 Y23.6324
G01 X16.2567 Y23.6595
G01 X16.2590 Y23.6866
G01 X16.2607 Y23.7138
G01 X16.2687 Y23.8755
G01 X16.2697 Y23.9028
G01 X16.2700 Y23.9300
G01 X16.2700 Y27.2300
G01 X16.2697 Y27.2572
G01 X16.2687 Y27.2845
G01 X16.2607 Y27.4462
G01 X16.2590 Y27.4734
G01 X16.2567 Y27.5005
G01 X16.2537 Y27.5276
G01 X16.2500 Y27.5546
G01 X16.2263 Y27.7148
G01 X16.2220 Y27.7417
G01 X16.2170 Y27.7684
G01 X16.2113 Y27.7951
G01 X16.2050 Y27.8216
G01 X16.1657 Y27.9787
G01 X16.1587 Y28.0050
G01 X16.1512 Y28.0312
G01 X16.1429 Y28.0572
G01 X16.1341 Y28.0829
G01 X16.0795 Y28.2354
G01 X16.0700 Y28.2609
G01 X16.0599 Y28.2862
G01 X16.0492 Y28.3112
G01 X16.0378 Y28.3360
G01 X15.9686 Y28.4824
G01 X15.9566 Y28.5069
G01 X15.9441 Y28.5311
G01 X15.9310 Y28.5549
G01 X15.9172 Y28.5785
G01 X15.8340 Y28.7173
G01 X15.8197 Y28.7405
G01 X15.8049 Y28.7634
G01 X15.7894 Y28.7858
G01 X15.7735 Y28.8079
G01 X15.6770 Y28.9380
G01 X15.6605 Y28.9597
G01 X15.6435 Y28.9809
G01 X15.6260 Y29.0018
G01 X15.6079 Y29.0222
G01 X15.4992 Y29.1422
G01 X15.4806 Y29.1621
G01 X15.4616 Y29.1816
G01 X15.4421 Y29.2006
G01 X15.4222 Y29.2192
G01 X15.3022 Y29.3279
G01 X15.2818 Y29.3460
G01 X15.2609 Y29.3635
G01 X15.2397 Y29.3805
G01 X15.2180 Y29.3970
G01 X15.0879 Y29.4935
G01 X15.0658 Y29.5094
G01 X15.0434 Y29.5249
G01 X15.0205 Y29.5397
G01 X14.9973 Y29.5540
G01 X14.8585 Y29.6372
G01 X14.8349 Y29.6510
G01 X14.8111 Y29.6641
G01 X14.7869 Y29.6766
G01 X14.7624 Y29.6886
G01 X14.6160 Y29.7578
G01 X14.5912 Y29.7692
G01 X14.5662 Y29.7799
G01 X14.5409 Y29.7900
G01 X14.4708 Y29.8155
G01 X14.4708 Y32.0692
G01 X30.0094 Y32.0692
G01 X30.1201 Y31.9471
G01 X30.1386 Y31.9272
G01 X30.1577 Y31.9077
G01 X30.1772 Y31.8886
G01 X30.1971 Y31.8701
G01 X30.3244 Y31.7548
G01 X30.3448 Y31.7367
G01 X30.3656 Y31.7192
G01 X30.3869 Y31.7022
G01 X30.4086 Y31.6857
G01 X30.5465 Y31.5834
G01 X30.5686 Y31.5674
G01 X30.5911 Y31.5520
G01 X30.6139 Y31.5371
G01 X30.6371 Y31.5228
G01 X30.7844 Y31.4346
G01 X30.8079 Y31.4208
G01 X30.8318 Y31.4077
G01 X30.8560 Y31.3952
G01 X30.8805 Y31.3832
G01 X31.0357 Y31.3098
G01 X31.0605 Y31.2984
G01 X31.0855 Y31.2877
G01 X31.1108 Y31.2776
G01 X31.1364 Y31.2681
G01 X31.2981 Y31.2102
G01 X31.3238 Y31.2014
G01 X31.3498 Y31.1932
G01 X31.3760 Y31.1856
G01 X31.4023 Y31.1786
G01 X31.5689 Y31.1369
G01 X31.5954 Y31.1306
G01 X31.6220 Y31.1250
G01 X31.6488 Y31.1200
G01 X31.6757 Y31.1156
G01 X31.8456 Y31.0904
G01 X31.8726 Y31.0868
G01 X31.8997 Y31.0838
G01 X31.9268 Y31.0814
G01 X31.9540 Y31.0798
G01 X32.1255 Y31.0713
G01 X32.1528 Y31.0703
G01 X32.1800 Y31.0700
G01 X32.2072 Y31.0703
G01 X32.2345 Y31.0713
G01 X32.4060 Y31.0798
G01 X32.4332 Y31.0814
G01 X32.4603 Y31.0838
G01 X32.4874 Y31.0868
G01 X32.5144 Y31.0904
G01 X32.6843 Y31.1156
G01 X32.7112 Y31.1200
G01 X32.7380 Y31.1250
G01 X32.7646 Y31.1306
G01 X32.7911 Y31.1369
G01 X32.9577 Y31.1786
G01 X32.9840 Y31.1856
G01 X33.0102 Y31.1932
G01 X33.0362 Y31.2014
G01 X33.0619 Y31.2102
G01 X33.2236 Y31.2681
G01 X33.2492 Y31.2776
G01 X33.2745 Y31.2877
G01 X33.2995 Y31.2984
G01 X33.3243 Y31.3098
G01 X33.4795 Y31.3832
G01 X33.5040 Y31.3952
G01 X33.5282 Y31.4077
G01 X33.5521 Y31.4208
G01 X33.5756 Y31.4346
G01 X33.7229 Y31.5228
G01 X33.7461 Y31.5371
G01 X33.7689 Y31.5520
G01 X33.7914 Y31.5674
G01 X33.8135 Y31.5834
G01 X33.9514 Y31.6857
G01 X33.9731 Y31.7022
G01 X33.9944 Y31.7192
G01 X34.0152 Y31.7367
G01 X34.0356 Y31.7548
G01 X34.1629 Y31.8701
G01 X34.1828 Y31.8886
G01 X34.2023 Y31.9077
G01 X34.2214 Y31.9272
G01 X34.2399 Y31.9471
G01 X34.3506 Y32.0692
G01 X40.1694 Y32.0692
G01 X40.2801 Y31.9471
G01 X40.2986 Y31.9272
G01 X40.3177 Y31.9077
G01 X40.3372 Y31.8886
G01 X40.3571 Y31.8701
G01 X40.4844 Y31.7548
G01 X40.5048 Y31.7367
G01 X40.5256 Y31.7192
G01 X40.5469 Y31.7022
G01 X40.5686 Y31.6857
G01 X40.7065 Y31.5834
G01 X40.7286 Y31.5674
G01 X40.7511 Y31.5520
G01 X40.7739 Y31.5371
G01 X40.7971 Y31.5228
G01 X40.9444 Y31.4346
G01 X40.9679 Y31.4208
G01 X40.9918 Y31.4077
G01 X41.0160 Y31.3952
G01 X41.0405 Y31.3832
G01 X41.1957 Y31.3098
G01 X41.2205 Y31.2984
G01 X41.2455 Y31.2877
G01 X41.2708 Y31.2776
G01 X41.2964 Y31.2681
G01 X41.4581 Y31.2102
G01 X41.4838 Y31.2014
G01 X41.5098 Y31.1932
G01 X41.5360 Y31.1856
G01 X41.5623 Y31.1786
G01 X41.7289 Y31.1369
G01 X41.7554 Y31.1306
G01 X41.7820 Y31.1250
G01 X41.8088 Y31.1200
G01 X41.8357 Y31.1156
G01 X42.0056 Y31.0904
G01 X42.0326 Y31.0868
G01 X42.0597 Y31.0838
G01 X42.0868 Y31.0814
G01 X42.1140 Y31.0798
G01 X42.2855 Y31.0713
G01 X42.3128 Y31.0703
G01 X42.3400 Y31.0700
G01 X42.3672 Y31.0703
G01 X42.3945 Y31.0713
G01 X42.5660 Y31.0798
G01 X42.5932 Y31.0814
G01 X42.6203 Y31.0838
G01 X42.6474 Y31.0868
G01 X42.6744 Y31.0904
G01 X42.8443 Y31.1156
G01 X42.8712 Y31.1200
G01 X42.8980 Y31.1250
G01 X42.9246 Y31.1306
G01 X42.9511 Y31.1369
G01 X43.1177 Y31.1786
G01 X43.1440 Y31.1856
G01 X43.1702 Y31.1932
G01 X43.1962 Y31.2014
G01 X43.2219 Y31.2102
G01 X43.3836 Y31.2681
G01 X43.4092 Y31.2776
G01 X43.4345 Y31.2877
G01 X43.4595 Y31.2984
G01 X43.4843 Y31.3098
G01 X43.6395 Y31.3832
G01 X43.6640 Y31.3952
G01 X43.6882 Y31.4077
G01 X43.7121 Y31.4208
G01 X43.7356 Y31.4346
G01 X43.8829 Y31.5228
G01 X43.9061 Y31.5371
G01 X43.9289 Y31.5520
G01 X43.9514 Y31.5674
G01 X43.9735 Y31.5834
G01 X44.1114 Y31.6857
G01 X44.1331 Y31.7022
G01 X44.1544 Y31.7192
G01 X44.1752 Y31.7367
G01 X44.1956 Y31.7548
G01 X44.3229 Y31.8701
G01 X44.3428 Y31.8886
G01 X44.3623 Y31.9077
G01 X44.3814 Y31.9272
G01 X44.3999 Y31.9471
G01 X44.5106 Y32.0692
G01 X50.3294 Y32.0692
G01 X50.4401 Y31.9471
G01 X50.4586 Y31.9272
G01 X50.4777 Y31.9077
G01 X50.4972 Y31.8886
G01 X50.5171 Y31.8701
G01 X50.6444 Y31.7548
G01 X50.6648 Y31.7367
G01 X50.6856 Y31.7192
G01 X50.7069 Y31.7022
G01 X50.7286 Y31.6857
G01 X50.8665 Y31.5834
G01 X50.8886 Y31.5674
G01 X50.9111 Y31.5520
G01 X50.9339 Y31.5371
G01 X50.9571 Y31.5228
G01 X51.1044 Y31.4346
G01 X51.1279 Y31.4208
G01 X51.1518 Y31.4077
G01 X51.1760 Y31.3952
G01 X51.2005 Y31.3832
G01 X51.3557 Y31.3098
G01 X51.3805 Y31.2984
G01 X51.4055 Y31.2877
G01 X51.4308 Y31.2776
G01 X51.4564 Y31.2681
G01 X51.6181 Y31.2102
G01 X51.6438 Y31.2014
G01 X51.6698 Y31.1932
G01 X51.6960 Y31.1856
G01 X51.7223 Y31.1786
G01 X51.8889 Y31.1369
G01 X51.9154 Y31.1306
G01 X51.9420 Y31.1250
G01 X51.9688 Y31.1200
G01 X51.9957 Y31.1156
G01 X52.1656 Y31.0904
G01 X52.1926 Y31.0868
G01 X52.2197 Y31.0838
G01 X52.2468 Y31.0814
G01 X52.2740 Y31.0798
G01 X52.4455 Y31.0713
G01 X52.4728 Y31.0703
G01 X52.5000 Y31.0700
G01 X52.5272 Y31.0703
G01 X52.5545 Y31.0713
G01 X52.7260 Y31.0798
G01 X52.7532 Y31.0814
G01 X52.7803 Y31.0838
G01 X52.8074 Y31.0868
G01 X52.8344 Y31.0904
G01 X53.0043 Y31.1156
G01 X53.0312 Y31.1200
G01 X53.0580 Y31.1250
G01 X53.0846 Y31.1306
G01 X53.1111 Y31.1369
G01 X53.2777 Y31.1786
G01 X53.3040 Y31.1856
G01 X53.3302 Y31.1932
G01 X53.3562 Y31.2014
G01 X53.3819 Y31.2102
G01 X53.5436 Y31.2681
G01 X53.5692 Y31.2776
G01 X53.5945 Y31.2877
G01 X53.6195 Y31.2984
G01 X53.6443 Y31.3098
G01 X53.7995 Y31.3832
G01 X53.8240 Y31.3952
G01 X53.8482 Y31.4077
G01 X53.8721 Y31.4208
G01 X53.8956 Y31.4346
G01 X54.0429 Y31.5228
G01 X54.0661 Y31.5371
G01 X54.0889 Y31.5520
G01 X54.1114 Y31.5674
G01 X54.1335 Y31.5834
G01 X54.2714 Y31.6857
G01 X54.2931 Y31.7022
G01 X54.3144 Y31.7192
G01 X54.3352 Y31.7367
G01 X54.3556 Y31.7548
G01 X54.4829 Y31.8701
G01 X54.5028 Y31.8886
G01 X54.5223 Y31.9077
G01 X54.5414 Y31.9272
G01 X54.5599 Y31.9471
G01 X54.6706 Y32.0692
G01 X60.4894 Y32.0692
G01 X60.6001 Y31.9471
G01 X60.6186 Y31.9272
G01 X60.6377 Y31.9077
G01 X60.6572 Y31.8886
G01 X60.6771 Y31.8701
G01 X60.8044 Y31.7548
G01 X60.8248 Y31.7367
G01 X60.8456 Y31.7192
G01 X60.8669 Y31.7022
G01 X60.8886 Y31.6857
G01 X61.0265 Y31.5834
G01 X61.0486 Y31.5674
G01 X61.0711 Y31.5520
G01 X61.0939 Y31.5371
G01 X61.1171 Y31.5228
G01 X61.2644 Y31.4346
G01 X61.2879 Y31.4208
G01 X61.3118 Y31.4077
G01 X61.3360 Y31.3952
G01 X61.3605 Y31.3832
G01 X61.5157 Y31.3098
G01 X61.5405 Y31.2984
G01 X61.5655 Y31.2877
G01 X61.5908 Y31.2776
G01 X61.6164 Y31.2681
G01 X61.7781 Y31.2102
G01 X61.8038 Y31.2014
G01 X61.8298 Y31.1932
G01 X61.8560 Y31.1856
G01 X61.8823 Y31.1786
G01 X62.0489 Y31.1369
G01 X62.0754 Y31.1306
G01 X62.1020 Y31.1250
G01 X62.1288 Y31.1200
G01 X62.1557 Y31.1156
G01 X62.3256 Y31.0904
G01 X62.3526 Y31.0868
G01 X62.3797 Y31.0838
G01 X62.4068 Y31.0814
G01 X62.4340 Y31.0798
G01 X62.6055 Y31.0713
G01 X62.6328 Y31.0703
G01 X62.6600 Y31.0700
G01 X62.6872 Y31.0703
G01 X62.7145 Y31.0713
G01 X62.8860 Y31.0798
G01 X62.9132 Y31.0814
G01 X62.9403 Y31.0838
G01 X62.9674 Y31.0868
G01 X62.9944 Y31.0904
G01 X63.1643 Y31.1156
G01 X63.1912 Y31.1200
G01 X63.2180 Y31.1250
G01 X63.2446 Y31.1306
G01 X63.2711 Y31.1369
G01 X63.4377 Y31.1786
G01 X63.4640 Y31.1856
G01 X63.4902 Y31.1932
G01 X63.5162 Y31.2014
G01 X63.5419 Y31.2102
G01 X63.7036 Y31.2681
G01 X63.7292 Y31.2776
G01 X63.7545 Y31.2877
G01 X63.7795 Y31.2984
G01 X63.8043 Y31.3098
G01 X63.9595 Y31.3832
G01 X63.9840 Y31.3952
G01 X64.0082 Y31.4077
G01 X64.0321 Y31.4208
G01 X64.0556 Y31.4346
G01 X64.2029 Y31.5228
G01 X64.2261 Y31.5371
G01 X64.2489 Y31.5520
G01 X64.2714 Y31.5674
G01 X64.2935 Y31.5834
G01 X64.4314 Y31.6857
G01 X64.4531 Y31.7022
G01 X64.4744 Y31.7192
G01 X64.4952 Y31.7367
G01 X64.5156 Y31.7548
G01 X64.6429 Y31.8701
G01 X64.6628 Y31.8886
G01 X64.6823 Y31.9077
G01 X64.7014 Y31.9272
G01 X64.7199 Y31.9471
G01 X64.8352 Y32.0744
G01 X64.8533 Y32.0948
G01 X64.8708 Y32.1156
G01 X64.8878 Y32.1369
G01 X64.9043 Y32.1586
G01 X65.0066 Y32.2965
G01 X65.0226 Y32.3186
G01 X65.0380 Y32.3411
G01 X65.0529 Y32.3639
G01 X65.0672 Y32.3871
G01 X65.1554 Y32.5344
G01 X65.1692 Y32.5579
G01 X65.1823 Y32.5818
G01 X65.1948 Y32.6060
G01 X65.2068 Y32.6305
G01 X65.2802 Y32.7857
G01 X65.2916 Y32.8105
G01 X65.3023 Y32.8355
G01 X65.3124 Y32.8608
G01 X65.3219 Y32.8864
G01 X65.3798 Y33.0481
G01 X65.3886 Y33.0738
G01 X65.3968 Y33.0998
G01 X65.4044 Y33.1260
G01 X65.4114 Y33.1523
G01 X65.4531 Y33.3189
G01 X65.4594 Y33.3454
G01 X65.4650 Y33.3720
G01 X65.4700 Y33.3988
G01 X65.4744 Y33.4257
G01 X65.4996 Y33.5956
G01 X65.5032 Y33.6226
G01 X65.5062 Y33.6497
G01 X65.5086 Y33.6768
G01 X65.5102 Y33.7040
G01 X65.5187 Y33.8755
G01 X65.5197 Y33.9028
G01 X65.5200 Y33.9300
G01 X65.5200 Y35.4300
G01 X65.5197 Y35.4572
G01 X65.5187 Y35.4845
G01 X65.5102 Y35.6560
G01 X65.5086 Y35.6832
G01 X65.5062 Y35.7103
G01 X65.5032 Y35.7374
G01 X65.4996 Y35.7644
G01 X65.4744 Y35.9343
G01 X65.4700 Y35.9612
G01 X65.4650 Y35.9880
G01 X65.4594 Y36.0146
G01 X65.4531 Y36.0411
G01 X65.4114 Y36.2077
G01 X65.4044 Y36.2340
G01 X65.3968 Y36.2602
G01 X65.3886 Y36.2862
G01 X65.3798 Y36.3119
G01 X65.3219 Y36.4736
G01 X65.3124 Y36.4992
G01 X65.3023 Y36.5245
G01 X65.2916 Y36.5495
G01 X65.2802 Y36.5743
G01 X65.2068 Y36.7295
G01 X65.1948 Y36.7540
G01 X65.1823 Y36.7782
G01 X65.1692 Y36.8021
G01 X65.1554 Y36.8256
G01 X65.0672 Y36.9729
G01 X65.0529 Y36.9961
G01 X65.0380 Y37.0189
G01 X65.0226 Y37.0414
G01 X65.0066 Y37.0635
G01 X64.9043 Y37.2014
G01 X64.8878 Y37.2231
G01 X64.8708 Y37.2444
G01 X64.8533 Y37.2652
G01 X64.8352 Y37.2856
G01 X64.7199 Y37.4129
G01 X64.7014 Y37.4328
G01 X64.6823 Y37.4523
G01 X64.6628 Y37.4714
G01 X64.6429 Y37.4899
G01 X64.5156 Y37.6052
G01 X64.4952 Y37.6233
G01 X64.4744 Y37.6408
G01 X64.4531 Y37.6578
G01 X64.4314 Y37.6743
G01 X64.2935 Y37.7766
G01 X64.2714 Y37.7926
G01 X64.2489 Y37.8080
G01 X64.2261 Y37.8229
G01 X64.2029 Y37.8372
G01 X64.0556 Y37.9254
G01 X64.0321 Y37.9392
G01 X64.0082 Y37.9523
G01 X63.9840 Y37.9648
G01 X63.9595 Y37.9768
G01 X63.8043 Y38.0502
G01 X63.7795 Y38.0616
G01 X63.7545 Y38.0723
G01 X63.7292 Y38.0824
G01 X63.7036 Y38.0919
G01 X63.5419 Y38.1498
G01 X63.5162 Y38.1586
G01 X63.4902 Y38.1668
G01 X63.4640 Y38.1744
G01 X63.4377 Y38.1814
G01 X63.2711 Y38.2231
G01 X63.2446 Y38.2294
G01 X63.2180 Y38.2350
G01 X63.1912 Y38.2400
G01 X63.1643 Y38.2444
G01 X62.9944 Y38.2696
G01 X62.9674 Y38.2732
G01 X62.9403 Y38.2762
G01 X62.9132 Y38.2786
G01 X62.8860 Y38.2802
G01 X62.7145 Y38.2887
G01 X62.6872 Y38.2897
G01 X62.6600 Y38.2900
G01 X62.6328 Y38.2897
G01 X62.6055 Y38.2887
G01 X62.4340 Y38.2802
G01 X62.4068 Y38.2786
G01 X62.3797 Y38.2762
G01 X62.3526 Y38.2732
G01 X62.3256 Y38.2696
G01 X62.1557 Y38.2444
G01 X62.1288 Y38.2400
G01 X62.1020 Y38.2350
G01 X62.0754 Y38.2294
G01 X62.0489 Y38.2231
G01 X61.8823 Y38.1814
G01 X61.8560 Y38.1744
G01 X61.8298 Y38.1668
G01 X61.8038 Y38.1586
G01 X61.7781 Y38.1498
G01 X61.6164 Y38.0919
G01 X61.5908 Y38.0824
G01 X61.5655 Y38.0723
G01 X61.5405 Y38.0616
G01 X61.5157 Y38.0502
G01 X61.3605 Y37.9768
G01 X61.3360 Y37.9648
G01 X61.3118 Y37.9523
G01 X61.2879 Y37.9392
G01 X61.2644 Y37.9254
G01 X61.1171 Y37.8372
G01 X61.0939 Y37.8229
G01 X61.0711 Y37.8080
G01 X61.0486 Y37.7926
G01 X61.0265 Y37.7766
G01 X60.8886 Y37.6743
G01 X60.8669 Y37.6578
G01 X60.8456 Y37.6408
G01 X60.8248 Y37.6233
G01 X60.8044 Y37.6052
G01 X60.6771 Y37.4899
G01 X60.6572 Y37.4714
G01 X60.6377 Y37.4523
G01 X60.6186 Y37.4328
G01 X60.6001 Y37.4129
G01 X60.4894 Y37.2908
G01 X54.6706 Y37.2908
G01 X54.5599 Y37.4129
G01 X54.5414 Y37.4328
G01 X54.5223 Y37.4523
G01 X54.5028 Y37.4714
G01 X54.4829 Y37.4899
G01 X54.3556 Y37.6052
G01 X54.3352 Y37.6233
G01 X54.3144 Y37.6408
G01 X54.2931 Y37.6578
G01 X54.2714 Y37.6743
G01 X54.1335 Y37.7766
G01 X54.1114 Y37.7926
G01 X54.0889 Y37.8080
G01 X54.0661 Y37.8229
G01 X54.0429 Y37.8372
G01 X53.8956 Y37.9254
G01 X53.8721 Y37.9392
G01 X53.8482 Y37.9523
G01 X53.8240 Y37.9648
G01 X53.7995 Y37.9768
G01 X53.6443 Y38.0502
G01 X53.6195 Y38.0616
G01 X53.5945 Y38.0723
G01 X53.5692 Y38.0824
G01 X53.5436 Y38.0919
G01 X53.3819 Y38.1498
G01 X53.3562 Y38.1586
G01 X53.3302 Y38.1668
G01 X53.3040 Y38.1744
G01 X53.2777 Y38.1814
G01 X53.1111 Y38.2231
G01 X53.0846 Y38.2294
G01 X53.0580 Y38.2350
G01 X53.0312 Y38.2400
G01 X53.0043 Y38.2444
G01 X52.8344 Y38.2696
G01 X52.8074 Y38.2732
G01 X52.7803 Y38.2762
G01 X52.7532 Y38.2786
G01 X52.7260 Y38.2802
G01 X52.5545 Y38.2887
G01 X52.5272 Y38.2897
G01 X52.5000 Y38.2900
G01 X52.4728 Y38.2897
G01 X52.4455 Y38.2887
G01 X52.2740 Y38.2802
G01 X52.2468 Y38.2786
G01 X52.2197 Y38.2762
G01 X52.1926 Y38.2732
G01 X52.1656 Y38.2696
G01 X51.9957 Y38.2444
G01 X51.9688 Y38.2400
G01 X51.9420 Y38.2350
G01 X51.9154 Y38.2294
G01 X51.8889 Y38.2231
G01 X51.7223 Y38.1814
G01 X51.6960 Y38.1744
G01 X51.6698 Y38.1668
G01 X51.6438 Y38.1586
G01 X51.6181 Y38.1498
G01 X51.4564 Y38.0919
G01 X51.4308 Y38.0824
G01 X51.4055 Y38.0723
G01 X51.3805 Y38.0616
G01 X51.3557 Y38.0502
G01 X51.2005 Y37.9768
G01 X51.1760 Y37.9648
G01 X51.1518 Y37.9523
G01 X51.1279 Y37.9392
G01 X51.1044 Y37.9254
G01 X50.9571 Y37.8372
G01 X50.9339 Y37.8229
G01 X50.9111 Y37.8080
G01 X50.8886 Y37.7926
G01 X50.8665 Y37.7766
G01 X50.7286 Y37.6743
G01 X50.7069 Y37.6578
G01 X50.6856 Y37.6408
G01 X50.6648 Y37.6233
G01 X50.6444 Y37.6052
G01 X50.5171 Y37.4899
G01 X50.4972 Y37.4714
G01 X50.4777 Y37.4523
G01 X50.4586 Y37.4328
G01 X50.4401 Y37.4129
G01 X50.3294 Y37.2908
G01 X44.5106 Y37.2908
G01 X44.3999 Y37.4129
G01 X44.3814 Y37.4328
G01 X44.3623 Y37.4523
G01 X44.3428 Y37.4714
G01 X44.3229 Y37.4899
G01 X44.1956 Y37.6052
G01 X44.1752 Y37.6233
G01 X44.1544 Y37.6408
G01 X44.1331 Y37.6578
G01 X44.1114 Y37.6743
G01 X43.9735 Y37.7766
G01 X43.9514 Y37.7926
G01 X43.9289 Y37.8080
G01 X43.9061 Y37.8229
G01 X43.8829 Y37.8372
G01 X43.7356 Y37.9254
G01 X43.7121 Y37.9392
G01 X43.6882 Y37.9523
G01 X43.6640 Y37.9648
G01 X43.6395 Y37.9768
G01 X43.4843 Y38.0502
G01 X43.4595 Y38.0616
G01 X43.4345 Y38.0723
G01 X43.4092 Y38.0824
G01 X43.3836 Y38.0919
G01 X43.2219 Y38.1498
G01 X43.1962 Y38.1586
G01 X43.1702 Y38.1668
G01 X43.1440 Y38.1744
G01 X43.1177 Y38.1814
G01 X42.9511 Y38.2231
G01 X42.9246 Y38.2294
G01 X42.8980 Y38.2350
G01 X42.8712 Y38.2400
G01 X42.8443 Y38.2444
G01 X42.6744 Y38.2696
G01 X42.6474 Y38.2732
G01 X42.6203 Y38.2762
G01 X42.5932 Y38.2786
G01 X42.5660 Y38.2802
G01 X42.3945 Y38.2887
G01 X42.3672 Y38.2897
G01 X42.3400 Y38.2900
G01 X42.3128 Y38.2897
G01 X42.2855 Y38.2887
G01 X42.1140 Y38.2802
G01 X42.0868 Y38.2786
G01 X42.0597 Y38.2762
G01 X42.0326 Y38.2732
G01 X42.0056 Y38.2696
G01 X41.8357 Y38.2444
G01 X41.8088 Y38.2400
G01 X41.7820 Y38.2350
G01 X41.7554 Y38.2294
G01 X41.7289 Y38.2231
G01 X41.5623 Y38.1814
G01 X41.5360 Y38.1744
G01 X41.5098 Y38.1668
G01 X41.4838 Y38.1586
G01 X41.4581 Y38.1498
G01 X41.2964 Y38.0919
G01 X41.2708 Y38.0824
G01 X41.2455 Y38.0723
G01 X41.2205 Y38.0616
G01 X41.1957 Y38.0502
G01 X41.0405 Y37.9768
G01 X41.0160 Y37.9648
G01 X40.9918 Y37.9523
G01 X40.9679 Y37.9392
G01 X40.9444 Y37.9254
G01 X40.7971 Y37.8372
G01 X40.7739 Y37.8229
G01 X40.7511 Y37.8080
G01 X40.7286 Y37.7926
G01 X40.7065 Y37.7766
G01 X40.5686 Y37.6743
G01 X40.5469 Y37.6578
G01 X40.5256 Y37.6408
G01 X40.5048 Y37.6233
G01 X40.4844 Y37.6052
G01 X40.3571 Y37.4899
G01 X40.3372 Y37.4714
G01 X40.3177 Y37.4523
G01 X40.2986 Y37.4328
G01 X40.2801 Y37.4129
G01 X40.1694 Y37.2908
G01 X34.3506 Y37.2908
G01 X34.2399 Y37.4129
G01 X34.2214 Y37.4328
G01 X34.2023 Y37.4523
G01 X34.1828 Y37.4714
G01 X34.1629 Y37.4899
G01 X34.0356 Y37.6052
G01 X34.0152 Y37.6233
G01 X33.9944 Y37.6408
G01 X33.9731 Y37.6578
G01 X33.9514 Y37.6743
G01 X33.8135 Y37.7766
G01 X33.7914 Y37.7926
G01 X33.7689 Y37.8080
G01 X33.7461 Y37.8229
G01 X33.7229 Y37.8372
G01 X33.5756 Y37.9254
G01 X33.5521 Y37.9392
G01 X33.5282 Y37.9523
G01 X33.5040 Y37.9648
G01 X33.4795 Y37.9768
G01 X33.3243 Y38.0502
G01 X33.2995 Y38.0616
G01 X33.2745 Y38.0723
G01 X33.2492 Y38.0824
G01 X33.2236 Y38.0919
G01 X33.0619 Y38.1498
G01 X33.0362 Y38.1586
G01 X33.0102 Y38.1668
G01 X32.9840 Y38.1744
G01 X32.9577 Y38.1814
G01 X32.7911 Y38.2231
G01 X32.7646 Y38.2294
G01 X32.7380 Y38.2350
G01 X32.7112 Y38.2400
G01 X32.6843 Y38.2444
G01 X32.5144 Y38.2696
G01 X32.4874 Y38.2732
G01 X32.4603 Y38.2762
G01 X32.4332 Y38.2786
G01 X32.4060 Y38.2802
G01 X32.2345 Y38.2887
G01 X32.2072 Y38.2897
G01 X32.1800 Y38.2900
G01 X32.1528 Y38.2897
G01 X32.1255 Y38.2887
G01 X31.9540 Y38.2802
G01 X31.9268 Y38.2786
G01 X31.8997 Y38.2762
G01 X31.8726 Y38.2732
G01 X31.8456 Y38.2696
G01 X31.6757 Y38.2444
G01 X31.6488 Y38.2400
G01 X31.6220 Y38.2350
G01 X31.5954 Y38.2294
G01 X31.5689 Y38.2231
G01 X31.4023 Y38.1814
G01 X31.3760 Y38.1744
G01 X31.3498 Y38.1668
G01 X31.3238 Y38.1586
G01 X31.2981 Y38.1498
G01 X31.1364 Y38.0919
G01 X31.1108 Y38.0824
G01 X31.0855 Y38.0723
G01 X31.0605 Y38.0616
G01 X31.0357 Y38.0502
G01 X30.8805 Y37.9768
G01 X30.8560 Y37.9648
G01 X30.8318 Y37.9523
G01 X30.8079 Y37.9392
G01 X30.7844 Y37.9254
G01 X30.6371 Y37.8372
G01 X30.6139 Y37.8229
G01 X30.5911 Y37.8080
G01 X30.5686 Y37.7926
G01 X30.5465 Y37.7766
G01 X30.4086 Y37.6743
G01 X30.3869 Y37.6578
G01 X30.3656 Y37.6408
G01 X30.3448 Y37.6233
G01 X30.3244 Y37.6052
G01 X30.1971 Y37.4899
G01 X30.1772 Y37.4714
G01 X30.1577 Y37.4523
G01 X30.1386 Y37.4328
G01 X30.1201 Y37.4129
G01 X30.0094 Y37.2908
G01 X11.8600 Y37.2908
G01 X11.8328 Y37.2904
G01 X11.8055 Y37.2894
G01 X11.6584 Y37.2822
G01 X11.6312 Y37.2805
G01 X11.6041 Y37.2782
G01 X11.5770 Y37.2752
G01 X11.5500 Y37.2715
G01 X11.4043 Y37.2499
G01 X11.3775 Y37.2456
G01 X11.3507 Y37.2406
G01 X11.3240 Y37.2349
G01 X11.2975 Y37.2286
G01 X11.1546 Y37.1929
G01 X11.1283 Y37.1859
G01 X11.1021 Y37.1783
G01 X11.0762 Y37.1701
G01 X11.0504 Y37.1612
G01 X10.9117 Y37.1116
G01 X10.8862 Y37.1021
G01 X10.8609 Y37.0920
G01 X10.8359 Y37.0813
G01 X10.8111 Y37.0699
G01 X10.6780 Y37.0070
G01 X10.6535 Y36.9950
G01 X10.6293 Y36.9825
G01 X10.6054 Y36.9693
G01 X10.5819 Y36.9556
G01 X10.4556 Y36.8799
G01 X10.4324 Y36.8656
G01 X10.4095 Y36.8508
G01 X10.3871 Y36.8353
G01 X10.3650 Y36.8194
G01 X10.2467 Y36.7317
G01 X10.2250 Y36.7152
G01 X10.2038 Y36.6981
G01 X10.1829 Y36.6806
G01 X10.1625 Y36.6626
G01 X10.0534 Y36.5636
G01 X10.0334 Y36.5451
G01 X10.0139 Y36.5261
G01 X9.9949 Y36.5066
G01 X9.9764 Y36.4866
G01 X9.8774 Y36.3775
G01 X9.8594 Y36.3571
G01 X9.8419 Y36.3362
G01 X9.8248 Y36.3150
G01 X9.8083 Y36.2933
G01 X9.7206 Y36.1750
G01 X9.7047 Y36.1529
G01 X9.6892 Y36.1305
G01 X9.6744 Y36.1076
G01 X9.6601 Y36.0844
G01 X9.5844 Y35.9581
G01 X9.5707 Y35.9346
G01 X9.5575 Y35.9107
G01 X9.5450 Y35.8865
G01 X9.5330 Y35.8620
G01 X9.4701 Y35.7289
G01 X9.4587 Y35.7041
G01 X9.4480 Y35.6791
G01 X9.4379 Y35.6538
G01 X9.4284 Y35.6283
G01 X9.3788 Y35.4896
G01 X9.3699 Y35.4638
G01 X9.3617 Y35.4379
G01 X9.3541 Y35.4117
G01 X9.3471 Y35.3854
G01 X9.3114 Y35.2425
G01 X9.3051 Y35.2160
G01 X9.2994 Y35.1893
G01 X9.2944 Y35.1625
G01 X9.2901 Y35.1357
G01 X9.2685 Y34.9900
G01 X9.2648 Y34.9630
G01 X9.2618 Y34.9359
G01 X9.2595 Y34.9088
G01 X9.2578 Y34.8816
G01 X9.2506 Y34.7345
G01 X9.2496 Y34.7072
G01 X9.2492 Y34.6800
G01 X9.2492 Y29.8155
G01 X9.1791 Y29.7900
G01 X9.1538 Y29.7799
G01 X9.1288 Y29.7692
G01 X9.1040 Y29.7578
G01 X8.9576 Y29.6886
G01 X8.9331 Y29.6766
G01 X8.9089 Y29.6641
G01 X8.8851 Y29.6510
G01 X8.8615 Y29.6372
G01 X8.7227 Y29.5540
G01 X8.6995 Y29.5397
G01 X8.6766 Y29.5249
G01 X8.6542 Y29.5094
G01 X8.6321 Y29.4935
G01 X8.5020 Y29.3970
G01 X8.4803 Y29.3805
G01 X8.4591 Y29.3635
G01 X8.4382 Y29.3460
G01 X8.4178 Y29.3279
G01 X8.2978 Y29.2192
G01 X8.2779 Y29.2006
G01 X8.2584 Y29.1816
G01 X8.2394 Y29.1621
G01 X8.2208 Y29.1422
G01 X8.1121 Y29.0222
G01 X8.0940 Y29.0018
G01 X8.0765 Y28.9809
G01 X8.0595 Y28.9597
G01 X8.0430 Y28.9380
G01 X7.9465 Y28.8079
G01 X7.9306 Y28.7858
G01 X7.9151 Y28.7634
G01 X7.9003 Y28.7405
G01 X7.8860 Y28.7173
G01 X7.8028 Y28.5785
G01 X7.7890 Y28.5549
G01 X7.7759 Y28.5311
G01 X7.7634 Y28.5069
G01 X7.7514 Y28.4824
G01 X7.6822 Y28.3360
G01 X7.6708 Y28.3112
G01 X7.6601 Y28.2862
G01 X7.6500 Y28.2609
G01 X7.6405 Y28.2354
G01 X7.5859 Y28.0829
G01 X7.5771 Y28.0572
G01 X7.5688 Y28.0312
G01 X7.5613 Y28.0050
G01 X7.5543 Y27.9787
G01 X7.5150 Y27.8216
G01 X7.5087 Y27.7951
G01 X7.5030 Y27.7684
G01 X7.4980 Y27.7417
G01 X7.4937 Y27.7148
G01 X7.4700 Y27.5546
G01 X7.4663 Y27.5276
G01 X7.4633 Y27.5005
G01 X7.4610 Y27.4734
G01 X7.4593 Y27.4462
G01 X7.4513 Y27.2845
G01 X7.4503 Y27.2572
G01 X7.4500 Y27.2300
G01 X7.4500 Y23.9300
G01 X7.4503 Y23.9028
G01 X7.4513 Y23.8755
G01 X7.4593 Y23.7138
G01 X7.4610 Y23.6866
G01 X7.4633 Y23.6595
G01 X7.4663 Y23.6324
G01 X7.4700 Y23.6054
G01 X7.4937 Y23.4452
G01 X7.4980 Y23.4183
G01 X7.5030 Y23.3916
G01 X7.5087 Y23.3649
G01 X7.5150 Y23.3384
G01 X7.5543 Y23.1813
G01 X7.5613 Y23.1550
G01 X7.5688 Y23.1288
G01 X7.5771 Y23.1028
G01 X7.5859 Y23.0771
G01 X7.6405 Y22.9246
G01 X7.6500 Y22.8991
G01 X7.6601 Y22.8738
G01 X7.6708 Y22.8488
G01 X7.6822 Y22.8240
G01 X7.7514 Y22.6776
G01 X7.7634 Y22.6531
G01 X7.7759 Y22.6289
G01 X7.7890 Y22.6051
G01 X7.8028 Y22.5815
G01 X7.8860 Y22.4427
G01 X7.9003 Y22.4195
G01 X7.9151 Y22.3966
G01 X7.9306 Y22.3742
G01 X7.9465 Y22.3521
G01 X8.0430 Y22.2220
G01 X8.0595 Y22.2003
G01 X8.0765 Y22.1791
G01 X8.0940 Y22.1582
G01 X8.1121 Y22.1378
G01 X8.2208 Y22.0178
G01 X8.2394 Y21.9979
G01 X8.2584 Y21.9784
G01 X8.2779 Y21.9594
G01 X8.2978 Y21.9408
G01 X8.4178 Y21.8321
G01 X8.4382 Y21.8140
G01 X8.4591 Y21.7965
G01 X8.4803 Y21.7795
G01 X8.5020 Y21.7630
G01 X8.6321 Y21.6665
G01 X8.6542 Y21.6506
G01 X8.6766 Y21.6351
G01 X8.6995 Y21.6203
G01 X8.7227 Y21.6060
G01 X8.8044 Y21.5570
G01 X8.7612 Y21.5174
G01 X8.7417 Y21.4983
G01 X8.7226 Y21.4788
G01 X8.7041 Y21.4589
G01 X8.4866 Y21.2189
G01 X8.4686 Y21.1985
G01 X8.4510 Y21.1777
G01 X8.4340 Y21.1564
G01 X8.4175 Y21.1347
G01 X8.2246 Y20.8746
G01 X8.2086 Y20.8525
G01 X8.1932 Y20.8301
G01 X8.1784 Y20.8072
G01 X8.1641 Y20.7840
G01 X7.9976 Y20.5063
G01 X7.9839 Y20.4827
G01 X7.9707 Y20.4589
G01 X7.9582 Y20.4347
G01 X7.9462 Y20.4102
G01 X7.8078 Y20.1174
G01 X7.7964 Y20.0927
G01 X7.7857 Y20.0676
G01 X7.7756 Y20.0423
G01 X7.7661 Y20.0168
G01 X7.6570 Y19.7119
G01 X7.6481 Y19.6861
G01 X7.6399 Y19.6602
G01 X7.6323 Y19.6340
G01 X7.6254 Y19.6076
G01 X7.5467 Y19.2935
G01 X7.5404 Y19.2670
G01 X7.5347 Y19.2403
G01 X7.5298 Y19.2136
G01 X7.5254 Y19.1867
G01 X7.4779 Y18.8663
G01 X7.4742 Y18.8393
G01 X7.4712 Y18.8123
G01 X7.4689 Y18.7851
G01 X7.4672 Y18.7579
G01 X7.4513 Y18.4345
G01 X7.4503 Y18.4072
G01 X7.4500 Y18.3800
G01 X7.4503 Y18.3528
G01 X7.4513 Y18.3255
G01 X7.4672 Y18.0021
G01 X7.4689 Y17.9749
G01 X7.4712 Y17.9477
G01 X7.4742 Y17.9207
G01 X7.4779 Y17.8937
G01 X7.5254 Y17.5733
G01 X7.5298 Y17.5464
G01 X7.5347 Y17.5197
G01 X7.5404 Y17.4930
G01 X7.5467 Y17.4665
G01 X7.6254 Y17.1524
G01 X7.6323 Y17.1260
G01 X7.6399 Y17.0998
G01 X7.6481 Y17.0739
G01 X7.6570 Y17.0481
G01 X7.7661 Y16.7432
G01 X7.7756 Y16.7177
G01 X7.7857 Y16.6924
G01 X7.7964 Y16.6673
G01 X7.8078 Y16.6426
G01 X7.9462 Y16.3498
G01 X7.9582 Y16.3253
G01 X7.9707 Y16.3011
G01 X7.9839 Y16.2773
G01 X7.9976 Y16.2537
G01 X8.1641 Y15.9760
G01 X8.1784 Y15.9528
G01 X8.1932 Y15.9299
G01 X8.2086 Y15.9075
G01 X8.2246 Y15.8854
G01 X8.4175 Y15.6253
G01 X8.4340 Y15.6036
G01 X8.4510 Y15.5823
G01 X8.4686 Y15.5615
G01 X8.4866 Y15.5411
G01 X8.7041 Y15.3011
G01 X8.7226 Y15.2812
G01 X8.7417 Y15.2617
G01 X8.7612 Y15.2426
G01 X8.7811 Y15.2241
G01 X9.0211 Y15.0066
G01 X9.0415 Y14.9886
G01 X9.0623 Y14.9710
G01 X9.0836 Y14.9540
G01 X9.1053 Y14.9375
G01 X9.2492 Y14.8307
G00 Z1.0000
G00 X9.4892 Y14.9515
G01 F30.00
G01 Z-0.0850
G01 F60.00
G01 X9.4892 Y9.2800
G01 X9.4895 Y9.2586
G01 X9.4903 Y9.2373
G01 X9.4975 Y9.0902
G01 X9.4988 Y9.0689
G01 X9.5007 Y9.0476
G01 X9.5030 Y9.0264
G01 X9.5059 Y9.0052
G01 X9.5275 Y8.8596
G01 X9.5309 Y8.8385
G01 X9.5348 Y8.8175
G01 X9.5392 Y8.7966
G01 X9.5442 Y8.7758
G01 X9.5799 Y8.6330
G01 X9.5854 Y8.6123
G01 X9.5913 Y8.5918
G01 X9.5978 Y8.5715
G01 X9.6047 Y8.5513
G01 X9.6618 Y8.3926
G01 X9.6697 Y8.3728
G01 X9.6781 Y8.3531
G01 X9.6870 Y8.3337
G01 X9.7500 Y8.2006
G01 X9.7594 Y8.1814
G01 X9.7692 Y8.1624
G01 X9.7795 Y8.1437
G01 X9.8659 Y7.9990
G01 X9.8771 Y7.9808
G01 X9.8888 Y7.9629
G01 X9.9009 Y7.9453
G01 X9.9134 Y7.9280
G01 X10.0011 Y7.8097
G01 X10.0140 Y7.7927
G01 X10.0274 Y7.7760
G01 X10.0411 Y7.7597
G01 X10.0553 Y7.7437
G01 X10.1542 Y7.6346
G01 X10.1687 Y7.6189
G01 X10.1836 Y7.6036
G01 X10.1989 Y7.5887
G01 X10.3237 Y7.4753
G01 X10.3397 Y7.4611
G01 X10.3560 Y7.4474
G01 X10.3727 Y7.4340
G01 X10.3897 Y7.4211
G01 X10.5080 Y7.3334
G01 X10.5253 Y7.3209
G01 X10.5429 Y7.3088
G01 X10.5608 Y7.2971
G01 X10.5790 Y7.2859
G01 X10.7053 Y7.2102
G01 X10.7237 Y7.1995
G01 X10.7424 Y7.1892
G01 X10.7614 Y7.1794
G01 X10.7806 Y7.1700
G01 X10.9137 Y7.1070
G01 X10.9331 Y7.0981
G01 X10.9528 Y7.0897
G01 X10.9726 Y7.0818
G01 X10.9926 Y7.0743
G01 X11.1313 Y7.0247
G01 X11.1515 Y7.0178
G01 X11.1718 Y7.0113
G01 X11.1923 Y7.0054
G01 X11.2130 Y6.9999
G01 X11.3558 Y6.9642
G01 X11.3766 Y6.9592
G01 X11.3975 Y6.9548
G01 X11.4185 Y6.9509
G01 X11.5852 Y6.9259
G01 X11.6064 Y6.9230
G01 X11.6276 Y6.9207
G01 X11.6489 Y6.9188
G01 X11.6702 Y6.9175
G01 X11.8173 Y6.9103
G01 X11.8386 Y6.9095
G01 X11.8600 Y6.9092
G01 X30.1227 Y6.9092
G01 X30.1414 Y6.8846
G01 X30.1547 Y6.8679
G01 X30.1685 Y6.8516
G01 X30.2979 Y6.7083
G01 X30.3125 Y6.6927
G01 X30.3274 Y6.6774
G01 X30.3427 Y6.6625
G01 X30.3583 Y6.6479
G01 X30.4856 Y6.5326
G01 X30.5016 Y6.5185
G01 X30.5179 Y6.5047
G01 X30.5346 Y6.4914
G01 X30.5516 Y6.4784
G01 X30.6895 Y6.3761
G01 X30.7068 Y6.3636
G01 X30.7244 Y6.3515
G01 X30.7423 Y6.3399
G01 X30.7605 Y6.3287
G01 X30.9078 Y6.2404
G01 X30.9262 Y6.2297
G01 X30.9449 Y6.2194
G01 X30.9639 Y6.2095
G01 X30.9831 Y6.2002
G01 X31.1577 Y6.1178
G01 X31.1774 Y6.1094
G01 X31.1972 Y6.1015
G01 X31.2172 Y6.0941
G01 X31.3789 Y6.0362
G01 X31.3991 Y6.0293
G01 X31.4195 Y6.0228
G01 X31.4400 Y6.0169
G01 X31.4606 Y6.0114
G01 X31.6272 Y5.9697
G01 X31.6480 Y5.9648
G01 X31.6689 Y5.9603
G01 X31.6899 Y5.9564
G01 X31.7109 Y5.9530
G01 X31.8808 Y5.9278
G01 X31.9020 Y5.9250
G01 X31.9232 Y5.9226
G01 X31.9445 Y5.9208
G01 X31.9658 Y5.9195
G01 X32.1373 Y5.9110
G01 X32.1586 Y5.9103
G01 X32.1800 Y5.9100
G01 X32.2014 Y5.9103
G01 X32.2227 Y5.9110
G01 X32.3942 Y5.9195
G01 X32.4155 Y5.9208
G01 X32.4368 Y5.9226
G01 X32.4580 Y5.9250
G01 X32.4792 Y5.9278
G01 X32.6491 Y5.9530
G01 X32.6701 Y5.9564
G01 X32.6911 Y5.9603
G01 X32.7120 Y5.9648
G01 X32.7328 Y5.9697
G01 X32.8994 Y6.0114
G01 X32.9200 Y6.0169
G01 X32.9405 Y6.0228
G01 X32.9609 Y6.0293
G01 X32.9811 Y6.0362
G01 X33.1428 Y6.0941
G01 X33.1628 Y6.1015
G01 X33.1826 Y6.1094
G01 X33.2023 Y6.1178
G01 X33.3769 Y6.2002
G01 X33.3961 Y6.2095
G01 X33.4151 Y6.2194
G01 X33.4338 Y6.2297
G01 X33.4522 Y6.2404
G01 X33.5995 Y6.3287
G01 X33.6177 Y6.3399
G01 X33.6356 Y6.3515
G01 X33.6532 Y6.3636
G01 X33.6705 Y6.3761
G01 X33.8084 Y6.4784
G01 X33.8254 Y6.4914
G01 X33.8421 Y6.5047
G01 X33.8584 Y6.5185
G01 X33.8744 Y6.5326
G01 X34.0017 Y6.6479
G01 X34.0173 Y6.6625
G01 X34.0326 Y6.6774
G01 X34.0475 Y6.6927
G01 X34.0621 Y6.7083
G01 X34.1915 Y6.8516
G01 X34.2053 Y6.8679
G01 X34.2186 Y6.8846
G01 X34.2373 Y6.9092
G01 X40.2827 Y6.9092
G01 X40.3014 Y6.8846
G01 X40.3147 Y6.8679
G01 X40.3285 Y6.8516
G01 X40.4579 Y6.7083
G01 X40.4725 Y6.6927
G01 X40.4874 Y6.6774
G01 X40.5027 Y6.6625
G01 X40.5183 Y6.6479
G01 X40.6456 Y6.5326
G01 X40.6616 Y6.5185
G01 X40.6779 Y6.5047
G01 X40.6946 Y6.4914
G01 X40.7116 Y6.4784
G01 X40.8495 Y6.3761
G01 X40.8668 Y6.3636
G01 X40.8844 Y6.3515
G01 X40.9023 Y6.3399
G01 X40.9205 Y6.3287
G01 X41.0678 Y6.2404
G01 X41.0862 Y6.2297
G01 X41.1049 Y6.2194
G01 X41.1239 Y6.2095
G01 X41.1431 Y6.2002
G01 X41.3177 Y6.1178
G01 X41.3374 Y6.1094
G01 X41.3572 Y6.1015
G01 X41.3772 Y6.0941
G01 X41.5389 Y6.0362
G01 X41.5591 Y6.0293
G01 X41.5795 Y6.0228
G01 X41.6000 Y6.0169
G01 X41.6206 Y6.0114
G01 X41.7872 Y5.9697
G01 X41.8080 Y5.9648
G01 X41.8289 Y5.9603
G01 X41.8499 Y5.9564
G01 X41.8709 Y5.9530
G01 X42.0408 Y5.9278
G01 X42.0620 Y5.9250
G01 X42.0832 Y5.9226
G01 X42.1045 Y5.9208
G01 X42.1258 Y5.9195
G01 X42.2973 Y5.9110
G01 X42.3186 Y5.9103
G01 X42.3400 Y5.9100
G01 X42.3614 Y5.9103
G01 X42.3827 Y5.9110
G01 X42.5542 Y5.9195
G01 X42.5755 Y5.9208
G01 X42.5968 Y5.9226
G01 X42.6180 Y5.9250
G01 X42.6392 Y5.9278
G01 X42.8091 Y5.9530
G01 X42.8301 Y5.9564
G01 X42.8511 Y5.9603
G01 X42.8720 Y5.9648
G01 X42.8928 Y5.9697
G01 X43.0594 Y6.0114
G01 X43.0800 Y6.0169
G01 X43.1005 Y6.0228
G01 X43.1209 Y6.0293
G01 X43.1411 Y6.0362
G01 X43.3028 Y6.0941
G01 X43.3228 Y6.1015
G01 X43.3426 Y6.1094
G01 X43.3623 Y6.1178
G01 X43.5369 Y6.2002
G01 X43.5561 Y6.2095
G01 X43.5751 Y6.2194
G01 X43.5938 Y6.2297
G01 X43.6122 Y6.2404
G01 X43.7595 Y6.3287
G01 X43.7777 Y6.3399
G01 X43.7956 Y6.3515
G01 X43.8132 Y6.3636
G01 X43.8305 Y6.3761
G01 X43.9684 Y6.4784
G01 X43.9854 Y6.4914
G01 X44.0021 Y6.5047
G01 X44.0184 Y6.5185
G01 X44.0344 Y6.5326
G01 X44.1617 Y6.6479
G01 X44.1773 Y6.6625
G01 X44.1926 Y6.6774
G01 X44.2075 Y6.6927
G01 X44.2221 Y6.7083
G01 X44.3515 Y6.8516
G01 X44.3653 Y6.8679
G01 X44.3786 Y6.8846
G01 X44.3973 Y6.9092
G01 X50.4427 Y6.9092
G01 X50.4614 Y6.8846
G01 X50.4747 Y6.8679
G01 X50.4885 Y6.8516
G01 X50.6179 Y6.7083
G01 X50.6325 Y6.6927
G01 X50.6474 Y6.6774
G01 X50.6627 Y6.6625
G01 X50.6783 Y6.6479
G01 X50.8056 Y6.5326
G01 X50.8216 Y6.5185
G01 X50.8379 Y6.5047
G01 X50.8546 Y6.4914
G01 X50.8716 Y6.4784
G01 X51.0095 Y6.3761
G01 X51.0268 Y6.3636
G01 X51.0444 Y6.3515
G01 X51.0623 Y6.3399
G01 X51.0805 Y6.3287
G01 X51.2278 Y6.2404
G01 X51.2462 Y6.2297
G01 X51.2649 Y6.2194
G01 X51.2839 Y6.2095
G01 X51.3031 Y6.2002
G01 X51.4777 Y6.1178
G01 X51.4974 Y6.1094
G01 X51.5172 Y6.1015
G01 X51.5372 Y6.0941
G01 X51.6989 Y6.0362
G01 X51.7191 Y6.0293
G01 X51.7395 Y6.0228
G01 X51.7600 Y6.0169
G01 X51.7806 Y6.0114
G01 X51.9472 Y5.9697
G01 X51.9680 Y5.9648
G01 X51.9889 Y5.9603
G01 X52.0099 Y5.9564
G01 X52.0309 Y5.9530
G01 X52.2008 Y5.9278
G01 X52.2220 Y5.9250
G01 X52.2432 Y5.9226
G01 X52.2645 Y5.9208
G01 X52.2858 Y5.9195
G01 X52.4573 Y5.9110
G01 X52.4786 Y5.9103
G01 X52.5000 Y5.9100
G01 X52.5214 Y5.9103
G01 X52.5427 Y5.9110
G01 X52.7142 Y5.9195
G01 X52.7355 Y5.9208
G01 X52.7568 Y5.9226
G01 X52.7780 Y5.9250
G01 X52.7992 Y5.9278
G01 X52.9691 Y5.9530
G01 X52.9901 Y5.9564
G01 X53.0111 Y5.9603
G01 X53.0320 Y5.9648
G01 X53.0528 Y5.9697
G01 X53.2194 Y6.0114
G01 X53.2400 Y6.0169
G01 X53.2605 Y6.0228
G01 X53.2809 Y6.0293
G01 X53.3011 Y6.0362
G01 X53.4628 Y6.0941
G01 X53.4828 Y6.1015
G01 X53.5026 Y6.1094
G01 X53.5223 Y6.1178
G01 X53.6969 Y6.2002
G01 X53.7161 Y6.2095
G01 X53.7351 Y6.2194
G01 X53.7538 Y6.2297
G01 X53.7722 Y6.2404
G01 X53.9195 Y6.3287
G01 X53.9377 Y6.3399
G01 X53.9556 Y6.3515
G01 X53.9732 Y6.3636
G01 X53.9905 Y6.3761
G01 X54.1284 Y6.4784
G01 X54.1454 Y6.4914
G01 X54.1621 Y6.5047
G01 X54.1784 Y6.5185
G01 X54.1944 Y6.5326
G01 X54.3217 Y6.6479
G01 X54.3373 Y6.6625
G01 X54.3526 Y6.6774
G01 X54.3675 Y6.6927
G01 X54.3821 Y6.7083
G01 X54.5115 Y6.8516
G01 X54.5253 Y6.8679
G01 X54.5386 Y6.8846
G01 X54.5573 Y6.9092
G01 X60.6027 Y6.9092
G01 X60.6214 Y6.8846
G01 X60.6347 Y6.8679
G01 X60.6485 Y6.8516
G01 X60.6626 Y6.8356
G01 X60.7925 Y6.6927
G01 X60.8074 Y6.6774
G01 X60.8227 Y6.6625
G01 X60.8383 Y6.6479
G01 X60.9656 Y6.5326
G01 X60.9816 Y6.5185
G01 X60.9979 Y6.5047
G01 X61.0146 Y6.4914
G01 X61.0316 Y6.4784
G01 X61.1695 Y6.3761
G01 X61.1868 Y6.3636
G01 X61.2044 Y6.3515
G01 X61.2223 Y6.3399
G01 X61.2405 Y6.3287
G01 X61.3878 Y6.2404
G01 X61.4062 Y6.2297
G01 X61.4249 Y6.2194
G01 X61.4439 Y6.2095
G01 X61.4631 Y6.2002
G01 X61.6183 Y6.1267
G01 X61.6377 Y6.1178
G01 X61.6574 Y6.1094
G01 X61.6772 Y6.1015
G01 X61.6972 Y6.0941
G01 X61.8589 Y6.0362
G01 X61.8791 Y6.0293
G01 X61.8995 Y6.0228
G01 X61.9200 Y6.0169
G01 X62.1072 Y5.9697
G01 X62.1280 Y5.9648
G01 X62.1489 Y5.9603
G01 X62.1699 Y5.9564
G01 X62.1909 Y5.9530
G01 X62.3608 Y5.9278
G01 X62.3820 Y5.9250
G01 X62.4032 Y5.9226
G01 X62.4245 Y5.9208
G01 X62.4458 Y5.9195
G01 X62.6173 Y5.9110
G01 X62.6386 Y5.9103
G01 X62.6600 Y5.9100
G01 X62.6814 Y5.9103
G01 X62.7027 Y5.9110
G01 X62.8742 Y5.9195
G01 X62.8955 Y5.9208
G01 X62.9168 Y5.9226
G01 X62.9380 Y5.9250
G01 X62.9592 Y5.9278
G01 X63.1291 Y5.9530
G01 X63.1501 Y5.9564
G01 X63.1711 Y5.9603
G01 X63.1920 Y5.9648
G01 X63.3794 Y6.0114
G01 X63.4000 Y6.0169
G01 X63.4205 Y6.0228
G01 X63.4409 Y6.0293
G01 X63.4611 Y6.0362
G01 X63.6428 Y6.1015
G01 X63.6626 Y6.1094
G01 X63.6823 Y6.1178
G01 X63.7017 Y6.1267
G01 X63.8569 Y6.2002
G01 X63.8761 Y6.2095
G01 X63.8951 Y6.2194
G01 X63.9138 Y6.2297
G01 X63.9322 Y6.2404
G01 X64.0795 Y6.3287
G01 X64.0977 Y6.3399
G01 X64.1156 Y6.3515
G01 X64.1332 Y6.3636
G01 X64.1505 Y6.3761
G01 X64.2884 Y6.4784
G01 X64.3054 Y6.4914
G01 X64.3221 Y6.5047
G01 X64.3384 Y6.5185
G01 X64.3544 Y6.5326
G01 X64.4817 Y6.6479
G01 X64.4973 Y6.6625
G01 X64.5126 Y6.6774
G01 X64.5275 Y6.6927
G01 X64.5421 Y6.7083
G01 X64.6574 Y6.8356
G01 X64.6715 Y6.8516
G01 X64.6853 Y6.8679
G01 X64.6986 Y6.8846
G01 X64.7116 Y6.9016
G01 X64.8139 Y7.0395
G01 X64.8264 Y7.0568
G01 X64.8385 Y7.0744
G01 X64.8501 Y7.0923
G01 X64.8613 Y7.1105
G01 X64.9496 Y7.2578
G01 X64.9603 Y7.2762
G01 X64.9706 Y7.2949
G01 X64.9805 Y7.3139
G01 X64.9898 Y7.3331
G01 X65.0633 Y7.4883
G01 X65.0722 Y7.5077
G01 X65.0806 Y7.5274
G01 X65.0885 Y7.5472
G01 X65.1538 Y7.7289
G01 X65.1607 Y7.7491
G01 X65.1672 Y7.7695
G01 X65.1731 Y7.7900
G01 X65.1786 Y7.8106
G01 X65.2203 Y7.9772
G01 X65.2252 Y7.9980
G01 X65.2297 Y8.0189
G01 X65.2336 Y8.0399
G01 X65.2370 Y8.0609
G01 X65.2622 Y8.2308
G01 X65.2650 Y8.2520
G01 X65.2674 Y8.2732
G01 X65.2692 Y8.2945
G01 X65.2790 Y8.4873
G01 X65.2797 Y8.5086
G01 X65.2800 Y8.5300
G01 X65.2800 Y10.0300
G01 X65.2797 Y10.0514
G01 X65.2790 Y10.0727
G01 X65.2705 Y10.2442
G01 X65.2692 Y10.2655
G01 X65.2674 Y10.2868
G01 X65.2650 Y10.3080
G01 X65.2622 Y10.3292
G01 X65.2370 Y10.4991
G01 X65.2336 Y10.5201
G01 X65.2297 Y10.5411
G01 X65.2252 Y10.5620
G01 X65.2203 Y10.5828
G01 X65.1786 Y10.7494
G01 X65.1731 Y10.7700
G01 X65.1672 Y10.7905
G01 X65.1607 Y10.8109
G01 X65.0959 Y10.9928
G01 X65.0885 Y11.0128
G01 X65.0806 Y11.0326
G01 X65.0722 Y11.0523
G01 X65.0633 Y11.0717
G01 X64.9898 Y11.2269
G01 X64.9805 Y11.2461
G01 X64.9706 Y11.2651
G01 X64.9603 Y11.2838
G01 X64.9496 Y11.3022
G01 X64.8613 Y11.4495
G01 X64.8501 Y11.4677
G01 X64.8385 Y11.4856
G01 X64.8264 Y11.5032
G01 X64.8139 Y11.5205
G01 X64.7116 Y11.6584
G01 X64.6986 Y11.6754
G01 X64.6853 Y11.6921
G01 X64.6715 Y11.7084
G01 X64.6574 Y11.7244
G01 X64.5421 Y11.8517
G01 X64.5275 Y11.8673
G01 X64.5126 Y11.8826
G01 X64.4973 Y11.8975
G01 X64.4817 Y11.9121
G01 X64.3544 Y12.0274
G01 X64.3384 Y12.0415
G01 X64.3221 Y12.0553
G01 X64.3054 Y12.0686
G01 X64.2884 Y12.0816
G01 X64.1505 Y12.1839
G01 X64.1332 Y12.1964
G01 X64.1156 Y12.2085
G01 X64.0977 Y12.2201
G01 X63.9322 Y12.3196
G01 X63.9138 Y12.3303
G01 X63.8951 Y12.3406
G01 X63.8761 Y12.3505
G01 X63.8569 Y12.3598
G01 X63.7017 Y12.4333
G01 X63.6823 Y12.4422
G01 X63.6626 Y12.4506
G01 X63.6428 Y12.4585
G01 X63.6228 Y12.4659
G01 X63.4611 Y12.5238
G01 X63.4409 Y12.5307
G01 X63.4205 Y12.5372
G01 X63.4000 Y12.5431
G01 X63.3794 Y12.5486
G01 X63.2128 Y12.5903
G01 X63.1920 Y12.5952
G01 X63.1711 Y12.5997
G01 X63.1501 Y12.6036
G01 X63.1291 Y12.6070
G01 X62.9380 Y12.6350
G01 X62.9168 Y12.6374
G01 X62.8955 Y12.6392
G01 X62.8742 Y12.6405
G01 X62.7027 Y12.6490
G01 X62.6814 Y12.6497
G01 X62.6600 Y12.6500
G01 X62.6386 Y12.6497
G01 X62.6173 Y12.6490
G01 X62.4458 Y12.6405
G01 X62.4245 Y12.6392
G01 X62.4032 Y12.6374
G01 X62.3820 Y12.6350
G01 X62.3608 Y12.6322
G01 X62.1909 Y12.6070
G01 X62.1699 Y12.6036
G01 X62.1489 Y12.5997
G01 X62.1280 Y12.5952
G01 X62.1072 Y12.5903
G01 X61.9406 Y12.5486
G01 X61.9200 Y12.5431
G01 X61.8995 Y12.5372
G01 X61.8791 Y12.5307
G01 X61.8589 Y12.5238
G01 X61.6972 Y12.4659
G01 X61.6772 Y12.4585
G01 X61.6574 Y12.4506
G01 X61.6377 Y12.4422
G01 X61.6183 Y12.4333
G01 X61.4631 Y12.3598
G01 X61.4439 Y12.3505
G01 X61.4249 Y12.3406
G01 X61.4062 Y12.3303
G01 X61.3878 Y12.3196
G01 X61.2405 Y12.2313
G01 X61.2223 Y12.2201
G01 X61.2044 Y12.2085
G01 X61.1868 Y12.1964
G01 X61.1695 Y12.1839
G01 X61.0316 Y12.0816
G01 X61.0146 Y12.0686
G01 X60.9979 Y12.0553
G01 X60.9816 Y12.0415
G01 X60.9656 Y12.0274
G01 X60.8383 Y11.9121
G01 X60.8227 Y11.8975
G01 X60.8074 Y11.8826
G01 X60.7925 Y11.8673
G01 X60.7779 Y11.8517
G01 X60.6485 Y11.7084
G01 X60.6347 Y11.6921
G01 X60.6214 Y11.6754
G01 X60.6027 Y11.6508
G01 X54.5573 Y11.6508
G01 X54.5386 Y11.6754
G01 X54.5253 Y11.6921
G01 X54.5115 Y11.7084
G01 X54.3821 Y11.8517
G01 X54.3675 Y11.8673
G01 X54.3526 Y11.8826
G01 X54.3373 Y11.8975
G01 X54.3217 Y11.9121
G01 X54.1944 Y12.0274
G01 X54.1784 Y12.0415
G01 X54.1621 Y12.0553
G01 X54.1454 Y12.0686
G01 X54.1284 Y12.0816
G01 X53.9905 Y12.1839
G01 X53.9732 Y12.1964
G01 X53.9556 Y12.2085
G01 X53.9377 Y12.2201
G01 X53.9195 Y12.2313
G01 X53.7722 Y12.3196
G01 X53.7538 Y12.3303
G01 X53.7351 Y12.3406
G01 X53.7161 Y12.3505
G01 X53.6969 Y12.3598
G01 X53.5223 Y12.4422
G01 X53.5026 Y12.4506
G01 X53.4828 Y12.4585
G01 X53.4628 Y12.4659
G01 X53.3011 Y12.5238
G01 X53.2809 Y12.5307
G01 X53.2605 Y12.5372
G01 X53.2400 Y12.5431
G01 X53.2194 Y12.5486
G01 X53.0528 Y12.5903
G01 X53.0320 Y12.5952
G01 X53.0111 Y12.5997
G01 X52.9901 Y12.6036
G01 X52.9691 Y12.6070
G01 X52.7992 Y12.6322
G01 X52.7780 Y12.6350
G01 X52.7568 Y12.6374
G01 X52.7355 Y12.6392
G01 X52.7142 Y12.6405
G01 X52.5427 Y12.6490
G01 X52.5214 Y12.6497
G01 X52.5000 Y12.6500
G01 X52.4786 Y12.6497
G01 X52.4573 Y12.6490
G01 X52.2858 Y12.6405
G01 X52.2645 Y12.6392
G01 X52.2432 Y12.6374
G01 X52.2220 Y12.6350
G01 X52.2008 Y12.6322
G01 X52.0309 Y12.6070
G01 X52.0099 Y12.6036
G01 X51.9889 Y12.5997
G01 X51.9680 Y12.5952
G01 X51.9472 Y12.5903
G01 X51.7806 Y12.5486
G01 X51.7600 Y12.5431
G01 X51.7395 Y12.5372
G01 X51.7191 Y12.5307
G01 X51.6989 Y12.5238
G01 X51.5372 Y12.4659
G01 X51.5172 Y12.4585
G01 X51.4974 Y12.4506
G01 X51.4777 Y12.4422
G01 X51.3031 Y12.3598
G01 X51.2839 Y12.3505
G01 X51.2649 Y12.3406
G01 X51.2462 Y12.3303
G01 X51.2278 Y12.3196
G01 X51.0805 Y12.2313
G01 X51.0623 Y12.2201
G01 X51.0444 Y12.2085
G01 X51.0268 Y12.1964
G01 X51.0095 Y12.1839
G01 X50.8716 Y12.0816
G01 X50.8546 Y12.0686
G01 X50.8379 Y12.0553
G01 X50.8216 Y12.0415
G01 X50.8056 Y12.0274
G01 X50.6783 Y11.9121
G01 X50.6627 Y11.8975
G01 X50.6474 Y11.8826
G01 X50.6325 Y11.8673
G01 X50.6179 Y11.8517
G01 X50.4885 Y11.7084
G01 X50.4747 Y11.6921
G01 X50.4614 Y11.6754
G01 X50.4427 Y11.6508
G01 X44.3973 Y11.6508
G01 X44.3786 Y11.6754
G01 X44.3653 Y11.6921
G01 X44.3515 Y11.7084
G01 X44.2221 Y11.8517
G01 X44.2075 Y11.8673
G01 X44.1926 Y11.8826
G01 X44.1773 Y11.8975
G01 X44.1617 Y11.9121
G01 X44.0344 Y12.0274
G01 X44.0184 Y12.0415
G01 X44.0021 Y12.0553
G01 X43.9854 Y12.0686
G01 X43.9684 Y12.0816
G01 X43.8305 Y12.1839
G01 X43.8132 Y12.1964
G01 X43.7956 Y12.2085
G01 X43.7777 Y12.2201
G01 X43.7595 Y12.2313
G01 X43.6122 Y12.3196
G01 X43.5938 Y12.3303
G01 X43.5751 Y12.3406
G01 X43.5561 Y12.3505
G01 X43.5369 Y12.3598
G01 X43.3623 Y12.4422
G01 X43.3426 Y12.4506
G01 X43.3228 Y12.4585
G01 X43.3028 Y12.4659
G01 X43.1411 Y12.5238
G01 X43.1209 Y12.5307
G01 X43.1005 Y12.5372
G01 X43.0800 Y12.5431
G01 X43.0594 Y12.5486
G01 X42.8928 Y12.5903
G01 X42.8720 Y12.5952
G01 X42.8511 Y12.5997
G01 X42.8301 Y12.6036
G01 X42.8091 Y12.6070
G01 X42.6392 Y12.6322
G01 X42.6180 Y12.6350
G01 X42.5968 Y12.6374
G01 X42.5755 Y12.6392
G01 X42.5542 Y12.6405
G01 X42.3827 Y12.6490
G01 X42.3614 Y12.6497
G01 X42.3400 Y12.6500
G01 X42.3186 Y12.6497
G01 X42.2973 Y12.6490
G01 X42.1258 Y12.6405
G01 X42.1045 Y12.6392
G01 X42.0832 Y12.6374
G01 X42.0620 Y12.6350
G01 X42.0408 Y12.6322
G01 X41.8709 Y12.6070
G01 X41.8499 Y12.6036
G01 X41.8289 Y12.5997
G01 X41.8080 Y12.5952
G01 X41.7872 Y12.5903
G01 X41.6206 Y12.5486
G01 X41.6000 Y12.5431
G01 X41.5795 Y12.5372
G01 X41.5591 Y12.5307
G01 X41.5389 Y12.5238
G01 X41.3772 Y12.4659
G01 X41.3572 Y12.4585
G01 X41.3374 Y12.4506
G01 X41.3177 Y12.4422
G01 X41.1431 Y12.3598
G01 X41.1239 Y12.3505
G01 X41.1049 Y12.3406
G01 X41.0862 Y12.3303
G01 X41.0678 Y12.3196
G01 X40.9205 Y12.2313
G01 X40.9023 Y12.2201
G01 X40.8844 Y12.2085
G01 X40.8668 Y12.1964
G01 X40.8495 Y12.1839
G01 X40.7116 Y12.0816
G01 X40.6946 Y12.0686
G01 X40.6779 Y12.0553
G01 X40.6616 Y12.0415
G01 X40.6456 Y12.0274
G01 X40.5183 Y11.9121
G01 X40.5027 Y11.8975
G01 X40.4874 Y11.8826
G01 X40.4725 Y11.8673
G01 X40.4579 Y11.8517
G01 X40.3285 Y11.7084
G01 X40.3147 Y11.6921
G01 X40.3014 Y11.6754
G01 X40.2827 Y11.6508
G01 X34.2373 Y11.6508
G01 X34.2186 Y11.6754
G01 X34.2053 Y11.6921
G01 X34.1915 Y11.7084
G01 X34.0621 Y11.8517
G01 X34.0475 Y11.8673
G01 X34.0326 Y11.8826
G01 X34.0173 Y11.8975
G01 X34.0017 Y11.9121
G01 X33.8744 Y12.0274
G01 X33.8584 Y12.0415
G01 X33.8421 Y12.0553
G01 X33.8254 Y12.0686
G01 X33.8084 Y12.0816
G01 X33.6705 Y12.1839
G01 X33.6532 Y12.1964
G01 X33.6356 Y12.2085
G01 X33.6177 Y12.2201
G01 X33.5995 Y12.2313
G01 X33.4522 Y12.3196
G01 X33.4338 Y12.3303
G01 X33.4151 Y12.3406
G01 X33.3961 Y12.3505
G01 X33.3769 Y12.3598
G01 X33.2023 Y12.4422
G01 X33.1826 Y12.4506
G01 X33.1628 Y12.4585
G01 X33.1428 Y12.4659
G01 X32.9811 Y12.5238
G01 X32.9609 Y12.5307
G01 X32.9405 Y12.5372
G01 X32.9200 Y12.5431
G01 X32.8994 Y12.5486
G01 X32.7328 Y12.5903
G01 X32.7120 Y12.5952
G01 X32.6911 Y12.5997
G01 X32.6701 Y12.6036
G01 X32.6491 Y12.6070
G01 X32.4792 Y12.6322
G01 X32.4580 Y12.6350
G01 X32.4368 Y12.6374
G01 X32.4155 Y12.6392
G01 X32.3942 Y12.6405
G01 X32.2227 Y12.6490
G01 X32.2014 Y12.6497
G01 X32.1800 Y12.6500
G01 X32.1586 Y12.6497
G01 X32.1373 Y12.6490
G01 X31.9658 Y12.6405
G01 X31.9445 Y12.6392
G01 X31.9232 Y12.6374
G01 X31.9020 Y12.6350
G01 X31.8808 Y12.6322
G01 X31.7109 Y12.6070
G01 X31.6899 Y12.6036
G01 X31.6689 Y12.5997
G01 X31.6480 Y12.5952
G01 X31.6272 Y12.5903
G01 X31.4606 Y12.5486
G01 X31.4400 Y12.5431
G01 X31.4195 Y12.5372
G01 X31.3991 Y12.5307
G01 X31.3789 Y12.5238
G01 X31.2172 Y12.4659
G01 X31.1972 Y12.4585
G01 X31.1774 Y12.4506
G01 X31.1577 Y12.4422
G01 X30.9831 Y12.3598
G01 X30.9639 Y12.3505
G01 X30.9449 Y12.3406
G01 X30.9262 Y12.3303
G01 X30.9078 Y12.3196
G01 X30.7605 Y12.2313
G01 X30.7423 Y12.2201
G01 X30.7244 Y12.2085
G01 X30.7068 Y12.1964
G01 X30.6895 Y12.1839
G01 X30.5516 Y12.0816
G01 X30.5346 Y12.0686
G01 X30.5179 Y12.0553
G01 X30.5016 Y12.0415
G01 X30.4856 Y12.0274
G01 X30.3583 Y11.9121
G01 X30.3427 Y11.8975
G01 X30.3274 Y11.8826
G01 X30.3125 Y11.8673
G01 X30.2979 Y11.8517
G01 X30.1685 Y11.7084
G01 X30.1547 Y11.6921
G01 X30.1414 Y11.6754
G01 X30.1227 Y11.6508
G01 X14.2308 Y11.6508
G01 X14.2308 Y14.9515
G01 X14.4718 Y15.1303
G01 X14.4887 Y15.1432
G01 X14.5054 Y15.1565
G01 X14.5218 Y15.1703
G01 X14.5378 Y15.1844
G01 X14.7777 Y15.4019
G01 X14.7934 Y15.4165
G01 X14.8086 Y15.4314
G01 X14.8235 Y15.4466
G01 X14.8381 Y15.4623
G01 X15.0556 Y15.7022
G01 X15.0697 Y15.7182
G01 X15.0835 Y15.7346
G01 X15.0968 Y15.7513
G01 X15.1097 Y15.7682
G01 X15.3026 Y16.0284
G01 X15.3151 Y16.0457
G01 X15.3272 Y16.0633
G01 X15.3389 Y16.0812
G01 X15.3501 Y16.0993
G01 X15.5166 Y16.3771
G01 X15.5273 Y16.3956
G01 X15.5376 Y16.4143
G01 X15.5474 Y16.4332
G01 X15.5568 Y16.4524
G01 X15.6953 Y16.7452
G01 X15.7042 Y16.7646
G01 X15.7126 Y16.7842
G01 X15.7205 Y16.8040
G01 X15.7279 Y16.8241
G01 X15.8370 Y17.1290
G01 X15.8440 Y17.1492
G01 X15.8504 Y17.1695
G01 X15.8564 Y17.1900
G01 X15.8618 Y17.2107
G01 X15.9405 Y17.5248
G01 X15.9455 Y17.5456
G01 X15.9499 Y17.5665
G01 X15.9538 Y17.5875
G01 X15.9572 Y17.6085
G01 X16.0076 Y17.9500
G01 X16.0099 Y17.9713
G01 X16.0118 Y17.9925
G01 X16.0131 Y18.0139
G01 X16.0290 Y18.3373
G01 X16.0297 Y18.3586
G01 X16.0300 Y18.3800
G01 X16.0297 Y18.4014
G01 X16.0290 Y18.4227
G01 X16.0131 Y18.7461
G01 X16.0118 Y18.7675
G01 X16.0099 Y18.7887
G01 X16.0076 Y18.8100
G01 X16.0047 Y18.8311
G01 X15.9572 Y19.1515
G01 X15.9538 Y19.1725
G01 X15.9499 Y19.1935
G01 X15.9455 Y19.2144
G01 X15.9405 Y19.2352
G01 X15.8618 Y19.5493
G01 X15.8564 Y19.5700
G01 X15.8504 Y19.5905
G01 X15.8440 Y19.6108
G01 X15.8370 Y19.6310
G01 X15.7279 Y19.9359
G01 X15.7205 Y19.9560
G01 X15.7126 Y19.9758
G01 X15.7042 Y19.9954
G01 X15.6953 Y20.0148
G01 X15.5568 Y20.3076
G01 X15.5474 Y20.3268
G01 X15.5376 Y20.3457
G01 X15.5273 Y20.3644
G01 X15.5166 Y20.3829
G01 X15.3501 Y20.6607
G01 X15.3389 Y20.6788
G01 X15.3272 Y20.6967
G01 X15.3151 Y20.7143
G01 X15.3026 Y20.7316
G01 X15.1097 Y20.9918
G01 X15.0968 Y21.0087
G01 X15.0835 Y21.0254
G01 X15.0697 Y21.0418
G01 X15.0556 Y21.0578
G01 X14.8381 Y21.2977
G01 X14.8235 Y21.3134
G01 X14.8086 Y21.3286
G01 X14.7934 Y21.3435
G01 X14.7777 Y21.3581
G01 X14.5378 Y21.5756
G01 X14.5218 Y21.5897
G01 X14.4959 Y21.6111
G01 X14.6598 Y21.6884
G01 X14.6790 Y21.6977
G01 X14.6979 Y21.7076
G01 X14.7166 Y21.7179
G01 X14.7351 Y21.7286
G01 X14.8921 Y21.8231
G01 X14.9100 Y21.8347
G01 X14.9276 Y21.8468
G01 X14.9449 Y21.8593
G01 X15.0750 Y21.9557
G01 X15.0920 Y21.9687
G01 X15.1087 Y21.9820
G01 X15.1250 Y21.9958
G01 X15.1410 Y22.0099
G01 X15.2610 Y22.1186
G01 X15.2766 Y22.1332
G01 X15.2919 Y22.1481
G01 X15.3068 Y22.1634
G01 X15.4301 Y22.2990
G01 X15.4442 Y22.3150
G01 X15.4580 Y22.3313
G01 X15.4713 Y22.3480
G01 X15.4843 Y22.3650
G01 X15.5807 Y22.4951
G01 X15.5932 Y22.5124
G01 X15.6053 Y22.5300
G01 X15.6169 Y22.5479
G01 X15.6281 Y22.5660
G01 X15.7114 Y22.7049
G01 X15.7221 Y22.7234
G01 X15.7324 Y22.7421
G01 X15.7423 Y22.7610
G01 X15.7516 Y22.7802
G01 X15.8209 Y22.9266
G01 X15.8298 Y22.9460
G01 X15.8382 Y22.9656
G01 X15.8461 Y22.9855
G01 X15.8535 Y23.0055
G01 X15.9081 Y23.1579
G01 X15.9150 Y23.1781
G01 X15.9215 Y23.1985
G01 X15.9274 Y23.2190
G01 X15.9722 Y23.3967
G01 X15.9772 Y23.4175
G01 X15.9816 Y23.4384
G01 X15.9855 Y23.4594
G01 X15.9889 Y23.4804
G01 X16.0126 Y23.6406
G01 X16.0155 Y23.6618
G01 X16.0179 Y23.6830
G01 X16.0197 Y23.7043
G01 X16.0290 Y23.8873
G01 X16.0297 Y23.9086
G01 X16.0300 Y23.9300
G01 X16.0300 Y27.2300
G01 X16.0297 Y27.2514
G01 X16.0290 Y27.2727
G01 X16.0210 Y27.4344
G01 X16.0197 Y27.4557
G01 X16.0179 Y27.4770
G01 X16.0155 Y27.4982
G01 X16.0126 Y27.5194
G01 X15.9889 Y27.6796
G01 X15.9855 Y27.7006
G01 X15.9816 Y27.7216
G01 X15.9772 Y27.7425
G01 X15.9329 Y27.9204
G01 X15.9274 Y27.9410
G01 X15.9215 Y27.9615
G01 X15.9150 Y27.9819
G01 X15.9081 Y28.0021
G01 X15.8535 Y28.1545
G01 X15.8461 Y28.1745
G01 X15.8382 Y28.1944
G01 X15.8298 Y28.2140
G01 X15.8209 Y28.2334
G01 X15.7516 Y28.3798
G01 X15.7423 Y28.3990
G01 X15.7324 Y28.4179
G01 X15.7221 Y28.4366
G01 X15.7114 Y28.4551
G01 X15.6281 Y28.5940
G01 X15.6169 Y28.6121
G01 X15.6053 Y28.6300
G01 X15.5932 Y28.6476
G01 X15.5807 Y28.6649
G01 X15.4843 Y28.7950
G01 X15.4713 Y28.8120
G01 X15.4580 Y28.8287
G01 X15.4442 Y28.8450
G01 X15.3214 Y28.9810
G01 X15.3068 Y28.9966
G01 X15.2919 Y29.0119
G01 X15.2766 Y29.0268
G01 X15.2610 Y29.0414
G01 X15.1410 Y29.1501
G01 X15.1250 Y29.1642
G01 X15.1087 Y29.1780
G01 X15.0920 Y29.1913
G01 X15.0750 Y29.2043
G01 X14.9449 Y29.3007
G01 X14.9276 Y29.3132
G01 X14.9100 Y29.3253
G01 X14.8921 Y29.3369
G01 X14.8740 Y29.3481
G01 X14.7351 Y29.4314
G01 X14.7166 Y29.4421
G01 X14.6979 Y29.4524
G01 X14.6790 Y29.4623
G01 X14.6598 Y29.4716
G01 X14.5134 Y29.5409
G01 X14.4940 Y29.5498
G01 X14.4744 Y29.5582
G01 X14.4545 Y29.5661
G01 X14.4345 Y29.5735
G01 X14.2821 Y29.6281
G01 X14.2619 Y29.6350
G01 X14.2308 Y29.6446
G01 X14.2308 Y32.3092
G01 X30.1227 Y32.3092
G01 X30.1414 Y32.2846
G01 X30.1547 Y32.2679
G01 X30.1685 Y32.2516
G01 X30.2979 Y32.1083
G01 X30.3125 Y32.0927
G01 X30.3274 Y32.0774
G01 X30.3427 Y32.0625
G01 X30.3583 Y32.0479
G01 X30.4856 Y31.9326
G01 X30.5016 Y31.9185
G01 X30.5179 Y31.9047
G01 X30.5346 Y31.8914
G01 X30.5516 Y31.8784
G01 X30.6895 Y31.7761
G01 X30.7068 Y31.7636
G01 X30.7244 Y31.7515
G01 X30.7423 Y31.7399
G01 X30.7605 Y31.7287
G01 X30.9078 Y31.6404
G01 X30.9262 Y31.6297
G01 X30.9449 Y31.6194
G01 X30.9639 Y31.6095
G01 X30.9831 Y31.6002
G01 X31.1577 Y31.5178
G01 X31.1774 Y31.5094
G01 X31.1972 Y31.5015
G01 X31.2172 Y31.4941
G01 X31.3789 Y31.4362
G01 X31.3991 Y31.4293
G01 X31.4195 Y31.4228
G01 X31.4400 Y31.4169
G01 X31.4606 Y31.4114
G01 X31.6272 Y31.3697
G01 X31.6480 Y31.3648
G01 X31.6689 Y31.3603
G01 X31.6899 Y31.3564
G01 X31.7109 Y31.3530
G01 X31.8808 Y31.3278
G01 X31.9020 Y31.3250
G01 X31.9232 Y31.3226
G01 X31.9445 Y31.3208
G01 X31.9658 Y31.3195
G01 X32.1373 Y31.3110
G01 X32.1586 Y31.3103
G01 X32.1800 Y31.3100
G01 X32.2014 Y31.3103
G01 X32.2227 Y31.3110
G01 X32.3942 Y31.3195
G01 X32.4155 Y31.3208
G01 X32.4368 Y31.3226
G01 X32.4580 Y31.3250
G01 X32.4792 Y31.3278
G01 X32.6491 Y31.3530
G01 X32.6701 Y31.3564
G01 X32.6911 Y31.3603
G01 X32.7120 Y31.3648
G01 X32.7328 Y31.3697
G01 X32.8994 Y31.4114
G01 X32.9200 Y31.4169
G01 X32.9405 Y31.4228
G01 X32.9609 Y31.4293
G01 X32.9811 Y31.4362
G01 X33.1428 Y31.4941
G01 X33.1628 Y31.5015
G01 X33.1826 Y31.5094
G01 X33.2023 Y31.5178
G01 X33.3769 Y31.6002
G01 X33.3961 Y31.6095
G01 X33.4151 Y31.6194
G01 X33.4338 Y31.6297
G01 X33.4522 Y31.6404
G01 X33.5995 Y31.7287
G01 X33.6177 Y31.7399
G01 X33.6356 Y31.7515
G01 X33.6532 Y31.7636
G01 X33.6705 Y31.7761
G01 X33.8084 Y31.8784
G01 X33.8254 Y31.8914
G01 X33.8421 Y31.9047
G01 X33.8584 Y31.9185
G01 X33.8744 Y31.9326
G01 X34.0017 Y32.0479
G01 X34.0173 Y32.0625
G01 X34.0326 Y32.0774
G01 X34.0475 Y32.0927
G01 X34.0621 Y32.1083
G01 X34.1915 Y32.2516
G01 X34.2053 Y32.2679
G01 X34.2186 Y32.2846
G01 X34.2373 Y32.3092
G01 X40.2827 Y32.3092
G01 X40.3014 Y32.2846
G01 X40.3147 Y32.2679
G01 X40.3285 Y32.2516
G01 X40.4579 Y32.1083
G01 X40.4725 Y32.0927
G01 X40.4874 Y32.0774
G01 X40.5027 Y32.0625
G01 X40.5183 Y32.0479
G01 X40.6456 Y31.9326
G01 X40.6616 Y31.9185
G01 X40.6779 Y31.9047
G01 X40.6946 Y31.8914
G01 X40.7116 Y31.8784
G01 X40.8495 Y31.7761
G01 X40.8668 Y31.7636
G01 X40.8844 Y31.7515
G01 X40.9023 Y31.7399
G01 X40.9205 Y31.7287
G01 X41.0678 Y31.6404
G01 X41.0862 Y31.6297
G01 X41.1049 Y31.6194
G01 X41.1239 Y31.6095
G01 X41.1431 Y31.6002
G01 X41.3177 Y31.5178
G01 X41.3374 Y31.5094
G01 X41.3572 Y31.5015
G01 X41.3772 Y31.4941
G01 X41.5389 Y31.4362
G01 X41.5591 Y31.4293
G01 X41.5795 Y31.4228
G01 X41.6000 Y31.4169
G01 X41.6206 Y31.4114
G01 X41.7872 Y31.3697
G01 X41.8080 Y31.3648
G01 X41.8289 Y31.3603
G01 X41.8499 Y31.3564
G01 X41.8709 Y31.3530
G01 X42.0408 Y31.3278
G01 X42.0620 Y31.3250
G01 X42.0832 Y31.3226
G01 X42.1045 Y31.3208
G01 X42.1258 Y31.3195
G01 X42.2973 Y31.3110
G01 X42.3186 Y31.3103
G01 X42.3400 Y31.3100
G01 X42.3614 Y31.3103
G01 X42.3827 Y31.3110
G01 X42.5542 Y31.3195
G01 X42.5755 Y31.3208
G01 X42.5968 Y31.3226
G01 X42.6180 Y31.3250
G01 X42.6392 Y31.3278
G01 X42.8091 Y31.3530
G01 X42.8301 Y31.3564
G01 X42.8511 Y31.3603
G01 X42.8720 Y31.3648
G01 X42.8928 Y31.3697
G01 X43.0594 Y31.4114
G01 X43.0800 Y31.4169
G01 X43.1005 Y31.4228
G01 X43.1209 Y31.4293
G01 X43.1411 Y31.4362
G01 X43.3028 Y31.4941
G01 X43.3228 Y31.5015
G01 X43.3426 Y31.5094
G01 X43.3623 Y31.5178
G01 X43.5369 Y31.6002
G01 X43.5561 Y31.6095
G01 X43.5751 Y31.6194
G01 X43.5938 Y31.6297
G01 X43.6122 Y31.6404
G01 X43.7595 Y31.7287
G01 X43.7777 Y31.7399
G01 X43.7956 Y31.7515
G01 X43.8132 Y31.7636
G01 X43.8305 Y31.7761
G01 X43.9684 Y31.8784
G01 X43.9854 Y31.8914
G01 X44.0021 Y31.9047
G01 X44.0184 Y31.9185
G01 X44.0344 Y31.9326
G01 X44.1617 Y32.0479
G01 X44.1773 Y32.0625
G01 X44.1926 Y32.0774
G01 X44.2075 Y32.0927
G01 X44.2221 Y32.1083
G01 X44.3515 Y32.2516
G01 X44.3653 Y32.2679
G01 X44.3786 Y32.2846
G01 X44.3973 Y32.3092
G01 X50.4427 Y32.3092
G01 X50.4614 Y32.2846
G01 X50.4747 Y32.2679
G01 X50.4885 Y32.2516
G01 X50.6179 Y32.1083
G01 X50.6325 Y32.0927
G01 X50.6474 Y32.0774
G01 X50.6627 Y32.0625
G01 X50.6783 Y32.0479
G01 X50.8056 Y31.9326
G01 X50.8216 Y31.9185
G01 X50.8379 Y31.9047
G01 X50.8546 Y31.8914
G01 X50.8716 Y31.8784
G01 X51.0095 Y31.7761
G01 X51.0268 Y31.7636
G01 X51.0444 Y31.7515
G01 X51.0623 Y31.7399
G01 X51.0805 Y31.7287
G01 X51.2278 Y31.6404
G01 X51.2462 Y31.6297
G01 X51.2649 Y31.6194
G01 X51.2839 Y31.6095
G01 X51.3031 Y31.6002
G01 X51.4777 Y31.5178
G01 X51.4974 Y31.5094
G01 X51.5172 Y31.5015
G01 X51.5372 Y31.4941
G01 X51.6989 Y31.4362
G01 X51.7191 Y31.4293
G01 X51.7395 Y31.4228
G01 X51.7600 Y31.4169
G01 X51.7806 Y31.4114
G01 X51.9472 Y31.3697
G01 X51.9680 Y31.3648
G01 X51.9889 Y31.3603
G01 X52.0099 Y31.3564
G01 X52.0309 Y31.3530
G01 X52.2008 Y31.3278
G01 X52.2220 Y31.3250
G01 X52.2432 Y31.3226
G01 X52.2645 Y31.3208
G01 X52.2858 Y31.3195
G01 X52.4573 Y31.3110
G01 X52.4786 Y31.3103
G01 X52.5000 Y31.3100
G01 X52.5214 Y31.3103
G01 X52.5427 Y31.3110
G01 X52.7142 Y31.3195
G01 X52.7355 Y31.3208
G01 X52.7568 Y31.3226
G01 X52.7780 Y31.3250
G01 X52.7992 Y31.3278
G01 X52.9691 Y31.3530
G01 X52.9901 Y31.3564
G01 X53.0111 Y31.3603
G01 X53.0320 Y31.3648
G01 X53.0528 Y31.3697
G01 X53.2194 Y31.4114
G01 X53.2400 Y31.4169
G01 X53.2605 Y31.4228
G01 X53.2809 Y31.4293
G01 X53.3011 Y31.4362
G01 X53.4628 Y31.4941
G01 X53.4828 Y31.5015
G01 X53.5026 Y31.5094
G01 X53.5223 Y31.5178
G01 X53.6969 Y31.6002
G01 X53.7161 Y31.6095
G01 X53.7351 Y31.6194
G01 X53.7538 Y31.6297
G01 X53.7722 Y31.6404
G01 X53.9195 Y31.7287
G01 X53.9377 Y31.7399
G01 X53.9556 Y31.7515
G01 X53.9732 Y31.7636
G01 X53.9905 Y31.7761
G01 X54.1284 Y31.8784
G01 X54.1454 Y31.8914
G01 X54.1621 Y31.9047
G01 X54.1784 Y31.9185
G01 X54.1944 Y31.9326
G01 X54.3217 Y32.0479
G01 X54.3373 Y32.0625
G01 X54.3526 Y32.0774
G01 X54.3675 Y32.0927
G01 X54.3821 Y32.1083
G01 X54.5115 Y32.2516
G01 X54.5253 Y32.2679
G01 X54.5386 Y32.2846
G01 X54.5573 Y32.3092
G01 X60.6027 Y32.3092
G01 X60.6214 Y32.2846
G01 X60.6347 Y32.2679
G01 X60.6485 Y32.2516
G01 X60.7779 Y32.1083
G01 X60.7925 Y32.0927
G01 X60.8074 Y32.0774
G01 X60.8227 Y32.0625
G01 X60.8383 Y32.0479
G01 X60.9656 Y31.9326
G01 X60.9816 Y31.9185
G01 X60.9979 Y31.9047
G01 X61.0146 Y31.8914
G01 X61.1695 Y31.7761
G01 X61.1868 Y31.7636
G01 X61.2044 Y31.7515
G01 X61.2223 Y31.7399
G01 X61.2405 Y31.7287
G01 X61.3878 Y31.6404
G01 X61.4062 Y31.6297
G01 X61.4249 Y31.6194
G01 X61.4439 Y31.6095
G01 X61.6183 Y31.5267
G01 X61.6377 Y31.5178
G01 X61.6574 Y31.5094
G01 X61.6772 Y31.5015
G01 X61.6972 Y31.4941
G01 X61.8589 Y31.4362
G01 X61.8791 Y31.4293
G01 X61.8995 Y31.4228
G01 X61.9200 Y31.4169
G01 X61.9406 Y31.4114
G01 X62.1072 Y31.3697
G01 X62.1280 Y31.3648
G01 X62.1489 Y31.3603
G01 X62.1699 Y31.3564
G01 X62.1909 Y31.3530
G01 X62.3608 Y31.3278
G01 X62.3820 Y31.3250
G01 X62.4032 Y31.3226
G01 X62.4245 Y31.3208
G01 X62.4458 Y31.3195
G01 X62.6173 Y31.3110
G01 X62.6386 Y31.3103
G01 X62.6600 Y31.3100
G01 X62.6814 Y31.3103
G01 X62.8742 Y31.3195
G01 X62.8955 Y31.3208
G01 X62.9168 Y31.3226
G01 X62.9380 Y31.3250
G01 X62.9592 Y31.3278
G01 X63.1291 Y31.3530
G01 X63.1501 Y31.3564
G01 X63.1711 Y31.3603
G01 X63.1920 Y31.3648
G01 X63.2128 Y31.3697
G01 X63.3794 Y31.4114
G01 X63.4000 Y31.4169
G01 X63.4205 Y31.4228
G01 X63.4409 Y31.4293
G01 X63.4611 Y31.4362
G01 X63.6228 Y31.4941
G01 X63.6428 Y31.5015
G01 X63.6626 Y31.5094
G01 X63.6823 Y31.5178
G01 X63.7017 Y31.5267
G01 X63.8569 Y31.6002
G01 X63.8761 Y31.6095
G01 X63.8951 Y31.6194
G01 X63.9138 Y31.6297
G01 X63.9322 Y31.6404
G01 X64.0795 Y31.7287
G01 X64.0977 Y31.7399
G01 X64.1156 Y31.7515
G01 X64.1332 Y31.7636
G01 X64.1505 Y31.7761
G01 X64.2884 Y31.8784
G01 X64.3054 Y31.8914
G01 X64.3221 Y31.9047
G01 X64.3384 Y31.9185
G01 X64.3544 Y31.9326
G01 X64.4817 Y32.0479
G01 X64.4973 Y32.0625
G01 X64.5126 Y32.0774
G01 X64.5275 Y32.0927
G01 X64.5421 Y32.1083
G01 X64.6574 Y32.2356
G01 X64.6715 Y32.2516
G01 X64.6853 Y32.2679
G01 X64.6986 Y32.2846
G01 X64.7116 Y32.3016
G01 X64.8139 Y32.4395
G01 X64.8264 Y32.4568
G01 X64.8385 Y32.4744
G01 X64.8501 Y32.4923
G01 X64.8613 Y32.5105
G01 X64.9496 Y32.6578
G01 X64.9603 Y32.6762
G01 X64.9706 Y32.6949
G01 X64.9805 Y32.7139
G01 X64.9898 Y32.7331
G01 X65.0722 Y32.9077
G01 X65.0806 Y32.9274
G01 X65.0885 Y32.9472
G01 X65.0959 Y32.9672
G01 X65.1538 Y33.1289
G01 X65.1607 Y33.1491
G01 X65.1672 Y33.1695
G01 X65.1731 Y33.1900
G01 X65.1786 Y33.2106
G01 X65.2203 Y33.3772
G01 X65.2252 Y33.3980
G01 X65.2297 Y33.4189
G01 X65.2336 Y33.4399
G01 X65.2370 Y33.4609
G01 X65.2622 Y33.6308
G01 X65.2650 Y33.6520
G01 X65.2674 Y33.6732
G01 X65.2692 Y33.6945
G01 X65.2705 Y33.7158
G01 X65.2790 Y33.8873
G01 X65.2797 Y33.9086
G01 X65.2800 Y33.9300
G01 X65.2800 Y35.4300
G01 X65.2797 Y35.4514
G01 X65.2790 Y35.4727
G01 X65.2692 Y35.6655
G01 X65.2674 Y35.6868
G01 X65.2650 Y35.7080
G01 X65.2622 Y35.7292
G01 X65.2370 Y35.8991
G01 X65.2336 Y35.9201
G01 X65.2297 Y35.9411
G01 X65.2252 Y35.9620
G01 X65.2203 Y35.9828
G01 X65.1786 Y36.1494
G01 X65.1731 Y36.1700
G01 X65.1672 Y36.1905
G01 X65.1607 Y36.2109
G01 X65.1538 Y36.2311
G01 X65.0885 Y36.4128
G01 X65.0806 Y36.4326
G01 X65.0722 Y36.4523
G01 X65.0633 Y36.4717
G01 X64.9898 Y36.6269
G01 X64.9805 Y36.6461
G01 X64.9706 Y36.6651
G01 X64.9603 Y36.6838
G01 X64.9496 Y36.7022
G01 X64.8613 Y36.8495
G01 X64.8501 Y36.8677
G01 X64.8385 Y36.8856
G01 X64.8264 Y36.9032
G01 X64.8139 Y36.9205
G01 X64.7116 Y37.0584
G01 X64.6986 Y37.0754
G01 X64.6853 Y37.0921
G01 X64.6715 Y37.1084
G01 X64.6574 Y37.1244
G01 X64.5421 Y37.2517
G01 X64.5275 Y37.2673
G01 X64.5126 Y37.2826
G01 X64.4973 Y37.2975
G01 X64.4817 Y37.3121
G01 X64.3544 Y37.4274
G01 X64.3384 Y37.4415
G01 X64.3221 Y37.4553
G01 X64.3054 Y37.4686
G01 X64.2884 Y37.4816
G01 X64.1505 Y37.5839
G01 X64.1332 Y37.5964
G01 X64.1156 Y37.6085
G01 X64.0977 Y37.6201
G01 X64.0795 Y37.6313
G01 X63.9322 Y37.7196
G01 X63.9138 Y37.7303
G01 X63.8951 Y37.7406
G01 X63.8761 Y37.7505
G01 X63.8569 Y37.7598
G01 X63.7017 Y37.8333
G01 X63.6823 Y37.8422
G01 X63.6626 Y37.8506
G01 X63.6428 Y37.8585
G01 X63.6228 Y37.8659
G01 X63.4611 Y37.9238
G01 X63.4409 Y37.9307
G01 X63.4205 Y37.9372
G01 X63.4000 Y37.9431
G01 X63.3794 Y37.9486
G01 X63.2128 Y37.9903
G01 X63.1920 Y37.9952
G01 X63.1711 Y37.9997
G01 X63.1501 Y38.0036
G01 X63.1291 Y38.0070
G01 X62.9592 Y38.0322
G01 X62.9380 Y38.0350
G01 X62.9168 Y38.0374
G01 X62.8955 Y38.0392
G01 X62.8742 Y38.0405
G01 X62.7027 Y38.0490
G01 X62.6814 Y38.0497
G01 X62.6600 Y38.0500
G01 X62.6386 Y38.0497
G01 X62.6173 Y38.0490
G01 X62.4458 Y38.0405
G01 X62.4245 Y38.0392
G01 X62.4032 Y38.0374
G01 X62.3820 Y38.0350
G01 X62.3608 Y38.0322
G01 X62.1909 Y38.0070
G01 X62.1699 Y38.0036
G01 X62.1489 Y37.9997
G01 X62.1280 Y37.9952
G01 X62.1072 Y37.9903
G01 X61.9406 Y37.9486
G01 X61.9200 Y37.9431
G01 X61.8995 Y37.9372
G01 X61.8791 Y37.9307
G01 X61.8589 Y37.9238
G01 X61.6972 Y37.8659
G01 X61.6772 Y37.8585
G01 X61.6574 Y37.8506
G01 X61.6377 Y37.8422
G01 X61.4631 Y37.7598
G01 X61.4439 Y37.7505
G01 X61.4249 Y37.7406
G01 X61.4062 Y37.7303
G01 X61.3878 Y37.7196
G01 X61.2405 Y37.6313
G01 X61.2223 Y37.6201
G01 X61.2044 Y37.6085
G01 X61.1868 Y37.5964
G01 X61.1695 Y37.5839
G01 X61.0316 Y37.4816
G01 X61.0146 Y37.4686
G01 X60.9979 Y37.4553
G01 X60.9816 Y37.4415
G01 X60.9656 Y37.4274
G01 X60.8383 Y37.3121
G01 X60.8227 Y37.2975
G01 X60.8074 Y37.2826
G01 X60.7925 Y37.2673
G01 X60.7779 Y37.2517
G01 X60.6485 Y37.1084
G01 X60.6347 Y37.0921
G01 X60.6214 Y37.0754
G01 X60.6027 Y37.0508
G01 X54.5573 Y37.0508
G01 X54.5386 Y37.0754
G01 X54.5253 Y37.0921
G01 X54.5115 Y37.1084
G01 X54.3821 Y37.2517
G01 X54.3675 Y37.2673
G01 X54.3526 Y37.2826
G01 X54.3373 Y37.2975
G01 X54.3217 Y37.3121
G01 X54.1944 Y37.4274
G01 X54.1784 Y37.4415
G01 X54.1621 Y37.4553
G01 X54.1454 Y37.4686
G01 X54.1284 Y37.4816
G01 X53.9905 Y37.5839
G01 X53.9732 Y37.5964
G01 X53.9556 Y37.6085
G01 X53.9377 Y37.6201
G01 X53.9195 Y37.6313
G01 X53.7722 Y37.7196
G01 X53.7538 Y37.7303
G01 X53.7351 Y37.7406
G01 X53.7161 Y37.7505
G01 X53.6969 Y37.7598
G01 X53.5223 Y37.8422
G01 X53.5026 Y37.8506
G01 X53.4828 Y37.8585
G01 X53.4628 Y37.8659
G01 X53.3011 Y37.9238
G01 X53.2809 Y37.9307
G01 X53.2605 Y37.9372
G01 X53.2400 Y37.9431
G01 X53.2194 Y37.9486
G01 X53.0528 Y37.9903
G01 X53.0320 Y37.9952
G01 X53.0111 Y37.9997
G01 X52.9901 Y38.0036
G01 X52.9691 Y38.0070
G01 X52.7992 Y38.0322
G01 X52.7780 Y38.0350
G01 X52.7568 Y38.0374
G01 X52.7355 Y38.0392
G01 X52.7142 Y38.0405
G01 X52.5427 Y38.0490
G01 X52.5214 Y38.0497
G01 X52.5000 Y38.0500
G01 X52.4786 Y38.0497
G01 X52.4573 Y38.0490
G01 X52.2858 Y38.0405
G01 X52.2645 Y38.0392
G01 X52.2432 Y38.0374
G01 X52.2220 Y38.0350
G01 X52.2008 Y38.0322
G01 X52.0309 Y38.0070
G01 X52.0099 Y38.0036
G01 X51.9889 Y37.9997
G01 X51.9680 Y37.9952
G01 X51.9472 Y37.9903
G01 X51.7806 Y37.9486
G01 X51.7600 Y37.9431
G01 X51.7395 Y37.9372
G01 X51.7191 Y37.9307
G01 X51.6989 Y37.9238
G01 X51.5372 Y37.8659
G01 X51.5172 Y37.8585
G01 X51.4974 Y37.8506
G01 X51.4777 Y37.8422
G01 X51.3031 Y37.7598
G01 X51.2839 Y37.7505
G01 X51.2649 Y37.7406
G01 X51.2462 Y37.7303
G01 X51.2278 Y37.7196
G01 X51.0805 Y37.6313
G01 X51.0623 Y37.6201
G01 X51.0444 Y37.6085
G01 X51.0268 Y37.5964
G01 X51.0095 Y37.5839
G01 X50.8716 Y37.4816
G01 X50.8546 Y37.4686
G01 X50.8379 Y37.4553
G01 X50.8216 Y37.4415
G01 X50.8056 Y37.4274
G01 X50.6783 Y37.3121
G01 X50.6627 Y37.2975
G01 X50.6474 Y37.2826
G01 X50.6325 Y37.2673
G01 X50.6179 Y37.2517
G01 X50.4885 Y37.1084
G01 X50.4747 Y37.0921
G01 X50.4614 Y37.0754
G01 X50.4427 Y37.0508
G01 X44.3973 Y37.0508
G01 X44.3786 Y37.0754
G01 X44.3653 Y37.0921
G01 X44.3515 Y37.1084
G01 X44.2221 Y37.2517
G01 X44.2075 Y37.2673
G01 X44.1926 Y37.2826
G01 X44.1773 Y37.2975
G01 X44.1617 Y37.3121
G01 X44.0344 Y37.4274
G01 X44.0184 Y37.4415
G01 X44.0021 Y37.4553
G01 X43.9854 Y37.4686
G01 X43.9684 Y37.4816
G01 X43.8305 Y37.5839
G01 X43.8132 Y37.5964
G01 X43.7956 Y37.6085
G01 X43.7777 Y37.6201
G01 X43.7595 Y37.6313
G01 X43.6122 Y37.7196
G01 X43.5938 Y37.7303
G01 X43.5751 Y37.7406
G01 X43.5561 Y37.7505
G01 X43.5369 Y37.7598
G01 X43.3623 Y37.8422
G01 X43.3426 Y37.8506
G01 X43.3228 Y37.8585
G01 X43.3028 Y37.8659
G01 X43.1411 Y37.9238
G01 X43.1209 Y37.9307
G01 X43.1005 Y37.9372
G01 X43.0800 Y37.9431
G01 X43.0594 Y37.9486
G01 X42.8928 Y37.9903
G01 X42.8720 Y37.9952
G01 X42.8511 Y37.9997
G01 X42.8301 Y38.0036
G01 X42.8091 Y38.0070
G01 X42.6392 Y38.0322
G01 X42.6180 Y38.0350
G01 X42.5968 Y38.0374
G01 X42.5755 Y38.0392
G01 X42.5542 Y38.0405
G01 X42.3827 Y38.0490
G01 X42.3614 Y38.0497
G01 X42.3400 Y38.0500
G01 X42.3186 Y38.0497
G01 X42.2973 Y38.0490
G01 X42.1258 Y38.0405
G01 X42.1045 Y38.0392
G01 X42.0832 Y38.0374
G01 X42.0620 Y38.0350
G01 X42.0408 Y38.0322
G01 X41.8709 Y38.0070
G01 X41.8499 Y38.0036
G01 X41.8289 Y37.9997
G01 X41.8080 Y37.9952
G01 X41.7872 Y37.9903
G01 X41.6206 Y37.9486
G01 X41.6000 Y37.9431
G01 X41.5795 Y37.9372
G01 X41.5591 Y37.9307
G01 X41.5389 Y37.9238
G01 X41.3772 Y37.8659
G01 X41.3572 Y37.8585
G01 X41.3374 Y37.8506
G01 X41.3177 Y37.8422
G01 X41.1431 Y37.7598
G01 X41.1239 Y37.7505
G01 X41.1049 Y37.7406
G01 X41.0862 Y37.7303
G01 X41.0678 Y37.7196
G01 X40.9205 Y37.6313
G01 X40.9023 Y37.6201
G01 X40.8844 Y37.6085
G01 X40.8668 Y37.5964
G01 X40.8495 Y37.5839
G01 X40.7116 Y37.4816
G01 X40.6946 Y37.4686
G01 X40.6779 Y37.4553
G01 X40.6616 Y37.4415
G01 X40.6456 Y37.4274
G01 X40.5183 Y37.3121
G01 X40.5027 Y37.2975
G01 X40.4874 Y37.2826
G01 X40.4725 Y37.2673
G01 X40.4579 Y37.2517
G01 X40.3285 Y37.1084
G01 X40.3147 Y37.0921
G01 X40.3014 Y37.0754
G01 X40.2827 Y37.0508
G01 X34.2373 Y37.0508
G01 X34.2186 Y37.0754
G01 X34.2053 Y37.0921
G01 X34.1915 Y37.1084
G01 X34.0621 Y37.2517
G01 X34.0475 Y37.2673
G01 X34.0326 Y37.2826
G01 X34.0173 Y37.2975
G01 X34.0017 Y37.3121
G01 X33.8744 Y37.4274
G01 X33.8584 Y37.4415
G01 X33.8421 Y37.4553
G01 X33.8254 Y37.4686
G01 X33.8084 Y37.4816
G01 X33.6705 Y37.5839
G01 X33.6532 Y37.5964
G01 X33.6356 Y37.6085
G01 X33.6177 Y37.6201
G01 X33.5995 Y37.6313
G01 X33.4522 Y37.7196
G01 X33.4338 Y37.7303
G01 X33.4151 Y37.7406
G01 X33.3961 Y37.7505
G01 X33.3769 Y37.7598
G01 X33.2023 Y37.8422
G01 X33.1826 Y37.8506
G01 X33.1628 Y37.8585
G01 X33.1428 Y37.8659
G01 X32.9811 Y37.9238
G01 X32.9609 Y37.9307
G01 X32.9405 Y37.9372
G01 X32.9200 Y37.9431
G01 X32.8994 Y37.9486
G01 X32.7328 Y37.9903
G01 X32.7120 Y37.9952
G01 X32.6911 Y37.9997
G01 X32.6701 Y38.0036
G01 X32.6491 Y38.0070
G01 X32.4792 Y38.0322
G01 X32.4580 Y38.0350
G01 X32.4368 Y38.0374
G01 X32.4155 Y38.0392
G01 X32.3942 Y38.0405
G01 X32.2227 Y38.0490
G01 X32.2014 Y38.0497
G01 X32.1800 Y38.0500
G01 X32.1586 Y38.0497
G01 X32.1373 Y38.0490
G01 X31.9658 Y38.0405
G01 X31.9445 Y38.0392
G01 X31.9232 Y38.0374
G01 X31.9020 Y38.0350
G01 X31.8808 Y38.0322
G01 X31.7109 Y38.0070
G01 X31.6899 Y38.0036
G01 X31.6689 Y37.9997
G01 X31.6480 Y37.9952
G01 X31.6272 Y37.9903
G01 X31.4606 Y37.9486
G01 X31.4400 Y37.9431
G01 X31.4195 Y37.9372
G01 X31.3991 Y37.9307
G01 X31.3789 Y37.9238
G01 X31.2172 Y37.8659
G01 X31.1972 Y37.8585
G01 X31.1774 Y37.8506
G01 X31.1577 Y37.8422
G01 X30.9831 Y37.7598
G01 X30.9639 Y37.7505
G01 X30.9449 Y37.7406
G01 X30.9262 Y37.7303
G01 X30.9078 Y37.7196
G01 X30.7605 Y37.6313
G01 X30.7423 Y37.6201
G01 X30.7244 Y37.6085
G01 X30.7068 Y37.5964
G01 X30.6895 Y37.5839
G01 X30.5516 Y37.4816
G01 X30.5346 Y37.4686
G01 X30.5179 Y37.4553
G01 X30.5016 Y37.4415
G01 X30.4856 Y37.4274
G01 X30.3583 Y37.3121
G01 X30.3427 Y37.2975
G01 X30.3274 Y37.2826
G01 X30.3125 Y37.2673
G01 X30.2979 Y37.2517
G01 X30.1685 Y37.1084
G01 X30.1547 Y37.0921
G01 X30.1414 Y37.0754
G01 X30.1227 Y37.0508
G01 X11.8600 Y37.0508
G01 X11.8386 Y37.0505
G01 X11.8173 Y37.0497
G01 X11.6702 Y37.0425
G01 X11.6489 Y37.0412
G01 X11.6276 Y37.0393
G01 X11.6064 Y37.0370
G01 X11.5852 Y37.0341
G01 X11.4396 Y37.0125
G01 X11.4185 Y37.0091
G01 X11.3975 Y37.0052
G01 X11.3766 Y37.0008
G01 X11.3558 Y36.9958
G01 X11.2130 Y36.9601
G01 X11.1923 Y36.9546
G01 X11.1718 Y36.9487
G01 X11.1515 Y36.9422
G01 X11.1313 Y36.9353
G01 X10.9726 Y36.8782
G01 X10.9528 Y36.8703
G01 X10.9331 Y36.8619
G01 X10.9137 Y36.8530
G01 X10.7806 Y36.7900
G01 X10.7614 Y36.7806
G01 X10.7424 Y36.7708
G01 X10.7237 Y36.7605
G01 X10.7053 Y36.7498
G01 X10.5790 Y36.6741
G01 X10.5608 Y36.6629
G01 X10.5429 Y36.6512
G01 X10.5253 Y36.6391
G01 X10.5080 Y36.6266
G01 X10.3897 Y36.5389
G01 X10.3727 Y36.5260
G01 X10.3560 Y36.5126
G01 X10.3397 Y36.4989
G01 X10.3237 Y36.4847
G01 X10.2146 Y36.3858
G01 X10.1989 Y36.3713
G01 X10.1836 Y36.3564
G01 X10.1687 Y36.3411
G01 X10.1542 Y36.3254
G01 X10.0553 Y36.2163
G01 X10.0411 Y36.2003
G01 X10.0274 Y36.1840
G01 X10.0140 Y36.1673
G01 X10.0011 Y36.1503
G01 X9.9134 Y36.0320
G01 X9.9009 Y36.0147
G01 X9.8888 Y35.9971
G01 X9.8771 Y35.9792
G01 X9.8659 Y35.9610
G01 X9.7902 Y35.8347
G01 X9.7795 Y35.8163
G01 X9.7692 Y35.7976
G01 X9.7594 Y35.7786
G01 X9.7500 Y35.7594
G01 X9.6870 Y35.6263
G01 X9.6781 Y35.6069
G01 X9.6697 Y35.5872
G01 X9.6618 Y35.5674
G01 X9.6543 Y35.5474
G01 X9.6047 Y35.4087
G01 X9.5978 Y35.3885
G01 X9.5913 Y35.3682
G01 X9.5854 Y35.3477
G01 X9.5799 Y35.3270
G01 X9.5442 Y35.1842
G01 X9.5392 Y35.1634
G01 X9.5348 Y35.1425
G01 X9.5309 Y35.1215
G01 X9.5275 Y35.1004
G01 X9.5059 Y34.9548
G01 X9.5030 Y34.9336
G01 X9.5007 Y34.9124
G01 X9.4988 Y34.8911
G01 X9.4975 Y34.8698
G01 X9.4903 Y34.7227
G01 X9.4895 Y34.7014
G01 X9.4892 Y34.6800
G01 X9.4892 Y29.6446
G01 X9.4581 Y29.6350
G01 X9.4379 Y29.6281
G01 X9.2855 Y29.5735
G01 X9.2655 Y29.5661
G01 X9.2456 Y29.5582
G01 X9.2260 Y29.5498
G01 X9.2066 Y29.5409
G01 X9.0602 Y29.4716
G01 X9.0410 Y29.4623
G01 X9.0221 Y29.4524
G01 X9.0034 Y29.4421
G01 X8.9849 Y29.4314
G01 X8.8460 Y29.3481
G01 X8.8279 Y29.3369
G01 X8.8100 Y29.3253
G01 X8.7924 Y29.3132
G01 X8.7751 Y29.3007
G01 X8.6450 Y29.2043
G01 X8.6280 Y29.1913
G01 X8.6113 Y29.1780
G01 X8.5950 Y29.1642
G01 X8.5790 Y29.1501
G01 X8.4590 Y29.0414
G01 X8.4434 Y29.0268
G01 X8.4281 Y29.0119
G01 X8.4132 Y28.9966
G01 X8.3986 Y28.9810
G01 X8.2899 Y28.8610
G01 X8.2758 Y28.8450
G01 X8.2620 Y28.8287
G01 X8.2487 Y28.8120
G01 X8.2357 Y28.7950
G01 X8.1393 Y28.6649
G01 X8.1268 Y28.6476
G01 X8.1147 Y28.6300
G01 X8.1031 Y28.6121
G01 X8.0919 Y28.5940
G01 X8.0086 Y28.4551
G01 X7.9979 Y28.4366
G01 X7.9876 Y28.4179
G01 X7.9777 Y28.3990
G01 X7.9684 Y28.3798
G01 X7.8991 Y28.2334
G01 X7.8902 Y28.2140
G01 X7.8818 Y28.1944
G01 X7.8739 Y28.1745
G01 X7.8665 Y28.1545
G01 X7.8119 Y28.0021
G01 X7.8050 Y27.9819
G01 X7.7985 Y27.9615
G01 X7.7926 Y27.9410
G01 X7.7871 Y27.9204
G01 X7.7478 Y27.7633
G01 X7.7428 Y27.7425
G01 X7.7384 Y27.7216
G01 X7.7345 Y27.7006
G01 X7.7311 Y27.6796
G01 X7.7074 Y27.5194
G01 X7.7045 Y27.4982
G01 X7.7021 Y27.4770
G01 X7.7003 Y27.4557
G01 X7.6910 Y27.2727
G01 X7.6903 Y27.2514
G01 X7.6900 Y27.2300
G01 X7.6900 Y23.9300
G01 X7.6903 Y23.9086
G01 X7.6910 Y23.8873
G01 X7.7003 Y23.7043
G01 X7.7021 Y23.6830
G01 X7.7045 Y23.6618
G01 X7.7074 Y23.6406
G01 X7.7311 Y23.4804
G01 X7.7345 Y23.4594
G01 X7.7384 Y23.4384
G01 X7.7428 Y23.4175
G01 X7.7478 Y23.3967
G01 X7.7871 Y23.2396
G01 X7.7926 Y23.2190
G01 X7.7985 Y23.1985
G01 X7.8050 Y23.1781
G01 X7.8119 Y23.1579
G01 X7.8665 Y23.0055
G01 X7.8739 Y22.9855
G01 X7.8818 Y22.9656
G01 X7.8902 Y22.9460
G01 X7.8991 Y22.9266
G01 X7.9684 Y22.7802
G01 X7.9777 Y22.7610
G01 X7.9876 Y22.7421
G01 X7.9979 Y22.7234
G01 X8.0086 Y22.7049
G01 X8.0919 Y22.5660
G01 X8.1031 Y22.5479
G01 X8.1147 Y22.5300
G01 X8.1268 Y22.5124
G01 X8.1393 Y22.4951
G01 X8.2357 Y22.3650
G01 X8.2487 Y22.3480
G01 X8.2620 Y22.3313
G01 X8.2758 Y22.3150
G01 X8.3986 Y22.1790
G01 X8.4132 Y22.1634
G01 X8.4281 Y22.1481
G01 X8.4434 Y22.1332
G01 X8.4590 Y22.1186
G01 X8.5950 Y21.9958
G01 X8.6113 Y21.9820
G01 X8.6280 Y21.9687
G01 X8.6450 Y21.9557
G01 X8.7751 Y21.8593
G01 X8.7924 Y21.8468
G01 X8.8100 Y21.8347
G01 X8.8279 Y21.8231
G01 X8.8460 Y21.8119
G01 X8.9849 Y21.7286
G01 X9.0034 Y21.7179
G01 X9.0221 Y21.7076
G01 X9.0410 Y21.6977
G01 X9.0602 Y21.6884
G01 X9.2241 Y21.6111
G01 X9.1982 Y21.5897
G01 X9.1822 Y21.5756
G01 X8.9423 Y21.3581
G01 X8.9266 Y21.3435
G01 X8.9114 Y21.3286
G01 X8.8965 Y21.3134
G01 X8.8819 Y21.2977
G01 X8.6644 Y21.0578
G01 X8.6503 Y21.0418
G01 X8.6365 Y21.0254
G01 X8.6232 Y21.0087
G01 X8.6103 Y20.9918
G01 X8.4174 Y20.7316
G01 X8.4049 Y20.7143
G01 X8.3928 Y20.6967
G01 X8.3811 Y20.6788
G01 X8.3699 Y20.6607
G01 X8.2034 Y20.3829
G01 X8.1927 Y20.3644
G01 X8.1824 Y20.3457
G01 X8.1726 Y20.3268
G01 X8.1632 Y20.3076
G01 X8.0247 Y20.0148
G01 X8.0158 Y19.9954
G01 X8.0074 Y19.9758
G01 X7.9995 Y19.9560
G01 X7.9921 Y19.9359
G01 X7.8830 Y19.6310
G01 X7.8760 Y19.6108
G01 X7.8696 Y19.5905
G01 X7.8636 Y19.5700
G01 X7.8582 Y19.5493
G01 X7.7795 Y19.2352
G01 X7.7745 Y19.2144
G01 X7.7701 Y19.1935
G01 X7.7662 Y19.1725
G01 X7.7628 Y19.1515
G01 X7.7153 Y18.8311
G01 X7.7124 Y18.8100
G01 X7.7101 Y18.7887
G01 X7.7082 Y18.7675
G01 X7.7069 Y18.7461
G01 X7.6910 Y18.4227
G01 X7.6903 Y18.4014
G01 X7.6900 Y18.3800
G01 X7.6903 Y18.3586
G01 X7.6910 Y18.3373
G01 X7.7069 Y18.0139
G01 X7.7082 Y17.9925
G01 X7.7101 Y17.9713
G01 X7.7124 Y17.9500
G01 X7.7153 Y17.9289
G01 X7.7628 Y17.6085
G01 X7.7662 Y17.5875
G01 X7.7701 Y17.5665
G01 X7.7745 Y17.5456
G01 X7.7795 Y17.5248
G01 X7.8582 Y17.2107
G01 X7.8636 Y17.1900
G01 X7.8696 Y17.1695
G01 X7.8760 Y17.1492
G01 X7.8830 Y17.1290
G01 X7.9921 Y16.8241
G01 X7.9995 Y16.8040
G01 X8.0074 Y16.7842
G01 X8.0158 Y16.7646
G01 X8.0247 Y16.7452
G01 X8.1632 Y16.4524
G01 X8.1726 Y16.4332
G01 X8.1824 Y16.4143
G01 X8.1927 Y16.3956
G01 X8.2034 Y16.3771
G01 X8.3699 Y16.0993
G01 X8.3811 Y16.0812
G01 X8.3928 Y16.0633
G01 X8.4049 Y16.0457
G01 X8.4174 Y16.0284
G01 X8.6103 Y15.7682
G01 X8.6232 Y15.7513
G01 X8.6365 Y15.7346
G01 X8.6503 Y15.7182
G01 X8.6644 Y15.7022
G01 X8.8819 Y15.4623
G01 X8.8965 Y15.4466
G01 X8.9114 Y15.4314
G01 X8.9266 Y15.4165
G01 X8.9423 Y15.4019
G01 X9.1822 Y15.1844
G01 X9.1982 Y15.1703
G01 X9.2146 Y15.1565
G01 X9.2313 Y15.1432
G01 X9.2482 Y15.1303
G01 X9.4892 Y14.9515
G00 Z1.0000
G00 X9.7292 Y15.0799
G01 F30.00
G01 Z-0.0850
G01 F60.00
G01 X9.7292 Y9.2800
G01 X9.7300 Y9.2491
G01 X9.7372 Y9.1020
G01 X9.7395 Y9.0711
G01 X9.7433 Y9.0405
G01 X9.7649 Y8.8948
G01 X9.7674 Y8.8795
G01 X9.7734 Y8.8492
G01 X9.8128 Y8.6913
G01 X9.8210 Y8.6615
G01 X9.8307 Y8.6321
G01 X9.8803 Y8.4934
G01 X9.8914 Y8.4646
G01 X9.9040 Y8.4363
G01 X9.9669 Y8.3032
G01 X9.9808 Y8.2756
G01 X9.9961 Y8.2487
G01 X10.0718 Y8.1223
G01 X10.0883 Y8.0962
G01 X10.1062 Y8.0709
G01 X10.1939 Y7.9526
G01 X10.2129 Y7.9283
G01 X10.2331 Y7.9049
G01 X10.3320 Y7.7957
G01 X10.3533 Y7.7733
G01 X10.3757 Y7.7520
G01 X10.4849 Y7.6531
G01 X10.5083 Y7.6329
G01 X10.5326 Y7.6139
G01 X10.6509 Y7.5262
G01 X10.6762 Y7.5083
G01 X10.7023 Y7.4918
G01 X10.8287 Y7.4161
G01 X10.8556 Y7.4008
G01 X10.8832 Y7.3869
G01 X11.0163 Y7.3240
G01 X11.0446 Y7.3114
G01 X11.0734 Y7.3003
G01 X11.2121 Y7.2507
G01 X11.2415 Y7.2410
G01 X11.2713 Y7.2328
G01 X11.4141 Y7.1970
G01 X11.4292 Y7.1934
G01 X11.4595 Y7.1874
G01 X11.6205 Y7.1633
G01 X11.6511 Y7.1595
G01 X11.6820 Y7.1572
G01 X11.8291 Y7.1500
G01 X11.8600 Y7.1492
G01 X30.2435 Y7.1492
G01 X30.3212 Y7.0445
G01 X30.3402 Y7.0201
G01 X30.3604 Y6.9967
G01 X30.4758 Y6.8695
G01 X30.4971 Y6.8471
G01 X30.5195 Y6.8258
G01 X30.6583 Y6.7002
G01 X30.6822 Y6.6806
G01 X30.6945 Y6.6712
G01 X30.8325 Y6.5689
G01 X30.8577 Y6.5511
G01 X30.8839 Y6.5346
G01 X31.0312 Y6.4463
G01 X31.0445 Y6.4385
G01 X31.0718 Y6.4239
G01 X31.2409 Y6.3437
G01 X31.2692 Y6.3312
G01 X31.2981 Y6.3200
G01 X31.4598 Y6.2622
G01 X31.4891 Y6.2525
G01 X31.5189 Y6.2442
G01 X31.6855 Y6.2025
G01 X31.7157 Y6.1957
G01 X31.7462 Y6.1904
G01 X31.9160 Y6.1652
G01 X31.9467 Y6.1615
G01 X31.9776 Y6.1592
G01 X32.1491 Y6.1508
G01 X32.1800 Y6.1500
G01 X32.2109 Y6.1508
G01 X32.3824 Y6.1592
G01 X32.4133 Y6.1615
G01 X32.4440 Y6.1652
G01 X32.6138 Y6.1904
G01 X32.6443 Y6.1957
G01 X32.6745 Y6.2025
G01 X32.8411 Y6.2442
G01 X32.8709 Y6.2525
G01 X32.9002 Y6.2622
G01 X33.0619 Y6.3200
G01 X33.0908 Y6.3312
G01 X33.1191 Y6.3437
G01 X33.2882 Y6.4239
G01 X33.3155 Y6.4385
G01 X33.3288 Y6.4463
G01 X33.4761 Y6.5346
G01 X33.5023 Y6.5511
G01 X33.5275 Y6.5689
G01 X33.6655 Y6.6712
G01 X33.6899 Y6.6902
G01 X33.7017 Y6.7002
G01 X33.8405 Y6.8258
G01 X33.8629 Y6.8471
G01 X33.8842 Y6.8695
G01 X33.9996 Y6.9967
G01 X34.0198 Y7.0201
G01 X34.0388 Y7.0445
G01 X34.1165 Y7.1492
G01 X40.4035 Y7.1492
G01 X40.4812 Y7.0445
G01 X40.5002 Y7.0201
G01 X40.5204 Y6.9967
G01 X40.6358 Y6.8695
G01 X40.6571 Y6.8471
G01 X40.6795 Y6.8258
G01 X40.8183 Y6.7002
G01 X40.8422 Y6.6806
G01 X40.8545 Y6.6712
G01 X40.9925 Y6.5689
G01 X41.0177 Y6.5511
G01 X41.0439 Y6.5346
G01 X41.1912 Y6.4463
G01 X41.2045 Y6.4385
G01 X41.2318 Y6.4239
G01 X41.4009 Y6.3437
G01 X41.4292 Y6.3312
G01 X41.4581 Y6.3200
G01 X41.6198 Y6.2622
G01 X41.6491 Y6.2525
G01 X41.6789 Y6.2442
G01 X41.8455 Y6.2025
G01 X41.8757 Y6.1957
G01 X41.9062 Y6.1904
G01 X42.0760 Y6.1652
G01 X42.1067 Y6.1615
G01 X42.1376 Y6.1592
G01 X42.3091 Y6.1508
G01 X42.3400 Y6.1500
G01 X42.3709 Y6.1508
G01 X42.5424 Y6.1592
G01 X42.5733 Y6.1615
G01 X42.6040 Y6.1652
G01 X42.7738 Y6.1904
G01 X42.8043 Y6.1957
G01 X42.8345 Y6.2025
G01 X43.0011 Y6.2442
G01 X43.0309 Y6.2525
G01 X43.0602 Y6.2622
G01 X43.2219 Y6.3200
G01 X43.2508 Y6.3312
G01 X43.2791 Y6.3437
G01 X43.4482 Y6.4239
G01 X43.4755 Y6.4385
G01 X43.4888 Y6.4463
G01 X43.6361 Y6.5346
G01 X43.6623 Y6.5511
G01 X43.6875 Y6.5689
G01 X43.8255 Y6.6712
G01 X43.8378 Y6.6806
G01 X43.8617 Y6.7002
G01 X44.0005 Y6.8258
G01 X44.0229 Y6.8471
G01 X44.0442 Y6.8695
G01 X44.1596 Y6.9967
G01 X44.1798 Y7.0201
G01 X44.1988 Y7.0445
G01 X44.2765 Y7.1492
G01 X50.5635 Y7.1492
G01 X50.6412 Y7.0445
G01 X50.6602 Y7.0201
G01 X50.6804 Y6.9967
G01 X50.7958 Y6.8695
G01 X50.8171 Y6.8471
G01 X50.8395 Y6.8258
G01 X50.9783 Y6.7002
G01 X51.0022 Y6.6806
G01 X51.0145 Y6.6712
G01 X51.1525 Y6.5689
G01 X51.1777 Y6.5511
G01 X51.2039 Y6.5346
G01 X51.3512 Y6.4463
G01 X51.3645 Y6.4385
G01 X51.3918 Y6.4239
G01 X51.5609 Y6.3437
G01 X51.5892 Y6.3312
G01 X51.6181 Y6.3200
G01 X51.7798 Y6.2622
G01 X51.8091 Y6.2525
G01 X51.8389 Y6.2442
G01 X52.0055 Y6.2025
G01 X52.0357 Y6.1957
G01 X52.0662 Y6.1904
G01 X52.2360 Y6.1652
G01 X52.2667 Y6.1615
G01 X52.2976 Y6.1592
G01 X52.4691 Y6.1508
G01 X52.5000 Y6.1500
G01 X52.5309 Y6.1508
G01 X52.7024 Y6.1592
G01 X52.7333 Y6.1615
G01 X52.7640 Y6.1652
G01 X52.9338 Y6.1904
G01 X52.9643 Y6.1957
G01 X52.9945 Y6.2025
G01 X53.1611 Y6.2442
G01 X53.1909 Y6.2525
G01 X53.2202 Y6.2622
G01 X53.3819 Y6.3200
G01 X53.4108 Y6.3312
G01 X53.4391 Y6.3437
G01 X53.6082 Y6.4239
G01 X53.6355 Y6.4385
G01 X53.6488 Y6.4463
G01 X53.7961 Y6.5346
G01 X53.8223 Y6.5511
G01 X53.8475 Y6.5689
G01 X53.9855 Y6.6712
G01 X53.9978 Y6.6806
G01 X54.0217 Y6.7002
G01 X54.1605 Y6.8258
G01 X54.1829 Y6.8471
G01 X54.2042 Y6.8695
G01 X54.3196 Y6.9967
G01 X54.3398 Y7.0201
G01 X54.3588 Y7.0445
G01 X54.4365 Y7.1492
G01 X60.7235 Y7.1492
G01 X60.8012 Y7.0445
G01 X60.8202 Y7.0201
G01 X60.8404 Y6.9967
G01 X60.9558 Y6.8695
G01 X60.9771 Y6.8471
G01 X60.9995 Y6.8258
G01 X61.1267 Y6.7104
G01 X61.1501 Y6.6902
G01 X61.1745 Y6.6712
G01 X61.3250 Y6.5598
G01 X61.3377 Y6.5511
G01 X61.3639 Y6.5346
G01 X61.5112 Y6.4463
G01 X61.5381 Y6.4310
G01 X61.5657 Y6.4171
G01 X61.7209 Y6.3437
G01 X61.7492 Y6.3312
G01 X61.7781 Y6.3200
G01 X61.9398 Y6.2622
G01 X61.9691 Y6.2525
G01 X61.9989 Y6.2442
G01 X62.1655 Y6.2025
G01 X62.1957 Y6.1957
G01 X62.2262 Y6.1904
G01 X62.3960 Y6.1652
G01 X62.4267 Y6.1615
G01 X62.4576 Y6.1592
G01 X62.6445 Y6.1502
G01 X62.6600 Y6.1500
G01 X62.6909 Y6.1508
G01 X62.8624 Y6.1592
G01 X62.8933 Y6.1615
G01 X62.9240 Y6.1652
G01 X63.0938 Y6.1904
G01 X63.1243 Y6.1957
G01 X63.1545 Y6.2025
G01 X63.3211 Y6.2442
G01 X63.3509 Y6.2525
G01 X63.3802 Y6.2622
G01 X63.5564 Y6.3254
G01 X63.5708 Y6.3312
G01 X63.5991 Y6.3437
G01 X63.7543 Y6.4171
G01 X63.7819 Y6.4310
G01 X63.8088 Y6.4463
G01 X63.9561 Y6.5346
G01 X63.9823 Y6.5511
G01 X64.0075 Y6.5689
G01 X64.1455 Y6.6712
G01 X64.1699 Y6.6902
G01 X64.1933 Y6.7104
G01 X64.3205 Y6.8258
G01 X64.3429 Y6.8471
G01 X64.3642 Y6.8695
G01 X64.4796 Y6.9967
G01 X64.4998 Y7.0201
G01 X64.5188 Y7.0445
G01 X64.6211 Y7.1825
G01 X64.6389 Y7.2077
G01 X64.6554 Y7.2339
G01 X64.7437 Y7.3812
G01 X64.7590 Y7.4081
G01 X64.7729 Y7.4357
G01 X64.8463 Y7.5909
G01 X64.8527 Y7.6050
