(G-CODE GENERATED BY FLATCAM v8.994 - www.flatcam.org - Version Date: 2020/11/7)

(Name: shunt.drl_cnc)
(Type: G-code from Geometry)
(Units: MM)

(Created on Sunday, 18 December 2022 at 03:40)

(This preprocessor is the default preprocessor used by FlatCAM.)
(It is made to work with MACH3 compatible motion controllers.)


(TOOLS DIAMETER: )
(Tool: 1 -> Dia: 1.19888)
(Tool: 2 -> Dia: 3.50012)
(Tool: 3 -> Dia: 4.5008799999999995)

(FEEDRATE Z: )
(Tool: 1 -> Feedrate: 30.0)
(Tool: 2 -> Feedrate: 30.0)
(Tool: 3 -> Feedrate: 30.0)

(FEEDRATE RAPIDS: )
(Tool: 1 -> Feedrate Rapids: 3000.0)
(Tool: 2 -> Feedrate Rapids: 3000.0)
(Tool: 3 -> Feedrate Rapids: 3000.0)

(Z_CUT: )
(Tool: 1 -> Z_Cut: -2.02)
(Tool: 2 -> Z_Cut: -2.02)
(Tool: 3 -> Z_Cut: -2.02)

(Tools Offset: )
(Tool: 1 -> Offset Z: 0.0)
(Tool: 3 -> Offset Z: 0.0)
(Tool: 2 -> Offset Z: 0.0)

(Z_MOVE: )
(Tool: 1 -> Z_Move: 1.0)
(Tool: 2 -> Z_Move: 1.0)
(Tool: 3 -> Z_Move: 1.0)

(Z Toolchange: 15 mm)
(X,Y Toolchange: 0.0000, 0.0000 mm)
(Z Start: None mm)
(Z End: 15.0 mm)
(X,Y End: 0.0000, 0.0000 mm)
(Steps per circle: 64)
(Preprocessor Excellon: default)

(X range:    3.7599 ...   70.7601  mm)
(Y range:    3.7199 ...   40.2401  mm)

(Spindle Speed: 3000 RPM)
G21
G90
G94

G01 F30.00

M5
G00 Z15.0000
T1
G00 X0.0000 Y0.0000                
M6
(MSG, Change to Tool Dia = 1.1989 ||| Total drills for tool T1 = 14)
M0
G00 Z15.0000

G01 F30.00
M03 S3000
G00 X32.1800 Y34.6800
G01 Z-2.0200
G01 Z0
G00 Z1.0000
G00 X32.1800 Y34.6800
G01 Z-2.0200
G01 Z0
G00 Z1.0000
G00 X42.3400 Y34.6800
G01 Z-2.0200
G01 Z0
G00 Z1.0000
G00 X52.5000 Y34.6800
G01 Z-2.0200
G01 Z0
G00 Z1.0000
G00 X62.6600 Y34.6800
G01 Z-2.0200
G01 Z0
G00 Z1.0000
G00 X69.0100 Y38.4900
G01 Z-2.0200
G01 Z0
G00 Z1.0000
G00 X62.6600 Y9.2800
G01 Z-2.0200
G01 Z0
G00 Z1.0000
G00 X69.0100 Y5.4700
G01 Z-2.0200
G01 Z0
G00 Z1.0000
G00 X52.5000 Y9.2800
G01 Z-2.0200
G01 Z0
G00 Z1.0000
G00 X42.3400 Y9.2800
G01 Z-2.0200
G01 Z0
G00 Z1.0000
G00 X32.1800 Y9.2800
G01 Z-2.0200
G01 Z0
G00 Z1.0000
G00 X11.8600 Y18.3808
G01 Z-2.0200
G01 Z0
G00 Z1.0000
G00 X11.8600 Y25.5792
G01 Z-2.0200
G01 Z0
G00 Z1.0000
G00 X5.5100 Y38.4900
G01 Z-2.0200
G01 Z0
G00 Z1.0000
G00 X5.5100 Y5.4700
G01 Z-2.0200
G01 Z0
G00 Z1.0000
M05
G00 Z15.00
G00 X0.0 Y0.0


