(G-CODE GENERATED BY FLATCAM v8.994 - www.flatcam.org - Version Date: 2020/11/7)

(Name: shunt-PTH-drl.gbr_inverted_iso_combined_cnc)
(Type: G-code from Geometry)
(Units: MM)

(Created on Sunday, 18 December 2022 at 03:45)

(This preprocessor is the default preprocessor used by FlatCAM.)
(It is made to work with MACH3 compatible motion controllers.)

(TOOL DIAMETER: 1.5 mm)
(Feedrate_XY: 30.0 mm/min)
(Feedrate_Z: 20.0 mm/min)
(Feedrate rapids 1500.0 mm/min)

(Z_Cut: -2.0 mm)
(DepthPerCut: 0.5 mm <=>4 passes)
(Z_Move: 1.0 mm)
(Z Start: None mm)
(Z End: 15.0 mm)
(X,Y End: 0.0000, 0.0000 mm)
(Steps per circle: 64)
(Preprocessor Geometry: default)

(X range:    4.5109 ...   70.0091  mm)
(Y range:    4.4709 ...   39.4891  mm)

(Spindle Speed: 3000.0 RPM)
G21
G90
G94

G01 F30.00

M5
G00 Z15.0000
G00 X0.0000 Y0.0000
T1
M6    
(MSG, Change to Tool Dia = 1.5000)
M0
G00 Z15.0000

M03 S3000.0
G01 F30.00
G00 X6.5091 Y5.4700
G01 F20.00
G01 Z-0.5000
G01 F30.00
G01 X6.5043 Y5.3721
G01 X6.4899 Y5.2751
G01 X6.4661 Y5.1800
G01 X6.4330 Y5.0877
G01 X6.3911 Y4.9990
G01 X6.3407 Y4.9149
G01 X6.2823 Y4.8362
G01 X6.2165 Y4.7635
G01 X6.1438 Y4.6977
G01 X6.0651 Y4.6393
G01 X5.9810 Y4.5889
G01 X5.8923 Y4.5470
G01 X5.8000 Y4.5139
G01 X5.7049 Y4.4901
G01 X5.6079 Y4.4757
G01 X5.5100 Y4.4709
G01 X5.4121 Y4.4757
G01 X5.3151 Y4.4901
G01 X5.2200 Y4.5139
G01 X5.1277 Y4.5470
G01 X5.0390 Y4.5889
G01 X4.9549 Y4.6393
G01 X4.8762 Y4.6977
G01 X4.8035 Y4.7635
G01 X4.7377 Y4.8362
G01 X4.6793 Y4.9149
G01 X4.6289 Y4.9990
G01 X4.5870 Y5.0877
G01 X4.5539 Y5.1800
G01 X4.5301 Y5.2751
G01 X4.5157 Y5.3721
G01 X4.5109 Y5.4700
G01 X4.5157 Y5.5679
G01 X4.5301 Y5.6649
G01 X4.5539 Y5.7600
G01 X4.5870 Y5.8523
G01 X4.6289 Y5.9410
G01 X4.6793 Y6.0251
G01 X4.7377 Y6.1038
G01 X4.8035 Y6.1765
G01 X4.8762 Y6.2423
G01 X4.9549 Y6.3007
G01 X5.0390 Y6.3511
G01 X5.1277 Y6.3930
G01 X5.2200 Y6.4261
G01 X5.3151 Y6.4499
G01 X5.4121 Y6.4643
G01 X5.5100 Y6.4691
G01 X5.6079 Y6.4643
G01 X5.7049 Y6.4499
G01 X5.8000 Y6.4261
G01 X5.8923 Y6.3930
G01 X5.9810 Y6.3511
G01 X6.0651 Y6.3007
G01 X6.1438 Y6.2423
G01 X6.2165 Y6.1765
G01 X6.2823 Y6.1038
G01 X6.3407 Y6.0251
G01 X6.3911 Y5.9410
G01 X6.4330 Y5.8523
G01 X6.4661 Y5.7600
G01 X6.4899 Y5.6649
G01 X6.5043 Y5.5679
G01 X6.5091 Y5.4700
G00 X6.5091 Y5.4700
G01 F20.00
G01 Z-1.0000
G01 F30.00
G01 X6.5043 Y5.3721
G01 X6.4899 Y5.2751
G01 X6.4661 Y5.1800
G01 X6.4330 Y5.0877
G01 X6.3911 Y4.9990
G01 X6.3407 Y4.9149
G01 X6.2823 Y4.8362
G01 X6.2165 Y4.7635
G01 X6.1438 Y4.6977
G01 X6.0651 Y4.6393
G01 X5.9810 Y4.5889
G01 X5.8923 Y4.5470
G01 X5.8000 Y4.5139
G01 X5.7049 Y4.4901
G01 X5.6079 Y4.4757
G01 X5.5100 Y4.4709
G01 X5.4121 Y4.4757
G01 X5.3151 Y4.4901
G01 X5.2200 Y4.5139
G01 X5.1277 Y4.5470
G01 X5.0390 Y4.5889
G01 X4.9549 Y4.6393
G01 X4.8762 Y4.6977
G01 X4.8035 Y4.7635
G01 X4.7377 Y4.8362
G01 X4.6793 Y4.9149
G01 X4.6289 Y4.9990
G01 X4.5870 Y5.0877
G01 X4.5539 Y5.1800
G01 X4.5301 Y5.2751
G01 X4.5157 Y5.3721
G01 X4.5109 Y5.4700
G01 X4.5157 Y5.5679
G01 X4.5301 Y5.6649
G01 X4.5539 Y5.7600
G01 X4.5870 Y5.8523
G01 X4.6289 Y5.9410
G01 X4.6793 Y6.0251
G01 X4.7377 Y6.1038
G01 X4.8035 Y6.1765
G01 X4.8762 Y6.2423
G01 X4.9549 Y6.3007
G01 X5.0390 Y6.3511
G01 X5.1277 Y6.3930
G01 X5.2200 Y6.4261
G01 X5.3151 Y6.4499
G01 X5.4121 Y6.4643
G01 X5.5100 Y6.4691
G01 X5.6079 Y6.4643
G01 X5.7049 Y6.4499
G01 X5.8000 Y6.4261
G01 X5.8923 Y6.3930
G01 X5.9810 Y6.3511
G01 X6.0651 Y6.3007
G01 X6.1438 Y6.2423
G01 X6.2165 Y6.1765
G01 X6.2823 Y6.1038
G01 X6.3407 Y6.0251
G01 X6.3911 Y5.9410
G01 X6.4330 Y5.8523
G01 X6.4661 Y5.7600
G01 X6.4899 Y5.6649
G01 X6.5043 Y5.5679
G01 X6.5091 Y5.4700
G00 X6.5091 Y5.4700
G01 F20.00
G01 Z-1.5000
G01 F30.00
G01 X6.5043 Y5.3721
G01 X6.4899 Y5.2751
G01 X6.4661 Y5.1800
G01 X6.4330 Y5.0877
G01 X6.3911 Y4.9990
G01 X6.3407 Y4.9149
G01 X6.2823 Y4.8362
G01 X6.2165 Y4.7635
G01 X6.1438 Y4.6977
G01 X6.0651 Y4.6393
G01 X5.9810 Y4.5889
G01 X5.8923 Y4.5470
G01 X5.8000 Y4.5139
G01 X5.7049 Y4.4901
G01 X5.6079 Y4.4757
G01 X5.5100 Y4.4709
G01 X5.4121 Y4.4757
G01 X5.3151 Y4.4901
G01 X5.2200 Y4.5139
G01 X5.1277 Y4.5470
G01 X5.0390 Y4.5889
G01 X4.9549 Y4.6393
G01 X4.8762 Y4.6977
G01 X4.8035 Y4.7635
G01 X4.7377 Y4.8362
G01 X4.6793 Y4.9149
G01 X4.6289 Y4.9990
G01 X4.5870 Y5.0877
G01 X4.5539 Y5.1800
G01 X4.5301 Y5.2751
G01 X4.5157 Y5.3721
G01 X4.5109 Y5.4700
G01 X4.5157 Y5.5679
G01 X4.5301 Y5.6649
G01 X4.5539 Y5.7600
G01 X4.5870 Y5.8523
G01 X4.6289 Y5.9410
G01 X4.6793 Y6.0251
G01 X4.7377 Y6.1038
G01 X4.8035 Y6.1765
G01 X4.8762 Y6.2423
G01 X4.9549 Y6.3007
G01 X5.0390 Y6.3511
G01 X5.1277 Y6.3930
G01 X5.2200 Y6.4261
G01 X5.3151 Y6.4499
G01 X5.4121 Y6.4643
G01 X5.5100 Y6.4691
G01 X5.6079 Y6.4643
G01 X5.7049 Y6.4499
G01 X5.8000 Y6.4261
G01 X5.8923 Y6.3930
G01 X5.9810 Y6.3511
G01 X6.0651 Y6.3007
G01 X6.1438 Y6.2423
G01 X6.2165 Y6.1765
G01 X6.2823 Y6.1038
G01 X6.3407 Y6.0251
G01 X6.3911 Y5.9410
G01 X6.4330 Y5.8523
G01 X6.4661 Y5.7600
G01 X6.4899 Y5.6649
G01 X6.5043 Y5.5679
G01 X6.5091 Y5.4700
G00 X6.5091 Y5.4700
G01 F20.00
G01 Z-2.0000
G01 F30.00
G01 X6.5043 Y5.3721
G01 X6.4899 Y5.2751
G01 X6.4661 Y5.1800
G01 X6.4330 Y5.0877
G01 X6.3911 Y4.9990
G01 X6.3407 Y4.9149
G01 X6.2823 Y4.8362
G01 X6.2165 Y4.7635
G01 X6.1438 Y4.6977
G01 X6.0651 Y4.6393
G01 X5.9810 Y4.5889
G01 X5.8923 Y4.5470
G01 X5.8000 Y4.5139
G01 X5.7049 Y4.4901
G01 X5.6079 Y4.4757
G01 X5.5100 Y4.4709
G01 X5.4121 Y4.4757
G01 X5.3151 Y4.4901
G01 X5.2200 Y4.5139
G01 X5.1277 Y4.5470
G01 X5.0390 Y4.5889
G01 X4.9549 Y4.6393
G01 X4.8762 Y4.6977
G01 X4.8035 Y4.7635
G01 X4.7377 Y4.8362
G01 X4.6793 Y4.9149
G01 X4.6289 Y4.9990
G01 X4.5870 Y5.0877
G01 X4.5539 Y5.1800
G01 X4.5301 Y5.2751
G01 X4.5157 Y5.3721
G01 X4.5109 Y5.4700
G01 X4.5157 Y5.5679
G01 X4.5301 Y5.6649
G01 X4.5539 Y5.7600
G01 X4.5870 Y5.8523
G01 X4.6289 Y5.9410
G01 X4.6793 Y6.0251
G01 X4.7377 Y6.1038
G01 X4.8035 Y6.1765
G01 X4.8762 Y6.2423
G01 X4.9549 Y6.3007
G01 X5.0390 Y6.3511
G01 X5.1277 Y6.3930
G01 X5.2200 Y6.4261
G01 X5.3151 Y6.4499
G01 X5.4121 Y6.4643
G01 X5.5100 Y6.4691
G01 X5.6079 Y6.4643
G01 X5.7049 Y6.4499
G01 X5.8000 Y6.4261
G01 X5.8923 Y6.3930
G01 X5.9810 Y6.3511
G01 X6.0651 Y6.3007
G01 X6.1438 Y6.2423
G01 X6.2165 Y6.1765
G01 X6.2823 Y6.1038
G01 X6.3407 Y6.0251
G01 X6.3911 Y5.9410
G01 X6.4330 Y5.8523
G01 X6.4661 Y5.7600
G01 X6.4899 Y5.6649
G01 X6.5043 Y5.5679
G01 X6.5091 Y5.4700
G00 Z1.0000
G00 X13.3591 Y18.3800
G01 F20.00
G01 Z-0.5000
G01 F30.00
G01 X13.3519 Y18.2331
G01 X13.3303 Y18.0875
G01 X13.2945 Y17.9448
G01 X13.2450 Y17.8063
G01 X13.1821 Y17.6733
G01 X13.1065 Y17.5471
G01 X13.0188 Y17.4290
G01 X12.9200 Y17.3200
G01 X12.8110 Y17.2212
G01 X12.6929 Y17.1335
G01 X12.5667 Y17.0579
G01 X12.4337 Y16.9950
G01 X12.2952 Y16.9455
G01 X12.1525 Y16.9097
G01 X12.0069 Y16.8881
G01 X11.8600 Y16.8809
G01 X11.7131 Y16.8881
G01 X11.5675 Y16.9097
G01 X11.4248 Y16.9455
G01 X11.2863 Y16.9950
G01 X11.1533 Y17.0579
G01 X11.0271 Y17.1335
G01 X10.9090 Y17.2212
G01 X10.8000 Y17.3200
G01 X10.7012 Y17.4290
G01 X10.6135 Y17.5471
G01 X10.5379 Y17.6733
G01 X10.4750 Y17.8063
G01 X10.4255 Y17.9448
G01 X10.3897 Y18.0875
G01 X10.3681 Y18.2331
G01 X10.3609 Y18.3800
G01 X10.3681 Y18.5269
G01 X10.3897 Y18.6725
G01 X10.4255 Y18.8152
G01 X10.4750 Y18.9537
G01 X10.5379 Y19.0867
G01 X10.6135 Y19.2129
G01 X10.7012 Y19.3310
G01 X10.8000 Y19.4400
G01 X10.9090 Y19.5388
G01 X11.0271 Y19.6265
G01 X11.1533 Y19.7021
G01 X11.2863 Y19.7650
G01 X11.4248 Y19.8145
G01 X11.5675 Y19.8503
G01 X11.7131 Y19.8719
G01 X11.8600 Y19.8791
G01 X12.0069 Y19.8719
G01 X12.1525 Y19.8503
G01 X12.2952 Y19.8145
G01 X12.4337 Y19.7650
G01 X12.5667 Y19.7021
G01 X12.6929 Y19.6265
G01 X12.8110 Y19.5388
G01 X12.9200 Y19.4400
G01 X13.0188 Y19.3310
G01 X13.1065 Y19.2129
G01 X13.1821 Y19.0867
G01 X13.2450 Y18.9537
G01 X13.2945 Y18.8152
G01 X13.3303 Y18.6725
G01 X13.3519 Y18.5269
G01 X13.3591 Y18.3800
G00 X13.3591 Y18.3800
G01 F20.00
G01 Z-1.0000
G01 F30.00
G01 X13.3519 Y18.2331
G01 X13.3303 Y18.0875
G01 X13.2945 Y17.9448
G01 X13.2450 Y17.8063
G01 X13.1821 Y17.6733
G01 X13.1065 Y17.5471
G01 X13.0188 Y17.4290
G01 X12.9200 Y17.3200
G01 X12.8110 Y17.2212
G01 X12.6929 Y17.1335
G01 X12.5667 Y17.0579
G01 X12.4337 Y16.9950
G01 X12.2952 Y16.9455
G01 X12.1525 Y16.9097
G01 X12.0069 Y16.8881
G01 X11.8600 Y16.8809
G01 X11.7131 Y16.8881
G01 X11.5675 Y16.9097
G01 X11.4248 Y16.9455
G01 X11.2863 Y16.9950
G01 X11.1533 Y17.0579
G01 X11.0271 Y17.1335
G01 X10.9090 Y17.2212
G01 X10.8000 Y17.3200
G01 X10.7012 Y17.4290
G01 X10.6135 Y17.5471
G01 X10.5379 Y17.6733
G01 X10.4750 Y17.8063
G01 X10.4255 Y17.9448
G01 X10.3897 Y18.0875
G01 X10.3681 Y18.2331
G01 X10.3609 Y18.3800
G01 X10.3681 Y18.5269
G01 X10.3897 Y18.6725
G01 X10.4255 Y18.8152
G01 X10.4750 Y18.9537
G01 X10.5379 Y19.0867
G01 X10.6135 Y19.2129
G01 X10.7012 Y19.3310
G01 X10.8000 Y19.4400
G01 X10.9090 Y19.5388
G01 X11.0271 Y19.6265
G01 X11.1533 Y19.7021
G01 X11.2863 Y19.7650
G01 X11.4248 Y19.8145
G01 X11.5675 Y19.8503
G01 X11.7131 Y19.8719
G01 X11.8600 Y19.8791
G01 X12.0069 Y19.8719
G01 X12.1525 Y19.8503
G01 X12.2952 Y19.8145
G01 X12.4337 Y19.7650
G01 X12.5667 Y19.7021
G01 X12.6929 Y19.6265
G01 X12.8110 Y19.5388
G01 X12.9200 Y19.4400
G01 X13.0188 Y19.3310
G01 X13.1065 Y19.2129
G01 X13.1821 Y19.0867
G01 X13.2450 Y18.9537
G01 X13.2945 Y18.8152
G01 X13.3303 Y18.6725
G01 X13.3519 Y18.5269
G01 X13.3591 Y18.3800
G00 X13.3591 Y18.3800
G01 F20.00
G01 Z-1.5000
G01 F30.00
G01 X13.3519 Y18.2331
G01 X13.3303 Y18.0875
G01 X13.2945 Y17.9448
G01 X13.2450 Y17.8063
G01 X13.1821 Y17.6733
G01 X13.1065 Y17.5471
G01 X13.0188 Y17.4290
G01 X12.9200 Y17.3200
G01 X12.8110 Y17.2212
G01 X12.6929 Y17.1335
G01 X12.5667 Y17.0579
G01 X12.4337 Y16.9950
G01 X12.2952 Y16.9455
G01 X12.1525 Y16.9097
G01 X12.0069 Y16.8881
G01 X11.8600 Y16.8809
G01 X11.7131 Y16.8881
G01 X11.5675 Y16.9097
G01 X11.4248 Y16.9455
G01 X11.2863 Y16.9950
G01 X11.1533 Y17.0579
G01 X11.0271 Y17.1335
G01 X10.9090 Y17.2212
G01 X10.8000 Y17.3200
G01 X10.7012 Y17.4290
G01 X10.6135 Y17.5471
G01 X10.5379 Y17.6733
G01 X10.4750 Y17.8063
G01 X10.4255 Y17.9448
G01 X10.3897 Y18.0875
G01 X10.3681 Y18.2331
G01 X10.3609 Y18.3800
G01 X10.3681 Y18.5269
G01 X10.3897 Y18.6725
G01 X10.4255 Y18.8152
G01 X10.4750 Y18.9537
G01 X10.5379 Y19.0867
G01 X10.6135 Y19.2129
G01 X10.7012 Y19.3310
G01 X10.8000 Y19.4400
G01 X10.9090 Y19.5388
G01 X11.0271 Y19.6265
G01 X11.1533 Y19.7021
G01 X11.2863 Y19.7650
G01 X11.4248 Y19.8145
G01 X11.5675 Y19.8503
G01 X11.7131 Y19.8719
G01 X11.8600 Y19.8791
G01 X12.0069 Y19.8719
G01 X12.1525 Y19.8503
G01 X12.2952 Y19.8145
G01 X12.4337 Y19.7650
G01 X12.5667 Y19.7021
G01 X12.6929 Y19.6265
G01 X12.8110 Y19.5388
G01 X12.9200 Y19.4400
G01 X13.0188 Y19.3310
G01 X13.1065 Y19.2129
G01 X13.1821 Y19.0867
G01 X13.2450 Y18.9537
G01 X13.2945 Y18.8152
G01 X13.3303 Y18.6725
G01 X13.3519 Y18.5269
G01 X13.3591 Y18.3800
G00 X13.3591 Y18.3800
G01 F20.00
G01 Z-2.0000
G01 F30.00
G01 X13.3519 Y18.2331
G01 X13.3303 Y18.0875
G01 X13.2945 Y17.9448
G01 X13.2450 Y17.8063
G01 X13.1821 Y17.6733
G01 X13.1065 Y17.5471
G01 X13.0188 Y17.4290
G01 X12.9200 Y17.3200
G01 X12.8110 Y17.2212
G01 X12.6929 Y17.1335
G01 X12.5667 Y17.0579
G01 X12.4337 Y16.9950
G01 X12.2952 Y16.9455
G01 X12.1525 Y16.9097
G01 X12.0069 Y16.8881
G01 X11.8600 Y16.8809
G01 X11.7131 Y16.8881
G01 X11.5675 Y16.9097
G01 X11.4248 Y16.9455
G01 X11.2863 Y16.9950
G01 X11.1533 Y17.0579
G01 X11.0271 Y17.1335
G01 X10.9090 Y17.2212
G01 X10.8000 Y17.3200
G01 X10.7012 Y17.4290
G01 X10.6135 Y17.5471
G01 X10.5379 Y17.6733
G01 X10.4750 Y17.8063
G01 X10.4255 Y17.9448
G01 X10.3897 Y18.0875
G01 X10.3681 Y18.2331
G01 X10.3609 Y18.3800
G01 X10.3681 Y18.5269
G01 X10.3897 Y18.6725
G01 X10.4255 Y18.8152
G01 X10.4750 Y18.9537
G01 X10.5379 Y19.0867
G01 X10.6135 Y19.2129
G01 X10.7012 Y19.3310
G01 X10.8000 Y19.4400
G01 X10.9090 Y19.5388
G01 X11.0271 Y19.6265
G01 X11.1533 Y19.7021
G01 X11.2863 Y19.7650
G01 X11.4248 Y19.8145
G01 X11.5675 Y19.8503
G01 X11.7131 Y19.8719
G01 X11.8600 Y19.8791
G01 X12.0069 Y19.8719
G01 X12.1525 Y19.8503
G01 X12.2952 Y19.8145
G01 X12.4337 Y19.7650
G01 X12.5667 Y19.7021
G01 X12.6929 Y19.6265
G01 X12.8110 Y19.5388
G01 X12.9200 Y19.4400
G01 X13.0188 Y19.3310
G01 X13.1065 Y19.2129
G01 X13.1821 Y19.0867
G01 X13.2450 Y18.9537
G01 X13.2945 Y18.8152
G01 X13.3303 Y18.6725
G01 X13.3519 Y18.5269
G01 X13.3591 Y18.3800
G00 Z1.0000
G00 X13.3591 Y25.5800
G01 F20.00
G01 Z-0.5000
G01 F30.00
G01 X13.3519 Y25.4331
G01 X13.3303 Y25.2875
G01 X13.2945 Y25.1448
G01 X13.2450 Y25.0063
G01 X13.1821 Y24.8733
G01 X13.1065 Y24.7471
G01 X13.0188 Y24.6290
G01 X12.9200 Y24.5200
G01 X12.8110 Y24.4212
G01 X12.6929 Y24.3335
G01 X12.5667 Y24.2579
G01 X12.4337 Y24.1950
G01 X12.2952 Y24.1455
G01 X12.1525 Y24.1097
G01 X12.0069 Y24.0881
G01 X11.8600 Y24.0809
G01 X11.7131 Y24.0881
G01 X11.5675 Y24.1097
G01 X11.4248 Y24.1455
G01 X11.2863 Y24.1950
G01 X11.1533 Y24.2579
G01 X11.0271 Y24.3335
G01 X10.9090 Y24.4212
G01 X10.8000 Y24.5200
G01 X10.7012 Y24.6290
G01 X10.6135 Y24.7471
G01 X10.5379 Y24.8733
G01 X10.4750 Y25.0063
G01 X10.4255 Y25.1448
G01 X10.3897 Y25.2875
G01 X10.3681 Y25.4331
G01 X10.3609 Y25.5800
G01 X10.3681 Y25.7269
G01 X10.3897 Y25.8725
G01 X10.4255 Y26.0152
G01 X10.4750 Y26.1537
G01 X10.5379 Y26.2867
G01 X10.6135 Y26.4129
G01 X10.7012 Y26.5310
G01 X10.8000 Y26.6400
G01 X10.9090 Y26.7388
G01 X11.0271 Y26.8265
G01 X11.1533 Y26.9021
G01 X11.2863 Y26.9650
G01 X11.4248 Y27.0145
G01 X11.5675 Y27.0503
G01 X11.7131 Y27.0719
G01 X11.8600 Y27.0791
G01 X12.0069 Y27.0719
G01 X12.1525 Y27.0503
G01 X12.2952 Y27.0145
G01 X12.4337 Y26.9650
G01 X12.5667 Y26.9021
G01 X12.6929 Y26.8265
G01 X12.8110 Y26.7388
G01 X12.9200 Y26.6400
G01 X13.0188 Y26.5310
G01 X13.1065 Y26.4129
G01 X13.1821 Y26.2867
G01 X13.2450 Y26.1537
G01 X13.2945 Y26.0152
G01 X13.3303 Y25.8725
G01 X13.3519 Y25.7269
G01 X13.3591 Y25.5800
G00 X13.3591 Y25.5800
G01 F20.00
G01 Z-1.0000
G01 F30.00
G01 X13.3519 Y25.4331
G01 X13.3303 Y25.2875
G01 X13.2945 Y25.1448
G01 X13.2450 Y25.0063
G01 X13.1821 Y24.8733
G01 X13.1065 Y24.7471
G01 X13.0188 Y24.6290
G01 X12.9200 Y24.5200
G01 X12.8110 Y24.4212
G01 X12.6929 Y24.3335
G01 X12.5667 Y24.2579
G01 X12.4337 Y24.1950
G01 X12.2952 Y24.1455
G01 X12.1525 Y24.1097
G01 X12.0069 Y24.0881
G01 X11.8600 Y24.0809
G01 X11.7131 Y24.0881
G01 X11.5675 Y24.1097
G01 X11.4248 Y24.1455
G01 X11.2863 Y24.1950
G01 X11.1533 Y24.2579
G01 X11.0271 Y24.3335
G01 X10.9090 Y24.4212
G01 X10.8000 Y24.5200
G01 X10.7012 Y24.6290
G01 X10.6135 Y24.7471
G01 X10.5379 Y24.8733
G01 X10.4750 Y25.0063
G01 X10.4255 Y25.1448
G01 X10.3897 Y25.2875
G01 X10.3681 Y25.4331
G01 X10.3609 Y25.5800
G01 X10.3681 Y25.7269
G01 X10.3897 Y25.8725
G01 X10.4255 Y26.0152
G01 X10.4750 Y26.1537
G01 X10.5379 Y26.2867
G01 X10.6135 Y26.4129
G01 X10.7012 Y26.5310
G01 X10.8000 Y26.6400
G01 X10.9090 Y26.7388
G01 X11.0271 Y26.8265
G01 X11.1533 Y26.9021
G01 X11.2863 Y26.9650
G01 X11.4248 Y27.0145
G01 X11.5675 Y27.0503
G01 X11.7131 Y27.0719
G01 X11.8600 Y27.0791
G01 X12.0069 Y27.0719
G01 X12.1525 Y27.0503
G01 X12.2952 Y27.0145
G01 X12.4337 Y26.9650
G01 X12.5667 Y26.9021
G01 X12.6929 Y26.8265
G01 X12.8110 Y26.7388
G01 X12.9200 Y26.6400
G01 X13.0188 Y26.5310
G01 X13.1065 Y26.4129
G01 X13.1821 Y26.2867
G01 X13.2450 Y26.1537
G01 X13.2945 Y26.0152
G01 X13.3303 Y25.8725
G01 X13.3519 Y25.7269
G01 X13.3591 Y25.5800
G00 X13.3591 Y25.5800
G01 F20.00
G01 Z-1.5000
G01 F30.00
G01 X13.3519 Y25.4331
G01 X13.3303 Y25.2875
G01 X13.2945 Y25.1448
G01 X13.2450 Y25.0063
G01 X13.1821 Y24.8733
G01 X13.1065 Y24.7471
G01 X13.0188 Y24.6290
G01 X12.9200 Y24.5200
G01 X12.8110 Y24.4212
G01 X12.6929 Y24.3335
G01 X12.5667 Y24.2579
G01 X12.4337 Y24.1950
G01 X12.2952 Y24.1455
G01 X12.1525 Y24.1097
G01 X12.0069 Y24.0881
G01 X11.8600 Y24.0809
G01 X11.7131 Y24.0881
G01 X11.5675 Y24.1097
G01 X11.4248 Y24.1455
G01 X11.2863 Y24.1950
G01 X11.1533 Y24.2579
G01 X11.0271 Y24.3335
G01 X10.9090 Y24.4212
G01 X10.8000 Y24.5200
G01 X10.7012 Y24.6290
G01 X10.6135 Y24.7471
G01 X10.5379 Y24.8733
G01 X10.4750 Y25.0063
G01 X10.4255 Y25.1448
G01 X10.3897 Y25.2875
G01 X10.3681 Y25.4331
G01 X10.3609 Y25.5800
G01 X10.3681 Y25.7269
G01 X10.3897 Y25.8725
G01 X10.4255 Y26.0152
G01 X10.4750 Y26.1537
G01 X10.5379 Y26.2867
G01 X10.6135 Y26.4129
G01 X10.7012 Y26.5310
G01 X10.8000 Y26.6400
G01 X10.9090 Y26.7388
G01 X11.0271 Y26.8265
G01 X11.1533 Y26.9021
G01 X11.2863 Y26.9650
G01 X11.4248 Y27.0145
G01 X11.5675 Y27.0503
G01 X11.7131 Y27.0719
G01 X11.8600 Y27.0791
G01 X12.0069 Y27.0719
G01 X12.1525 Y27.0503
G01 X12.2952 Y27.0145
G01 X12.4337 Y26.9650
G01 X12.5667 Y26.9021
G01 X12.6929 Y26.8265
G01 X12.8110 Y26.7388
G01 X12.9200 Y26.6400
G01 X13.0188 Y26.5310
G01 X13.1065 Y26.4129
G01 X13.1821 Y26.2867
G01 X13.2450 Y26.1537
G01 X13.2945 Y26.0152
G01 X13.3303 Y25.8725
G01 X13.3519 Y25.7269
G01 X13.3591 Y25.5800
G00 X13.3591 Y25.5800
G01 F20.00
G01 Z-2.0000
G01 F30.00
G01 X13.3519 Y25.4331
G01 X13.3303 Y25.2875
G01 X13.2945 Y25.1448
G01 X13.2450 Y25.0063
G01 X13.1821 Y24.8733
G01 X13.1065 Y24.7471
G01 X13.0188 Y24.6290
G01 X12.9200 Y24.5200
G01 X12.8110 Y24.4212
G01 X12.6929 Y24.3335
G01 X12.5667 Y24.2579
G01 X12.4337 Y24.1950
G01 X12.2952 Y24.1455
G01 X12.1525 Y24.1097
G01 X12.0069 Y24.0881
G01 X11.8600 Y24.0809
G01 X11.7131 Y24.0881
G01 X11.5675 Y24.1097
G01 X11.4248 Y24.1455
G01 X11.2863 Y24.1950
G01 X11.1533 Y24.2579
G01 X11.0271 Y24.3335
G01 X10.9090 Y24.4212
G01 X10.8000 Y24.5200
G01 X10.7012 Y24.6290
G01 X10.6135 Y24.7471
G01 X10.5379 Y24.8733
G01 X10.4750 Y25.0063
G01 X10.4255 Y25.1448
G01 X10.3897 Y25.2875
G01 X10.3681 Y25.4331
G01 X10.3609 Y25.5800
G01 X10.3681 Y25.7269
G01 X10.3897 Y25.8725
G01 X10.4255 Y26.0152
G01 X10.4750 Y26.1537
G01 X10.5379 Y26.2867
G01 X10.6135 Y26.4129
G01 X10.7012 Y26.5310
G01 X10.8000 Y26.6400
G01 X10.9090 Y26.7388
G01 X11.0271 Y26.8265
G01 X11.1533 Y26.9021
G01 X11.2863 Y26.9650
G01 X11.4248 Y27.0145
G01 X11.5675 Y27.0503
G01 X11.7131 Y27.0719
G01 X11.8600 Y27.0791
G01 X12.0069 Y27.0719
G01 X12.1525 Y27.0503
G01 X12.2952 Y27.0145
G01 X12.4337 Y26.9650
G01 X12.5667 Y26.9021
G01 X12.6929 Y26.8265
G01 X12.8110 Y26.7388
G01 X12.9200 Y26.6400
G01 X13.0188 Y26.5310
G01 X13.1065 Y26.4129
G01 X13.1821 Y26.2867
G01 X13.2450 Y26.1537
G01 X13.2945 Y26.0152
G01 X13.3303 Y25.8725
G01 X13.3519 Y25.7269
G01 X13.3591 Y25.5800
G00 Z1.0000
G00 X6.5091 Y38.4900
G01 F20.00
G01 Z-0.5000
G01 F30.00
G01 X6.5043 Y38.3921
G01 X6.4899 Y38.2951
G01 X6.4661 Y38.2000
G01 X6.4330 Y38.1077
G01 X6.3911 Y38.0190
G01 X6.3407 Y37.9349
G01 X6.2823 Y37.8562
G01 X6.2165 Y37.7835
G01 X6.1438 Y37.7177
G01 X6.0651 Y37.6593
G01 X5.9810 Y37.6089
G01 X5.8923 Y37.5670
G01 X5.8000 Y37.5339
G01 X5.7049 Y37.5101
G01 X5.6079 Y37.4957
G01 X5.5100 Y37.4909
G01 X5.4121 Y37.4957
G01 X5.3151 Y37.5101
G01 X5.2200 Y37.5339
G01 X5.1277 Y37.5670
G01 X5.0390 Y37.6089
G01 X4.9549 Y37.6593
G01 X4.8762 Y37.7177
G01 X4.8035 Y37.7835
G01 X4.7377 Y37.8562
G01 X4.6793 Y37.9349
G01 X4.6289 Y38.0190
G01 X4.5870 Y38.1077
G01 X4.5539 Y38.2000
G01 X4.5301 Y38.2951
G01 X4.5157 Y38.3921
G01 X4.5109 Y38.4900
G01 X4.5157 Y38.5879
G01 X4.5301 Y38.6849
G01 X4.5539 Y38.7800
G01 X4.5870 Y38.8723
G01 X4.6289 Y38.9610
G01 X4.6793 Y39.0451
G01 X4.7377 Y39.1238
G01 X4.8035 Y39.1965
G01 X4.8762 Y39.2623
G01 X4.9549 Y39.3207
G01 X5.0390 Y39.3711
G01 X5.1277 Y39.4130
G01 X5.2200 Y39.4461
G01 X5.3151 Y39.4699
G01 X5.4121 Y39.4843
G01 X5.5100 Y39.4891
G01 X5.6079 Y39.4843
G01 X5.7049 Y39.4699
G01 X5.8000 Y39.4461
G01 X5.8923 Y39.4130
G01 X5.9810 Y39.3711
G01 X6.0651 Y39.3207
G01 X6.1438 Y39.2623
G01 X6.2165 Y39.1965
G01 X6.2823 Y39.1238
G01 X6.3407 Y39.0451
G01 X6.3911 Y38.9610
G01 X6.4330 Y38.8723
G01 X6.4661 Y38.7800
G01 X6.4899 Y38.6849
G01 X6.5043 Y38.5879
G01 X6.5091 Y38.4900
G00 X6.5091 Y38.4900
G01 F20.00
G01 Z-1.0000
G01 F30.00
G01 X6.5043 Y38.3921
G01 X6.4899 Y38.2951
G01 X6.4661 Y38.2000
G01 X6.4330 Y38.1077
G01 X6.3911 Y38.0190
G01 X6.3407 Y37.9349
G01 X6.2823 Y37.8562
G01 X6.2165 Y37.7835
G01 X6.1438 Y37.7177
G01 X6.0651 Y37.6593
G01 X5.9810 Y37.6089
G01 X5.8923 Y37.5670
G01 X5.8000 Y37.5339
G01 X5.7049 Y37.5101
G01 X5.6079 Y37.4957
G01 X5.5100 Y37.4909
G01 X5.4121 Y37.4957
G01 X5.3151 Y37.5101
G01 X5.2200 Y37.5339
G01 X5.1277 Y37.5670
G01 X5.0390 Y37.6089
G01 X4.9549 Y37.6593
G01 X4.8762 Y37.7177
G01 X4.8035 Y37.7835
G01 X4.7377 Y37.8562
G01 X4.6793 Y37.9349
G01 X4.6289 Y38.0190
G01 X4.5870 Y38.1077
G01 X4.5539 Y38.2000
G01 X4.5301 Y38.2951
G01 X4.5157 Y38.3921
G01 X4.5109 Y38.4900
G01 X4.5157 Y38.5879
G01 X4.5301 Y38.6849
G01 X4.5539 Y38.7800
G01 X4.5870 Y38.8723
G01 X4.6289 Y38.9610
G01 X4.6793 Y39.0451
G01 X4.7377 Y39.1238
G01 X4.8035 Y39.1965
G01 X4.8762 Y39.2623
G01 X4.9549 Y39.3207
G01 X5.0390 Y39.3711
G01 X5.1277 Y39.4130
G01 X5.2200 Y39.4461
G01 X5.3151 Y39.4699
G01 X5.4121 Y39.4843
G01 X5.5100 Y39.4891
G01 X5.6079 Y39.4843
G01 X5.7049 Y39.4699
G01 X5.8000 Y39.4461
G01 X5.8923 Y39.4130
G01 X5.9810 Y39.3711
G01 X6.0651 Y39.3207
G01 X6.1438 Y39.2623
G01 X6.2165 Y39.1965
G01 X6.2823 Y39.1238
G01 X6.3407 Y39.0451
G01 X6.3911 Y38.9610
G01 X6.4330 Y38.8723
G01 X6.4661 Y38.7800
G01 X6.4899 Y38.6849
G01 X6.5043 Y38.5879
G01 X6.5091 Y38.4900
G00 X6.5091 Y38.4900
G01 F20.00
G01 Z-1.5000
G01 F30.00
G01 X6.5043 Y38.3921
G01 X6.4899 Y38.2951
G01 X6.4661 Y38.2000
G01 X6.4330 Y38.1077
G01 X6.3911 Y38.0190
G01 X6.3407 Y37.9349
G01 X6.2823 Y37.8562
G01 X6.2165 Y37.7835
G01 X6.1438 Y37.7177
G01 X6.0651 Y37.6593
G01 X5.9810 Y37.6089
G01 X5.8923 Y37.5670
G01 X5.8000 Y37.5339
G01 X5.7049 Y37.5101
G01 X5.6079 Y37.4957
G01 X5.5100 Y37.4909
G01 X5.4121 Y37.4957
G01 X5.3151 Y37.5101
G01 X5.2200 Y37.5339
G01 X5.1277 Y37.5670
G01 X5.0390 Y37.6089
G01 X4.9549 Y37.6593
G01 X4.8762 Y37.7177
G01 X4.8035 Y37.7835
G01 X4.7377 Y37.8562
G01 X4.6793 Y37.9349
G01 X4.6289 Y38.0190
G01 X4.5870 Y38.1077
G01 X4.5539 Y38.2000
G01 X4.5301 Y38.2951
G01 X4.5157 Y38.3921
G01 X4.5109 Y38.4900
G01 X4.5157 Y38.5879
G01 X4.5301 Y38.6849
G01 X4.5539 Y38.7800
G01 X4.5870 Y38.8723
G01 X4.6289 Y38.9610
G01 X4.6793 Y39.0451
G01 X4.7377 Y39.1238
G01 X4.8035 Y39.1965
G01 X4.8762 Y39.2623
G01 X4.9549 Y39.3207
G01 X5.0390 Y39.3711
G01 X5.1277 Y39.4130
G01 X5.2200 Y39.4461
G01 X5.3151 Y39.4699
G01 X5.4121 Y39.4843
G01 X5.5100 Y39.4891
G01 X5.6079 Y39.4843
G01 X5.7049 Y39.4699
G01 X5.8000 Y39.4461
G01 X5.8923 Y39.4130
G01 X5.9810 Y39.3711
G01 X6.0651 Y39.3207
G01 X6.1438 Y39.2623
G01 X6.2165 Y39.1965
G01 X6.2823 Y39.1238
G01 X6.3407 Y39.0451
G01 X6.3911 Y38.9610
G01 X6.4330 Y38.8723
G01 X6.4661 Y38.7800
G01 X6.4899 Y38.6849
G01 X6.5043 Y38.5879
G01 X6.5091 Y38.4900
G00 X6.5091 Y38.4900
G01 F20.00
G01 Z-2.0000
G01 F30.00
G01 X6.5043 Y38.3921
G01 X6.4899 Y38.2951
G01 X6.4661 Y38.2000
G01 X6.4330 Y38.1077
G01 X6.3911 Y38.0190
G01 X6.3407 Y37.9349
G01 X6.2823 Y37.8562
G01 X6.2165 Y37.7835
G01 X6.1438 Y37.7177
G01 X6.0651 Y37.6593
G01 X5.9810 Y37.6089
G01 X5.8923 Y37.5670
G01 X5.8000 Y37.5339
G01 X5.7049 Y37.5101
G01 X5.6079 Y37.4957
G01 X5.5100 Y37.4909
G01 X5.4121 Y37.4957
G01 X5.3151 Y37.5101
G01 X5.2200 Y37.5339
G01 X5.1277 Y37.5670
G01 X5.0390 Y37.6089
G01 X4.9549 Y37.6593
G01 X4.8762 Y37.7177
G01 X4.8035 Y37.7835
G01 X4.7377 Y37.8562
G01 X4.6793 Y37.9349
G01 X4.6289 Y38.0190
G01 X4.5870 Y38.1077
G01 X4.5539 Y38.2000
G01 X4.5301 Y38.2951
G01 X4.5157 Y38.3921
G01 X4.5109 Y38.4900
G01 X4.5157 Y38.5879
G01 X4.5301 Y38.6849
G01 X4.5539 Y38.7800
G01 X4.5870 Y38.8723
G01 X4.6289 Y38.9610
G01 X4.6793 Y39.0451
G01 X4.7377 Y39.1238
G01 X4.8035 Y39.1965
G01 X4.8762 Y39.2623
G01 X4.9549 Y39.3207
G01 X5.0390 Y39.3711
G01 X5.1277 Y39.4130
G01 X5.2200 Y39.4461
G01 X5.3151 Y39.4699
G01 X5.4121 Y39.4843
G01 X5.5100 Y39.4891
G01 X5.6079 Y39.4843
G01 X5.7049 Y39.4699
G01 X5.8000 Y39.4461
G01 X5.8923 Y39.4130
G01 X5.9810 Y39.3711
G01 X6.0651 Y39.3207
G01 X6.1438 Y39.2623
G01 X6.2165 Y39.1965
G01 X6.2823 Y39.1238
G01 X6.3407 Y39.0451
G01 X6.3911 Y38.9610
G01 X6.4330 Y38.8723
G01 X6.4661 Y38.7800
G01 X6.4899 Y38.6849
G01 X6.5043 Y38.5879
G01 X6.5091 Y38.4900
G00 Z1.0000
G00 X70.0091 Y38.4900
G01 F20.00
G01 Z-0.5000
G01 F30.00
G01 X70.0043 Y38.3921
G01 X69.9899 Y38.2951
G01 X69.9661 Y38.2000
G01 X69.9330 Y38.1077
G01 X69.8911 Y38.0190
G01 X69.8407 Y37.9349
G01 X69.7823 Y37.8562
G01 X69.7165 Y37.7835
G01 X69.6438 Y37.7177
G01 X69.5651 Y37.6593
G01 X69.4810 Y37.6089
G01 X69.3923 Y37.5670
G01 X69.3000 Y37.5339
G01 X69.2049 Y37.5101
G01 X69.1079 Y37.4957
G01 X69.0100 Y37.4909
G01 X68.9121 Y37.4957
G01 X68.8151 Y37.5101
G01 X68.7200 Y37.5339
G01 X68.6277 Y37.5670
G01 X68.5390 Y37.6089
G01 X68.4549 Y37.6593
G01 X68.3762 Y37.7177
G01 X68.3035 Y37.7835
G01 X68.2377 Y37.8562
G01 X68.1793 Y37.9349
G01 X68.1289 Y38.0190
G01 X68.0870 Y38.1077
G01 X68.0539 Y38.2000
G01 X68.0301 Y38.2951
G01 X68.0157 Y38.3921
G01 X68.0109 Y38.4900
G01 X68.0157 Y38.5879
G01 X68.0301 Y38.6849
G01 X68.0539 Y38.7800
G01 X68.0870 Y38.8723
G01 X68.1289 Y38.9610
G01 X68.1793 Y39.0451
G01 X68.2377 Y39.1238
G01 X68.3035 Y39.1965
G01 X68.3762 Y39.2623
G01 X68.4549 Y39.3207
G01 X68.5390 Y39.3711
G01 X68.6277 Y39.4130
G01 X68.7200 Y39.4461
G01 X68.8151 Y39.4699
G01 X68.9121 Y39.4843
G01 X69.0100 Y39.4891
G01 X69.1079 Y39.4843
G01 X69.2049 Y39.4699
G01 X69.3000 Y39.4461
G01 X69.3923 Y39.4130
G01 X69.4810 Y39.3711
G01 X69.5651 Y39.3207
G01 X69.6438 Y39.2623
G01 X69.7165 Y39.1965
G01 X69.7823 Y39.1238
G01 X69.8407 Y39.0451
G01 X69.8911 Y38.9610
G01 X69.9330 Y38.8723
G01 X69.9661 Y38.7800
G01 X69.9899 Y38.6849
G01 X70.0043 Y38.5879
G01 X70.0091 Y38.4900
G00 X70.0091 Y38.4900
G01 F20.00
G01 Z-1.0000
G01 F30.00
G01 X70.0043 Y38.3921
G01 X69.9899 Y38.2951
G01 X69.9661 Y38.2000
G01 X69.9330 Y38.1077
G01 X69.8911 Y38.0190
G01 X69.8407 Y37.9349
G01 X69.7823 Y37.8562
G01 X69.7165 Y37.7835
G01 X69.6438 Y37.7177
G01 X69.5651 Y37.6593
G01 X69.4810 Y37.6089
G01 X69.3923 Y37.5670
G01 X69.3000 Y37.5339
G01 X69.2049 Y37.5101
G01 X69.1079 Y37.4957
G01 X69.0100 Y37.4909
G01 X68.9121 Y37.4957
G01 X68.8151 Y37.5101
G01 X68.7200 Y37.5339
G01 X68.6277 Y37.5670
G01 X68.5390 Y37.6089
G01 X68.4549 Y37.6593
G01 X68.3762 Y37.7177
G01 X68.3035 Y37.7835
G01 X68.2377 Y37.8562
G01 X68.1793 Y37.9349
G01 X68.1289 Y38.0190
G01 X68.0870 Y38.1077
G01 X68.0539 Y38.2000
G01 X68.0301 Y38.2951
G01 X68.0157 Y38.3921
G01 X68.0109 Y38.4900
G01 X68.0157 Y38.5879
G01 X68.0301 Y38.6849
G01 X68.0539 Y38.7800
G01 X68.0870 Y38.8723
G01 X68.1289 Y38.9610
G01 X68.1793 Y39.0451
G01 X68.2377 Y39.1238
G01 X68.3035 Y39.1965
G01 X68.3762 Y39.2623
G01 X68.4549 Y39.3207
G01 X68.5390 Y39.3711
G01 X68.6277 Y39.4130
G01 X68.7200 Y39.4461
G01 X68.8151 Y39.4699
G01 X68.9121 Y39.4843
G01 X69.0100 Y39.4891
G01 X69.1079 Y39.4843
G01 X69.2049 Y39.4699
G01 X69.3000 Y39.4461
G01 X69.3923 Y39.4130
G01 X69.4810 Y39.3711
G01 X69.5651 Y39.3207
G01 X69.6438 Y39.2623
G01 X69.7165 Y39.1965
G01 X69.7823 Y39.1238
G01 X69.8407 Y39.0451
G01 X69.8911 Y38.9610
G01 X69.9330 Y38.8723
G01 X69.9661 Y38.7800
G01 X69.9899 Y38.6849
G01 X70.0043 Y38.5879
G01 X70.0091 Y38.4900
G00 X70.0091 Y38.4900
G01 F20.00
G01 Z-1.5000
G01 F30.00
G01 X70.0043 Y38.3921
G01 X69.9899 Y38.2951
G01 X69.9661 Y38.2000
G01 X69.9330 Y38.1077
G01 X69.8911 Y38.0190
G01 X69.8407 Y37.9349
G01 X69.7823 Y37.8562
G01 X69.7165 Y37.7835
G01 X69.6438 Y37.7177
G01 X69.5651 Y37.6593
G01 X69.4810 Y37.6089
G01 X69.3923 Y37.5670
G01 X69.3000 Y37.5339
G01 X69.2049 Y37.5101
G01 X69.1079 Y37.4957
G01 X69.0100 Y37.4909
G01 X68.9121 Y37.4957
G01 X68.8151 Y37.5101
G01 X68.7200 Y37.5339
G01 X68.6277 Y37.5670
G01 X68.5390 Y37.6089
G01 X68.4549 Y37.6593
G01 X68.3762 Y37.7177
G01 X68.3035 Y37.7835
G01 X68.2377 Y37.8562
G01 X68.1793 Y37.9349
G01 X68.1289 Y38.0190
G01 X68.0870 Y38.1077
G01 X68.0539 Y38.2000
G01 X68.0301 Y38.2951
G01 X68.0157 Y38.3921
G01 X68.0109 Y38.4900
G01 X68.0157 Y38.5879
G01 X68.0301 Y38.6849
G01 X68.0539 Y38.7800
G01 X68.0870 Y38.8723
G01 X68.1289 Y38.9610
G01 X68.1793 Y39.0451
G01 X68.2377 Y39.1238
G01 X68.3035 Y39.1965
G01 X68.3762 Y39.2623
G01 X68.4549 Y39.3207
G01 X68.5390 Y39.3711
G01 X68.6277 Y39.4130
G01 X68.7200 Y39.4461
G01 X68.8151 Y39.4699
G01 X68.9121 Y39.4843
G01 X69.0100 Y39.4891
G01 X69.1079 Y39.4843
G01 X69.2049 Y39.4699
G01 X69.3000 Y39.4461
G01 X69.3923 Y39.4130
G01 X69.4810 Y39.3711
G01 X69.5651 Y39.3207
G01 X69.6438 Y39.2623
G01 X69.7165 Y39.1965
G01 X69.7823 Y39.1238
G01 X69.8407 Y39.0451
G01 X69.8911 Y38.9610
G01 X69.9330 Y38.8723
G01 X69.9661 Y38.7800
G01 X69.9899 Y38.6849
G01 X70.0043 Y38.5879
G01 X70.0091 Y38.4900
G00 X70.0091 Y38.4900
G01 F20.00
G01 Z-2.0000
G01 F30.00
G01 X70.0043 Y38.3921
G01 X69.9899 Y38.2951
G01 X69.9661 Y38.2000
G01 X69.9330 Y38.1077
G01 X69.8911 Y38.0190
G01 X69.8407 Y37.9349
G01 X69.7823 Y37.8562
G01 X69.7165 Y37.7835
G01 X69.6438 Y37.7177
G01 X69.5651 Y37.6593
G01 X69.4810 Y37.6089
G01 X69.3923 Y37.5670
G01 X69.3000 Y37.5339
G01 X69.2049 Y37.5101
G01 X69.1079 Y37.4957
G01 X69.0100 Y37.4909
G01 X68.9121 Y37.4957
G01 X68.8151 Y37.5101
G01 X68.7200 Y37.5339
G01 X68.6277 Y37.5670
G01 X68.5390 Y37.6089
G01 X68.4549 Y37.6593
G01 X68.3762 Y37.7177
G01 X68.3035 Y37.7835
G01 X68.2377 Y37.8562
G01 X68.1793 Y37.9349
G01 X68.1289 Y38.0190
G01 X68.0870 Y38.1077
G01 X68.0539 Y38.2000
G01 X68.0301 Y38.2951
G01 X68.0157 Y38.3921
G01 X68.0109 Y38.4900
G01 X68.0157 Y38.5879
G01 X68.0301 Y38.6849
G01 X68.0539 Y38.7800
G01 X68.0870 Y38.8723
G01 X68.1289 Y38.9610
G01 X68.1793 Y39.0451
G01 X68.2377 Y39.1238
G01 X68.3035 Y39.1965
G01 X68.3762 Y39.2623
G01 X68.4549 Y39.3207
G01 X68.5390 Y39.3711
G01 X68.6277 Y39.4130
G01 X68.7200 Y39.4461
G01 X68.8151 Y39.4699
G01 X68.9121 Y39.4843
G01 X69.0100 Y39.4891
G01 X69.1079 Y39.4843
G01 X69.2049 Y39.4699
G01 X69.3000 Y39.4461
G01 X69.3923 Y39.4130
G01 X69.4810 Y39.3711
G01 X69.5651 Y39.3207
G01 X69.6438 Y39.2623
G01 X69.7165 Y39.1965
G01 X69.7823 Y39.1238
G01 X69.8407 Y39.0451
G01 X69.8911 Y38.9610
G01 X69.9330 Y38.8723
G01 X69.9661 Y38.7800
G01 X69.9899 Y38.6849
G01 X70.0043 Y38.5879
G01 X70.0091 Y38.4900
G00 Z1.0000
G00 X70.0091 Y5.4700
G01 F20.00
G01 Z-0.5000
G01 F30.00
G01 X70.0043 Y5.3721
G01 X69.9899 Y5.2751
G01 X69.9661 Y5.1800
G01 X69.9330 Y5.0877
G01 X69.8911 Y4.9990
G01 X69.8407 Y4.9149
G01 X69.7823 Y4.8362
G01 X69.7165 Y4.7635
G01 X69.6438 Y4.6977
G01 X69.5651 Y4.6393
G01 X69.4810 Y4.5889
G01 X69.3923 Y4.5470
G01 X69.3000 Y4.5139
G01 X69.2049 Y4.4901
G01 X69.1079 Y4.4757
G01 X69.0100 Y4.4709
G01 X68.9121 Y4.4757
G01 X68.8151 Y4.4901
G01 X68.7200 Y4.5139
G01 X68.6277 Y4.5470
G01 X68.5390 Y4.5889
G01 X68.4549 Y4.6393
G01 X68.3762 Y4.6977
G01 X68.3035 Y4.7635
G01 X68.2377 Y4.8362
G01 X68.1793 Y4.9149
G01 X68.1289 Y4.9990
G01 X68.0870 Y5.0877
G01 X68.0539 Y5.1800
G01 X68.0301 Y5.2751
G01 X68.0157 Y5.3721
G01 X68.0109 Y5.4700
G01 X68.0157 Y5.5679
G01 X68.0301 Y5.6649
G01 X68.0539 Y5.7600
G01 X68.0870 Y5.8523
G01 X68.1289 Y5.9410
G01 X68.1793 Y6.0251
G01 X68.2377 Y6.1038
G01 X68.3035 Y6.1765
G01 X68.3762 Y6.2423
G01 X68.4549 Y6.3007
G01 X68.5390 Y6.3511
G01 X68.6277 Y6.3930
G01 X68.7200 Y6.4261
G01 X68.8151 Y6.4499
G01 X68.9121 Y6.4643
G01 X69.0100 Y6.4691
G01 X69.1079 Y6.4643
G01 X69.2049 Y6.4499
G01 X69.3000 Y6.4261
G01 X69.3923 Y6.3930
G01 X69.4810 Y6.3511
G01 X69.5651 Y6.3007
G01 X69.6438 Y6.2423
G01 X69.7165 Y6.1765
G01 X69.7823 Y6.1038
G01 X69.8407 Y6.0251
G01 X69.8911 Y5.9410
G01 X69.9330 Y5.8523
G01 X69.9661 Y5.7600
G01 X69.9899 Y5.6649
G01 X70.0043 Y5.5679
G01 X70.0091 Y5.4700
G00 X70.0091 Y5.4700
G01 F20.00
G01 Z-1.0000
G01 F30.00
G01 X70.0043 Y5.3721
G01 X69.9899 Y5.2751
G01 X69.9661 Y5.1800
G01 X69.9330 Y5.0877
G01 X69.8911 Y4.9990
G01 X69.8407 Y4.9149
G01 X69.7823 Y4.8362
G01 X69.7165 Y4.7635
G01 X69.6438 Y4.6977
G01 X69.5651 Y4.6393
G01 X69.4810 Y4.5889
G01 X69.3923 Y4.5470
G01 X69.3000 Y4.5139
G01 X69.2049 Y4.4901
G01 X69.1079 Y4.4757
G01 X69.0100 Y4.4709
G01 X68.9121 Y4.4757
G01 X68.8151 Y4.4901
G01 X68.7200 Y4.5139
G01 X68.6277 Y4.5470
G01 X68.5390 Y4.5889
G01 X68.4549 Y4.6393
G01 X68.3762 Y4.6977
G01 X68.3035 Y4.7635
G01 X68.2377 Y4.8362
G01 X68.1793 Y4.9149
G01 X68.1289 Y4.9990
G01 X68.0870 Y5.0877
G01 X68.0539 Y5.1800
G01 X68.0301 Y5.2751
G01 X68.0157 Y5.3721
G01 X68.0109 Y5.4700
G01 X68.0157 Y5.5679
G01 X68.0301 Y5.6649
G01 X68.0539 Y5.7600
G01 X68.0870 Y5.8523
G01 X68.1289 Y5.9410
G01 X68.1793 Y6.0251
G01 X68.2377 Y6.1038
G01 X68.3035 Y6.1765
G01 X68.3762 Y6.2423
G01 X68.4549 Y6.3007
G01 X68.5390 Y6.3511
G01 X68.6277 Y6.3930
G01 X68.7200 Y6.4261
G01 X68.8151 Y6.4499
G01 X68.9121 Y6.4643
G01 X69.0100 Y6.4691
G01 X69.1079 Y6.4643
G01 X69.2049 Y6.4499
G01 X69.3000 Y6.4261
G01 X69.3923 Y6.3930
G01 X69.4810 Y6.3511
G01 X69.5651 Y6.3007
G01 X69.6438 Y6.2423
G01 X69.7165 Y6.1765
G01 X69.7823 Y6.1038
G01 X69.8407 Y6.0251
G01 X69.8911 Y5.9410
G01 X69.9330 Y5.8523
G01 X69.9661 Y5.7600
G01 X69.9899 Y5.6649
G01 X70.0043 Y5.5679
G01 X70.0091 Y5.4700
G00 X70.0091 Y5.4700
G01 F20.00
G01 Z-1.5000
G01 F30.00
G01 X70.0043 Y5.3721
G01 X69.9899 Y5.2751
G01 X69.9661 Y5.1800
G01 X69.9330 Y5.0877
G01 X69.8911 Y4.9990
G01 X69.8407 Y4.9149
G01 X69.7823 Y4.8362
G01 X69.7165 Y4.7635
G01 X69.6438 Y4.6977
G01 X69.5651 Y4.6393
G01 X69.4810 Y4.5889
G01 X69.3923 Y4.5470
G01 X69.3000 Y4.5139
G01 X69.2049 Y4.4901
G01 X69.1079 Y4.4757
G01 X69.0100 Y4.4709
G01 X68.9121 Y4.4757
G01 X68.8151 Y4.4901
G01 X68.7200 Y4.5139
G01 X68.6277 Y4.5470
G01 X68.5390 Y4.5889
G01 X68.4549 Y4.6393
G01 X68.3762 Y4.6977
G01 X68.3035 Y4.7635
G01 X68.2377 Y4.8362
G01 X68.1793 Y4.9149
G01 X68.1289 Y4.9990
G01 X68.0870 Y5.0877
G01 X68.0539 Y5.1800
G01 X68.0301 Y5.2751
G01 X68.0157 Y5.3721
G01 X68.0109 Y5.4700
G01 X68.0157 Y5.5679
G01 X68.0301 Y5.6649
G01 X68.0539 Y5.7600
G01 X68.0870 Y5.8523
G01 X68.1289 Y5.9410
G01 X68.1793 Y6.0251
G01 X68.2377 Y6.1038
G01 X68.3035 Y6.1765
G01 X68.3762 Y6.2423
G01 X68.4549 Y6.3007
G01 X68.5390 Y6.3511
G01 X68.6277 Y6.3930
G01 X68.7200 Y6.4261
G01 X68.8151 Y6.4499
G01 X68.9121 Y6.4643
G01 X69.0100 Y6.4691
G01 X69.1079 Y6.4643
G01 X69.2049 Y6.4499
G01 X69.3000 Y6.4261
G01 X69.3923 Y6.3930
G01 X69.4810 Y6.3511
G01 X69.5651 Y6.3007
G01 X69.6438 Y6.2423
G01 X69.7165 Y6.1765
G01 X69.7823 Y6.1038
G01 X69.8407 Y6.0251
G01 X69.8911 Y5.9410
G01 X69.9330 Y5.8523
G01 X69.9661 Y5.7600
G01 X69.9899 Y5.6649
G01 X70.0043 Y5.5679
G01 X70.0091 Y5.4700
G00 X70.0091 Y5.4700
G01 F20.00
G01 Z-2.0000
G01 F30.00
G01 X70.0043 Y5.3721
G01 X69.9899 Y5.2751
G01 X69.9661 Y5.1800
G01 X69.9330 Y5.0877
G01 X69.8911 Y4.9990
G01 X69.8407 Y4.9149
G01 X69.7823 Y4.8362
G01 X69.7165 Y4.7635
G01 X69.6438 Y4.6977
G01 X69.5651 Y4.6393
G01 X69.4810 Y4.5889
G01 X69.3923 Y4.5470
G01 X69.3000 Y4.5139
G01 X69.2049 Y4.4901
G01 X69.1079 Y4.4757
G01 X69.0100 Y4.4709
G01 X68.9121 Y4.4757
G01 X68.8151 Y4.4901
G01 X68.7200 Y4.5139
G01 X68.6277 Y4.5470
G01 X68.5390 Y4.5889
G01 X68.4549 Y4.6393
G01 X68.3762 Y4.6977
G01 X68.3035 Y4.7635
G01 X68.2377 Y4.8362
G01 X68.1793 Y4.9149
G01 X68.1289 Y4.9990
G01 X68.0870 Y5.0877
G01 X68.0539 Y5.1800
G01 X68.0301 Y5.2751
G01 X68.0157 Y5.3721
G01 X68.0109 Y5.4700
G01 X68.0157 Y5.5679
G01 X68.0301 Y5.6649
G01 X68.0539 Y5.7600
G01 X68.0870 Y5.8523
G01 X68.1289 Y5.9410
G01 X68.1793 Y6.0251
G01 X68.2377 Y6.1038
G01 X68.3035 Y6.1765
G01 X68.3762 Y6.2423
G01 X68.4549 Y6.3007
G01 X68.5390 Y6.3511
G01 X68.6277 Y6.3930
G01 X68.7200 Y6.4261
G01 X68.8151 Y6.4499
G01 X68.9121 Y6.4643
G01 X69.0100 Y6.4691
G01 X69.1079 Y6.4643
G01 X69.2049 Y6.4499
G01 X69.3000 Y6.4261
G01 X69.3923 Y6.3930
G01 X69.4810 Y6.3511
G01 X69.5651 Y6.3007
G01 X69.6438 Y6.2423
G01 X69.7165 Y6.1765
G01 X69.7823 Y6.1038
G01 X69.8407 Y6.0251
G01 X69.8911 Y5.9410
G01 X69.9330 Y5.8523
G01 X69.9661 Y5.7600
G01 X69.9899 Y5.6649
G01 X70.0043 Y5.5679
G01 X70.0091 Y5.4700
G00 Z1.0000
M05
G00 Z1.0000
G00 Z15.00
G00 X0.0 Y0.0


