(G-CODE GENERATED BY FLATCAM v8.994 - www.flatcam.org - Version Date: 2020/11/7)

(Name: doom_day_lamp-Edge_Cuts.gbr_cutout_cnc)
(Type: G-code from Geometry)
(Units: MM)

(Created on Tuesday, 17 January 2023 at 22:27)

(This preprocessor is the default preprocessor used by FlatCAM.)
(It is made to work with MACH3 compatible motion controllers.)

(TOOL DIAMETER: 0.6 mm)
(Feedrate_XY: 30.0 mm/min)
(Feedrate_Z: 10.0 mm/min)
(Feedrate rapids 1500.0 mm/min)

(Z_Cut: -1.455 mm)
(Z_Move: 1.0 mm)
(Z Start: None mm)
(Z End: 15.0 mm)
(X,Y End: 0.0000, 0.0000 mm)
(Steps per circle: 64)
(Preprocessor Geometry: default)

(X range:   -0.2800 ...  124.8800  mm)
(Y range:   -0.2150 ...   19.5350  mm)

(Spindle Speed: 1200.0 RPM)
G21
G90
G94

G01 F30.00

M5
G00 Z15.0000
G00 X0.0000 Y0.0000
T1
M6    
(MSG, Change to Tool Dia = 0.6000)
M0
G00 Z15.0000

M03 S1200.0
G01 F30.00
G00 X-0.2800 Y3.3100
G01 F10.00
G01 Z-1.4550
G01 F30.00
G01 X-0.2800 Y16.0100
G01 X-0.2796 Y16.0272
G01 X-0.2643 Y16.3384
G01 X-0.2632 Y16.3531
G01 X-0.2609 Y16.3726
G01 X-0.2152 Y16.6808
G01 X-0.2127 Y16.6953
G01 X-0.2085 Y16.7145
G01 X-0.1328 Y17.0167
G01 X-0.1289 Y17.0309
G01 X-0.1228 Y17.0496
G01 X-0.0179 Y17.3429
G01 X-0.0126 Y17.3567
G01 X-0.0047 Y17.3747
G01 X0.1285 Y17.6563
G01 X0.1374 Y17.6738
G01 X0.1447 Y17.6866
G01 X0.3049 Y17.9539
G01 X0.3127 Y17.9663
G01 X0.3239 Y17.9824
G01 X0.5095 Y18.2327
G01 X0.5186 Y18.2443
G01 X0.5313 Y18.2593
G01 X0.7406 Y18.4901
G01 X0.7507 Y18.5008
G01 X0.7649 Y18.5144
G01 X0.9957 Y18.7237
G01 X1.0107 Y18.7364
G01 X1.0223 Y18.7455
G01 X1.2726 Y18.9311
G01 X1.2846 Y18.9395
G01 X1.3011 Y18.9501
G01 X1.5684 Y19.1103
G01 X1.5812 Y19.1176
G01 X1.5987 Y19.1265
G01 X1.8803 Y19.2597
G01 X1.8938 Y19.2657
G01 X1.9121 Y19.2729
G01 X2.2054 Y19.3778
G01 X2.2194 Y19.3825
G01 X2.2383 Y19.3878
G01 X2.5405 Y19.4635
G01 X2.5597 Y19.4677
G01 X2.5742 Y19.4702
G01 X2.8824 Y19.5159
G01 X2.8971 Y19.5178
G01 X2.9166 Y19.5193
G01 X3.2278 Y19.5346
G01 X3.2450 Y19.5350
G01 X121.3648 Y19.5349
G01 X121.6834 Y19.5193
G01 X121.7029 Y19.5178
G01 X121.7176 Y19.5159
G01 X122.0258 Y19.4702
G01 X122.0451 Y19.4668
G01 X122.0595 Y19.4635
G01 X122.3617 Y19.3878
G01 X122.3759 Y19.3839
G01 X122.3946 Y19.3778
G01 X122.6879 Y19.2729
G01 X122.7017 Y19.2676
G01 X122.7197 Y19.2597
G01 X123.0013 Y19.1265
G01 X123.0145 Y19.1199
G01 X123.0316 Y19.1103
G01 X123.2989 Y18.9501
G01 X123.3113 Y18.9423
G01 X123.3274 Y18.9311
G01 X123.5777 Y18.7455
G01 X123.5893 Y18.7364
G01 X123.6043 Y18.7237
G01 X123.8351 Y18.5144
G01 X123.8458 Y18.5043
G01 X123.8594 Y18.4901
G01 X124.0687 Y18.2593
G01 X124.0783 Y18.2481
G01 X124.0905 Y18.2327
G01 X124.2761 Y17.9824
G01 X124.2845 Y17.9704
G01 X124.2951 Y17.9539
G01 X124.4553 Y17.6866
G01 X124.4626 Y17.6738
G01 X124.4715 Y17.6563
G01 X124.6047 Y17.3747
G01 X124.6126 Y17.3567
G01 X124.6179 Y17.3429
G01 X124.7228 Y17.0496
G01 X124.7289 Y17.0309
G01 X124.7328 Y17.0167
G01 X124.8085 Y16.7145
G01 X124.8118 Y16.7001
G01 X124.8152 Y16.6808
G01 X124.8609 Y16.3726
G01 X124.8628 Y16.3579
G01 X124.8643 Y16.3384
G01 X124.8796 Y16.0272
G01 X124.8800 Y16.0100
G01 X124.8800 Y3.3100
G01 X124.8796 Y3.2928
G01 X124.8643 Y2.9816
G01 X124.8632 Y2.9669
G01 X124.8609 Y2.9474
G01 X124.8152 Y2.6392
G01 X124.8127 Y2.6247
G01 X124.8085 Y2.6055
G01 X124.7328 Y2.3033
G01 X124.7289 Y2.2891
G01 X124.7228 Y2.2704
G01 X124.6179 Y1.9771
G01 X124.6126 Y1.9633
G01 X124.6047 Y1.9453
G01 X124.4715 Y1.6637
G01 X124.4626 Y1.6462
G01 X124.4553 Y1.6334
G01 X124.2951 Y1.3661
G01 X124.2873 Y1.3537
G01 X124.2761 Y1.3376
G01 X124.0905 Y1.0873
G01 X124.0814 Y1.0757
G01 X124.0687 Y1.0607
G01 X123.8594 Y0.8299
G01 X123.8493 Y0.8192
G01 X123.8351 Y0.8056
G01 X123.6043 Y0.5963
G01 X123.5893 Y0.5836
G01 X123.5777 Y0.5745
G01 X123.3274 Y0.3889
G01 X123.3154 Y0.3805
G01 X123.2989 Y0.3699
G01 X123.0316 Y0.2097
G01 X123.0188 Y0.2024
G01 X123.0013 Y0.1935
G01 X122.7197 Y0.0603
G01 X122.7062 Y0.0543
G01 X122.6879 Y0.0471
G01 X122.3946 Y-0.0578
G01 X122.3806 Y-0.0625
G01 X122.3617 Y-0.0678
G01 X122.0595 Y-0.1435
G01 X122.0403 Y-0.1477
G01 X122.0258 Y-0.1502
G01 X121.7176 Y-0.1959
G01 X121.7029 Y-0.1978
G01 X121.6834 Y-0.1993
G01 X121.3722 Y-0.2146
G01 X121.3550 Y-0.2150
G01 X3.2352 Y-0.2149
G01 X2.9166 Y-0.1993
G01 X2.8971 Y-0.1978
G01 X2.8824 Y-0.1959
G01 X2.5742 Y-0.1502
G01 X2.5549 Y-0.1468
G01 X2.5405 Y-0.1435
G01 X2.2383 Y-0.0678
G01 X2.2194 Y-0.0625
G01 X2.2054 Y-0.0578
G01 X1.9121 Y0.0471
G01 X1.8938 Y0.0543
G01 X1.8803 Y0.0603
G01 X1.5987 Y0.1935
G01 X1.5812 Y0.2024
G01 X1.5684 Y0.2097
G01 X1.3011 Y0.3699
G01 X1.2846 Y0.3805
G01 X1.2726 Y0.3889
G01 X1.0223 Y0.5745
G01 X1.0069 Y0.5867
G01 X0.9957 Y0.5963
G01 X0.7649 Y0.8056
G01 X0.7507 Y0.8192
G01 X0.7406 Y0.8299
G01 X0.5313 Y1.0607
G01 X0.5186 Y1.0757
G01 X0.5095 Y1.0873
G01 X0.3239 Y1.3376
G01 X0.3127 Y1.3537
G01 X0.3049 Y1.3661
G01 X0.1447 Y1.6334
G01 X0.1351 Y1.6505
G01 X0.1285 Y1.6637
G01 X-0.0047 Y1.9453
G01 X-0.0126 Y1.9633
G01 X-0.0179 Y1.9771
G01 X-0.1228 Y2.2704
G01 X-0.1289 Y2.2891
G01 X-0.1328 Y2.3033
G01 X-0.2085 Y2.6055
G01 X-0.2127 Y2.6247
G01 X-0.2152 Y2.6392
G01 X-0.2609 Y2.9474
G01 X-0.2632 Y2.9669
G01 X-0.2643 Y2.9816
G01 X-0.2796 Y3.2928
G01 X-0.2800 Y3.3100
G00 Z1.0000
G00 X5.0950 Y3.3125
G01 F10.00
G01 Z-1.4550
G01 F30.00
G01 X5.0946 Y3.2928
G01 X5.0874 Y3.1458
G01 X5.0863 Y3.1311
G01 X5.0840 Y3.1116
G01 X5.0624 Y2.9660
G01 X5.0599 Y2.9515
G01 X5.0557 Y2.9323
G01 X5.0199 Y2.7895
G01 X5.0160 Y2.7753
G01 X5.0100 Y2.7567
G01 X4.9604 Y2.6181
G01 X4.9551 Y2.6043
G01 X4.9472 Y2.5863
G01 X4.8843 Y2.4532
G01 X4.8777 Y2.4401
G01 X4.8681 Y2.4230
G01 X4.7924 Y2.2967
G01 X4.7846 Y2.2843
G01 X4.7733 Y2.2681
G01 X4.6857 Y2.1499
G01 X4.6766 Y2.1383
G01 X4.6639 Y2.1233
G01 X4.5650 Y2.0143
G01 X4.5549 Y2.0036
G01 X4.5407 Y1.9900
G01 X4.4317 Y1.8911
G01 X4.4205 Y1.8815
G01 X4.4051 Y1.8693
G01 X4.2869 Y1.7817
G01 X4.2748 Y1.7732
G01 X4.2583 Y1.7626
G01 X4.1320 Y1.6869
G01 X4.1192 Y1.6796
G01 X4.1018 Y1.6707
G01 X3.9687 Y1.6078
G01 X3.9552 Y1.6018
G01 X3.9369 Y1.5946
G01 X3.7983 Y1.5450
G01 X3.7844 Y1.5404
G01 X3.7655 Y1.5351
G01 X3.6227 Y1.4993
G01 X3.6083 Y1.4961
G01 X3.5890 Y1.4926
G01 X3.4434 Y1.4710
G01 X3.4288 Y1.4692
G01 X3.4092 Y1.4676
G01 X3.2622 Y1.4604
G01 X3.2475 Y1.4600
G01 X3.2278 Y1.4604
G01 X3.0808 Y1.4676
G01 X3.0661 Y1.4687
G01 X3.0466 Y1.4710
G01 X2.9010 Y1.4926
G01 X2.8865 Y1.4951
G01 X2.8673 Y1.4993
G01 X2.7245 Y1.5351
G01 X2.7103 Y1.5390
G01 X2.6917 Y1.5450
G01 X2.5531 Y1.5946
G01 X2.5393 Y1.5999
G01 X2.5213 Y1.6078
G01 X2.3882 Y1.6707
G01 X2.3751 Y1.6773
G01 X2.3580 Y1.6869
G01 X2.2317 Y1.7626
G01 X2.2193 Y1.7704
G01 X2.2031 Y1.7817
G01 X2.0849 Y1.8693
G01 X2.0733 Y1.8784
G01 X2.0583 Y1.8911
G01 X1.9493 Y1.9900
G01 X1.9386 Y2.0001
G01 X1.9250 Y2.0143
G01 X1.8261 Y2.1233
G01 X1.8165 Y2.1345
G01 X1.8043 Y2.1499
G01 X1.7167 Y2.2681
G01 X1.7082 Y2.2802
G01 X1.6976 Y2.2967
G01 X1.6219 Y2.4230
G01 X1.6146 Y2.4358
G01 X1.6057 Y2.4532
G01 X1.5428 Y2.5863
G01 X1.5368 Y2.5998
G01 X1.5296 Y2.6181
G01 X1.4800 Y2.7567
G01 X1.4754 Y2.7706
G01 X1.4701 Y2.7895
G01 X1.4343 Y2.9323
G01 X1.4311 Y2.9467
G01 X1.4276 Y2.9660
G01 X1.4060 Y3.1116
G01 X1.4042 Y3.1262
G01 X1.4026 Y3.1458
G01 X1.3954 Y3.2928
G01 X1.3950 Y3.3075
G01 X1.3954 Y3.3272
G01 X1.4026 Y3.4742
G01 X1.4037 Y3.4889
G01 X1.4060 Y3.5084
G01 X1.4276 Y3.6540
G01 X1.4301 Y3.6685
G01 X1.4343 Y3.6877
G01 X1.4701 Y3.8305
G01 X1.4740 Y3.8447
G01 X1.4800 Y3.8633
G01 X1.5296 Y4.0019
G01 X1.5349 Y4.0157
G01 X1.5428 Y4.0337
G01 X1.6057 Y4.1668
G01 X1.6123 Y4.1799
G01 X1.6219 Y4.1970
G01 X1.6976 Y4.3233
G01 X1.7054 Y4.3357
G01 X1.7167 Y4.3519
G01 X1.8043 Y4.4701
G01 X1.8134 Y4.4817
G01 X1.8261 Y4.4967
G01 X1.9250 Y4.6057
G01 X1.9351 Y4.6164
G01 X1.9493 Y4.6300
G01 X2.0583 Y4.7289
G01 X2.0695 Y4.7385
G01 X2.0849 Y4.7507
G01 X2.2031 Y4.8383
G01 X2.2152 Y4.8468
G01 X2.2317 Y4.8574
G01 X2.3580 Y4.9331
G01 X2.3708 Y4.9404
G01 X2.3882 Y4.9493
G01 X2.5213 Y5.0122
G01 X2.5348 Y5.0182
G01 X2.5531 Y5.0254
G01 X2.6917 Y5.0750
G01 X2.7056 Y5.0796
G01 X2.7245 Y5.0849
G01 X2.8673 Y5.1207
G01 X2.8817 Y5.1239
G01 X2.9010 Y5.1274
G01 X3.0466 Y5.1490
G01 X3.0612 Y5.1508
G01 X3.0808 Y5.1524
G01 X3.2278 Y5.1596
G01 X3.2425 Y5.1600
G01 X3.2622 Y5.1596
G01 X3.4092 Y5.1524
G01 X3.4239 Y5.1513
G01 X3.4434 Y5.1490
G01 X3.5890 Y5.1274
G01 X3.6035 Y5.1249
G01 X3.6227 Y5.1207
G01 X3.7655 Y5.0849
G01 X3.7797 Y5.0810
G01 X3.7983 Y5.0750
G01 X3.9369 Y5.0254
G01 X3.9507 Y5.0201
G01 X3.9687 Y5.0122
G01 X4.1018 Y4.9493
G01 X4.1149 Y4.9427
G01 X4.1320 Y4.9331
G01 X4.2583 Y4.8574
G01 X4.2707 Y4.8496
G01 X4.2869 Y4.8383
G01 X4.4051 Y4.7507
G01 X4.4167 Y4.7416
G01 X4.4317 Y4.7289
G01 X4.5407 Y4.6300
G01 X4.5514 Y4.6199
G01 X4.5650 Y4.6057
G01 X4.6639 Y4.4967
G01 X4.6735 Y4.4855
G01 X4.6857 Y4.4701
G01 X4.7733 Y4.3519
G01 X4.7818 Y4.3398
G01 X4.7924 Y4.3233
G01 X4.8681 Y4.1970
G01 X4.8754 Y4.1842
G01 X4.8843 Y4.1668
G01 X4.9472 Y4.0337
G01 X4.9532 Y4.0202
G01 X4.9604 Y4.0019
G01 X5.0100 Y3.8633
G01 X5.0146 Y3.8494
G01 X5.0199 Y3.8305
G01 X5.0557 Y3.6877
G01 X5.0589 Y3.6733
G01 X5.0624 Y3.6540
G01 X5.0840 Y3.5084
G01 X5.0858 Y3.4938
G01 X5.0874 Y3.4742
G01 X5.0946 Y3.3272
G01 X5.0950 Y3.3125
G00 Z1.0000
G00 X5.0950 Y16.0125
G01 F10.00
G01 Z-1.4550
G01 F30.00
G01 X5.0946 Y15.9928
G01 X5.0874 Y15.8458
G01 X5.0863 Y15.8311
G01 X5.0840 Y15.8116
G01 X5.0624 Y15.6660
G01 X5.0599 Y15.6515
G01 X5.0557 Y15.6323
G01 X5.0199 Y15.4895
G01 X5.0160 Y15.4753
G01 X5.0100 Y15.4567
G01 X4.9604 Y15.3181
G01 X4.9551 Y15.3043
G01 X4.9472 Y15.2863
G01 X4.8843 Y15.1532
G01 X4.8777 Y15.1401
G01 X4.8681 Y15.1230
G01 X4.7924 Y14.9967
G01 X4.7846 Y14.9843
G01 X4.7733 Y14.9681
G01 X4.6857 Y14.8499
G01 X4.6766 Y14.8383
G01 X4.6639 Y14.8233
G01 X4.5650 Y14.7143
G01 X4.5549 Y14.7036
G01 X4.5407 Y14.6900
G01 X4.4317 Y14.5911
G01 X4.4205 Y14.5815
G01 X4.4051 Y14.5693
G01 X4.2869 Y14.4817
G01 X4.2748 Y14.4732
G01 X4.2583 Y14.4626
G01 X4.1320 Y14.3869
G01 X4.1192 Y14.3796
G01 X4.1018 Y14.3707
G01 X3.9687 Y14.3078
G01 X3.9552 Y14.3018
G01 X3.9369 Y14.2946
G01 X3.7983 Y14.2450
G01 X3.7844 Y14.2404
G01 X3.7655 Y14.2351
G01 X3.6227 Y14.1993
G01 X3.6083 Y14.1961
G01 X3.5890 Y14.1926
G01 X3.4434 Y14.1710
G01 X3.4288 Y14.1692
G01 X3.4092 Y14.1676
G01 X3.2622 Y14.1604
G01 X3.2475 Y14.1600
G01 X3.2278 Y14.1604
G01 X3.0808 Y14.1676
G01 X3.0661 Y14.1687
G01 X3.0466 Y14.1710
G01 X2.9010 Y14.1926
G01 X2.8865 Y14.1951
G01 X2.8673 Y14.1993
G01 X2.7245 Y14.2351
G01 X2.7103 Y14.2390
G01 X2.6917 Y14.2450
G01 X2.5531 Y14.2946
G01 X2.5393 Y14.2999
G01 X2.5213 Y14.3078
G01 X2.3882 Y14.3707
G01 X2.3751 Y14.3773
G01 X2.3580 Y14.3869
G01 X2.2317 Y14.4626
G01 X2.2193 Y14.4704
G01 X2.2031 Y14.4817
G01 X2.0849 Y14.5693
G01 X2.0733 Y14.5784
G01 X2.0583 Y14.5911
G01 X1.9493 Y14.6900
G01 X1.9386 Y14.7001
G01 X1.9250 Y14.7143
G01 X1.8261 Y14.8233
G01 X1.8165 Y14.8345
G01 X1.8043 Y14.8499
G01 X1.7167 Y14.9681
G01 X1.7082 Y14.9802
G01 X1.6976 Y14.9967
G01 X1.6219 Y15.1230
G01 X1.6146 Y15.1358
G01 X1.6057 Y15.1532
G01 X1.5428 Y15.2863
G01 X1.5368 Y15.2998
G01 X1.5296 Y15.3181
G01 X1.4800 Y15.4567
G01 X1.4754 Y15.4706
G01 X1.4701 Y15.4895
G01 X1.4343 Y15.6323
G01 X1.4311 Y15.6467
G01 X1.4276 Y15.6660
G01 X1.4060 Y15.8116
G01 X1.4042 Y15.8262
G01 X1.4026 Y15.8458
G01 X1.3954 Y15.9928
G01 X1.3950 Y16.0075
G01 X1.3954 Y16.0272
G01 X1.4026 Y16.1742
G01 X1.4037 Y16.1889
G01 X1.4060 Y16.2084
G01 X1.4276 Y16.3540
G01 X1.4301 Y16.3685
G01 X1.4343 Y16.3877
G01 X1.4701 Y16.5305
G01 X1.4740 Y16.5447
G01 X1.4800 Y16.5633
G01 X1.5296 Y16.7019
G01 X1.5349 Y16.7157
G01 X1.5428 Y16.7337
G01 X1.6057 Y16.8668
G01 X1.6123 Y16.8799
G01 X1.6219 Y16.8970
G01 X1.6976 Y17.0233
G01 X1.7054 Y17.0357
G01 X1.7167 Y17.0519
G01 X1.8043 Y17.1701
G01 X1.8134 Y17.1817
G01 X1.8261 Y17.1967
G01 X1.9250 Y17.3057
G01 X1.9351 Y17.3164
G01 X1.9493 Y17.3300
G01 X2.0583 Y17.4289
G01 X2.0695 Y17.4385
G01 X2.0849 Y17.4507
G01 X2.2031 Y17.5383
G01 X2.2152 Y17.5468
G01 X2.2317 Y17.5574
G01 X2.3580 Y17.6331
G01 X2.3708 Y17.6404
G01 X2.3882 Y17.6493
G01 X2.5213 Y17.7122
G01 X2.5348 Y17.7182
G01 X2.5531 Y17.7254
G01 X2.6917 Y17.7750
G01 X2.7056 Y17.7796
G01 X2.7245 Y17.7849
G01 X2.8673 Y17.8207
G01 X2.8817 Y17.8239
G01 X2.9010 Y17.8274
G01 X3.0466 Y17.8490
G01 X3.0612 Y17.8508
G01 X3.0808 Y17.8524
G01 X3.2278 Y17.8596
G01 X3.2425 Y17.8600
G01 X3.2622 Y17.8596
G01 X3.4092 Y17.8524
G01 X3.4239 Y17.8513
G01 X3.4434 Y17.8490
G01 X3.5890 Y17.8274
G01 X3.6035 Y17.8249
G01 X3.6227 Y17.8207
G01 X3.7655 Y17.7849
G01 X3.7797 Y17.7810
G01 X3.7983 Y17.7750
G01 X3.9369 Y17.7254
G01 X3.9507 Y17.7201
G01 X3.9687 Y17.7122
G01 X4.1018 Y17.6493
G01 X4.1149 Y17.6427
G01 X4.1320 Y17.6331
G01 X4.2583 Y17.5574
G01 X4.2707 Y17.5496
G01 X4.2869 Y17.5383
G01 X4.4051 Y17.4507
G01 X4.4167 Y17.4416
G01 X4.4317 Y17.4289
G01 X4.5407 Y17.3300
G01 X4.5514 Y17.3199
G01 X4.5650 Y17.3057
G01 X4.6639 Y17.1967
G01 X4.6735 Y17.1855
G01 X4.6857 Y17.1701
G01 X4.7733 Y17.0519
G01 X4.7818 Y17.0398
G01 X4.7924 Y17.0233
G01 X4.8681 Y16.8970
G01 X4.8754 Y16.8842
G01 X4.8843 Y16.8668
G01 X4.9472 Y16.7337
G01 X4.9532 Y16.7202
G01 X4.9604 Y16.7019
G01 X5.0100 Y16.5633
G01 X5.0146 Y16.5494
G01 X5.0199 Y16.5305
G01 X5.0557 Y16.3877
G01 X5.0589 Y16.3733
G01 X5.0624 Y16.3540
G01 X5.0840 Y16.2084
G01 X5.0858 Y16.1938
G01 X5.0874 Y16.1742
G01 X5.0946 Y16.0272
G01 X5.0950 Y16.0125
G00 Z1.0000
G00 X123.2050 Y16.0125
G01 F10.00
G01 Z-1.4550
G01 F30.00
G01 X123.2046 Y15.9928
G01 X123.1974 Y15.8458
G01 X123.1963 Y15.8311
G01 X123.1940 Y15.8116
G01 X123.1724 Y15.6660
G01 X123.1699 Y15.6515
G01 X123.1657 Y15.6323
G01 X123.1299 Y15.4895
G01 X123.1260 Y15.4753
G01 X123.1200 Y15.4567
G01 X123.0704 Y15.3181
G01 X123.0651 Y15.3043
G01 X123.0572 Y15.2863
G01 X122.9943 Y15.1532
G01 X122.9877 Y15.1401
G01 X122.9781 Y15.1230
G01 X122.9024 Y14.9967
G01 X122.8946 Y14.9843
G01 X122.8833 Y14.9681
G01 X122.7957 Y14.8499
G01 X122.7866 Y14.8383
G01 X122.7739 Y14.8233
G01 X122.6750 Y14.7143
G01 X122.6649 Y14.7036
G01 X122.6507 Y14.6900
G01 X122.5417 Y14.5911
G01 X122.5305 Y14.5815
G01 X122.5151 Y14.5693
G01 X122.3969 Y14.4817
G01 X122.3848 Y14.4732
G01 X122.3683 Y14.4626
G01 X122.2420 Y14.3869
G01 X122.2292 Y14.3796
G01 X122.2118 Y14.3707
G01 X122.0787 Y14.3078
G01 X122.0652 Y14.3018
G01 X122.0469 Y14.2946
G01 X121.9083 Y14.2450
G01 X121.8944 Y14.2404
G01 X121.8755 Y14.2351
G01 X121.7327 Y14.1993
G01 X121.7183 Y14.1961
G01 X121.6990 Y14.1926
G01 X121.5534 Y14.1710
G01 X121.5388 Y14.1692
G01 X121.5192 Y14.1676
G01 X121.3722 Y14.1604
G01 X121.3575 Y14.1600
G01 X121.3378 Y14.1604
G01 X121.1908 Y14.1676
G01 X121.1761 Y14.1687
G01 X121.1566 Y14.1710
G01 X121.0110 Y14.1926
G01 X120.9965 Y14.1951
G01 X120.9773 Y14.1993
G01 X120.8345 Y14.2351
G01 X120.8203 Y14.2390
G01 X120.8017 Y14.2450
G01 X120.6631 Y14.2946
G01 X120.6493 Y14.2999
G01 X120.6313 Y14.3078
G01 X120.4982 Y14.3707
G01 X120.4851 Y14.3773
G01 X120.4680 Y14.3869
G01 X120.3417 Y14.4626
G01 X120.3293 Y14.4704
G01 X120.3131 Y14.4817
G01 X120.1949 Y14.5693
G01 X120.1833 Y14.5784
G01 X120.1683 Y14.5911
G01 X120.0593 Y14.6900
G01 X120.0486 Y14.7001
G01 X120.0350 Y14.7143
G01 X119.9361 Y14.8233
G01 X119.9265 Y14.8345
G01 X119.9143 Y14.8499
G01 X119.8267 Y14.9681
G01 X119.8182 Y14.9802
G01 X119.8076 Y14.9967
G01 X119.7319 Y15.1230
G01 X119.7246 Y15.1358
G01 X119.7157 Y15.1532
G01 X119.6528 Y15.2863
G01 X119.6468 Y15.2998
G01 X119.6396 Y15.3181
G01 X119.5900 Y15.4567
G01 X119.5854 Y15.4706
G01 X119.5801 Y15.4895
G01 X119.5443 Y15.6323
G01 X119.5411 Y15.6467
G01 X119.5376 Y15.6660
G01 X119.5160 Y15.8116
G01 X119.5142 Y15.8262
G01 X119.5126 Y15.8458
G01 X119.5054 Y15.9928
G01 X119.5050 Y16.0075
G01 X119.5054 Y16.0272
G01 X119.5126 Y16.1742
G01 X119.5137 Y16.1889
G01 X119.5160 Y16.2084
G01 X119.5376 Y16.3540
G01 X119.5401 Y16.3685
G01 X119.5443 Y16.3877
G01 X119.5801 Y16.5305
G01 X119.5840 Y16.5447
G01 X119.5900 Y16.5633
G01 X119.6396 Y16.7019
G01 X119.6449 Y16.7157
G01 X119.6528 Y16.7337
G01 X119.7157 Y16.8668
G01 X119.7223 Y16.8799
G01 X119.7319 Y16.8970
G01 X119.8076 Y17.0233
G01 X119.8154 Y17.0357
G01 X119.8267 Y17.0519
G01 X119.9143 Y17.1701
G01 X119.9234 Y17.1817
G01 X119.9361 Y17.1967
G01 X120.0350 Y17.3057
G01 X120.0451 Y17.3164
G01 X120.0593 Y17.3300
G01 X120.1683 Y17.4289
G01 X120.1795 Y17.4385
G01 X120.1949 Y17.4507
G01 X120.3131 Y17.5383
G01 X120.3252 Y17.5468
G01 X120.3417 Y17.5574
G01 X120.4680 Y17.6331
G01 X120.4808 Y17.6404
G01 X120.4982 Y17.6493
G01 X120.6313 Y17.7122
G01 X120.6448 Y17.7182
G01 X120.6631 Y17.7254
G01 X120.8017 Y17.7750
G01 X120.8156 Y17.7796
G01 X120.8345 Y17.7849
G01 X120.9773 Y17.8207
G01 X120.9917 Y17.8239
G01 X121.0110 Y17.8274
G01 X121.1566 Y17.8490
G01 X121.1712 Y17.8508
G01 X121.1908 Y17.8524
G01 X121.3378 Y17.8596
G01 X121.3525 Y17.8600
G01 X121.3722 Y17.8596
G01 X121.5192 Y17.8524
G01 X121.5339 Y17.8513
G01 X121.5534 Y17.8490
G01 X121.6990 Y17.8274
G01 X121.7135 Y17.8249
G01 X121.7327 Y17.8207
G01 X121.8755 Y17.7849
G01 X121.8897 Y17.7810
G01 X121.9083 Y17.7750
G01 X122.0469 Y17.7254
G01 X122.0607 Y17.7201
G01 X122.0787 Y17.7122
G01 X122.2118 Y17.6493
G01 X122.2249 Y17.6427
G01 X122.2420 Y17.6331
G01 X122.3683 Y17.5574
G01 X122.3807 Y17.5496
G01 X122.3969 Y17.5383
G01 X122.5151 Y17.4507
G01 X122.5267 Y17.4416
G01 X122.5417 Y17.4289
G01 X122.6507 Y17.3300
G01 X122.6614 Y17.3199
G01 X122.6750 Y17.3057
G01 X122.7739 Y17.1967
G01 X122.7835 Y17.1855
G01 X122.7957 Y17.1701
G01 X122.8833 Y17.0519
G01 X122.8918 Y17.0398
G01 X122.9024 Y17.0233
G01 X122.9781 Y16.8970
G01 X122.9854 Y16.8842
G01 X122.9943 Y16.8668
G01 X123.0572 Y16.7337
G01 X123.0632 Y16.7202
G01 X123.0704 Y16.7019
G01 X123.1200 Y16.5633
G01 X123.1246 Y16.5494
G01 X123.1299 Y16.5305
G01 X123.1657 Y16.3877
G01 X123.1689 Y16.3733
G01 X123.1724 Y16.3540
G01 X123.1940 Y16.2084
G01 X123.1958 Y16.1938
G01 X123.1974 Y16.1742
G01 X123.2046 Y16.0272
G01 X123.2050 Y16.0125
G00 Z1.0000
G00 X123.2050 Y3.3125
G01 F10.00
G01 Z-1.4550
G01 F30.00
G01 X123.2046 Y3.2928
G01 X123.1974 Y3.1458
G01 X123.1963 Y3.1311
G01 X123.1940 Y3.1116
G01 X123.1724 Y2.9660
G01 X123.1699 Y2.9515
G01 X123.1657 Y2.9323
G01 X123.1299 Y2.7895
G01 X123.1260 Y2.7753
G01 X123.1200 Y2.7567
G01 X123.0704 Y2.6181
G01 X123.0651 Y2.6043
G01 X123.0572 Y2.5863
G01 X122.9943 Y2.4532
G01 X122.9877 Y2.4401
G01 X122.9781 Y2.4230
G01 X122.9024 Y2.2967
G01 X122.8946 Y2.2843
G01 X122.8833 Y2.2681
G01 X122.7957 Y2.1499
G01 X122.7866 Y2.1383
G01 X122.7739 Y2.1233
G01 X122.6750 Y2.0143
G01 X122.6649 Y2.0036
G01 X122.6507 Y1.9900
G01 X122.5417 Y1.8911
G01 X122.5305 Y1.8815
G01 X122.5151 Y1.8693
G01 X122.3969 Y1.7817
G01 X122.3848 Y1.7732
G01 X122.3683 Y1.7626
G01 X122.2420 Y1.6869
G01 X122.2292 Y1.6796
G01 X122.2118 Y1.6707
G01 X122.0787 Y1.6078
G01 X122.0652 Y1.6018
G01 X122.0469 Y1.5946
G01 X121.9083 Y1.5450
G01 X121.8944 Y1.5404
G01 X121.8755 Y1.5351
G01 X121.7327 Y1.4993
G01 X121.7183 Y1.4961
G01 X121.6990 Y1.4926
G01 X121.5534 Y1.4710
G01 X121.5388 Y1.4692
G01 X121.5192 Y1.4676
G01 X121.3722 Y1.4604
G01 X121.3575 Y1.4600
G01 X121.3378 Y1.4604
G01 X121.1908 Y1.4676
G01 X121.1761 Y1.4687
G01 X121.1566 Y1.4710
G01 X121.0110 Y1.4926
G01 X120.9965 Y1.4951
G01 X120.9773 Y1.4993
G01 X120.8345 Y1.5351
G01 X120.8203 Y1.5390
G01 X120.8017 Y1.5450
G01 X120.6631 Y1.5946
G01 X120.6493 Y1.5999
G01 X120.6313 Y1.6078
G01 X120.4982 Y1.6707
G01 X120.4851 Y1.6773
G01 X120.4680 Y1.6869
G01 X120.3417 Y1.7626
G01 X120.3293 Y1.7704
G01 X120.3131 Y1.7817
G01 X120.1949 Y1.8693
G01 X120.1833 Y1.8784
G01 X120.1683 Y1.8911
G01 X120.0593 Y1.9900
G01 X120.0486 Y2.0001
G01 X120.0350 Y2.0143
G01 X119.9361 Y2.1233
G01 X119.9265 Y2.1345
G01 X119.9143 Y2.1499
G01 X119.8267 Y2.2681
G01 X119.8182 Y2.2802
G01 X119.8076 Y2.2967
G01 X119.7319 Y2.4230
G01 X119.7246 Y2.4358
G01 X119.7157 Y2.4532
G01 X119.6528 Y2.5863
G01 X119.6468 Y2.5998
G01 X119.6396 Y2.6181
G01 X119.5900 Y2.7567
G01 X119.5854 Y2.7706
G01 X119.5801 Y2.7895
G01 X119.5443 Y2.9323
G01 X119.5411 Y2.9467
G01 X119.5376 Y2.9660
G01 X119.5160 Y3.1116
G01 X119.5142 Y3.1262
G01 X119.5126 Y3.1458
G01 X119.5054 Y3.2928
G01 X119.5050 Y3.3075
G01 X119.5054 Y3.3272
G01 X119.5126 Y3.4742
G01 X119.5137 Y3.4889
G01 X119.5160 Y3.5084
G01 X119.5376 Y3.6540
G01 X119.5401 Y3.6685
G01 X119.5443 Y3.6877
G01 X119.5801 Y3.8305
G01 X119.5840 Y3.8447
G01 X119.5900 Y3.8633
G01 X119.6396 Y4.0019
G01 X119.6449 Y4.0157
G01 X119.6528 Y4.0337
G01 X119.7157 Y4.1668
G01 X119.7223 Y4.1799
G01 X119.7319 Y4.1970
G01 X119.8076 Y4.3233
G01 X119.8154 Y4.3357
G01 X119.8267 Y4.3519
G01 X119.9143 Y4.4701
G01 X119.9234 Y4.4817
G01 X119.9361 Y4.4967
G01 X120.0350 Y4.6057
G01 X120.0451 Y4.6164
G01 X120.0593 Y4.6300
G01 X120.1683 Y4.7289
G01 X120.1795 Y4.7385
G01 X120.1949 Y4.7507
G01 X120.3131 Y4.8383
G01 X120.3252 Y4.8468
G01 X120.3417 Y4.8574
G01 X120.4680 Y4.9331
G01 X120.4808 Y4.9404
G01 X120.4982 Y4.9493
G01 X120.6313 Y5.0122
G01 X120.6448 Y5.0182
G01 X120.6631 Y5.0254
G01 X120.8017 Y5.0750
G01 X120.8156 Y5.0796
G01 X120.8345 Y5.0849
G01 X120.9773 Y5.1207
G01 X120.9917 Y5.1239
G01 X121.0110 Y5.1274
G01 X121.1566 Y5.1490
G01 X121.1712 Y5.1508
G01 X121.1908 Y5.1524
G01 X121.3378 Y5.1596
G01 X121.3525 Y5.1600
G01 X121.3722 Y5.1596
G01 X121.5192 Y5.1524
G01 X121.5339 Y5.1513
G01 X121.5534 Y5.1490
G01 X121.6990 Y5.1274
G01 X121.7135 Y5.1249
G01 X121.7327 Y5.1207
G01 X121.8755 Y5.0849
G01 X121.8897 Y5.0810
G01 X121.9083 Y5.0750
G01 X122.0469 Y5.0254
G01 X122.0607 Y5.0201
G01 X122.0787 Y5.0122
G01 X122.2118 Y4.9493
G01 X122.2249 Y4.9427
G01 X122.2420 Y4.9331
G01 X122.3683 Y4.8574
G01 X122.3807 Y4.8496
G01 X122.3969 Y4.8383
G01 X122.5151 Y4.7507
G01 X122.5267 Y4.7416
G01 X122.5417 Y4.7289
G01 X122.6507 Y4.6300
G01 X122.6614 Y4.6199
G01 X122.6750 Y4.6057
G01 X122.7739 Y4.4967
G01 X122.7835 Y4.4855
G01 X122.7957 Y4.4701
G01 X122.8833 Y4.3519
G01 X122.8918 Y4.3398
G01 X122.9024 Y4.3233
G01 X122.9781 Y4.1970
G01 X122.9854 Y4.1842
G01 X122.9943 Y4.1668
G01 X123.0572 Y4.0337
G01 X123.0632 Y4.0202
G01 X123.0704 Y4.0019
G01 X123.1200 Y3.8633
G01 X123.1246 Y3.8494
G01 X123.1299 Y3.8305
G01 X123.1657 Y3.6877
G01 X123.1689 Y3.6733
G01 X123.1724 Y3.6540
G01 X123.1940 Y3.5084
G01 X123.1958 Y3.4938
G01 X123.1974 Y3.4742
G01 X123.2046 Y3.3272
G01 X123.2050 Y3.3125
G00 Z1.0000
M05
G00 Z1.0000
G00 Z15.00
G00 X0.0 Y0.0


