(G-CODE GENERATED BY FLATCAM v8.994 - www.flatcam.org - Version Date: 2020/11/7)

(Name: doom_day_lamp-PTH-drl.gbr_inverted_iso_combined_cnc)
(Type: G-code from Geometry)
(Units: MM)

(Created on Tuesday, 17 January 2023 at 21:44)

(This preprocessor is the default preprocessor used by FlatCAM.)
(It is made to work with MACH3 compatible motion controllers.)

(TOOL DIAMETER: 0.6 mm)
(Feedrate_XY: 30.0 mm/min)
(Feedrate_Z: 10.0 mm/min)
(Feedrate rapids 1500.0 mm/min)

(Z_Cut: -1.94 mm)
(DepthPerCut: 0.485 mm <=>4 passes)
(Z_Move: 1.0 mm)
(Z Start: None mm)
(Z End: 15.0 mm)
(X,Y End: 0.0000, 0.0000 mm)
(Steps per circle: 64)
(Preprocessor Geometry: default)

(X range:   97.6604 ...  117.8946  mm)
(Y range:    1.8344 ...   16.6021  mm)

(Spindle Speed: 1200.0 RPM)
G21
G90
G94

G01 F30.00

M5
G00 Z15.0000
G00 X0.0000 Y0.0000
T1
M6    
(MSG, Change to Tool Dia = 0.6000)
M0
G00 Z15.0000

M03 S1200.0
G01 F30.00
G00 X97.9406 Y1.9150
G01 F10.00
G01 Z-0.4850
G01 F30.00
G01 X97.9402 Y1.9071
G01 X97.9391 Y1.8993
G01 X97.9372 Y1.8916
G01 X97.9345 Y1.8841
G01 X97.9311 Y1.8770
G01 X97.9270 Y1.8702
G01 X97.9223 Y1.8638
G01 X97.9170 Y1.8580
G01 X97.9112 Y1.8527
G01 X97.9048 Y1.8480
G01 X97.8980 Y1.8439
G01 X97.8909 Y1.8405
G01 X97.8834 Y1.8378
G01 X97.8757 Y1.8359
G01 X97.8679 Y1.8348
G01 X97.8600 Y1.8344
G01 X97.8521 Y1.8348
G01 X97.8443 Y1.8359
G01 X97.8366 Y1.8378
G01 X97.8291 Y1.8405
G01 X97.8220 Y1.8439
G01 X97.8152 Y1.8480
G01 X97.8088 Y1.8527
G01 X97.8030 Y1.8580
G01 X97.7977 Y1.8638
G01 X97.7930 Y1.8702
G01 X97.7889 Y1.8770
G01 X97.7855 Y1.8841
G01 X97.7828 Y1.8916
G01 X97.7809 Y1.8993
G01 X97.7798 Y1.9071
G01 X97.7794 Y1.9150
G01 X97.7798 Y1.9229
G01 X97.7809 Y1.9307
G01 X97.7828 Y1.9384
G01 X97.7855 Y1.9459
G01 X97.7889 Y1.9530
G01 X97.7930 Y1.9598
G01 X97.7977 Y1.9662
G01 X97.8030 Y1.9720
G01 X97.8088 Y1.9773
G01 X97.8152 Y1.9820
G01 X97.8220 Y1.9861
G01 X97.8291 Y1.9895
G01 X97.8366 Y1.9922
G01 X97.8443 Y1.9941
G01 X97.8521 Y1.9952
G01 X97.8600 Y1.9956
G01 X97.8679 Y1.9952
G01 X97.8757 Y1.9941
G01 X97.8834 Y1.9922
G01 X97.8909 Y1.9895
G01 X97.8980 Y1.9861
G01 X97.9048 Y1.9820
G01 X97.9112 Y1.9773
G01 X97.9170 Y1.9720
G01 X97.9223 Y1.9662
G01 X97.9270 Y1.9598
G01 X97.9311 Y1.9530
G01 X97.9345 Y1.9459
G01 X97.9372 Y1.9384
G01 X97.9391 Y1.9307
G01 X97.9402 Y1.9229
G01 X97.9406 Y1.9150
G00 X97.9406 Y1.9150
G01 F10.00
G01 Z-0.9700
G01 F30.00
G01 X97.9402 Y1.9071
G01 X97.9391 Y1.8993
G01 X97.9372 Y1.8916
G01 X97.9345 Y1.8841
G01 X97.9311 Y1.8770
G01 X97.9270 Y1.8702
G01 X97.9223 Y1.8638
G01 X97.9170 Y1.8580
G01 X97.9112 Y1.8527
G01 X97.9048 Y1.8480
G01 X97.8980 Y1.8439
G01 X97.8909 Y1.8405
G01 X97.8834 Y1.8378
G01 X97.8757 Y1.8359
G01 X97.8679 Y1.8348
G01 X97.8600 Y1.8344
G01 X97.8521 Y1.8348
G01 X97.8443 Y1.8359
G01 X97.8366 Y1.8378
G01 X97.8291 Y1.8405
G01 X97.8220 Y1.8439
G01 X97.8152 Y1.8480
G01 X97.8088 Y1.8527
G01 X97.8030 Y1.8580
G01 X97.7977 Y1.8638
G01 X97.7930 Y1.8702
G01 X97.7889 Y1.8770
G01 X97.7855 Y1.8841
G01 X97.7828 Y1.8916
G01 X97.7809 Y1.8993
G01 X97.7798 Y1.9071
G01 X97.7794 Y1.9150
G01 X97.7798 Y1.9229
G01 X97.7809 Y1.9307
G01 X97.7828 Y1.9384
G01 X97.7855 Y1.9459
G01 X97.7889 Y1.9530
G01 X97.7930 Y1.9598
G01 X97.7977 Y1.9662
G01 X97.8030 Y1.9720
G01 X97.8088 Y1.9773
G01 X97.8152 Y1.9820
G01 X97.8220 Y1.9861
G01 X97.8291 Y1.9895
G01 X97.8366 Y1.9922
G01 X97.8443 Y1.9941
G01 X97.8521 Y1.9952
G01 X97.8600 Y1.9956
G01 X97.8679 Y1.9952
G01 X97.8757 Y1.9941
G01 X97.8834 Y1.9922
G01 X97.8909 Y1.9895
G01 X97.8980 Y1.9861
G01 X97.9048 Y1.9820
G01 X97.9112 Y1.9773
G01 X97.9170 Y1.9720
G01 X97.9223 Y1.9662
G01 X97.9270 Y1.9598
G01 X97.9311 Y1.9530
G01 X97.9345 Y1.9459
G01 X97.9372 Y1.9384
G01 X97.9391 Y1.9307
G01 X97.9402 Y1.9229
G01 X97.9406 Y1.9150
G00 X97.9406 Y1.9150
G01 F10.00
G01 Z-1.4550
G01 F30.00
G01 X97.9402 Y1.9071
G01 X97.9391 Y1.8993
G01 X97.9372 Y1.8916
G01 X97.9345 Y1.8841
G01 X97.9311 Y1.8770
G01 X97.9270 Y1.8702
G01 X97.9223 Y1.8638
G01 X97.9170 Y1.8580
G01 X97.9112 Y1.8527
G01 X97.9048 Y1.8480
G01 X97.8980 Y1.8439
G01 X97.8909 Y1.8405
G01 X97.8834 Y1.8378
G01 X97.8757 Y1.8359
G01 X97.8679 Y1.8348
G01 X97.8600 Y1.8344
G01 X97.8521 Y1.8348
G01 X97.8443 Y1.8359
G01 X97.8366 Y1.8378
G01 X97.8291 Y1.8405
G01 X97.8220 Y1.8439
G01 X97.8152 Y1.8480
G01 X97.8088 Y1.8527
G01 X97.8030 Y1.8580
G01 X97.7977 Y1.8638
G01 X97.7930 Y1.8702
G01 X97.7889 Y1.8770
G01 X97.7855 Y1.8841
G01 X97.7828 Y1.8916
G01 X97.7809 Y1.8993
G01 X97.7798 Y1.9071
G01 X97.7794 Y1.9150
G01 X97.7798 Y1.9229
G01 X97.7809 Y1.9307
G01 X97.7828 Y1.9384
G01 X97.7855 Y1.9459
G01 X97.7889 Y1.9530
G01 X97.7930 Y1.9598
G01 X97.7977 Y1.9662
G01 X97.8030 Y1.9720
G01 X97.8088 Y1.9773
G01 X97.8152 Y1.9820
G01 X97.8220 Y1.9861
G01 X97.8291 Y1.9895
G01 X97.8366 Y1.9922
G01 X97.8443 Y1.9941
G01 X97.8521 Y1.9952
G01 X97.8600 Y1.9956
G01 X97.8679 Y1.9952
G01 X97.8757 Y1.9941
G01 X97.8834 Y1.9922
G01 X97.8909 Y1.9895
G01 X97.8980 Y1.9861
G01 X97.9048 Y1.9820
G01 X97.9112 Y1.9773
G01 X97.9170 Y1.9720
G01 X97.9223 Y1.9662
G01 X97.9270 Y1.9598
G01 X97.9311 Y1.9530
G01 X97.9345 Y1.9459
G01 X97.9372 Y1.9384
G01 X97.9391 Y1.9307
G01 X97.9402 Y1.9229
G01 X97.9406 Y1.9150
G00 X97.9406 Y1.9150
G01 F10.00
G01 Z-1.9400
G01 F30.00
G01 X97.9402 Y1.9071
G01 X97.9391 Y1.8993
G01 X97.9372 Y1.8916
G01 X97.9345 Y1.8841
G01 X97.9311 Y1.8770
G01 X97.9270 Y1.8702
G01 X97.9223 Y1.8638
G01 X97.9170 Y1.8580
G01 X97.9112 Y1.8527
G01 X97.9048 Y1.8480
G01 X97.8980 Y1.8439
G01 X97.8909 Y1.8405
G01 X97.8834 Y1.8378
G01 X97.8757 Y1.8359
G01 X97.8679 Y1.8348
G01 X97.8600 Y1.8344
G01 X97.8521 Y1.8348
G01 X97.8443 Y1.8359
G01 X97.8366 Y1.8378
G01 X97.8291 Y1.8405
G01 X97.8220 Y1.8439
G01 X97.8152 Y1.8480
G01 X97.8088 Y1.8527
G01 X97.8030 Y1.8580
G01 X97.7977 Y1.8638
G01 X97.7930 Y1.8702
G01 X97.7889 Y1.8770
G01 X97.7855 Y1.8841
G01 X97.7828 Y1.8916
G01 X97.7809 Y1.8993
G01 X97.7798 Y1.9071
G01 X97.7794 Y1.9150
G01 X97.7798 Y1.9229
G01 X97.7809 Y1.9307
G01 X97.7828 Y1.9384
G01 X97.7855 Y1.9459
G01 X97.7889 Y1.9530
G01 X97.7930 Y1.9598
G01 X97.7977 Y1.9662
G01 X97.8030 Y1.9720
G01 X97.8088 Y1.9773
G01 X97.8152 Y1.9820
G01 X97.8220 Y1.9861
G01 X97.8291 Y1.9895
G01 X97.8366 Y1.9922
G01 X97.8443 Y1.9941
G01 X97.8521 Y1.9952
G01 X97.8600 Y1.9956
G01 X97.8679 Y1.9952
G01 X97.8757 Y1.9941
G01 X97.8834 Y1.9922
G01 X97.8909 Y1.9895
G01 X97.8980 Y1.9861
G01 X97.9048 Y1.9820
G01 X97.9112 Y1.9773
G01 X97.9170 Y1.9720
G01 X97.9223 Y1.9662
G01 X97.9270 Y1.9598
G01 X97.9311 Y1.9530
G01 X97.9345 Y1.9459
G01 X97.9372 Y1.9384
G01 X97.9391 Y1.9307
G01 X97.9402 Y1.9229
G01 X97.9406 Y1.9150
G00 Z1.0000
G00 X97.9406 Y11.0550
G01 F10.00
G01 Z-0.4850
G01 F30.00
G01 X97.9402 Y11.0471
G01 X97.9391 Y11.0393
G01 X97.9372 Y11.0316
G01 X97.9345 Y11.0241
G01 X97.9311 Y11.0170
G01 X97.9270 Y11.0102
G01 X97.9223 Y11.0038
G01 X97.9170 Y10.9980
G01 X97.9112 Y10.9927
G01 X97.9048 Y10.9880
G01 X97.8980 Y10.9839
G01 X97.8909 Y10.9805
G01 X97.8834 Y10.9778
G01 X97.8757 Y10.9759
G01 X97.8679 Y10.9748
G01 X97.8600 Y10.9744
G01 X97.8521 Y10.9748
G01 X97.8443 Y10.9759
G01 X97.8366 Y10.9778
G01 X97.8291 Y10.9805
G01 X97.8220 Y10.9839
G01 X97.8152 Y10.9880
G01 X97.8088 Y10.9927
G01 X97.8030 Y10.9980
G01 X97.7977 Y11.0038
G01 X97.7930 Y11.0102
G01 X97.7889 Y11.0170
G01 X97.7855 Y11.0241
G01 X97.7828 Y11.0316
G01 X97.7809 Y11.0393
G01 X97.7798 Y11.0471
G01 X97.7794 Y11.0550
G01 X97.7798 Y11.0629
G01 X97.7809 Y11.0707
G01 X97.7828 Y11.0784
G01 X97.7855 Y11.0859
G01 X97.7889 Y11.0930
G01 X97.7930 Y11.0998
G01 X97.7977 Y11.1062
G01 X97.8030 Y11.1120
G01 X97.8088 Y11.1173
G01 X97.8152 Y11.1220
G01 X97.8220 Y11.1261
G01 X97.8291 Y11.1295
G01 X97.8366 Y11.1322
G01 X97.8443 Y11.1341
G01 X97.8521 Y11.1352
G01 X97.8600 Y11.1356
G01 X97.8679 Y11.1352
G01 X97.8757 Y11.1341
G01 X97.8834 Y11.1322
G01 X97.8909 Y11.1295
G01 X97.8980 Y11.1261
G01 X97.9048 Y11.1220
G01 X97.9112 Y11.1173
G01 X97.9170 Y11.1120
G01 X97.9223 Y11.1062
G01 X97.9270 Y11.0998
G01 X97.9311 Y11.0930
G01 X97.9345 Y11.0859
G01 X97.9372 Y11.0784
G01 X97.9391 Y11.0707
G01 X97.9402 Y11.0629
G01 X97.9406 Y11.0550
G00 X97.9406 Y11.0550
G01 F10.00
G01 Z-0.9700
G01 F30.00
G01 X97.9402 Y11.0471
G01 X97.9391 Y11.0393
G01 X97.9372 Y11.0316
G01 X97.9345 Y11.0241
G01 X97.9311 Y11.0170
G01 X97.9270 Y11.0102
G01 X97.9223 Y11.0038
G01 X97.9170 Y10.9980
G01 X97.9112 Y10.9927
G01 X97.9048 Y10.9880
G01 X97.8980 Y10.9839
G01 X97.8909 Y10.9805
G01 X97.8834 Y10.9778
G01 X97.8757 Y10.9759
G01 X97.8679 Y10.9748
G01 X97.8600 Y10.9744
G01 X97.8521 Y10.9748
G01 X97.8443 Y10.9759
G01 X97.8366 Y10.9778
G01 X97.8291 Y10.9805
G01 X97.8220 Y10.9839
G01 X97.8152 Y10.9880
G01 X97.8088 Y10.9927
G01 X97.8030 Y10.9980
G01 X97.7977 Y11.0038
G01 X97.7930 Y11.0102
G01 X97.7889 Y11.0170
G01 X97.7855 Y11.0241
G01 X97.7828 Y11.0316
G01 X97.7809 Y11.0393
G01 X97.7798 Y11.0471
G01 X97.7794 Y11.0550
G01 X97.7798 Y11.0629
G01 X97.7809 Y11.0707
G01 X97.7828 Y11.0784
G01 X97.7855 Y11.0859
G01 X97.7889 Y11.0930
G01 X97.7930 Y11.0998
G01 X97.7977 Y11.1062
G01 X97.8030 Y11.1120
G01 X97.8088 Y11.1173
G01 X97.8152 Y11.1220
G01 X97.8220 Y11.1261
G01 X97.8291 Y11.1295
G01 X97.8366 Y11.1322
G01 X97.8443 Y11.1341
G01 X97.8521 Y11.1352
G01 X97.8600 Y11.1356
G01 X97.8679 Y11.1352
G01 X97.8757 Y11.1341
G01 X97.8834 Y11.1322
G01 X97.8909 Y11.1295
G01 X97.8980 Y11.1261
G01 X97.9048 Y11.1220
G01 X97.9112 Y11.1173
G01 X97.9170 Y11.1120
G01 X97.9223 Y11.1062
G01 X97.9270 Y11.0998
G01 X97.9311 Y11.0930
G01 X97.9345 Y11.0859
G01 X97.9372 Y11.0784
G01 X97.9391 Y11.0707
G01 X97.9402 Y11.0629
G01 X97.9406 Y11.0550
G00 X97.9406 Y11.0550
G01 F10.00
G01 Z-1.4550
G01 F30.00
G01 X97.9402 Y11.0471
G01 X97.9391 Y11.0393
G01 X97.9372 Y11.0316
G01 X97.9345 Y11.0241
G01 X97.9311 Y11.0170
G01 X97.9270 Y11.0102
G01 X97.9223 Y11.0038
G01 X97.9170 Y10.9980
G01 X97.9112 Y10.9927
G01 X97.9048 Y10.9880
G01 X97.8980 Y10.9839
G01 X97.8909 Y10.9805
G01 X97.8834 Y10.9778
G01 X97.8757 Y10.9759
G01 X97.8679 Y10.9748
G01 X97.8600 Y10.9744
G01 X97.8521 Y10.9748
G01 X97.8443 Y10.9759
G01 X97.8366 Y10.9778
G01 X97.8291 Y10.9805
G01 X97.8220 Y10.9839
G01 X97.8152 Y10.9880
G01 X97.8088 Y10.9927
G01 X97.8030 Y10.9980
G01 X97.7977 Y11.0038
G01 X97.7930 Y11.0102
G01 X97.7889 Y11.0170
G01 X97.7855 Y11.0241
G01 X97.7828 Y11.0316
G01 X97.7809 Y11.0393
G01 X97.7798 Y11.0471
G01 X97.7794 Y11.0550
G01 X97.7798 Y11.0629
G01 X97.7809 Y11.0707
G01 X97.7828 Y11.0784
G01 X97.7855 Y11.0859
G01 X97.7889 Y11.0930
G01 X97.7930 Y11.0998
G01 X97.7977 Y11.1062
G01 X97.8030 Y11.1120
G01 X97.8088 Y11.1173
G01 X97.8152 Y11.1220
G01 X97.8220 Y11.1261
G01 X97.8291 Y11.1295
G01 X97.8366 Y11.1322
G01 X97.8443 Y11.1341
G01 X97.8521 Y11.1352
G01 X97.8600 Y11.1356
G01 X97.8679 Y11.1352
G01 X97.8757 Y11.1341
G01 X97.8834 Y11.1322
G01 X97.8909 Y11.1295
G01 X97.8980 Y11.1261
G01 X97.9048 Y11.1220
G01 X97.9112 Y11.1173
G01 X97.9170 Y11.1120
G01 X97.9223 Y11.1062
G01 X97.9270 Y11.0998
G01 X97.9311 Y11.0930
G01 X97.9345 Y11.0859
G01 X97.9372 Y11.0784
G01 X97.9391 Y11.0707
G01 X97.9402 Y11.0629
G01 X97.9406 Y11.0550
G00 X97.9406 Y11.0550
G01 F10.00
G01 Z-1.9400
G01 F30.00
G01 X97.9402 Y11.0471
G01 X97.9391 Y11.0393
G01 X97.9372 Y11.0316
G01 X97.9345 Y11.0241
G01 X97.9311 Y11.0170
G01 X97.9270 Y11.0102
G01 X97.9223 Y11.0038
G01 X97.9170 Y10.9980
G01 X97.9112 Y10.9927
G01 X97.9048 Y10.9880
G01 X97.8980 Y10.9839
G01 X97.8909 Y10.9805
G01 X97.8834 Y10.9778
G01 X97.8757 Y10.9759
G01 X97.8679 Y10.9748
G01 X97.8600 Y10.9744
G01 X97.8521 Y10.9748
G01 X97.8443 Y10.9759
G01 X97.8366 Y10.9778
G01 X97.8291 Y10.9805
G01 X97.8220 Y10.9839
G01 X97.8152 Y10.9880
G01 X97.8088 Y10.9927
G01 X97.8030 Y10.9980
G01 X97.7977 Y11.0038
G01 X97.7930 Y11.0102
G01 X97.7889 Y11.0170
G01 X97.7855 Y11.0241
G01 X97.7828 Y11.0316
G01 X97.7809 Y11.0393
G01 X97.7798 Y11.0471
G01 X97.7794 Y11.0550
G01 X97.7798 Y11.0629
G01 X97.7809 Y11.0707
G01 X97.7828 Y11.0784
G01 X97.7855 Y11.0859
G01 X97.7889 Y11.0930
G01 X97.7930 Y11.0998
G01 X97.7977 Y11.1062
G01 X97.8030 Y11.1120
G01 X97.8088 Y11.1173
G01 X97.8152 Y11.1220
G01 X97.8220 Y11.1261
G01 X97.8291 Y11.1295
G01 X97.8366 Y11.1322
G01 X97.8443 Y11.1341
G01 X97.8521 Y11.1352
G01 X97.8600 Y11.1356
G01 X97.8679 Y11.1352
G01 X97.8757 Y11.1341
G01 X97.8834 Y11.1322
G01 X97.8909 Y11.1295
G01 X97.8980 Y11.1261
G01 X97.9048 Y11.1220
G01 X97.9112 Y11.1173
G01 X97.9170 Y11.1120
G01 X97.9223 Y11.1062
G01 X97.9270 Y11.0998
G01 X97.9311 Y11.0930
G01 X97.9345 Y11.0859
G01 X97.9372 Y11.0784
G01 X97.9391 Y11.0707
G01 X97.9402 Y11.0629
G01 X97.9406 Y11.0550
G00 Z1.0000
G00 X98.0596 Y16.0100
G01 F10.00
G01 Z-0.4850
G01 F30.00
G01 X98.0587 Y15.9904
G01 X98.0558 Y15.9711
G01 X98.0510 Y15.9520
G01 X98.0444 Y15.9336
G01 X98.0361 Y15.9159
G01 X98.0260 Y15.8991
G01 X98.0143 Y15.8834
G01 X98.0012 Y15.8688
G01 X97.9866 Y15.8557
G01 X97.9709 Y15.8440
G01 X97.9541 Y15.8339
G01 X97.9364 Y15.8256
G01 X97.9180 Y15.8190
G01 X97.8989 Y15.8142
G01 X97.8796 Y15.8113
G01 X97.8600 Y15.8104
G01 X97.8404 Y15.8113
G01 X97.8211 Y15.8142
G01 X97.8020 Y15.8190
G01 X97.7836 Y15.8256
G01 X97.7659 Y15.8339
G01 X97.7491 Y15.8440
G01 X97.7334 Y15.8557
G01 X97.7188 Y15.8688
G01 X97.7057 Y15.8834
G01 X97.6940 Y15.8991
G01 X97.6839 Y15.9159
G01 X97.6756 Y15.9336
G01 X97.6690 Y15.9520
G01 X97.6642 Y15.9711
G01 X97.6613 Y15.9904
G01 X97.6604 Y16.0100
G01 X97.6613 Y16.0296
G01 X97.6642 Y16.0489
G01 X97.6690 Y16.0680
G01 X97.6756 Y16.0864
G01 X97.6839 Y16.1041
G01 X97.6940 Y16.1209
G01 X97.7057 Y16.1366
G01 X97.7188 Y16.1512
G01 X97.7334 Y16.1643
G01 X97.7491 Y16.1760
G01 X97.7659 Y16.1861
G01 X97.7836 Y16.1944
G01 X97.8020 Y16.2010
G01 X97.8211 Y16.2058
G01 X97.8404 Y16.2087
G01 X97.8600 Y16.2096
G01 X97.8796 Y16.2087
G01 X97.8989 Y16.2058
G01 X97.9180 Y16.2010
G01 X97.9364 Y16.1944
G01 X97.9541 Y16.1861
G01 X97.9709 Y16.1760
G01 X97.9866 Y16.1643
G01 X98.0012 Y16.1512
G01 X98.0143 Y16.1366
G01 X98.0260 Y16.1209
G01 X98.0361 Y16.1041
G01 X98.0444 Y16.0864
G01 X98.0510 Y16.0680
G01 X98.0558 Y16.0489
G01 X98.0587 Y16.0296
G01 X98.0596 Y16.0100
G00 X98.0596 Y16.0100
G01 F10.00
G01 Z-0.9700
G01 F30.00
G01 X98.0587 Y15.9904
G01 X98.0558 Y15.9711
G01 X98.0510 Y15.9520
G01 X98.0444 Y15.9336
G01 X98.0361 Y15.9159
G01 X98.0260 Y15.8991
G01 X98.0143 Y15.8834
G01 X98.0012 Y15.8688
G01 X97.9866 Y15.8557
G01 X97.9709 Y15.8440
G01 X97.9541 Y15.8339
G01 X97.9364 Y15.8256
G01 X97.9180 Y15.8190
G01 X97.8989 Y15.8142
G01 X97.8796 Y15.8113
G01 X97.8600 Y15.8104
G01 X97.8404 Y15.8113
G01 X97.8211 Y15.8142
G01 X97.8020 Y15.8190
G01 X97.7836 Y15.8256
G01 X97.7659 Y15.8339
G01 X97.7491 Y15.8440
G01 X97.7334 Y15.8557
G01 X97.7188 Y15.8688
G01 X97.7057 Y15.8834
G01 X97.6940 Y15.8991
G01 X97.6839 Y15.9159
G01 X97.6756 Y15.9336
G01 X97.6690 Y15.9520
G01 X97.6642 Y15.9711
G01 X97.6613 Y15.9904
G01 X97.6604 Y16.0100
G01 X97.6613 Y16.0296
G01 X97.6642 Y16.0489
G01 X97.6690 Y16.0680
G01 X97.6756 Y16.0864
G01 X97.6839 Y16.1041
G01 X97.6940 Y16.1209
G01 X97.7057 Y16.1366
G01 X97.7188 Y16.1512
G01 X97.7334 Y16.1643
G01 X97.7491 Y16.1760
G01 X97.7659 Y16.1861
G01 X97.7836 Y16.1944
G01 X97.8020 Y16.2010
G01 X97.8211 Y16.2058
G01 X97.8404 Y16.2087
G01 X97.8600 Y16.2096
G01 X97.8796 Y16.2087
G01 X97.8989 Y16.2058
G01 X97.9180 Y16.2010
G01 X97.9364 Y16.1944
G01 X97.9541 Y16.1861
G01 X97.9709 Y16.1760
G01 X97.9866 Y16.1643
G01 X98.0012 Y16.1512
G01 X98.0143 Y16.1366
G01 X98.0260 Y16.1209
G01 X98.0361 Y16.1041
G01 X98.0444 Y16.0864
G01 X98.0510 Y16.0680
G01 X98.0558 Y16.0489
G01 X98.0587 Y16.0296
G01 X98.0596 Y16.0100
G00 X98.0596 Y16.0100
G01 F10.00
G01 Z-1.4550
G01 F30.00
G01 X98.0587 Y15.9904
G01 X98.0558 Y15.9711
G01 X98.0510 Y15.9520
G01 X98.0444 Y15.9336
G01 X98.0361 Y15.9159
G01 X98.0260 Y15.8991
G01 X98.0143 Y15.8834
G01 X98.0012 Y15.8688
G01 X97.9866 Y15.8557
G01 X97.9709 Y15.8440
G01 X97.9541 Y15.8339
G01 X97.9364 Y15.8256
G01 X97.9180 Y15.8190
G01 X97.8989 Y15.8142
G01 X97.8796 Y15.8113
G01 X97.8600 Y15.8104
G01 X97.8404 Y15.8113
G01 X97.8211 Y15.8142
G01 X97.8020 Y15.8190
G01 X97.7836 Y15.8256
G01 X97.7659 Y15.8339
G01 X97.7491 Y15.8440
G01 X97.7334 Y15.8557
G01 X97.7188 Y15.8688
G01 X97.7057 Y15.8834
G01 X97.6940 Y15.8991
G01 X97.6839 Y15.9159
G01 X97.6756 Y15.9336
G01 X97.6690 Y15.9520
G01 X97.6642 Y15.9711
G01 X97.6613 Y15.9904
G01 X97.6604 Y16.0100
G01 X97.6613 Y16.0296
G01 X97.6642 Y16.0489
G01 X97.6690 Y16.0680
G01 X97.6756 Y16.0864
G01 X97.6839 Y16.1041
G01 X97.6940 Y16.1209
G01 X97.7057 Y16.1366
G01 X97.7188 Y16.1512
G01 X97.7334 Y16.1643
G01 X97.7491 Y16.1760
G01 X97.7659 Y16.1861
G01 X97.7836 Y16.1944
G01 X97.8020 Y16.2010
G01 X97.8211 Y16.2058
G01 X97.8404 Y16.2087
G01 X97.8600 Y16.2096
G01 X97.8796 Y16.2087
G01 X97.8989 Y16.2058
G01 X97.9180 Y16.2010
G01 X97.9364 Y16.1944
G01 X97.9541 Y16.1861
G01 X97.9709 Y16.1760
G01 X97.9866 Y16.1643
G01 X98.0012 Y16.1512
G01 X98.0143 Y16.1366
G01 X98.0260 Y16.1209
G01 X98.0361 Y16.1041
G01 X98.0444 Y16.0864
G01 X98.0510 Y16.0680
G01 X98.0558 Y16.0489
G01 X98.0587 Y16.0296
G01 X98.0596 Y16.0100
G00 X98.0596 Y16.0100
G01 F10.00
G01 Z-1.9400
G01 F30.00
G01 X98.0587 Y15.9904
G01 X98.0558 Y15.9711
G01 X98.0510 Y15.9520
G01 X98.0444 Y15.9336
G01 X98.0361 Y15.9159
G01 X98.0260 Y15.8991
G01 X98.0143 Y15.8834
G01 X98.0012 Y15.8688
G01 X97.9866 Y15.8557
G01 X97.9709 Y15.8440
G01 X97.9541 Y15.8339
G01 X97.9364 Y15.8256
G01 X97.9180 Y15.8190
G01 X97.8989 Y15.8142
G01 X97.8796 Y15.8113
G01 X97.8600 Y15.8104
G01 X97.8404 Y15.8113
G01 X97.8211 Y15.8142
G01 X97.8020 Y15.8190
G01 X97.7836 Y15.8256
G01 X97.7659 Y15.8339
G01 X97.7491 Y15.8440
G01 X97.7334 Y15.8557
G01 X97.7188 Y15.8688
G01 X97.7057 Y15.8834
G01 X97.6940 Y15.8991
G01 X97.6839 Y15.9159
G01 X97.6756 Y15.9336
G01 X97.6690 Y15.9520
G01 X97.6642 Y15.9711
G01 X97.6613 Y15.9904
G01 X97.6604 Y16.0100
G01 X97.6613 Y16.0296
G01 X97.6642 Y16.0489
G01 X97.6690 Y16.0680
G01 X97.6756 Y16.0864
G01 X97.6839 Y16.1041
G01 X97.6940 Y16.1209
G01 X97.7057 Y16.1366
G01 X97.7188 Y16.1512
G01 X97.7334 Y16.1643
G01 X97.7491 Y16.1760
G01 X97.7659 Y16.1861
G01 X97.7836 Y16.1944
G01 X97.8020 Y16.2010
G01 X97.8211 Y16.2058
G01 X97.8404 Y16.2087
G01 X97.8600 Y16.2096
G01 X97.8796 Y16.2087
G01 X97.8989 Y16.2058
G01 X97.9180 Y16.2010
G01 X97.9364 Y16.1944
G01 X97.9541 Y16.1861
G01 X97.9709 Y16.1760
G01 X97.9866 Y16.1643
G01 X98.0012 Y16.1512
G01 X98.0143 Y16.1366
G01 X98.0260 Y16.1209
G01 X98.0361 Y16.1041
G01 X98.0444 Y16.0864
G01 X98.0510 Y16.0680
G01 X98.0558 Y16.0489
G01 X98.0587 Y16.0296
G01 X98.0596 Y16.0100
G00 Z1.0000
G00 X100.5996 Y16.0100
G01 F10.00
G01 Z-0.4850
G01 F30.00
G01 X100.5987 Y15.9904
G01 X100.5958 Y15.9711
G01 X100.5910 Y15.9520
G01 X100.5844 Y15.9336
G01 X100.5761 Y15.9159
G01 X100.5660 Y15.8991
G01 X100.5543 Y15.8834
G01 X100.5412 Y15.8688
G01 X100.5266 Y15.8557
G01 X100.5109 Y15.8440
G01 X100.4941 Y15.8339
G01 X100.4764 Y15.8256
G01 X100.4580 Y15.8190
G01 X100.4389 Y15.8142
G01 X100.4196 Y15.8113
G01 X100.4000 Y15.8104
G01 X100.3804 Y15.8113
G01 X100.3611 Y15.8142
G01 X100.3420 Y15.8190
G01 X100.3236 Y15.8256
G01 X100.3059 Y15.8339
G01 X100.2891 Y15.8440
G01 X100.2734 Y15.8557
G01 X100.2588 Y15.8688
G01 X100.2457 Y15.8834
G01 X100.2340 Y15.8991
G01 X100.2239 Y15.9159
G01 X100.2156 Y15.9336
G01 X100.2090 Y15.9520
G01 X100.2042 Y15.9711
G01 X100.2013 Y15.9904
G01 X100.2004 Y16.0100
G01 X100.2013 Y16.0296
G01 X100.2042 Y16.0489
G01 X100.2090 Y16.0680
G01 X100.2156 Y16.0864
G01 X100.2239 Y16.1041
G01 X100.2340 Y16.1209
G01 X100.2457 Y16.1366
G01 X100.2588 Y16.1512
G01 X100.2734 Y16.1643
G01 X100.2891 Y16.1760
G01 X100.3059 Y16.1861
G01 X100.3236 Y16.1944
G01 X100.3420 Y16.2010
G01 X100.3611 Y16.2058
G01 X100.3804 Y16.2087
G01 X100.4000 Y16.2096
G01 X100.4196 Y16.2087
G01 X100.4389 Y16.2058
G01 X100.4580 Y16.2010
G01 X100.4764 Y16.1944
G01 X100.4941 Y16.1861
G01 X100.5109 Y16.1760
G01 X100.5266 Y16.1643
G01 X100.5412 Y16.1512
G01 X100.5543 Y16.1366
G01 X100.5660 Y16.1209
G01 X100.5761 Y16.1041
G01 X100.5844 Y16.0864
G01 X100.5910 Y16.0680
G01 X100.5958 Y16.0489
G01 X100.5987 Y16.0296
G01 X100.5996 Y16.0100
G00 X100.5996 Y16.0100
G01 F10.00
G01 Z-0.9700
G01 F30.00
G01 X100.5987 Y15.9904
G01 X100.5958 Y15.9711
G01 X100.5910 Y15.9520
G01 X100.5844 Y15.9336
G01 X100.5761 Y15.9159
G01 X100.5660 Y15.8991
G01 X100.5543 Y15.8834
G01 X100.5412 Y15.8688
G01 X100.5266 Y15.8557
G01 X100.5109 Y15.8440
G01 X100.4941 Y15.8339
G01 X100.4764 Y15.8256
G01 X100.4580 Y15.8190
G01 X100.4389 Y15.8142
G01 X100.4196 Y15.8113
G01 X100.4000 Y15.8104
G01 X100.3804 Y15.8113
G01 X100.3611 Y15.8142
G01 X100.3420 Y15.8190
G01 X100.3236 Y15.8256
G01 X100.3059 Y15.8339
G01 X100.2891 Y15.8440
G01 X100.2734 Y15.8557
G01 X100.2588 Y15.8688
G01 X100.2457 Y15.8834
G01 X100.2340 Y15.8991
G01 X100.2239 Y15.9159
G01 X100.2156 Y15.9336
G01 X100.2090 Y15.9520
G01 X100.2042 Y15.9711
G01 X100.2013 Y15.9904
G01 X100.2004 Y16.0100
G01 X100.2013 Y16.0296
G01 X100.2042 Y16.0489
G01 X100.2090 Y16.0680
G01 X100.2156 Y16.0864
G01 X100.2239 Y16.1041
G01 X100.2340 Y16.1209
G01 X100.2457 Y16.1366
G01 X100.2588 Y16.1512
G01 X100.2734 Y16.1643
G01 X100.2891 Y16.1760
G01 X100.3059 Y16.1861
G01 X100.3236 Y16.1944
G01 X100.3420 Y16.2010
G01 X100.3611 Y16.2058
G01 X100.3804 Y16.2087
G01 X100.4000 Y16.2096
G01 X100.4196 Y16.2087
G01 X100.4389 Y16.2058
G01 X100.4580 Y16.2010
G01 X100.4764 Y16.1944
G01 X100.4941 Y16.1861
G01 X100.5109 Y16.1760
G01 X100.5266 Y16.1643
G01 X100.5412 Y16.1512
G01 X100.5543 Y16.1366
G01 X100.5660 Y16.1209
G01 X100.5761 Y16.1041
G01 X100.5844 Y16.0864
G01 X100.5910 Y16.0680
G01 X100.5958 Y16.0489
G01 X100.5987 Y16.0296
G01 X100.5996 Y16.0100
G00 X100.5996 Y16.0100
G01 F10.00
G01 Z-1.4550
G01 F30.00
G01 X100.5987 Y15.9904
G01 X100.5958 Y15.9711
G01 X100.5910 Y15.9520
G01 X100.5844 Y15.9336
G01 X100.5761 Y15.9159
G01 X100.5660 Y15.8991
G01 X100.5543 Y15.8834
G01 X100.5412 Y15.8688
G01 X100.5266 Y15.8557
G01 X100.5109 Y15.8440
G01 X100.4941 Y15.8339
G01 X100.4764 Y15.8256
G01 X100.4580 Y15.8190
G01 X100.4389 Y15.8142
G01 X100.4196 Y15.8113
G01 X100.4000 Y15.8104
G01 X100.3804 Y15.8113
G01 X100.3611 Y15.8142
G01 X100.3420 Y15.8190
G01 X100.3236 Y15.8256
G01 X100.3059 Y15.8339
G01 X100.2891 Y15.8440
G01 X100.2734 Y15.8557
G01 X100.2588 Y15.8688
G01 X100.2457 Y15.8834
G01 X100.2340 Y15.8991
G01 X100.2239 Y15.9159
G01 X100.2156 Y15.9336
G01 X100.2090 Y15.9520
G01 X100.2042 Y15.9711
G01 X100.2013 Y15.9904
G01 X100.2004 Y16.0100
G01 X100.2013 Y16.0296
G01 X100.2042 Y16.0489
G01 X100.2090 Y16.0680
G01 X100.2156 Y16.0864
G01 X100.2239 Y16.1041
G01 X100.2340 Y16.1209
G01 X100.2457 Y16.1366
G01 X100.2588 Y16.1512
G01 X100.2734 Y16.1643
G01 X100.2891 Y16.1760
G01 X100.3059 Y16.1861
G01 X100.3236 Y16.1944
G01 X100.3420 Y16.2010
G01 X100.3611 Y16.2058
G01 X100.3804 Y16.2087
G01 X100.4000 Y16.2096
G01 X100.4196 Y16.2087
G01 X100.4389 Y16.2058
G01 X100.4580 Y16.2010
G01 X100.4764 Y16.1944
G01 X100.4941 Y16.1861
G01 X100.5109 Y16.1760
G01 X100.5266 Y16.1643
G01 X100.5412 Y16.1512
G01 X100.5543 Y16.1366
G01 X100.5660 Y16.1209
G01 X100.5761 Y16.1041
G01 X100.5844 Y16.0864
G01 X100.5910 Y16.0680
G01 X100.5958 Y16.0489
G01 X100.5987 Y16.0296
G01 X100.5996 Y16.0100
G00 X100.5996 Y16.0100
G01 F10.00
G01 Z-1.9400
G01 F30.00
G01 X100.5987 Y15.9904
G01 X100.5958 Y15.9711
G01 X100.5910 Y15.9520
G01 X100.5844 Y15.9336
G01 X100.5761 Y15.9159
G01 X100.5660 Y15.8991
G01 X100.5543 Y15.8834
G01 X100.5412 Y15.8688
G01 X100.5266 Y15.8557
G01 X100.5109 Y15.8440
G01 X100.4941 Y15.8339
G01 X100.4764 Y15.8256
G01 X100.4580 Y15.8190
G01 X100.4389 Y15.8142
G01 X100.4196 Y15.8113
G01 X100.4000 Y15.8104
G01 X100.3804 Y15.8113
G01 X100.3611 Y15.8142
G01 X100.3420 Y15.8190
G01 X100.3236 Y15.8256
G01 X100.3059 Y15.8339
G01 X100.2891 Y15.8440
G01 X100.2734 Y15.8557
G01 X100.2588 Y15.8688
G01 X100.2457 Y15.8834
G01 X100.2340 Y15.8991
G01 X100.2239 Y15.9159
G01 X100.2156 Y15.9336
G01 X100.2090 Y15.9520
G01 X100.2042 Y15.9711
G01 X100.2013 Y15.9904
G01 X100.2004 Y16.0100
G01 X100.2013 Y16.0296
G01 X100.2042 Y16.0489
G01 X100.2090 Y16.0680
G01 X100.2156 Y16.0864
G01 X100.2239 Y16.1041
G01 X100.2340 Y16.1209
G01 X100.2457 Y16.1366
G01 X100.2588 Y16.1512
G01 X100.2734 Y16.1643
G01 X100.2891 Y16.1760
G01 X100.3059 Y16.1861
G01 X100.3236 Y16.1944
G01 X100.3420 Y16.2010
G01 X100.3611 Y16.2058
G01 X100.3804 Y16.2087
G01 X100.4000 Y16.2096
G01 X100.4196 Y16.2087
G01 X100.4389 Y16.2058
G01 X100.4580 Y16.2010
G01 X100.4764 Y16.1944
G01 X100.4941 Y16.1861
G01 X100.5109 Y16.1760
G01 X100.5266 Y16.1643
G01 X100.5412 Y16.1512
G01 X100.5543 Y16.1366
G01 X100.5660 Y16.1209
G01 X100.5761 Y16.1041
G01 X100.5844 Y16.0864
G01 X100.5910 Y16.0680
G01 X100.5958 Y16.0489
G01 X100.5987 Y16.0296
G01 X100.5996 Y16.0100
G00 Z1.0000
G00 X105.2946 Y16.1525
G01 F10.00
G01 Z-0.4850
G01 F30.00
G01 X105.2925 Y16.1084
G01 X105.2860 Y16.0648
G01 X105.2753 Y16.0220
G01 X105.2604 Y15.9804
G01 X105.2415 Y15.9405
G01 X105.2189 Y15.9027
G01 X105.1926 Y15.8673
G01 X105.1629 Y15.8346
G01 X105.1302 Y15.8049
G01 X105.0948 Y15.7786
G01 X105.0570 Y15.7560
G01 X105.0171 Y15.7371
G01 X104.9755 Y15.7222
G01 X104.9327 Y15.7115
G01 X104.8891 Y15.7050
G01 X104.8450 Y15.7029
G01 X104.8009 Y15.7050
G01 X104.7573 Y15.7115
G01 X104.7145 Y15.7222
G01 X104.6729 Y15.7371
G01 X104.6330 Y15.7560
G01 X104.5952 Y15.7786
G01 X104.5598 Y15.8049
G01 X104.5271 Y15.8346
G01 X104.4974 Y15.8673
G01 X104.4711 Y15.9027
G01 X104.4485 Y15.9405
G01 X104.4296 Y15.9804
G01 X104.4147 Y16.0220
G01 X104.4040 Y16.0648
G01 X104.3975 Y16.1084
G01 X104.3954 Y16.1525
G01 X104.3975 Y16.1966
G01 X104.4040 Y16.2402
G01 X104.4147 Y16.2830
G01 X104.4296 Y16.3246
G01 X104.4485 Y16.3645
G01 X104.4711 Y16.4023
G01 X104.4974 Y16.4377
G01 X104.5271 Y16.4704
G01 X104.5598 Y16.5001
G01 X104.5952 Y16.5264
G01 X104.6330 Y16.5490
G01 X104.6729 Y16.5679
G01 X104.7145 Y16.5828
G01 X104.7573 Y16.5935
G01 X104.8009 Y16.6000
G01 X104.8450 Y16.6021
G01 X104.8891 Y16.6000
G01 X104.9327 Y16.5935
G01 X104.9755 Y16.5828
G01 X105.0171 Y16.5679
G01 X105.0570 Y16.5490
G01 X105.0948 Y16.5264
G01 X105.1302 Y16.5001
G01 X105.1629 Y16.4704
G01 X105.1926 Y16.4377
G01 X105.2189 Y16.4023
G01 X105.2415 Y16.3645
G01 X105.2604 Y16.3246
G01 X105.2753 Y16.2830
G01 X105.2860 Y16.2402
G01 X105.2925 Y16.1966
G01 X105.2946 Y16.1525
G00 X105.2946 Y16.1525
G01 F10.00
G01 Z-0.9700
G01 F30.00
G01 X105.2925 Y16.1084
G01 X105.2860 Y16.0648
G01 X105.2753 Y16.0220
G01 X105.2604 Y15.9804
G01 X105.2415 Y15.9405
G01 X105.2189 Y15.9027
G01 X105.1926 Y15.8673
G01 X105.1629 Y15.8346
G01 X105.1302 Y15.8049
G01 X105.0948 Y15.7786
G01 X105.0570 Y15.7560
G01 X105.0171 Y15.7371
G01 X104.9755 Y15.7222
G01 X104.9327 Y15.7115
G01 X104.8891 Y15.7050
G01 X104.8450 Y15.7029
G01 X104.8009 Y15.7050
G01 X104.7573 Y15.7115
G01 X104.7145 Y15.7222
G01 X104.6729 Y15.7371
G01 X104.6330 Y15.7560
G01 X104.5952 Y15.7786
G01 X104.5598 Y15.8049
G01 X104.5271 Y15.8346
G01 X104.4974 Y15.8673
G01 X104.4711 Y15.9027
G01 X104.4485 Y15.9405
G01 X104.4296 Y15.9804
G01 X104.4147 Y16.0220
G01 X104.4040 Y16.0648
G01 X104.3975 Y16.1084
G01 X104.3954 Y16.1525
G01 X104.3975 Y16.1966
G01 X104.4040 Y16.2402
G01 X104.4147 Y16.2830
G01 X104.4296 Y16.3246
G01 X104.4485 Y16.3645
G01 X104.4711 Y16.4023
G01 X104.4974 Y16.4377
G01 X104.5271 Y16.4704
G01 X104.5598 Y16.5001
G01 X104.5952 Y16.5264
G01 X104.6330 Y16.5490
G01 X104.6729 Y16.5679
G01 X104.7145 Y16.5828
G01 X104.7573 Y16.5935
G01 X104.8009 Y16.6000
G01 X104.8450 Y16.6021
G01 X104.8891 Y16.6000
G01 X104.9327 Y16.5935
G01 X104.9755 Y16.5828
G01 X105.0171 Y16.5679
G01 X105.0570 Y16.5490
G01 X105.0948 Y16.5264
G01 X105.1302 Y16.5001
G01 X105.1629 Y16.4704
G01 X105.1926 Y16.4377
G01 X105.2189 Y16.4023
G01 X105.2415 Y16.3645
G01 X105.2604 Y16.3246
G01 X105.2753 Y16.2830
G01 X105.2860 Y16.2402
G01 X105.2925 Y16.1966
G01 X105.2946 Y16.1525
G00 X105.2946 Y16.1525
G01 F10.00
G01 Z-1.4550
G01 F30.00
G01 X105.2925 Y16.1084
G01 X105.2860 Y16.0648
G01 X105.2753 Y16.0220
G01 X105.2604 Y15.9804
G01 X105.2415 Y15.9405
G01 X105.2189 Y15.9027
G01 X105.1926 Y15.8673
G01 X105.1629 Y15.8346
G01 X105.1302 Y15.8049
G01 X105.0948 Y15.7786
G01 X105.0570 Y15.7560
G01 X105.0171 Y15.7371
G01 X104.9755 Y15.7222
G01 X104.9327 Y15.7115
G01 X104.8891 Y15.7050
G01 X104.8450 Y15.7029
G01 X104.8009 Y15.7050
G01 X104.7573 Y15.7115
G01 X104.7145 Y15.7222
G01 X104.6729 Y15.7371
G01 X104.6330 Y15.7560
G01 X104.5952 Y15.7786
G01 X104.5598 Y15.8049
G01 X104.5271 Y15.8346
G01 X104.4974 Y15.8673
G01 X104.4711 Y15.9027
G01 X104.4485 Y15.9405
G01 X104.4296 Y15.9804
G01 X104.4147 Y16.0220
G01 X104.4040 Y16.0648
G01 X104.3975 Y16.1084
G01 X104.3954 Y16.1525
G01 X104.3975 Y16.1966
G01 X104.4040 Y16.2402
G01 X104.4147 Y16.2830
G01 X104.4296 Y16.3246
G01 X104.4485 Y16.3645
G01 X104.4711 Y16.4023
G01 X104.4974 Y16.4377
G01 X104.5271 Y16.4704
G01 X104.5598 Y16.5001
G01 X104.5952 Y16.5264
G01 X104.6330 Y16.5490
G01 X104.6729 Y16.5679
G01 X104.7145 Y16.5828
G01 X104.7573 Y16.5935
G01 X104.8009 Y16.6000
G01 X104.8450 Y16.6021
G01 X104.8891 Y16.6000
G01 X104.9327 Y16.5935
G01 X104.9755 Y16.5828
G01 X105.0171 Y16.5679
G01 X105.0570 Y16.5490
G01 X105.0948 Y16.5264
G01 X105.1302 Y16.5001
G01 X105.1629 Y16.4704
G01 X105.1926 Y16.4377
G01 X105.2189 Y16.4023
G01 X105.2415 Y16.3645
G01 X105.2604 Y16.3246
G01 X105.2753 Y16.2830
G01 X105.2860 Y16.2402
G01 X105.2925 Y16.1966
G01 X105.2946 Y16.1525
G00 X105.2946 Y16.1525
G01 F10.00
G01 Z-1.9400
G01 F30.00
G01 X105.2925 Y16.1084
G01 X105.2860 Y16.0648
G01 X105.2753 Y16.0220
G01 X105.2604 Y15.9804
G01 X105.2415 Y15.9405
G01 X105.2189 Y15.9027
G01 X105.1926 Y15.8673
G01 X105.1629 Y15.8346
G01 X105.1302 Y15.8049
G01 X105.0948 Y15.7786
G01 X105.0570 Y15.7560
G01 X105.0171 Y15.7371
G01 X104.9755 Y15.7222
G01 X104.9327 Y15.7115
G01 X104.8891 Y15.7050
G01 X104.8450 Y15.7029
G01 X104.8009 Y15.7050
G01 X104.7573 Y15.7115
G01 X104.7145 Y15.7222
G01 X104.6729 Y15.7371
G01 X104.6330 Y15.7560
G01 X104.5952 Y15.7786
G01 X104.5598 Y15.8049
G01 X104.5271 Y15.8346
G01 X104.4974 Y15.8673
G01 X104.4711 Y15.9027
G01 X104.4485 Y15.9405
G01 X104.4296 Y15.9804
G01 X104.4147 Y16.0220
G01 X104.4040 Y16.0648
G01 X104.3975 Y16.1084
G01 X104.3954 Y16.1525
G01 X104.3975 Y16.1966
G01 X104.4040 Y16.2402
G01 X104.4147 Y16.2830
G01 X104.4296 Y16.3246
G01 X104.4485 Y16.3645
G01 X104.4711 Y16.4023
G01 X104.4974 Y16.4377
G01 X104.5271 Y16.4704
G01 X104.5598 Y16.5001
G01 X104.5952 Y16.5264
G01 X104.6330 Y16.5490
G01 X104.6729 Y16.5679
G01 X104.7145 Y16.5828
G01 X104.7573 Y16.5935
G01 X104.8009 Y16.6000
G01 X104.8450 Y16.6021
G01 X104.8891 Y16.6000
G01 X104.9327 Y16.5935
G01 X104.9755 Y16.5828
G01 X105.0171 Y16.5679
G01 X105.0570 Y16.5490
G01 X105.0948 Y16.5264
G01 X105.1302 Y16.5001
G01 X105.1629 Y16.4704
G01 X105.1926 Y16.4377
G01 X105.2189 Y16.4023
G01 X105.2415 Y16.3645
G01 X105.2604 Y16.3246
G01 X105.2753 Y16.2830
G01 X105.2860 Y16.2402
G01 X105.2925 Y16.1966
G01 X105.2946 Y16.1525
G00 Z1.0000
G00 X108.2946 Y16.1525
G01 F10.00
G01 Z-0.4850
G01 F30.00
G01 X108.2939 Y16.1378
G01 X108.2918 Y16.1233
G01 X108.2882 Y16.1091
G01 X108.2832 Y16.0952
G01 X108.2770 Y16.0820
G01 X108.2694 Y16.0694
G01 X108.2607 Y16.0576
G01 X108.2508 Y16.0467
G01 X108.2399 Y16.0368
G01 X108.2281 Y16.0281
G01 X108.2155 Y16.0205
G01 X108.2023 Y16.0143
G01 X108.1884 Y16.0093
G01 X108.1742 Y16.0057
G01 X108.1597 Y16.0036
G01 X108.1450 Y16.0029
G01 X108.1303 Y16.0036
G01 X108.1158 Y16.0057
G01 X108.1016 Y16.0093
G01 X108.0877 Y16.0143
G01 X108.0745 Y16.0205
G01 X108.0619 Y16.0281
G01 X108.0501 Y16.0368
G01 X108.0392 Y16.0467
G01 X108.0293 Y16.0576
G01 X108.0206 Y16.0694
G01 X108.0130 Y16.0820
G01 X108.0068 Y16.0952
G01 X108.0018 Y16.1091
G01 X107.9982 Y16.1233
G01 X107.9961 Y16.1378
G01 X107.9954 Y16.1525
G01 X107.9961 Y16.1672
G01 X107.9982 Y16.1817
G01 X108.0018 Y16.1959
G01 X108.0068 Y16.2098
G01 X108.0130 Y16.2230
G01 X108.0206 Y16.2356
G01 X108.0293 Y16.2474
G01 X108.0392 Y16.2583
G01 X108.0501 Y16.2682
G01 X108.0619 Y16.2769
G01 X108.0745 Y16.2845
G01 X108.0877 Y16.2907
G01 X108.1016 Y16.2957
G01 X108.1158 Y16.2993
G01 X108.1303 Y16.3014
G01 X108.1450 Y16.3021
G01 X108.1597 Y16.3014
G01 X108.1742 Y16.2993
G01 X108.1884 Y16.2957
G01 X108.2023 Y16.2907
G01 X108.2155 Y16.2845
G01 X108.2281 Y16.2769
G01 X108.2399 Y16.2682
G01 X108.2508 Y16.2583
G01 X108.2607 Y16.2474
G01 X108.2694 Y16.2356
G01 X108.2770 Y16.2230
G01 X108.2832 Y16.2098
G01 X108.2882 Y16.1959
G01 X108.2918 Y16.1817
G01 X108.2939 Y16.1672
G01 X108.2946 Y16.1525
G00 X108.2946 Y16.1525
G01 F10.00
G01 Z-0.9700
G01 F30.00
G01 X108.2939 Y16.1378
G01 X108.2918 Y16.1233
G01 X108.2882 Y16.1091
G01 X108.2832 Y16.0952
G01 X108.2770 Y16.0820
G01 X108.2694 Y16.0694
G01 X108.2607 Y16.0576
G01 X108.2508 Y16.0467
G01 X108.2399 Y16.0368
G01 X108.2281 Y16.0281
G01 X108.2155 Y16.0205
G01 X108.2023 Y16.0143
G01 X108.1884 Y16.0093
G01 X108.1742 Y16.0057
G01 X108.1597 Y16.0036
G01 X108.1450 Y16.0029
G01 X108.1303 Y16.0036
G01 X108.1158 Y16.0057
G01 X108.1016 Y16.0093
G01 X108.0877 Y16.0143
G01 X108.0745 Y16.0205
G01 X108.0619 Y16.0281
G01 X108.0501 Y16.0368
G01 X108.0392 Y16.0467
G01 X108.0293 Y16.0576
G01 X108.0206 Y16.0694
G01 X108.0130 Y16.0820
G01 X108.0068 Y16.0952
G01 X108.0018 Y16.1091
G01 X107.9982 Y16.1233
G01 X107.9961 Y16.1378
G01 X107.9954 Y16.1525
G01 X107.9961 Y16.1672
G01 X107.9982 Y16.1817
G01 X108.0018 Y16.1959
G01 X108.0068 Y16.2098
G01 X108.0130 Y16.2230
G01 X108.0206 Y16.2356
G01 X108.0293 Y16.2474
G01 X108.0392 Y16.2583
G01 X108.0501 Y16.2682
G01 X108.0619 Y16.2769
G01 X108.0745 Y16.2845
G01 X108.0877 Y16.2907
G01 X108.1016 Y16.2957
G01 X108.1158 Y16.2993
G01 X108.1303 Y16.3014
G01 X108.1450 Y16.3021
G01 X108.1597 Y16.3014
G01 X108.1742 Y16.2993
G01 X108.1884 Y16.2957
G01 X108.2023 Y16.2907
G01 X108.2155 Y16.2845
G01 X108.2281 Y16.2769
G01 X108.2399 Y16.2682
G01 X108.2508 Y16.2583
G01 X108.2607 Y16.2474
G01 X108.2694 Y16.2356
G01 X108.2770 Y16.2230
G01 X108.2832 Y16.2098
G01 X108.2882 Y16.1959
G01 X108.2918 Y16.1817
G01 X108.2939 Y16.1672
G01 X108.2946 Y16.1525
G00 X108.2946 Y16.1525
G01 F10.00
G01 Z-1.4550
G01 F30.00
G01 X108.2939 Y16.1378
G01 X108.2918 Y16.1233
G01 X108.2882 Y16.1091
G01 X108.2832 Y16.0952
G01 X108.2770 Y16.0820
G01 X108.2694 Y16.0694
G01 X108.2607 Y16.0576
G01 X108.2508 Y16.0467
G01 X108.2399 Y16.0368
G01 X108.2281 Y16.0281
G01 X108.2155 Y16.0205
G01 X108.2023 Y16.0143
G01 X108.1884 Y16.0093
G01 X108.1742 Y16.0057
G01 X108.1597 Y16.0036
G01 X108.1450 Y16.0029
G01 X108.1303 Y16.0036
G01 X108.1158 Y16.0057
G01 X108.1016 Y16.0093
G01 X108.0877 Y16.0143
G01 X108.0745 Y16.0205
G01 X108.0619 Y16.0281
G01 X108.0501 Y16.0368
G01 X108.0392 Y16.0467
G01 X108.0293 Y16.0576
G01 X108.0206 Y16.0694
G01 X108.0130 Y16.0820
G01 X108.0068 Y16.0952
G01 X108.0018 Y16.1091
G01 X107.9982 Y16.1233
G01 X107.9961 Y16.1378
G01 X107.9954 Y16.1525
G01 X107.9961 Y16.1672
G01 X107.9982 Y16.1817
G01 X108.0018 Y16.1959
G01 X108.0068 Y16.2098
G01 X108.0130 Y16.2230
G01 X108.0206 Y16.2356
G01 X108.0293 Y16.2474
G01 X108.0392 Y16.2583
G01 X108.0501 Y16.2682
G01 X108.0619 Y16.2769
G01 X108.0745 Y16.2845
G01 X108.0877 Y16.2907
G01 X108.1016 Y16.2957
G01 X108.1158 Y16.2993
G01 X108.1303 Y16.3014
G01 X108.1450 Y16.3021
G01 X108.1597 Y16.3014
G01 X108.1742 Y16.2993
G01 X108.1884 Y16.2957
G01 X108.2023 Y16.2907
G01 X108.2155 Y16.2845
G01 X108.2281 Y16.2769
G01 X108.2399 Y16.2682
G01 X108.2508 Y16.2583
G01 X108.2607 Y16.2474
G01 X108.2694 Y16.2356
G01 X108.2770 Y16.2230
G01 X108.2832 Y16.2098
G01 X108.2882 Y16.1959
G01 X108.2918 Y16.1817
G01 X108.2939 Y16.1672
G01 X108.2946 Y16.1525
G00 X108.2946 Y16.1525
G01 F10.00
G01 Z-1.9400
G01 F30.00
G01 X108.2939 Y16.1378
G01 X108.2918 Y16.1233
G01 X108.2882 Y16.1091
G01 X108.2832 Y16.0952
G01 X108.2770 Y16.0820
G01 X108.2694 Y16.0694
G01 X108.2607 Y16.0576
G01 X108.2508 Y16.0467
G01 X108.2399 Y16.0368
G01 X108.2281 Y16.0281
G01 X108.2155 Y16.0205
G01 X108.2023 Y16.0143
G01 X108.1884 Y16.0093
G01 X108.1742 Y16.0057
G01 X108.1597 Y16.0036
G01 X108.1450 Y16.0029
G01 X108.1303 Y16.0036
G01 X108.1158 Y16.0057
G01 X108.1016 Y16.0093
G01 X108.0877 Y16.0143
G01 X108.0745 Y16.0205
G01 X108.0619 Y16.0281
G01 X108.0501 Y16.0368
G01 X108.0392 Y16.0467
G01 X108.0293 Y16.0576
G01 X108.0206 Y16.0694
G01 X108.0130 Y16.0820
G01 X108.0068 Y16.0952
G01 X108.0018 Y16.1091
G01 X107.9982 Y16.1233
G01 X107.9961 Y16.1378
G01 X107.9954 Y16.1525
G01 X107.9961 Y16.1672
G01 X107.9982 Y16.1817
G01 X108.0018 Y16.1959
G01 X108.0068 Y16.2098
G01 X108.0130 Y16.2230
G01 X108.0206 Y16.2356
G01 X108.0293 Y16.2474
G01 X108.0392 Y16.2583
G01 X108.0501 Y16.2682
G01 X108.0619 Y16.2769
G01 X108.0745 Y16.2845
G01 X108.0877 Y16.2907
G01 X108.1016 Y16.2957
G01 X108.1158 Y16.2993
G01 X108.1303 Y16.3014
G01 X108.1450 Y16.3021
G01 X108.1597 Y16.3014
G01 X108.1742 Y16.2993
G01 X108.1884 Y16.2957
G01 X108.2023 Y16.2907
G01 X108.2155 Y16.2845
G01 X108.2281 Y16.2769
G01 X108.2399 Y16.2682
G01 X108.2508 Y16.2583
G01 X108.2607 Y16.2474
G01 X108.2694 Y16.2356
G01 X108.2770 Y16.2230
G01 X108.2832 Y16.2098
G01 X108.2882 Y16.1959
G01 X108.2918 Y16.1817
G01 X108.2939 Y16.1672
G01 X108.2946 Y16.1525
G00 Z1.0000
G00 X111.2946 Y16.1525
G01 F10.00
G01 Z-0.4850
G01 F30.00
G01 X111.2939 Y16.1378
G01 X111.2918 Y16.1233
G01 X111.2882 Y16.1091
G01 X111.2832 Y16.0952
G01 X111.2770 Y16.0820
G01 X111.2694 Y16.0694
G01 X111.2607 Y16.0576
G01 X111.2508 Y16.0467
G01 X111.2399 Y16.0368
G01 X111.2281 Y16.0281
G01 X111.2155 Y16.0205
G01 X111.2023 Y16.0143
G01 X111.1884 Y16.0093
G01 X111.1742 Y16.0057
G01 X111.1597 Y16.0036
G01 X111.1450 Y16.0029
G01 X111.1303 Y16.0036
G01 X111.1158 Y16.0057
G01 X111.1016 Y16.0093
G01 X111.0877 Y16.0143
G01 X111.0745 Y16.0205
G01 X111.0619 Y16.0281
G01 X111.0501 Y16.0368
G01 X111.0392 Y16.0467
G01 X111.0293 Y16.0576
G01 X111.0206 Y16.0694
G01 X111.0130 Y16.0820
G01 X111.0068 Y16.0952
G01 X111.0018 Y16.1091
G01 X110.9982 Y16.1233
G01 X110.9961 Y16.1378
G01 X110.9954 Y16.1525
G01 X110.9961 Y16.1672
G01 X110.9982 Y16.1817
G01 X111.0018 Y16.1959
G01 X111.0068 Y16.2098
G01 X111.0130 Y16.2230
G01 X111.0206 Y16.2356
G01 X111.0293 Y16.2474
G01 X111.0392 Y16.2583
G01 X111.0501 Y16.2682
G01 X111.0619 Y16.2769
G01 X111.0745 Y16.2845
G01 X111.0877 Y16.2907
G01 X111.1016 Y16.2957
G01 X111.1158 Y16.2993
G01 X111.1303 Y16.3014
G01 X111.1450 Y16.3021
G01 X111.1597 Y16.3014
G01 X111.1742 Y16.2993
G01 X111.1884 Y16.2957
G01 X111.2023 Y16.2907
G01 X111.2155 Y16.2845
G01 X111.2281 Y16.2769
G01 X111.2399 Y16.2682
G01 X111.2508 Y16.2583
G01 X111.2607 Y16.2474
G01 X111.2694 Y16.2356
G01 X111.2770 Y16.2230
G01 X111.2832 Y16.2098
G01 X111.2882 Y16.1959
G01 X111.2918 Y16.1817
G01 X111.2939 Y16.1672
G01 X111.2946 Y16.1525
G00 X111.2946 Y16.1525
G01 F10.00
G01 Z-0.9700
G01 F30.00
G01 X111.2939 Y16.1378
G01 X111.2918 Y16.1233
G01 X111.2882 Y16.1091
G01 X111.2832 Y16.0952
G01 X111.2770 Y16.0820
G01 X111.2694 Y16.0694
G01 X111.2607 Y16.0576
G01 X111.2508 Y16.0467
G01 X111.2399 Y16.0368
G01 X111.2281 Y16.0281
G01 X111.2155 Y16.0205
G01 X111.2023 Y16.0143
G01 X111.1884 Y16.0093
G01 X111.1742 Y16.0057
G01 X111.1597 Y16.0036
G01 X111.1450 Y16.0029
G01 X111.1303 Y16.0036
G01 X111.1158 Y16.0057
G01 X111.1016 Y16.0093
G01 X111.0877 Y16.0143
G01 X111.0745 Y16.0205
G01 X111.0619 Y16.0281
G01 X111.0501 Y16.0368
G01 X111.0392 Y16.0467
G01 X111.0293 Y16.0576
G01 X111.0206 Y16.0694
G01 X111.0130 Y16.0820
G01 X111.0068 Y16.0952
G01 X111.0018 Y16.1091
G01 X110.9982 Y16.1233
G01 X110.9961 Y16.1378
G01 X110.9954 Y16.1525
G01 X110.9961 Y16.1672
G01 X110.9982 Y16.1817
G01 X111.0018 Y16.1959
G01 X111.0068 Y16.2098
G01 X111.0130 Y16.2230
G01 X111.0206 Y16.2356
G01 X111.0293 Y16.2474
G01 X111.0392 Y16.2583
G01 X111.0501 Y16.2682
G01 X111.0619 Y16.2769
G01 X111.0745 Y16.2845
G01 X111.0877 Y16.2907
G01 X111.1016 Y16.2957
G01 X111.1158 Y16.2993
G01 X111.1303 Y16.3014
G01 X111.1450 Y16.3021
G01 X111.1597 Y16.3014
G01 X111.1742 Y16.2993
G01 X111.1884 Y16.2957
G01 X111.2023 Y16.2907
G01 X111.2155 Y16.2845
G01 X111.2281 Y16.2769
G01 X111.2399 Y16.2682
G01 X111.2508 Y16.2583
G01 X111.2607 Y16.2474
G01 X111.2694 Y16.2356
G01 X111.2770 Y16.2230
G01 X111.2832 Y16.2098
G01 X111.2882 Y16.1959
G01 X111.2918 Y16.1817
G01 X111.2939 Y16.1672
G01 X111.2946 Y16.1525
G00 X111.2946 Y16.1525
G01 F10.00
G01 Z-1.4550
G01 F30.00
G01 X111.2939 Y16.1378
G01 X111.2918 Y16.1233
G01 X111.2882 Y16.1091
G01 X111.2832 Y16.0952
G01 X111.2770 Y16.0820
G01 X111.2694 Y16.0694
G01 X111.2607 Y16.0576
G01 X111.2508 Y16.0467
G01 X111.2399 Y16.0368
G01 X111.2281 Y16.0281
G01 X111.2155 Y16.0205
G01 X111.2023 Y16.0143
G01 X111.1884 Y16.0093
G01 X111.1742 Y16.0057
G01 X111.1597 Y16.0036
G01 X111.1450 Y16.0029
G01 X111.1303 Y16.0036
G01 X111.1158 Y16.0057
G01 X111.1016 Y16.0093
G01 X111.0877 Y16.0143
G01 X111.0745 Y16.0205
G01 X111.0619 Y16.0281
G01 X111.0501 Y16.0368
G01 X111.0392 Y16.0467
G01 X111.0293 Y16.0576
G01 X111.0206 Y16.0694
G01 X111.0130 Y16.0820
G01 X111.0068 Y16.0952
G01 X111.0018 Y16.1091
G01 X110.9982 Y16.1233
G01 X110.9961 Y16.1378
G01 X110.9954 Y16.1525
G01 X110.9961 Y16.1672
G01 X110.9982 Y16.1817
G01 X111.0018 Y16.1959
G01 X111.0068 Y16.2098
G01 X111.0130 Y16.2230
G01 X111.0206 Y16.2356
G01 X111.0293 Y16.2474
G01 X111.0392 Y16.2583
G01 X111.0501 Y16.2682
G01 X111.0619 Y16.2769
G01 X111.0745 Y16.2845
G01 X111.0877 Y16.2907
G01 X111.1016 Y16.2957
G01 X111.1158 Y16.2993
G01 X111.1303 Y16.3014
G01 X111.1450 Y16.3021
G01 X111.1597 Y16.3014
G01 X111.1742 Y16.2993
G01 X111.1884 Y16.2957
G01 X111.2023 Y16.2907
G01 X111.2155 Y16.2845
G01 X111.2281 Y16.2769
G01 X111.2399 Y16.2682
G01 X111.2508 Y16.2583
G01 X111.2607 Y16.2474
G01 X111.2694 Y16.2356
G01 X111.2770 Y16.2230
G01 X111.2832 Y16.2098
G01 X111.2882 Y16.1959
G01 X111.2918 Y16.1817
G01 X111.2939 Y16.1672
G01 X111.2946 Y16.1525
G00 X111.2946 Y16.1525
G01 F10.00
G01 Z-1.9400
G01 F30.00
G01 X111.2939 Y16.1378
G01 X111.2918 Y16.1233
G01 X111.2882 Y16.1091
G01 X111.2832 Y16.0952
G01 X111.2770 Y16.0820
G01 X111.2694 Y16.0694
G01 X111.2607 Y16.0576
G01 X111.2508 Y16.0467
G01 X111.2399 Y16.0368
G01 X111.2281 Y16.0281
G01 X111.2155 Y16.0205
G01 X111.2023 Y16.0143
G01 X111.1884 Y16.0093
G01 X111.1742 Y16.0057
G01 X111.1597 Y16.0036
G01 X111.1450 Y16.0029
G01 X111.1303 Y16.0036
G01 X111.1158 Y16.0057
G01 X111.1016 Y16.0093
G01 X111.0877 Y16.0143
G01 X111.0745 Y16.0205
G01 X111.0619 Y16.0281
G01 X111.0501 Y16.0368
G01 X111.0392 Y16.0467
G01 X111.0293 Y16.0576
G01 X111.0206 Y16.0694
G01 X111.0130 Y16.0820
G01 X111.0068 Y16.0952
G01 X111.0018 Y16.1091
G01 X110.9982 Y16.1233
G01 X110.9961 Y16.1378
G01 X110.9954 Y16.1525
G01 X110.9961 Y16.1672
G01 X110.9982 Y16.1817
G01 X111.0018 Y16.1959
G01 X111.0068 Y16.2098
G01 X111.0130 Y16.2230
G01 X111.0206 Y16.2356
G01 X111.0293 Y16.2474
G01 X111.0392 Y16.2583
G01 X111.0501 Y16.2682
G01 X111.0619 Y16.2769
G01 X111.0745 Y16.2845
G01 X111.0877 Y16.2907
G01 X111.1016 Y16.2957
G01 X111.1158 Y16.2993
G01 X111.1303 Y16.3014
G01 X111.1450 Y16.3021
G01 X111.1597 Y16.3014
G01 X111.1742 Y16.2993
G01 X111.1884 Y16.2957
G01 X111.2023 Y16.2907
G01 X111.2155 Y16.2845
G01 X111.2281 Y16.2769
G01 X111.2399 Y16.2682
G01 X111.2508 Y16.2583
G01 X111.2607 Y16.2474
G01 X111.2694 Y16.2356
G01 X111.2770 Y16.2230
G01 X111.2832 Y16.2098
G01 X111.2882 Y16.1959
G01 X111.2918 Y16.1817
G01 X111.2939 Y16.1672
G01 X111.2946 Y16.1525
G00 Z1.0000
G00 X114.2946 Y16.1525
G01 F10.00
G01 Z-0.4850
G01 F30.00
G01 X114.2939 Y16.1378
G01 X114.2918 Y16.1233
G01 X114.2882 Y16.1091
G01 X114.2832 Y16.0952
G01 X114.2770 Y16.0820
G01 X114.2694 Y16.0694
G01 X114.2607 Y16.0576
G01 X114.2508 Y16.0467
G01 X114.2399 Y16.0368
G01 X114.2281 Y16.0281
G01 X114.2155 Y16.0205
G01 X114.2023 Y16.0143
G01 X114.1884 Y16.0093
G01 X114.1742 Y16.0057
G01 X114.1597 Y16.0036
G01 X114.1450 Y16.0029
G01 X114.1303 Y16.0036
G01 X114.1158 Y16.0057
G01 X114.1016 Y16.0093
G01 X114.0877 Y16.0143
G01 X114.0745 Y16.0205
G01 X114.0619 Y16.0281
G01 X114.0501 Y16.0368
G01 X114.0392 Y16.0467
G01 X114.0293 Y16.0576
G01 X114.0206 Y16.0694
G01 X114.0130 Y16.0820
G01 X114.0068 Y16.0952
G01 X114.0018 Y16.1091
G01 X113.9982 Y16.1233
G01 X113.9961 Y16.1378
G01 X113.9954 Y16.1525
G01 X113.9961 Y16.1672
G01 X113.9982 Y16.1817
G01 X114.0018 Y16.1959
G01 X114.0068 Y16.2098
G01 X114.0130 Y16.2230
G01 X114.0206 Y16.2356
G01 X114.0293 Y16.2474
G01 X114.0392 Y16.2583
G01 X114.0501 Y16.2682
G01 X114.0619 Y16.2769
G01 X114.0745 Y16.2845
G01 X114.0877 Y16.2907
G01 X114.1016 Y16.2957
G01 X114.1158 Y16.2993
G01 X114.1303 Y16.3014
G01 X114.1450 Y16.3021
G01 X114.1597 Y16.3014
G01 X114.1742 Y16.2993
G01 X114.1884 Y16.2957
G01 X114.2023 Y16.2907
G01 X114.2155 Y16.2845
G01 X114.2281 Y16.2769
G01 X114.2399 Y16.2682
G01 X114.2508 Y16.2583
G01 X114.2607 Y16.2474
G01 X114.2694 Y16.2356
G01 X114.2770 Y16.2230
G01 X114.2832 Y16.2098
G01 X114.2882 Y16.1959
G01 X114.2918 Y16.1817
G01 X114.2939 Y16.1672
G01 X114.2946 Y16.1525
G00 X114.2946 Y16.1525
G01 F10.00
G01 Z-0.9700
G01 F30.00
G01 X114.2939 Y16.1378
G01 X114.2918 Y16.1233
G01 X114.2882 Y16.1091
G01 X114.2832 Y16.0952
G01 X114.2770 Y16.0820
G01 X114.2694 Y16.0694
G01 X114.2607 Y16.0576
G01 X114.2508 Y16.0467
G01 X114.2399 Y16.0368
G01 X114.2281 Y16.0281
G01 X114.2155 Y16.0205
G01 X114.2023 Y16.0143
G01 X114.1884 Y16.0093
G01 X114.1742 Y16.0057
G01 X114.1597 Y16.0036
G01 X114.1450 Y16.0029
G01 X114.1303 Y16.0036
G01 X114.1158 Y16.0057
G01 X114.1016 Y16.0093
G01 X114.0877 Y16.0143
G01 X114.0745 Y16.0205
G01 X114.0619 Y16.0281
G01 X114.0501 Y16.0368
G01 X114.0392 Y16.0467
G01 X114.0293 Y16.0576
G01 X114.0206 Y16.0694
G01 X114.0130 Y16.0820
G01 X114.0068 Y16.0952
G01 X114.0018 Y16.1091
G01 X113.9982 Y16.1233
G01 X113.9961 Y16.1378
G01 X113.9954 Y16.1525
G01 X113.9961 Y16.1672
G01 X113.9982 Y16.1817
G01 X114.0018 Y16.1959
G01 X114.0068 Y16.2098
G01 X114.0130 Y16.2230
G01 X114.0206 Y16.2356
G01 X114.0293 Y16.2474
G01 X114.0392 Y16.2583
G01 X114.0501 Y16.2682
G01 X114.0619 Y16.2769
G01 X114.0745 Y16.2845
G01 X114.0877 Y16.2907
G01 X114.1016 Y16.2957
G01 X114.1158 Y16.2993
G01 X114.1303 Y16.3014
G01 X114.1450 Y16.3021
G01 X114.1597 Y16.3014
G01 X114.1742 Y16.2993
G01 X114.1884 Y16.2957
G01 X114.2023 Y16.2907
G01 X114.2155 Y16.2845
G01 X114.2281 Y16.2769
G01 X114.2399 Y16.2682
G01 X114.2508 Y16.2583
G01 X114.2607 Y16.2474
G01 X114.2694 Y16.2356
G01 X114.2770 Y16.2230
G01 X114.2832 Y16.2098
G01 X114.2882 Y16.1959
G01 X114.2918 Y16.1817
G01 X114.2939 Y16.1672
G01 X114.2946 Y16.1525
G00 X114.2946 Y16.1525
G01 F10.00
G01 Z-1.4550
G01 F30.00
G01 X114.2939 Y16.1378
G01 X114.2918 Y16.1233
G01 X114.2882 Y16.1091
G01 X114.2832 Y16.0952
G01 X114.2770 Y16.0820
G01 X114.2694 Y16.0694
G01 X114.2607 Y16.0576
G01 X114.2508 Y16.0467
G01 X114.2399 Y16.0368
G01 X114.2281 Y16.0281
G01 X114.2155 Y16.0205
G01 X114.2023 Y16.0143
G01 X114.1884 Y16.0093
G01 X114.1742 Y16.0057
G01 X114.1597 Y16.0036
G01 X114.1450 Y16.0029
G01 X114.1303 Y16.0036
G01 X114.1158 Y16.0057
G01 X114.1016 Y16.0093
G01 X114.0877 Y16.0143
G01 X114.0745 Y16.0205
G01 X114.0619 Y16.0281
G01 X114.0501 Y16.0368
G01 X114.0392 Y16.0467
G01 X114.0293 Y16.0576
G01 X114.0206 Y16.0694
G01 X114.0130 Y16.0820
G01 X114.0068 Y16.0952
G01 X114.0018 Y16.1091
G01 X113.9982 Y16.1233
G01 X113.9961 Y16.1378
G01 X113.9954 Y16.1525
G01 X113.9961 Y16.1672
G01 X113.9982 Y16.1817
G01 X114.0018 Y16.1959
G01 X114.0068 Y16.2098
G01 X114.0130 Y16.2230
G01 X114.0206 Y16.2356
G01 X114.0293 Y16.2474
G01 X114.0392 Y16.2583
G01 X114.0501 Y16.2682
G01 X114.0619 Y16.2769
G01 X114.0745 Y16.2845
G01 X114.0877 Y16.2907
G01 X114.1016 Y16.2957
G01 X114.1158 Y16.2993
G01 X114.1303 Y16.3014
G01 X114.1450 Y16.3021
G01 X114.1597 Y16.3014
G01 X114.1742 Y16.2993
G01 X114.1884 Y16.2957
G01 X114.2023 Y16.2907
G01 X114.2155 Y16.2845
G01 X114.2281 Y16.2769
G01 X114.2399 Y16.2682
G01 X114.2508 Y16.2583
G01 X114.2607 Y16.2474
G01 X114.2694 Y16.2356
G01 X114.2770 Y16.2230
G01 X114.2832 Y16.2098
G01 X114.2882 Y16.1959
G01 X114.2918 Y16.1817
G01 X114.2939 Y16.1672
G01 X114.2946 Y16.1525
G00 X114.2946 Y16.1525
G01 F10.00
G01 Z-1.9400
G01 F30.00
G01 X114.2939 Y16.1378
G01 X114.2918 Y16.1233
G01 X114.2882 Y16.1091
G01 X114.2832 Y16.0952
G01 X114.2770 Y16.0820
G01 X114.2694 Y16.0694
G01 X114.2607 Y16.0576
G01 X114.2508 Y16.0467
G01 X114.2399 Y16.0368
G01 X114.2281 Y16.0281
G01 X114.2155 Y16.0205
G01 X114.2023 Y16.0143
G01 X114.1884 Y16.0093
G01 X114.1742 Y16.0057
G01 X114.1597 Y16.0036
G01 X114.1450 Y16.0029
G01 X114.1303 Y16.0036
G01 X114.1158 Y16.0057
G01 X114.1016 Y16.0093
G01 X114.0877 Y16.0143
G01 X114.0745 Y16.0205
G01 X114.0619 Y16.0281
G01 X114.0501 Y16.0368
G01 X114.0392 Y16.0467
G01 X114.0293 Y16.0576
G01 X114.0206 Y16.0694
G01 X114.0130 Y16.0820
G01 X114.0068 Y16.0952
G01 X114.0018 Y16.1091
G01 X113.9982 Y16.1233
G01 X113.9961 Y16.1378
G01 X113.9954 Y16.1525
G01 X113.9961 Y16.1672
G01 X113.9982 Y16.1817
G01 X114.0018 Y16.1959
G01 X114.0068 Y16.2098
G01 X114.0130 Y16.2230
G01 X114.0206 Y16.2356
G01 X114.0293 Y16.2474
G01 X114.0392 Y16.2583
G01 X114.0501 Y16.2682
G01 X114.0619 Y16.2769
G01 X114.0745 Y16.2845
G01 X114.0877 Y16.2907
G01 X114.1016 Y16.2957
G01 X114.1158 Y16.2993
G01 X114.1303 Y16.3014
G01 X114.1450 Y16.3021
G01 X114.1597 Y16.3014
G01 X114.1742 Y16.2993
G01 X114.1884 Y16.2957
G01 X114.2023 Y16.2907
G01 X114.2155 Y16.2845
G01 X114.2281 Y16.2769
G01 X114.2399 Y16.2682
G01 X114.2508 Y16.2583
G01 X114.2607 Y16.2474
G01 X114.2694 Y16.2356
G01 X114.2770 Y16.2230
G01 X114.2832 Y16.2098
G01 X114.2882 Y16.1959
G01 X114.2918 Y16.1817
G01 X114.2939 Y16.1672
G01 X114.2946 Y16.1525
G00 Z1.0000
G00 X117.8946 Y16.1525
G01 F10.00
G01 Z-0.4850
G01 F30.00
G01 X117.8925 Y16.1084
G01 X117.8860 Y16.0648
G01 X117.8753 Y16.0220
G01 X117.8604 Y15.9804
G01 X117.8415 Y15.9405
G01 X117.8189 Y15.9027
G01 X117.7926 Y15.8673
G01 X117.7629 Y15.8346
G01 X117.7302 Y15.8049
G01 X117.6948 Y15.7786
G01 X117.6570 Y15.7560
G01 X117.6171 Y15.7371
G01 X117.5755 Y15.7222
G01 X117.5327 Y15.7115
G01 X117.4891 Y15.7050
G01 X117.4450 Y15.7029
G01 X117.4009 Y15.7050
G01 X117.3573 Y15.7115
G01 X117.3145 Y15.7222
G01 X117.2729 Y15.7371
G01 X117.2330 Y15.7560
G01 X117.1952 Y15.7786
G01 X117.1598 Y15.8049
G01 X117.1271 Y15.8346
G01 X117.0974 Y15.8673
G01 X117.0711 Y15.9027
G01 X117.0485 Y15.9405
G01 X117.0296 Y15.9804
G01 X117.0147 Y16.0220
G01 X117.0040 Y16.0648
G01 X116.9975 Y16.1084
G01 X116.9954 Y16.1525
G01 X116.9975 Y16.1966
G01 X117.0040 Y16.2402
G01 X117.0147 Y16.2830
G01 X117.0296 Y16.3246
G01 X117.0485 Y16.3645
G01 X117.0711 Y16.4023
G01 X117.0974 Y16.4377
G01 X117.1271 Y16.4704
G01 X117.1598 Y16.5001
G01 X117.1952 Y16.5264
G01 X117.2330 Y16.5490
G01 X117.2729 Y16.5679
G01 X117.3145 Y16.5828
G01 X117.3573 Y16.5935
G01 X117.4009 Y16.6000
G01 X117.4450 Y16.6021
G01 X117.4891 Y16.6000
G01 X117.5327 Y16.5935
G01 X117.5755 Y16.5828
G01 X117.6171 Y16.5679
G01 X117.6570 Y16.5490
G01 X117.6948 Y16.5264
G01 X117.7302 Y16.5001
G01 X117.7629 Y16.4704
G01 X117.7926 Y16.4377
G01 X117.8189 Y16.4023
G01 X117.8415 Y16.3645
G01 X117.8604 Y16.3246
G01 X117.8753 Y16.2830
G01 X117.8860 Y16.2402
G01 X117.8925 Y16.1966
G01 X117.8946 Y16.1525
G00 X117.8946 Y16.1525
G01 F10.00
G01 Z-0.9700
G01 F30.00
G01 X117.8925 Y16.1084
G01 X117.8860 Y16.0648
G01 X117.8753 Y16.0220
G01 X117.8604 Y15.9804
G01 X117.8415 Y15.9405
G01 X117.8189 Y15.9027
G01 X117.7926 Y15.8673
G01 X117.7629 Y15.8346
G01 X117.7302 Y15.8049
G01 X117.6948 Y15.7786
G01 X117.6570 Y15.7560
G01 X117.6171 Y15.7371
G01 X117.5755 Y15.7222
G01 X117.5327 Y15.7115
G01 X117.4891 Y15.7050
G01 X117.4450 Y15.7029
G01 X117.4009 Y15.7050
G01 X117.3573 Y15.7115
G01 X117.3145 Y15.7222
G01 X117.2729 Y15.7371
G01 X117.2330 Y15.7560
G01 X117.1952 Y15.7786
G01 X117.1598 Y15.8049
G01 X117.1271 Y15.8346
G01 X117.0974 Y15.8673
G01 X117.0711 Y15.9027
G01 X117.0485 Y15.9405
G01 X117.0296 Y15.9804
G01 X117.0147 Y16.0220
G01 X117.0040 Y16.0648
G01 X116.9975 Y16.1084
G01 X116.9954 Y16.1525
G01 X116.9975 Y16.1966
G01 X117.0040 Y16.2402
G01 X117.0147 Y16.2830
G01 X117.0296 Y16.3246
G01 X117.0485 Y16.3645
G01 X117.0711 Y16.4023
G01 X117.0974 Y16.4377
G01 X117.1271 Y16.4704
G01 X117.1598 Y16.5001
G01 X117.1952 Y16.5264
G01 X117.2330 Y16.5490
G01 X117.2729 Y16.5679
G01 X117.3145 Y16.5828
G01 X117.3573 Y16.5935
G01 X117.4009 Y16.6000
G01 X117.4450 Y16.6021
G01 X117.4891 Y16.6000
G01 X117.5327 Y16.5935
G01 X117.5755 Y16.5828
G01 X117.6171 Y16.5679
G01 X117.6570 Y16.5490
G01 X117.6948 Y16.5264
G01 X117.7302 Y16.5001
G01 X117.7629 Y16.4704
G01 X117.7926 Y16.4377
G01 X117.8189 Y16.4023
G01 X117.8415 Y16.3645
G01 X117.8604 Y16.3246
G01 X117.8753 Y16.2830
G01 X117.8860 Y16.2402
G01 X117.8925 Y16.1966
G01 X117.8946 Y16.1525
G00 X117.8946 Y16.1525
G01 F10.00
G01 Z-1.4550
G01 F30.00
G01 X117.8925 Y16.1084
G01 X117.8860 Y16.0648
G01 X117.8753 Y16.0220
G01 X117.8604 Y15.9804
G01 X117.8415 Y15.9405
G01 X117.8189 Y15.9027
G01 X117.7926 Y15.8673
G01 X117.7629 Y15.8346
G01 X117.7302 Y15.8049
G01 X117.6948 Y15.7786
G01 X117.6570 Y15.7560
G01 X117.6171 Y15.7371
G01 X117.5755 Y15.7222
G01 X117.5327 Y15.7115
G01 X117.4891 Y15.7050
G01 X117.4450 Y15.7029
G01 X117.4009 Y15.7050
G01 X117.3573 Y15.7115
G01 X117.3145 Y15.7222
G01 X117.2729 Y15.7371
G01 X117.2330 Y15.7560
G01 X117.1952 Y15.7786
G01 X117.1598 Y15.8049
G01 X117.1271 Y15.8346
G01 X117.0974 Y15.8673
G01 X117.0711 Y15.9027
G01 X117.0485 Y15.9405
G01 X117.0296 Y15.9804
G01 X117.0147 Y16.0220
G01 X117.0040 Y16.0648
G01 X116.9975 Y16.1084
G01 X116.9954 Y16.1525
G01 X116.9975 Y16.1966
G01 X117.0040 Y16.2402
G01 X117.0147 Y16.2830
G01 X117.0296 Y16.3246
G01 X117.0485 Y16.3645
G01 X117.0711 Y16.4023
G01 X117.0974 Y16.4377
G01 X117.1271 Y16.4704
G01 X117.1598 Y16.5001
G01 X117.1952 Y16.5264
G01 X117.2330 Y16.5490
G01 X117.2729 Y16.5679
G01 X117.3145 Y16.5828
G01 X117.3573 Y16.5935
G01 X117.4009 Y16.6000
G01 X117.4450 Y16.6021
G01 X117.4891 Y16.6000
G01 X117.5327 Y16.5935
G01 X117.5755 Y16.5828
G01 X117.6171 Y16.5679
G01 X117.6570 Y16.5490
G01 X117.6948 Y16.5264
G01 X117.7302 Y16.5001
G01 X117.7629 Y16.4704
G01 X117.7926 Y16.4377
G01 X117.8189 Y16.4023
G01 X117.8415 Y16.3645
G01 X117.8604 Y16.3246
G01 X117.8753 Y16.2830
G01 X117.8860 Y16.2402
G01 X117.8925 Y16.1966
G01 X117.8946 Y16.1525
G00 X117.8946 Y16.1525
G01 F10.00
G01 Z-1.9400
G01 F30.00
G01 X117.8925 Y16.1084
G01 X117.8860 Y16.0648
G01 X117.8753 Y16.0220
G01 X117.8604 Y15.9804
G01 X117.8415 Y15.9405
G01 X117.8189 Y15.9027
G01 X117.7926 Y15.8673
G01 X117.7629 Y15.8346
G01 X117.7302 Y15.8049
G01 X117.6948 Y15.7786
G01 X117.6570 Y15.7560
G01 X117.6171 Y15.7371
G01 X117.5755 Y15.7222
G01 X117.5327 Y15.7115
G01 X117.4891 Y15.7050
G01 X117.4450 Y15.7029
G01 X117.4009 Y15.7050
G01 X117.3573 Y15.7115
G01 X117.3145 Y15.7222
G01 X117.2729 Y15.7371
G01 X117.2330 Y15.7560
G01 X117.1952 Y15.7786
G01 X117.1598 Y15.8049
G01 X117.1271 Y15.8346
G01 X117.0974 Y15.8673
G01 X117.0711 Y15.9027
G01 X117.0485 Y15.9405
G01 X117.0296 Y15.9804
G01 X117.0147 Y16.0220
G01 X117.0040 Y16.0648
G01 X116.9975 Y16.1084
G01 X116.9954 Y16.1525
G01 X116.9975 Y16.1966
G01 X117.0040 Y16.2402
G01 X117.0147 Y16.2830
G01 X117.0296 Y16.3246
G01 X117.0485 Y16.3645
G01 X117.0711 Y16.4023
G01 X117.0974 Y16.4377
G01 X117.1271 Y16.4704
G01 X117.1598 Y16.5001
G01 X117.1952 Y16.5264
G01 X117.2330 Y16.5490
G01 X117.2729 Y16.5679
G01 X117.3145 Y16.5828
G01 X117.3573 Y16.5935
G01 X117.4009 Y16.6000
G01 X117.4450 Y16.6021
G01 X117.4891 Y16.6000
G01 X117.5327 Y16.5935
G01 X117.5755 Y16.5828
G01 X117.6171 Y16.5679
G01 X117.6570 Y16.5490
G01 X117.6948 Y16.5264
G01 X117.7302 Y16.5001
G01 X117.7629 Y16.4704
G01 X117.7926 Y16.4377
G01 X117.8189 Y16.4023
G01 X117.8415 Y16.3645
G01 X117.8604 Y16.3246
G01 X117.8753 Y16.2830
G01 X117.8860 Y16.2402
G01 X117.8925 Y16.1966
G01 X117.8946 Y16.1525
G00 Z1.0000
G00 X113.1806 Y11.0550
G01 F10.00
G01 Z-0.4850
G01 F30.00
G01 X113.1802 Y11.0471
G01 X113.1791 Y11.0393
G01 X113.1772 Y11.0316
G01 X113.1745 Y11.0241
G01 X113.1711 Y11.0170
G01 X113.1670 Y11.0102
G01 X113.1623 Y11.0038
G01 X113.1570 Y10.9980
G01 X113.1512 Y10.9927
G01 X113.1448 Y10.9880
G01 X113.1380 Y10.9839
G01 X113.1309 Y10.9805
G01 X113.1234 Y10.9778
G01 X113.1157 Y10.9759
G01 X113.1079 Y10.9748
G01 X113.1000 Y10.9744
G01 X113.0921 Y10.9748
G01 X113.0843 Y10.9759
G01 X113.0766 Y10.9778
G01 X113.0691 Y10.9805
G01 X113.0620 Y10.9839
G01 X113.0552 Y10.9880
G01 X113.0488 Y10.9927
G01 X113.0430 Y10.9980
G01 X113.0377 Y11.0038
G01 X113.0330 Y11.0102
G01 X113.0289 Y11.0170
G01 X113.0255 Y11.0241
G01 X113.0228 Y11.0316
G01 X113.0209 Y11.0393
G01 X113.0198 Y11.0471
G01 X113.0194 Y11.0550
G01 X113.0198 Y11.0629
G01 X113.0209 Y11.0707
G01 X113.0228 Y11.0784
G01 X113.0255 Y11.0859
G01 X113.0289 Y11.0930
G01 X113.0330 Y11.0998
G01 X113.0377 Y11.1062
G01 X113.0430 Y11.1120
G01 X113.0488 Y11.1173
G01 X113.0552 Y11.1220
G01 X113.0620 Y11.1261
G01 X113.0691 Y11.1295
G01 X113.0766 Y11.1322
G01 X113.0843 Y11.1341
G01 X113.0921 Y11.1352
G01 X113.1000 Y11.1356
G01 X113.1079 Y11.1352
G01 X113.1157 Y11.1341
G01 X113.1234 Y11.1322
G01 X113.1309 Y11.1295
G01 X113.1380 Y11.1261
G01 X113.1448 Y11.1220
G01 X113.1512 Y11.1173
G01 X113.1570 Y11.1120
G01 X113.1623 Y11.1062
G01 X113.1670 Y11.0998
G01 X113.1711 Y11.0930
G01 X113.1745 Y11.0859
G01 X113.1772 Y11.0784
G01 X113.1791 Y11.0707
G01 X113.1802 Y11.0629
G01 X113.1806 Y11.0550
G00 X113.1806 Y11.0550
G01 F10.00
G01 Z-0.9700
G01 F30.00
G01 X113.1802 Y11.0471
G01 X113.1791 Y11.0393
G01 X113.1772 Y11.0316
G01 X113.1745 Y11.0241
G01 X113.1711 Y11.0170
G01 X113.1670 Y11.0102
G01 X113.1623 Y11.0038
G01 X113.1570 Y10.9980
G01 X113.1512 Y10.9927
G01 X113.1448 Y10.9880
G01 X113.1380 Y10.9839
G01 X113.1309 Y10.9805
G01 X113.1234 Y10.9778
G01 X113.1157 Y10.9759
G01 X113.1079 Y10.9748
G01 X113.1000 Y10.9744
G01 X113.0921 Y10.9748
G01 X113.0843 Y10.9759
G01 X113.0766 Y10.9778
G01 X113.0691 Y10.9805
G01 X113.0620 Y10.9839
G01 X113.0552 Y10.9880
G01 X113.0488 Y10.9927
G01 X113.0430 Y10.9980
G01 X113.0377 Y11.0038
G01 X113.0330 Y11.0102
G01 X113.0289 Y11.0170
G01 X113.0255 Y11.0241
G01 X113.0228 Y11.0316
G01 X113.0209 Y11.0393
G01 X113.0198 Y11.0471
G01 X113.0194 Y11.0550
G01 X113.0198 Y11.0629
G01 X113.0209 Y11.0707
G01 X113.0228 Y11.0784
G01 X113.0255 Y11.0859
G01 X113.0289 Y11.0930
G01 X113.0330 Y11.0998
G01 X113.0377 Y11.1062
G01 X113.0430 Y11.1120
G01 X113.0488 Y11.1173
G01 X113.0552 Y11.1220
G01 X113.0620 Y11.1261
G01 X113.0691 Y11.1295
G01 X113.0766 Y11.1322
G01 X113.0843 Y11.1341
G01 X113.0921 Y11.1352
G01 X113.1000 Y11.1356
G01 X113.1079 Y11.1352
G01 X113.1157 Y11.1341
G01 X113.1234 Y11.1322
G01 X113.1309 Y11.1295
G01 X113.1380 Y11.1261
G01 X113.1448 Y11.1220
G01 X113.1512 Y11.1173
G01 X113.1570 Y11.1120
G01 X113.1623 Y11.1062
G01 X113.1670 Y11.0998
G01 X113.1711 Y11.0930
G01 X113.1745 Y11.0859
G01 X113.1772 Y11.0784
G01 X113.1791 Y11.0707
G01 X113.1802 Y11.0629
G01 X113.1806 Y11.0550
G00 X113.1806 Y11.0550
G01 F10.00
G01 Z-1.4550
G01 F30.00
G01 X113.1802 Y11.0471
G01 X113.1791 Y11.0393
G01 X113.1772 Y11.0316
G01 X113.1745 Y11.0241
G01 X113.1711 Y11.0170
G01 X113.1670 Y11.0102
G01 X113.1623 Y11.0038
G01 X113.1570 Y10.9980
G01 X113.1512 Y10.9927
G01 X113.1448 Y10.9880
G01 X113.1380 Y10.9839
G01 X113.1309 Y10.9805
G01 X113.1234 Y10.9778
G01 X113.1157 Y10.9759
G01 X113.1079 Y10.9748
G01 X113.1000 Y10.9744
G01 X113.0921 Y10.9748
G01 X113.0843 Y10.9759
G01 X113.0766 Y10.9778
G01 X113.0691 Y10.9805
G01 X113.0620 Y10.9839
G01 X113.0552 Y10.9880
G01 X113.0488 Y10.9927
G01 X113.0430 Y10.9980
G01 X113.0377 Y11.0038
G01 X113.0330 Y11.0102
G01 X113.0289 Y11.0170
G01 X113.0255 Y11.0241
G01 X113.0228 Y11.0316
G01 X113.0209 Y11.0393
G01 X113.0198 Y11.0471
G01 X113.0194 Y11.0550
G01 X113.0198 Y11.0629
G01 X113.0209 Y11.0707
G01 X113.0228 Y11.0784
G01 X113.0255 Y11.0859
G01 X113.0289 Y11.0930
G01 X113.0330 Y11.0998
G01 X113.0377 Y11.1062
G01 X113.0430 Y11.1120
G01 X113.0488 Y11.1173
G01 X113.0552 Y11.1220
G01 X113.0620 Y11.1261
G01 X113.0691 Y11.1295
G01 X113.0766 Y11.1322
G01 X113.0843 Y11.1341
G01 X113.0921 Y11.1352
G01 X113.1000 Y11.1356
G01 X113.1079 Y11.1352
G01 X113.1157 Y11.1341
G01 X113.1234 Y11.1322
G01 X113.1309 Y11.1295
G01 X113.1380 Y11.1261
G01 X113.1448 Y11.1220
G01 X113.1512 Y11.1173
G01 X113.1570 Y11.1120
G01 X113.1623 Y11.1062
G01 X113.1670 Y11.0998
G01 X113.1711 Y11.0930
G01 X113.1745 Y11.0859
G01 X113.1772 Y11.0784
G01 X113.1791 Y11.0707
G01 X113.1802 Y11.0629
G01 X113.1806 Y11.0550
G00 X113.1806 Y11.0550
G01 F10.00
G01 Z-1.9400
G01 F30.00
G01 X113.1802 Y11.0471
G01 X113.1791 Y11.0393
G01 X113.1772 Y11.0316
G01 X113.1745 Y11.0241
G01 X113.1711 Y11.0170
G01 X113.1670 Y11.0102
G01 X113.1623 Y11.0038
G01 X113.1570 Y10.9980
G01 X113.1512 Y10.9927
G01 X113.1448 Y10.9880
G01 X113.1380 Y10.9839
G01 X113.1309 Y10.9805
G01 X113.1234 Y10.9778
G01 X113.1157 Y10.9759
G01 X113.1079 Y10.9748
G01 X113.1000 Y10.9744
G01 X113.0921 Y10.9748
G01 X113.0843 Y10.9759
G01 X113.0766 Y10.9778
G01 X113.0691 Y10.9805
G01 X113.0620 Y10.9839
G01 X113.0552 Y10.9880
G01 X113.0488 Y10.9927
G01 X113.0430 Y10.9980
G01 X113.0377 Y11.0038
G01 X113.0330 Y11.0102
G01 X113.0289 Y11.0170
G01 X113.0255 Y11.0241
G01 X113.0228 Y11.0316
G01 X113.0209 Y11.0393
G01 X113.0198 Y11.0471
G01 X113.0194 Y11.0550
G01 X113.0198 Y11.0629
G01 X113.0209 Y11.0707
G01 X113.0228 Y11.0784
G01 X113.0255 Y11.0859
G01 X113.0289 Y11.0930
G01 X113.0330 Y11.0998
G01 X113.0377 Y11.1062
G01 X113.0430 Y11.1120
G01 X113.0488 Y11.1173
G01 X113.0552 Y11.1220
G01 X113.0620 Y11.1261
G01 X113.0691 Y11.1295
G01 X113.0766 Y11.1322
G01 X113.0843 Y11.1341
G01 X113.0921 Y11.1352
G01 X113.1000 Y11.1356
G01 X113.1079 Y11.1352
G01 X113.1157 Y11.1341
G01 X113.1234 Y11.1322
G01 X113.1309 Y11.1295
G01 X113.1380 Y11.1261
G01 X113.1448 Y11.1220
G01 X113.1512 Y11.1173
G01 X113.1570 Y11.1120
G01 X113.1623 Y11.1062
G01 X113.1670 Y11.0998
G01 X113.1711 Y11.0930
G01 X113.1745 Y11.0859
G01 X113.1772 Y11.0784
G01 X113.1791 Y11.0707
G01 X113.1802 Y11.0629
G01 X113.1806 Y11.0550
G00 Z1.0000
G00 X113.1806 Y1.9150
G01 F10.00
G01 Z-0.4850
G01 F30.00
G01 X113.1802 Y1.9071
G01 X113.1791 Y1.8993
G01 X113.1772 Y1.8916
G01 X113.1745 Y1.8841
G01 X113.1711 Y1.8770
G01 X113.1670 Y1.8702
G01 X113.1623 Y1.8638
G01 X113.1570 Y1.8580
G01 X113.1512 Y1.8527
G01 X113.1448 Y1.8480
G01 X113.1380 Y1.8439
G01 X113.1309 Y1.8405
G01 X113.1234 Y1.8378
G01 X113.1157 Y1.8359
G01 X113.1079 Y1.8348
G01 X113.1000 Y1.8344
G01 X113.0921 Y1.8348
G01 X113.0843 Y1.8359
G01 X113.0766 Y1.8378
G01 X113.0691 Y1.8405
G01 X113.0620 Y1.8439
G01 X113.0552 Y1.8480
G01 X113.0488 Y1.8527
G01 X113.0430 Y1.8580
G01 X113.0377 Y1.8638
G01 X113.0330 Y1.8702
G01 X113.0289 Y1.8770
G01 X113.0255 Y1.8841
G01 X113.0228 Y1.8916
G01 X113.0209 Y1.8993
G01 X113.0198 Y1.9071
G01 X113.0194 Y1.9150
G01 X113.0198 Y1.9229
G01 X113.0209 Y1.9307
G01 X113.0228 Y1.9384
G01 X113.0255 Y1.9459
G01 X113.0289 Y1.9530
G01 X113.0330 Y1.9598
G01 X113.0377 Y1.9662
G01 X113.0430 Y1.9720
G01 X113.0488 Y1.9773
G01 X113.0552 Y1.9820
G01 X113.0620 Y1.9861
G01 X113.0691 Y1.9895
G01 X113.0766 Y1.9922
G01 X113.0843 Y1.9941
G01 X113.0921 Y1.9952
G01 X113.1000 Y1.9956
G01 X113.1079 Y1.9952
G01 X113.1157 Y1.9941
G01 X113.1234 Y1.9922
G01 X113.1309 Y1.9895
G01 X113.1380 Y1.9861
G01 X113.1448 Y1.9820
G01 X113.1512 Y1.9773
G01 X113.1570 Y1.9720
G01 X113.1623 Y1.9662
G01 X113.1670 Y1.9598
G01 X113.1711 Y1.9530
G01 X113.1745 Y1.9459
G01 X113.1772 Y1.9384
G01 X113.1791 Y1.9307
G01 X113.1802 Y1.9229
G01 X113.1806 Y1.9150
G00 X113.1806 Y1.9150
G01 F10.00
G01 Z-0.9700
G01 F30.00
G01 X113.1802 Y1.9071
G01 X113.1791 Y1.8993
G01 X113.1772 Y1.8916
G01 X113.1745 Y1.8841
G01 X113.1711 Y1.8770
G01 X113.1670 Y1.8702
G01 X113.1623 Y1.8638
G01 X113.1570 Y1.8580
G01 X113.1512 Y1.8527
G01 X113.1448 Y1.8480
G01 X113.1380 Y1.8439
G01 X113.1309 Y1.8405
G01 X113.1234 Y1.8378
G01 X113.1157 Y1.8359
G01 X113.1079 Y1.8348
G01 X113.1000 Y1.8344
G01 X113.0921 Y1.8348
G01 X113.0843 Y1.8359
G01 X113.0766 Y1.8378
G01 X113.0691 Y1.8405
G01 X113.0620 Y1.8439
G01 X113.0552 Y1.8480
G01 X113.0488 Y1.8527
G01 X113.0430 Y1.8580
G01 X113.0377 Y1.8638
G01 X113.0330 Y1.8702
G01 X113.0289 Y1.8770
G01 X113.0255 Y1.8841
G01 X113.0228 Y1.8916
G01 X113.0209 Y1.8993
G01 X113.0198 Y1.9071
G01 X113.0194 Y1.9150
G01 X113.0198 Y1.9229
G01 X113.0209 Y1.9307
G01 X113.0228 Y1.9384
G01 X113.0255 Y1.9459
G01 X113.0289 Y1.9530
G01 X113.0330 Y1.9598
G01 X113.0377 Y1.9662
G01 X113.0430 Y1.9720
G01 X113.0488 Y1.9773
G01 X113.0552 Y1.9820
G01 X113.0620 Y1.9861
G01 X113.0691 Y1.9895
G01 X113.0766 Y1.9922
G01 X113.0843 Y1.9941
G01 X113.0921 Y1.9952
G01 X113.1000 Y1.9956
G01 X113.1079 Y1.9952
G01 X113.1157 Y1.9941
G01 X113.1234 Y1.9922
G01 X113.1309 Y1.9895
G01 X113.1380 Y1.9861
G01 X113.1448 Y1.9820
G01 X113.1512 Y1.9773
G01 X113.1570 Y1.9720
G01 X113.1623 Y1.9662
G01 X113.1670 Y1.9598
G01 X113.1711 Y1.9530
G01 X113.1745 Y1.9459
G01 X113.1772 Y1.9384
G01 X113.1791 Y1.9307
G01 X113.1802 Y1.9229
G01 X113.1806 Y1.9150
G00 X113.1806 Y1.9150
G01 F10.00
G01 Z-1.4550
G01 F30.00
G01 X113.1802 Y1.9071
G01 X113.1791 Y1.8993
G01 X113.1772 Y1.8916
G01 X113.1745 Y1.8841
G01 X113.1711 Y1.8770
G01 X113.1670 Y1.8702
G01 X113.1623 Y1.8638
G01 X113.1570 Y1.8580
G01 X113.1512 Y1.8527
G01 X113.1448 Y1.8480
G01 X113.1380 Y1.8439
G01 X113.1309 Y1.8405
G01 X113.1234 Y1.8378
G01 X113.1157 Y1.8359
G01 X113.1079 Y1.8348
G01 X113.1000 Y1.8344
G01 X113.0921 Y1.8348
G01 X113.0843 Y1.8359
G01 X113.0766 Y1.8378
G01 X113.0691 Y1.8405
G01 X113.0620 Y1.8439
G01 X113.0552 Y1.8480
G01 X113.0488 Y1.8527
G01 X113.0430 Y1.8580
G01 X113.0377 Y1.8638
G01 X113.0330 Y1.8702
G01 X113.0289 Y1.8770
G01 X113.0255 Y1.8841
G01 X113.0228 Y1.8916
G01 X113.0209 Y1.8993
G01 X113.0198 Y1.9071
G01 X113.0194 Y1.9150
G01 X113.0198 Y1.9229
G01 X113.0209 Y1.9307
G01 X113.0228 Y1.9384
G01 X113.0255 Y1.9459
G01 X113.0289 Y1.9530
G01 X113.0330 Y1.9598
G01 X113.0377 Y1.9662
G01 X113.0430 Y1.9720
G01 X113.0488 Y1.9773
G01 X113.0552 Y1.9820
G01 X113.0620 Y1.9861
G01 X113.0691 Y1.9895
G01 X113.0766 Y1.9922
G01 X113.0843 Y1.9941
G01 X113.0921 Y1.9952
G01 X113.1000 Y1.9956
G01 X113.1079 Y1.9952
G01 X113.1157 Y1.9941
G01 X113.1234 Y1.9922
G01 X113.1309 Y1.9895
G01 X113.1380 Y1.9861
G01 X113.1448 Y1.9820
G01 X113.1512 Y1.9773
G01 X113.1570 Y1.9720
G01 X113.1623 Y1.9662
G01 X113.1670 Y1.9598
G01 X113.1711 Y1.9530
G01 X113.1745 Y1.9459
G01 X113.1772 Y1.9384
G01 X113.1791 Y1.9307
G01 X113.1802 Y1.9229
G01 X113.1806 Y1.9150
G00 X113.1806 Y1.9150
G01 F10.00
G01 Z-1.9400
G01 F30.00
G01 X113.1802 Y1.9071
G01 X113.1791 Y1.8993
G01 X113.1772 Y1.8916
G01 X113.1745 Y1.8841
G01 X113.1711 Y1.8770
G01 X113.1670 Y1.8702
G01 X113.1623 Y1.8638
G01 X113.1570 Y1.8580
G01 X113.1512 Y1.8527
G01 X113.1448 Y1.8480
G01 X113.1380 Y1.8439
G01 X113.1309 Y1.8405
G01 X113.1234 Y1.8378
G01 X113.1157 Y1.8359
G01 X113.1079 Y1.8348
G01 X113.1000 Y1.8344
G01 X113.0921 Y1.8348
G01 X113.0843 Y1.8359
G01 X113.0766 Y1.8378
G01 X113.0691 Y1.8405
G01 X113.0620 Y1.8439
G01 X113.0552 Y1.8480
G01 X113.0488 Y1.8527
G01 X113.0430 Y1.8580
G01 X113.0377 Y1.8638
G01 X113.0330 Y1.8702
G01 X113.0289 Y1.8770
G01 X113.0255 Y1.8841
G01 X113.0228 Y1.8916
G01 X113.0209 Y1.8993
G01 X113.0198 Y1.9071
G01 X113.0194 Y1.9150
G01 X113.0198 Y1.9229
G01 X113.0209 Y1.9307
G01 X113.0228 Y1.9384
G01 X113.0255 Y1.9459
G01 X113.0289 Y1.9530
G01 X113.0330 Y1.9598
G01 X113.0377 Y1.9662
G01 X113.0430 Y1.9720
G01 X113.0488 Y1.9773
G01 X113.0552 Y1.9820
G01 X113.0620 Y1.9861
G01 X113.0691 Y1.9895
G01 X113.0766 Y1.9922
G01 X113.0843 Y1.9941
G01 X113.0921 Y1.9952
G01 X113.1000 Y1.9956
G01 X113.1079 Y1.9952
G01 X113.1157 Y1.9941
G01 X113.1234 Y1.9922
G01 X113.1309 Y1.9895
G01 X113.1380 Y1.9861
G01 X113.1448 Y1.9820
G01 X113.1512 Y1.9773
G01 X113.1570 Y1.9720
G01 X113.1623 Y1.9662
G01 X113.1670 Y1.9598
G01 X113.1711 Y1.9530
G01 X113.1745 Y1.9459
G01 X113.1772 Y1.9384
G01 X113.1791 Y1.9307
G01 X113.1802 Y1.9229
G01 X113.1806 Y1.9150
G00 Z1.0000
M05
G00 Z1.0000
G00 Z15.00
G00 X0.0 Y0.0


