(G-CODE GENERATED BY FLATCAM v8.994 - www.flatcam.org - Version Date: 2020/11/7)

(Name: doom_day_lamp.drl_cnc)
(Type: G-code from Geometry)
(Units: MM)

(Created on Tuesday, 17 January 2023 at 21:15)

(This preprocessor is the default preprocessor used by FlatCAM.)
(It is made to work with MACH3 compatible motion controllers.)


(TOOLS DIAMETER: )
(Tool: 1 -> Dia: 0.7619999999999999)
(Tool: 2 -> Dia: 0.8000999999999999)
(Tool: 3 -> Dia: 0.89916)
(Tool: 4 -> Dia: 1.0007599999999999)
(Tool: 5 -> Dia: 1.50114)

(FEEDRATE Z: )
(Tool: 1 -> Feedrate: 15.0)
(Tool: 2 -> Feedrate: 15.0)
(Tool: 3 -> Feedrate: 15.0)
(Tool: 4 -> Feedrate: 15.0)
(Tool: 5 -> Feedrate: 15.0)

(FEEDRATE RAPIDS: )
(Tool: 1 -> Feedrate Rapids: 1500)
(Tool: 2 -> Feedrate Rapids: 1500)
(Tool: 3 -> Feedrate Rapids: 1500)
(Tool: 4 -> Feedrate Rapids: 1500)
(Tool: 5 -> Feedrate Rapids: 1500)

(Z_CUT: )
(Tool: 1 -> Z_Cut: -1.94)
(Tool: 2 -> Z_Cut: -1.94)
(Tool: 3 -> Z_Cut: -1.94)
(Tool: 4 -> Z_Cut: -1.94)
(Tool: 5 -> Z_Cut: -1.94)

(Tools Offset: )
(Tool: 4 -> Offset Z: 0.0)
(Tool: 5 -> Offset Z: 0.0)
(Tool: 2 -> Offset Z: 0.0)
(Tool: 1 -> Offset Z: 0.0)
(Tool: 3 -> Offset Z: 0.0)

(Z_MOVE: )
(Tool: 1 -> Z_Move: 1.0)
(Tool: 2 -> Z_Move: 1.0)
(Tool: 3 -> Z_Move: 1.0)
(Tool: 4 -> Z_Move: 1.0)
(Tool: 5 -> Z_Move: 1.0)

(Z Toolchange: 15 mm)
(X,Y Toolchange: 0.0000, 0.0000 mm)
(Z Start: None mm)
(Z End: 0.5 mm)
(X,Y End: 0.0000, 0.0000 mm)
(Steps per circle: 64)
(Preprocessor Excellon: default)

(X range:    5.9704 ...  119.2150  mm)
(Y range:    1.5345 ...   16.9028  mm)

(Spindle Speed: 1200 RPM)
G21
G90
G94

G01 F15.00

M5
G00 Z15.0000
T1
G00 X0.0000 Y0.0000                
M6
(MSG, Change to Tool Dia = 0.7620 ||| Total drills for tool T1 = 93)
M0
G00 Z15.0000

G01 F15.00
M03 S1200
G00 X97.8600 Y1.9155
G01 Z-1.9400
G01 Z0
G00 Z1.0000
G00 X97.8600 Y1.9155
G01 Z-1.9400
G01 Z0
G00 Z1.0000
G00 X90.8750 Y3.3100
G01 Z-1.9400
G01 Z0
G00 Z1.0000
G00 X90.8750 Y5.8500
G01 Z-1.9400
G01 Z0
G00 Z1.0000
G00 X86.4300 Y5.8500
G01 Z-1.9400
G01 Z0
G00 Z1.0000
G00 X86.4300 Y8.3900
G01 Z-1.9400
G01 Z0
G00 Z1.0000
G00 X88.9700 Y10.9300
G01 Z-1.9400
G01 Z0
G00 Z1.0000
G00 X88.9700 Y13.4700
G01 Z-1.9400
G01 Z0
G00 Z1.0000
G00 X84.5250 Y13.4700
G01 Z-1.9400
G01 Z0
G00 Z1.0000
G00 X84.5250 Y16.0100
G01 Z-1.9400
G01 Z0
G00 Z1.0000
G00 X80.0800 Y13.4700
G01 Z-1.9400
G01 Z0
G00 Z1.0000
G00 X80.0800 Y10.9300
G01 Z-1.9400
G01 Z0
G00 Z1.0000
G00 X77.5400 Y8.3900
G01 Z-1.9400
G01 Z0
G00 Z1.0000
G00 X77.5400 Y5.8500
G01 Z-1.9400
G01 Z0
G00 Z1.0000
G00 X73.0950 Y5.8500
G01 Z-1.9400
G01 Z0
G00 Z1.0000
G00 X73.0950 Y3.3100
G01 Z-1.9400
G01 Z0
G00 Z1.0000
G00 X68.6500 Y5.8500
G01 Z-1.9400
G01 Z0
G00 Z1.0000
G00 X68.6500 Y8.3900
G01 Z-1.9400
G01 Z0
G00 Z1.0000
G00 X71.1900 Y10.9300
G01 Z-1.9400
G01 Z0
G00 Z1.0000
G00 X71.1900 Y13.4700
G01 Z-1.9400
G01 Z0
G00 Z1.0000
G00 X66.7450 Y13.4700
G01 Z-1.9400
G01 Z0
G00 Z1.0000
G00 X66.7450 Y16.0100
G01 Z-1.9400
G01 Z0
G00 Z1.0000
G00 X62.3000 Y13.4700
G01 Z-1.9400
G01 Z0
G00 Z1.0000
G00 X62.3000 Y10.9300
G01 Z-1.9400
G01 Z0
G00 Z1.0000
G00 X59.7600 Y8.3900
G01 Z-1.9400
G01 Z0
G00 Z1.0000
G00 X59.7600 Y5.8500
G01 Z-1.9400
G01 Z0
G00 Z1.0000
G00 X64.2050 Y5.8500
G01 Z-1.9400
G01 Z0
G00 Z1.0000
G00 X64.2050 Y3.3100
G01 Z-1.9400
G01 Z0
G00 Z1.0000
G00 X55.3150 Y3.3100
G01 Z-1.9400
G01 Z0
G00 Z1.0000
G00 X55.3150 Y5.8500
G01 Z-1.9400
G01 Z0
G00 Z1.0000
G00 X50.8700 Y5.8500
G01 Z-1.9400
G01 Z0
G00 Z1.0000
G00 X50.8700 Y8.3900
G01 Z-1.9400
G01 Z0
G00 Z1.0000
G00 X53.4100 Y10.9300
G01 Z-1.9400
G01 Z0
G00 Z1.0000
G00 X53.4100 Y13.4700
G01 Z-1.9400
G01 Z0
G00 Z1.0000
G00 X48.9650 Y13.4700
G01 Z-1.9400
G01 Z0
G00 Z1.0000
G00 X48.9650 Y16.0100
G01 Z-1.9400
G01 Z0
G00 Z1.0000
G00 X44.5200 Y13.4700
G01 Z-1.9400
G01 Z0
G00 Z1.0000
G00 X44.5200 Y10.9300
G01 Z-1.9400
G01 Z0
G00 Z1.0000
G00 X41.9800 Y8.3900
G01 Z-1.9400
G01 Z0
G00 Z1.0000
G00 X41.9800 Y5.8500
G01 Z-1.9400
G01 Z0
G00 Z1.0000
G00 X46.4250 Y5.8500
G01 Z-1.9400
G01 Z0
G00 Z1.0000
G00 X46.4250 Y3.3100
G01 Z-1.9400
G01 Z0
G00 Z1.0000
G00 X37.5350 Y3.3100
G01 Z-1.9400
G01 Z0
G00 Z1.0000
G00 X37.5350 Y5.8500
G01 Z-1.9400
G01 Z0
G00 Z1.0000
G00 X33.0900 Y5.8500
G01 Z-1.9400
G01 Z0
G00 Z1.0000
G00 X33.0900 Y8.3900
G01 Z-1.9400
G01 Z0
G00 Z1.0000
G00 X35.6300 Y10.9300
G01 Z-1.9400
G01 Z0
G00 Z1.0000
G00 X35.6300 Y13.4700
G01 Z-1.9400
G01 Z0
G00 Z1.0000
G00 X40.0750 Y13.4700
G01 Z-1.9400
G01 Z0
G00 Z1.0000
G00 X40.0750 Y16.0100
G01 Z-1.9400
G01 Z0
G00 Z1.0000
G00 X31.1850 Y16.0100
G01 Z-1.9400
G01 Z0
G00 Z1.0000
G00 X31.1850 Y13.4700
G01 Z-1.9400
G01 Z0
G00 Z1.0000
G00 X26.7400 Y13.4700
G01 Z-1.9400
G01 Z0
G00 Z1.0000
G00 X26.7400 Y10.9300
G01 Z-1.9400
G01 Z0
G00 Z1.0000
G00 X24.2000 Y8.3900
G01 Z-1.9400
G01 Z0
G00 Z1.0000
G00 X24.2000 Y5.8500
G01 Z-1.9400
G01 Z0
G00 Z1.0000
G00 X19.7550 Y5.8500
G01 Z-1.9400
G01 Z0
G00 Z1.0000
G00 X19.7550 Y3.3100
G01 Z-1.9400
G01 Z0
G00 Z1.0000
G00 X15.3100 Y5.8500
G01 Z-1.9400
G01 Z0
G00 Z1.0000
G00 X15.3100 Y8.3900
G01 Z-1.9400
G01 Z0
G00 Z1.0000
G00 X17.8500 Y10.9300
G01 Z-1.9400
G01 Z0
G00 Z1.0000
G00 X17.8500 Y13.4700
G01 Z-1.9400
G01 Z0
G00 Z1.0000
G00 X13.4050 Y13.4700
G01 Z-1.9400
G01 Z0
G00 Z1.0000
G00 X13.4050 Y16.0100
G01 Z-1.9400
G01 Z0
G00 Z1.0000
G00 X8.9600 Y13.4700
G01 Z-1.9400
G01 Z0
G00 Z1.0000
G00 X8.9600 Y10.9300
G01 Z-1.9400
G01 Z0
G00 Z1.0000
G00 X6.4200 Y8.3900
G01 Z-1.9400
G01 Z0
G00 Z1.0000
G00 X6.4200 Y5.8500
G01 Z-1.9400
G01 Z0
G00 Z1.0000
G00 X10.8650 Y5.8500
G01 Z-1.9400
G01 Z0
G00 Z1.0000
G00 X10.8650 Y3.3100
G01 Z-1.9400
G01 Z0
G00 Z1.0000
G00 X22.2950 Y13.4700
G01 Z-1.9400
G01 Z0
G00 Z1.0000
G00 X22.2950 Y16.0100
G01 Z-1.9400
G01 Z0
G00 Z1.0000
G00 X28.6450 Y5.8500
G01 Z-1.9400
G01 Z0
G00 Z1.0000
G00 X28.6450 Y3.3100
G01 Z-1.9400
G01 Z0
G00 Z1.0000
G00 X57.8550 Y13.4700
G01 Z-1.9400
G01 Z0
G00 Z1.0000
G00 X57.8550 Y16.0100
G01 Z-1.9400
G01 Z0
G00 Z1.0000
G00 X75.6350 Y16.0100
G01 Z-1.9400
G01 Z0
G00 Z1.0000
G00 X75.6350 Y13.4700
G01 Z-1.9400
G01 Z0
G00 Z1.0000
G00 X81.9850 Y5.8500
G01 Z-1.9400
G01 Z0
G00 Z1.0000
G00 X81.9850 Y3.3100
G01 Z-1.9400
G01 Z0
G00 Z1.0000
G00 X93.4150 Y13.4700
G01 Z-1.9400
G01 Z0
G00 Z1.0000
G00 X93.4150 Y16.0100
G01 Z-1.9400
G01 Z0
G00 Z1.0000
G00 X97.8600 Y16.0100
G01 Z-1.9400
G01 Z0
G00 Z1.0000
G00 X100.4000 Y16.0100
G01 Z-1.9400
G01 Z0
G00 Z1.0000
G00 X104.8450 Y16.1522
G01 Z-1.9400
G01 Z0
G00 Z1.0000
G00 X108.1445 Y16.1522
G01 Z-1.9400
G01 Z0
G00 Z1.0000
G00 X111.1442 Y16.1522
G01 Z-1.9400
G01 Z0
G00 Z1.0000
G00 X114.1439 Y16.1522
G01 Z-1.9400
G01 Z0
G00 Z1.0000
G00 X117.4459 Y16.1522
G01 Z-1.9400
G01 Z0
G00 Z1.0000
G00 X118.8150 Y10.0258
G01 Z-1.9400
G01 Z0
G00 Z1.0000
G00 X118.8150 Y8.0242
G01 Z-1.9400
G01 Z0
G00 Z1.0000
G00 X113.1000 Y11.0545
G01 Z-1.9400
G01 Z0
G00 Z1.0000
G00 X113.1000 Y1.9155
G01 Z-1.9400
G01 Z0
G00 Z1.0000
G00 X97.8600 Y11.0545
G01 Z-1.9400
G01 Z0
G00 Z1.0000
M05
G00 Z0.50
G00 X0.0 Y0.0


