(G-CODE GENERATED BY FLATCAM v8.994 - www.flatcam.org - Version Date: 2020/11/7)

(Name: doom_day_lamp-B_Cu.gbr_iso_combined_cnc)
(Type: G-code from Geometry)
(Units: MM)

(Created on Tuesday, 17 January 2023 at 19:50)

(This preprocessor is the default preprocessor used by FlatCAM.)
(It is made to work with MACH3 compatible motion controllers.)

(TOOL DIAMETER: 0.32 mm)
(Feedrate_XY: 110.0 mm/min)
(Feedrate_Z: 30.0 mm/min)
(Feedrate rapids 1500.0 mm/min)

(Z_Cut: -0.12 mm)
(Z_Move: 1.0 mm)
(Z Start: None mm)
(Z End: 15.0 mm)
(X,Y End: 0.0000, 0.0000 mm)
(Steps per circle: 64)
(Preprocessor Geometry: default)

(X range:    0.1245 ...  124.4755  mm)
(Y range:    0.1895 ...   19.1305  mm)

(Spindle Speed: 1200.0 RPM)
G21
G90
G94

G01 F110.00

M5
G00 Z15.0000
G00 X0.0000 Y0.0000
T1
M6    
(MSG, Change to Tool Dia = 0.3200)
M0
G00 Z15.0000

M03 S1200.0
G01 F110.00
G00 X0.3485 Y3.3543
G01 F30.00
G01 Z-0.1200
G01 F110.00
G01 X0.3491 Y3.3365
G01 X0.3516 Y3.3050
G01 X0.3506 Y3.2767
G01 X0.3510 Y3.2577
G01 X0.3650 Y3.0080
G01 X0.3679 Y2.9787
G01 X0.3700 Y2.9636
G01 X0.4170 Y2.6874
G01 X0.4231 Y2.6587
G01 X0.4269 Y2.6439
G01 X0.5045 Y2.3747
G01 X0.5091 Y2.3601
G01 X0.5192 Y2.3326
G01 X0.6264 Y2.0737
G01 X0.6388 Y2.0471
G01 X0.6458 Y2.0335
G01 X0.7813 Y1.7883
G01 X0.7966 Y1.7632
G01 X0.8050 Y1.7505
G01 X0.9672 Y1.5220
G01 X0.9763 Y1.5098
G01 X0.9950 Y1.4871
G01 X1.1868 Y1.2726
G01 X1.2021 Y1.2572
G01 X1.2132 Y1.2467
G01 X1.4221 Y1.0600
G01 X1.4338 Y1.0501
G01 X1.4570 Y1.0322
G01 X1.6855 Y0.8700
G01 X1.6982 Y0.8616
G01 X1.7233 Y0.8463
G01 X1.9685 Y0.7108
G01 X1.9821 Y0.7038
G01 X2.0087 Y0.6914
G01 X2.2676 Y0.5842
G01 X2.2951 Y0.5741
G01 X2.3097 Y0.5695
G01 X2.5789 Y0.4919
G01 X2.5937 Y0.4881
G01 X2.6224 Y0.4820
G01 X2.8986 Y0.4350
G01 X2.9137 Y0.4329
G01 X2.9430 Y0.4300
G01 X3.1990 Y0.4157
G01 X3.2117 Y0.4156
G01 X3.2400 Y0.4166
G01 X3.2715 Y0.4141
G01 X3.2893 Y0.4135
G01 X96.3468 Y0.4135
G01 X96.3662 Y0.4142
G01 X96.3855 Y0.4163
G01 X96.3983 Y0.4184
G01 X96.4172 Y0.4228
G01 X96.4980 Y0.4465
G01 X96.5108 Y0.4509
G01 X96.5295 Y0.4588
G01 X96.5416 Y0.4648
G01 X96.5534 Y0.4714
G01 X96.5704 Y0.4823
G01 X96.5813 Y0.4903
G01 X96.5918 Y0.4988
G01 X96.6018 Y0.5079
G01 X96.6160 Y0.5223
G01 X96.6670 Y0.5810
G01 X96.6756 Y0.5915
G01 X96.6836 Y0.6023
G01 X96.6912 Y0.6135
G01 X96.7014 Y0.6310
G01 X96.7074 Y0.6431
G01 X96.7129 Y0.6555
G01 X96.7177 Y0.6681
G01 X96.7219 Y0.6809
G01 X96.7255 Y0.6939
G01 X96.7296 Y0.7138
G01 X96.7408 Y0.7907
G01 X96.7423 Y0.8038
G01 X96.7432 Y0.8170
G01 X96.7434 Y0.8368
G01 X96.7422 Y0.8565
G01 X96.7395 Y0.8761
G01 X96.7354 Y0.8955
G01 X96.7299 Y0.9145
G01 X96.7254 Y0.9270
G01 X96.7204 Y0.9392
G01 X96.6931 Y1.0012
G01 X96.6873 Y1.0134
G01 X96.6810 Y1.0253
G01 X96.6741 Y1.0368
G01 X96.6666 Y1.0480
G01 X96.6586 Y1.0589
G01 X96.5567 Y1.1830
G01 X96.4533 Y1.3608
G01 X96.3795 Y1.5528
G01 X96.3374 Y1.7542
G01 X96.3343 Y1.8241
G01 X96.3281 Y1.9598
G01 X96.3518 Y2.1641
G01 X96.4078 Y2.3621
G01 X96.4411 Y2.4336
G01 X96.4947 Y2.5486
G01 X96.6104 Y2.7187
G01 X96.7517 Y2.8682
G01 X96.9152 Y2.9932
G01 X96.9946 Y3.0359
G01 X97.0058 Y3.0425
G01 X97.0218 Y3.0535
G01 X97.0370 Y3.0655
G01 X97.0466 Y3.0742
G01 X97.1019 Y3.1285
G01 X97.1113 Y3.1382
G01 X97.1202 Y3.1484
G01 X97.1285 Y3.1590
G01 X97.1364 Y3.1700
G01 X97.1437 Y3.1813
G01 X97.1535 Y3.1991
G01 X97.1593 Y3.2112
G01 X97.1645 Y3.2237
G01 X97.1712 Y3.2429
G01 X97.1764 Y3.2624
G01 X97.1934 Y3.3383
G01 X97.1966 Y3.3583
G01 X97.1983 Y3.3785
G01 X97.1986 Y3.3920
G01 X97.1983 Y3.4055
G01 X97.1973 Y3.4190
G01 X97.1956 Y3.4324
G01 X97.1932 Y3.4457
G01 X97.1902 Y3.4588
G01 X97.1865 Y3.4718
G01 X97.1822 Y3.4846
G01 X97.1579 Y3.5514
G01 X97.1530 Y3.5639
G01 X97.1474 Y3.5762
G01 X97.1413 Y3.5883
G01 X97.1309 Y3.6057
G01 X97.1193 Y3.6223
G01 X97.1109 Y3.6329
G01 X97.1020 Y3.6430
G01 X97.0925 Y3.6527
G01 X97.0827 Y3.6619
G01 X97.0723 Y3.6706
G01 X97.0051 Y3.7217
G01 X96.9884 Y3.7329
G01 X96.9709 Y3.7428
G01 X96.9589 Y3.7486
G01 X96.9403 Y3.7563
G01 X96.9276 Y3.7606
G01 X96.9148 Y3.7643
G01 X96.8951 Y3.7687
G01 X96.8502 Y3.7770
G01 X96.8362 Y3.7792
G01 X96.8151 Y3.7811
G01 X96.8009 Y3.7815
G01 X95.3138 Y3.7815
G01 X95.3008 Y3.7812
G01 X95.2815 Y3.7796
G01 X95.2623 Y3.7766
G01 X95.2434 Y3.7722
G01 X95.1626 Y3.7485
G01 X95.1500 Y3.7441
G01 X95.1315 Y3.7364
G01 X95.1137 Y3.7273
G01 X95.1022 Y3.7206
G01 X95.0910 Y3.7133
G01 X95.0750 Y3.7013
G01 X95.0484 Y3.6797
G01 X95.0323 Y3.6649
G01 X94.3102 Y2.9428
G01 X94.2661 Y2.8978
G01 X94.2500 Y2.8873
G01 X94.2340 Y2.8760
G01 X94.2134 Y2.8599
G01 X94.1963 Y2.8511
G01 X94.1757 Y2.8394
G01 X94.1665 Y2.8336
G01 X94.1484 Y2.8269
G01 X94.1303 Y2.8194
G01 X94.1067 Y2.8083
G01 X94.0880 Y2.8035
G01 X94.0654 Y2.7967
G01 X94.0551 Y2.7931
G01 X94.0292 Y2.7894
G01 X94.0099 Y2.7859
G01 X93.9911 Y2.7817
G01 X93.8529 Y2.7812
G01 X93.8402 Y2.7815
G01 X92.0287 Y2.7815
G01 X92.0158 Y2.7812
G01 X92.0029 Y2.7803
G01 X91.9836 Y2.7777
G01 X91.9709 Y2.7753
G01 X91.9521 Y2.7705
G01 X91.8840 Y2.7505
G01 X91.8654 Y2.7443
G01 X91.8473 Y2.7368
G01 X91.8356 Y2.7311
G01 X91.8185 Y2.7214
G01 X91.8022 Y2.7106
G01 X91.7918 Y2.7028
G01 X91.7769 Y2.6901
G01 X91.7323 Y2.6472
G01 X91.7189 Y2.6327
G01 X91.7106 Y2.6224
G01 X91.7045 Y2.6143
G01 X91.5709 Y2.4807
G01 X91.4163 Y2.3724
G01 X91.2453 Y2.2927
G01 X91.0630 Y2.2438
G01 X90.8750 Y2.2274
G01 X90.6870 Y2.2438
G01 X90.5047 Y2.2927
G01 X90.3337 Y2.3724
G01 X90.1791 Y2.4807
G01 X90.0455 Y2.6143
G01 X90.0314 Y2.6323
G01 X90.0228 Y2.6419
G01 X90.0137 Y2.6511
G01 X90.0042 Y2.6599
G01 X89.9943 Y2.6682
G01 X89.9389 Y2.7126
G01 X89.9231 Y2.7242
G01 X89.9066 Y2.7347
G01 X89.8952 Y2.7411
G01 X89.8835 Y2.7468
G01 X89.8654 Y2.7544
G01 X89.8469 Y2.7607
G01 X89.8280 Y2.7656
G01 X89.7738 Y2.7764
G01 X89.7542 Y2.7795
G01 X89.7411 Y2.7808
G01 X89.7213 Y2.7815
G01 X83.1387 Y2.7815
G01 X83.1193 Y2.7808
G01 X83.1064 Y2.7796
G01 X83.0936 Y2.7777
G01 X83.0809 Y2.7753
G01 X83.0621 Y2.7705
G01 X82.9940 Y2.7505
G01 X82.9815 Y2.7465
G01 X82.9693 Y2.7419
G01 X82.9514 Y2.7340
G01 X82.9341 Y2.7248
G01 X82.9176 Y2.7144
G01 X82.9070 Y2.7068
G01 X82.8918 Y2.6944
G01 X82.8821 Y2.6856
G01 X82.8423 Y2.6472
G01 X82.8289 Y2.6327
G01 X82.8206 Y2.6224
G01 X82.8145 Y2.6143
G01 X82.6809 Y2.4807
G01 X82.5263 Y2.3724
G01 X82.3553 Y2.2927
G01 X82.1730 Y2.2438
G01 X81.9850 Y2.2274
G01 X81.7970 Y2.2438
G01 X81.6147 Y2.2927
G01 X81.4437 Y2.3724
G01 X81.2891 Y2.4807
G01 X81.1555 Y2.6143
G01 X81.1414 Y2.6323
G01 X81.1328 Y2.6419
G01 X81.1237 Y2.6511
G01 X81.1142 Y2.6599
G01 X81.1043 Y2.6682
G01 X81.0489 Y2.7126
G01 X81.0331 Y2.7242
G01 X81.0166 Y2.7347
G01 X81.0052 Y2.7411
G01 X80.9935 Y2.7468
G01 X80.9754 Y2.7544
G01 X80.9569 Y2.7607
G01 X80.9380 Y2.7656
G01 X80.8838 Y2.7764
G01 X80.8642 Y2.7795
G01 X80.8511 Y2.7808
G01 X80.8313 Y2.7815
G01 X74.2487 Y2.7815
G01 X74.2293 Y2.7808
G01 X74.2164 Y2.7796
G01 X74.2036 Y2.7777
G01 X74.1909 Y2.7753
G01 X74.1721 Y2.7705
G01 X74.1040 Y2.7505
G01 X74.0915 Y2.7465
G01 X74.0793 Y2.7419
G01 X74.0614 Y2.7340
G01 X74.0441 Y2.7248
G01 X74.0276 Y2.7144
G01 X74.0170 Y2.7068
G01 X74.0018 Y2.6944
G01 X73.9921 Y2.6856
G01 X73.9523 Y2.6472
G01 X73.9389 Y2.6327
G01 X73.9306 Y2.6224
G01 X73.9245 Y2.6143
G01 X73.7909 Y2.4807
G01 X73.6363 Y2.3724
G01 X73.4653 Y2.2927
G01 X73.2830 Y2.2438
G01 X73.0950 Y2.2274
G01 X72.9070 Y2.2438
G01 X72.7247 Y2.2927
G01 X72.5537 Y2.3724
G01 X72.3991 Y2.4807
G01 X72.2655 Y2.6143
G01 X72.2514 Y2.6323
G01 X72.2428 Y2.6419
G01 X72.2337 Y2.6511
G01 X72.2242 Y2.6599
G01 X72.2143 Y2.6682
G01 X72.1589 Y2.7126
G01 X72.1431 Y2.7242
G01 X72.1266 Y2.7347
G01 X72.1094 Y2.7440
G01 X72.0915 Y2.7520
G01 X72.0793 Y2.7567
G01 X72.0669 Y2.7607
G01 X72.0480 Y2.7656
G01 X71.9938 Y2.7764
G01 X71.9742 Y2.7795
G01 X71.9611 Y2.7808
G01 X71.9413 Y2.7815
G01 X65.3587 Y2.7815
G01 X65.3393 Y2.7808
G01 X65.3264 Y2.7796
G01 X65.3136 Y2.7777
G01 X65.3009 Y2.7753
G01 X65.2821 Y2.7705
G01 X65.2140 Y2.7505
G01 X65.1954 Y2.7443
G01 X65.1773 Y2.7368
G01 X65.1656 Y2.7311
G01 X65.1541 Y2.7248
G01 X65.1376 Y2.7144
G01 X65.1270 Y2.7068
G01 X65.1118 Y2.6944
G01 X65.1021 Y2.6856
G01 X65.0623 Y2.6472
G01 X65.0489 Y2.6327
G01 X65.0406 Y2.6224
G01 X65.0345 Y2.6143
G01 X64.9009 Y2.4807
G01 X64.7463 Y2.3724
G01 X64.5753 Y2.2927
G01 X64.3930 Y2.2438
G01 X64.2050 Y2.2274
G01 X64.0170 Y2.2438
G01 X63.8347 Y2.2927
G01 X63.6637 Y2.3724
G01 X63.5091 Y2.4807
G01 X63.3755 Y2.6143
G01 X63.3614 Y2.6323
G01 X63.3528 Y2.6419
G01 X63.3437 Y2.6511
G01 X63.3342 Y2.6599
G01 X63.3243 Y2.6682
G01 X63.2689 Y2.7126
G01 X63.2531 Y2.7242
G01 X63.2366 Y2.7347
G01 X63.2194 Y2.7440
G01 X63.2015 Y2.7520
G01 X63.1893 Y2.7567
G01 X63.1769 Y2.7607
G01 X63.1580 Y2.7656
G01 X63.1038 Y2.7764
G01 X63.0842 Y2.7795
G01 X63.0711 Y2.7808
G01 X63.0513 Y2.7815
G01 X56.4687 Y2.7815
G01 X56.4493 Y2.7808
G01 X56.4364 Y2.7796
G01 X56.4236 Y2.7777
G01 X56.4109 Y2.7753
G01 X56.3921 Y2.7705
G01 X56.3240 Y2.7505
G01 X56.3054 Y2.7443
G01 X56.2873 Y2.7368
G01 X56.2756 Y2.7311
G01 X56.2641 Y2.7248
G01 X56.2476 Y2.7144
G01 X56.2370 Y2.7068
G01 X56.2218 Y2.6944
G01 X56.2121 Y2.6856
G01 X56.1723 Y2.6472
G01 X56.1589 Y2.6327
G01 X56.1506 Y2.6224
G01 X56.1445 Y2.6143
G01 X56.0109 Y2.4807
G01 X55.8563 Y2.3724
G01 X55.6853 Y2.2927
G01 X55.5030 Y2.2438
G01 X55.3150 Y2.2274
G01 X55.1270 Y2.2438
G01 X54.9447 Y2.2927
G01 X54.7737 Y2.3724
G01 X54.6191 Y2.4807
G01 X54.4855 Y2.6143
G01 X54.4714 Y2.6323
G01 X54.4628 Y2.6419
G01 X54.4537 Y2.6511
G01 X54.4442 Y2.6599
G01 X54.4343 Y2.6682
G01 X54.3789 Y2.7126
G01 X54.3631 Y2.7242
G01 X54.3466 Y2.7347
G01 X54.3294 Y2.7440
G01 X54.3115 Y2.7520
G01 X54.2993 Y2.7567
G01 X54.2869 Y2.7607
G01 X54.2680 Y2.7656
G01 X54.2073 Y2.7776
G01 X54.1877 Y2.7802
G01 X54.1679 Y2.7814
G01 X47.5787 Y2.7815
G01 X47.5593 Y2.7808
G01 X47.5464 Y2.7796
G01 X47.5336 Y2.7777
G01 X47.5146 Y2.7738
G01 X47.5021 Y2.7705
G01 X47.4277 Y2.7486
G01 X47.4093 Y2.7419
G01 X47.3914 Y2.7340
G01 X47.3741 Y2.7248
G01 X47.3576 Y2.7144
G01 X47.3470 Y2.7068
G01 X47.3318 Y2.6944
G01 X47.3221 Y2.6856
G01 X47.2823 Y2.6472
G01 X47.2689 Y2.6327
G01 X47.2606 Y2.6224
G01 X47.2545 Y2.6143
G01 X47.1209 Y2.4807
G01 X46.9663 Y2.3724
G01 X46.7953 Y2.2927
G01 X46.6130 Y2.2438
G01 X46.4250 Y2.2274
G01 X46.2370 Y2.2438
G01 X46.0547 Y2.2927
G01 X45.8837 Y2.3724
G01 X45.7291 Y2.4807
G01 X45.5955 Y2.6143
G01 X45.5814 Y2.6323
G01 X45.5728 Y2.6419
G01 X45.5637 Y2.6511
G01 X45.5542 Y2.6599
G01 X45.5443 Y2.6682
G01 X45.4889 Y2.7126
G01 X45.4731 Y2.7242
G01 X45.4566 Y2.7347
G01 X45.4394 Y2.7440
G01 X45.4215 Y2.7520
G01 X45.4093 Y2.7567
G01 X45.3969 Y2.7607
G01 X45.3780 Y2.7656
G01 X45.3238 Y2.7764
G01 X45.3042 Y2.7795
G01 X45.2911 Y2.7808
G01 X45.2713 Y2.7815
G01 X38.6823 Y2.7814
G01 X38.6693 Y2.7808
G01 X38.6564 Y2.7796
G01 X38.6436 Y2.7777
G01 X38.6309 Y2.7753
G01 X38.6121 Y2.7705
G01 X38.5377 Y2.7486
G01 X38.5193 Y2.7419
G01 X38.5014 Y2.7340
G01 X38.4841 Y2.7248
G01 X38.4676 Y2.7144
G01 X38.4570 Y2.7068
G01 X38.4418 Y2.6944
G01 X38.4321 Y2.6856
G01 X38.3923 Y2.6472
G01 X38.3789 Y2.6327
G01 X38.3706 Y2.6224
G01 X38.3645 Y2.6143
G01 X38.2309 Y2.4807
G01 X38.0763 Y2.3724
G01 X37.9053 Y2.2927
G01 X37.7230 Y2.2438
G01 X37.5350 Y2.2274
G01 X37.3470 Y2.2438
G01 X37.1647 Y2.2927
G01 X36.9937 Y2.3724
G01 X36.8391 Y2.4807
G01 X36.7055 Y2.6143
G01 X36.6914 Y2.6323
G01 X36.6828 Y2.6419
G01 X36.6737 Y2.6511
G01 X36.6642 Y2.6599
G01 X36.6543 Y2.6682
G01 X36.5989 Y2.7126
G01 X36.5831 Y2.7242
G01 X36.5666 Y2.7347
G01 X36.5494 Y2.7440
G01 X36.5315 Y2.7520
G01 X36.5193 Y2.7567
G01 X36.5069 Y2.7607
G01 X36.4880 Y2.7656
G01 X36.4338 Y2.7764
G01 X36.4142 Y2.7795
G01 X36.4011 Y2.7808
G01 X36.3813 Y2.7815
G01 X29.7923 Y2.7814
G01 X29.7793 Y2.7808
G01 X29.7664 Y2.7796
G01 X29.7536 Y2.7777
G01 X29.7409 Y2.7753
G01 X29.7221 Y2.7705
G01 X29.6477 Y2.7486
G01 X29.6293 Y2.7419
G01 X29.6114 Y2.7340
G01 X29.5941 Y2.7248
G01 X29.5776 Y2.7144
G01 X29.5670 Y2.7068
G01 X29.5518 Y2.6944
G01 X29.5421 Y2.6856
G01 X29.5023 Y2.6472
G01 X29.4889 Y2.6327
G01 X29.4806 Y2.6224
G01 X29.4745 Y2.6143
G01 X29.3409 Y2.4807
G01 X29.1863 Y2.3724
G01 X29.0153 Y2.2927
G01 X28.8330 Y2.2438
G01 X28.6450 Y2.2274
G01 X28.4570 Y2.2438
G01 X28.2747 Y2.2927
G01 X28.1037 Y2.3724
G01 X27.9491 Y2.4807
G01 X27.8155 Y2.6143
G01 X27.8014 Y2.6323
G01 X27.7928 Y2.6419
G01 X27.7837 Y2.6511
G01 X27.7742 Y2.6599
G01 X27.7643 Y2.6682
G01 X27.7089 Y2.7126
G01 X27.6931 Y2.7242
G01 X27.6822 Y2.7314
G01 X27.6709 Y2.7380
G01 X27.6535 Y2.7468
G01 X27.6354 Y2.7544
G01 X27.6169 Y2.7607
G01 X27.5980 Y2.7656
G01 X27.5438 Y2.7764
G01 X27.5242 Y2.7795
G01 X27.5111 Y2.7808
G01 X27.4913 Y2.7815
G01 X20.9023 Y2.7814
G01 X20.8893 Y2.7808
G01 X20.8764 Y2.7796
G01 X20.8636 Y2.7777
G01 X20.8509 Y2.7753
G01 X20.8321 Y2.7705
G01 X20.7577 Y2.7486
G01 X20.7393 Y2.7419
G01 X20.7214 Y2.7340
G01 X20.7041 Y2.7248
G01 X20.6876 Y2.7144
G01 X20.6770 Y2.7068
G01 X20.6618 Y2.6944
G01 X20.6521 Y2.6856
G01 X20.6123 Y2.6472
G01 X20.5989 Y2.6327
G01 X20.5906 Y2.6224
G01 X20.5845 Y2.6143
G01 X20.4509 Y2.4807
G01 X20.2963 Y2.3724
G01 X20.1253 Y2.2927
G01 X19.9430 Y2.2438
G01 X19.7550 Y2.2274
G01 X19.5670 Y2.2438
G01 X19.3847 Y2.2927
G01 X19.2137 Y2.3724
G01 X19.0591 Y2.4807
G01 X18.9255 Y2.6143
G01 X18.9114 Y2.6323
G01 X18.9028 Y2.6419
G01 X18.8937 Y2.6511
G01 X18.8842 Y2.6599
G01 X18.8743 Y2.6682
G01 X18.8189 Y2.7126
G01 X18.8031 Y2.7242
G01 X18.7866 Y2.7347
G01 X18.7694 Y2.7440
G01 X18.7575 Y2.7495
G01 X18.7454 Y2.7544
G01 X18.7269 Y2.7607
G01 X18.7080 Y2.7656
G01 X18.6538 Y2.7764
G01 X18.6342 Y2.7795
G01 X18.6211 Y2.7808
G01 X18.6013 Y2.7815
G01 X12.0123 Y2.7814
G01 X11.9993 Y2.7808
G01 X11.9864 Y2.7796
G01 X11.9736 Y2.7777
G01 X11.9609 Y2.7753
G01 X11.9421 Y2.7705
G01 X11.8677 Y2.7486
G01 X11.8493 Y2.7419
G01 X11.8314 Y2.7340
G01 X11.8141 Y2.7248
G01 X11.7976 Y2.7144
G01 X11.7870 Y2.7068
G01 X11.7718 Y2.6944
G01 X11.7621 Y2.6856
G01 X11.7223 Y2.6472
G01 X11.7089 Y2.6327
G01 X11.7006 Y2.6224
G01 X11.6945 Y2.6143
G01 X11.5609 Y2.4807
G01 X11.4063 Y2.3724
G01 X11.2353 Y2.2927
G01 X11.0530 Y2.2438
G01 X10.8650 Y2.2274
G01 X10.6770 Y2.2438
G01 X10.4947 Y2.2927
G01 X10.3237 Y2.3724
G01 X10.1691 Y2.4807
G01 X10.0357 Y2.6141
G01 X9.9274 Y2.7687
G01 X9.8477 Y2.9397
G01 X9.7988 Y3.1220
G01 X9.7824 Y3.3100
G01 X9.7988 Y3.4980
G01 X9.8477 Y3.6803
G01 X9.9274 Y3.8513
G01 X10.0357 Y4.0059
G01 X10.1691 Y4.1393
G01 X10.3328 Y4.2540
G01 X10.3433 Y4.2617
G01 X10.3582 Y4.2741
G01 X10.3722 Y4.2875
G01 X10.3852 Y4.3020
G01 X10.4336 Y4.3624
G01 X10.4418 Y4.3732
G01 X10.4494 Y4.3843
G01 X10.4565 Y4.3958
G01 X10.4630 Y4.4077
G01 X10.4688 Y4.4199
G01 X10.4765 Y4.4386
G01 X10.4809 Y4.4514
G01 X10.4845 Y4.4644
G01 X10.4889 Y4.4842
G01 X10.4917 Y4.5042
G01 X10.4996 Y4.5816
G01 X10.5005 Y4.6018
G01 X10.5002 Y4.6153
G01 X10.4992 Y4.6288
G01 X10.4976 Y4.6422
G01 X10.4953 Y4.6555
G01 X10.4924 Y4.6687
G01 X10.4888 Y4.6817
G01 X10.4845 Y4.6946
G01 X10.4797 Y4.7072
G01 X10.4712 Y4.7256
G01 X10.4392 Y4.7889
G01 X10.4329 Y4.8006
G01 X10.4225 Y4.8175
G01 X10.4149 Y4.8283
G01 X10.4068 Y4.8387
G01 X10.3981 Y4.8487
G01 X10.3890 Y4.8583
G01 X10.3795 Y4.8674
G01 X10.3496 Y4.8933
G01 X10.3385 Y4.9019
G01 X10.1691 Y5.0207
G01 X10.0355 Y5.1543
G01 X10.0256 Y5.1673
G01 X10.0172 Y5.1771
G01 X10.0083 Y5.1866
G01 X9.9990 Y5.1956
G01 X9.9843 Y5.2082
G01 X9.9237 Y5.2566
G01 X9.9077 Y5.2679
G01 X9.8966 Y5.2747
G01 X9.8852 Y5.2811
G01 X9.8675 Y5.2895
G01 X9.8554 Y5.2944
G01 X9.8369 Y5.3007
G01 X9.8243 Y5.3041
G01 X9.8116 Y5.3070
G01 X9.7573 Y5.3176
G01 X9.7377 Y5.3202
G01 X9.7179 Y5.3214
G01 X7.6983 Y5.3215
G01 X7.6854 Y5.3212
G01 X7.6725 Y5.3203
G01 X7.6596 Y5.3187
G01 X7.6469 Y5.3166
G01 X7.6279 Y5.3122
G01 X7.5536 Y5.2905
G01 X7.5407 Y5.2863
G01 X7.5280 Y5.2816
G01 X7.5095 Y5.2732
G01 X7.4975 Y5.2669
G01 X7.4801 Y5.2563
G01 X7.4636 Y5.2445
G01 X7.4531 Y5.2359
G01 X7.4430 Y5.2268
G01 X7.4005 Y5.1846
G01 X7.3916 Y5.1753
G01 X7.3832 Y5.1656
G01 X7.3752 Y5.1555
G01 X7.3677 Y5.1450
G01 X7.3569 Y5.1285
G01 X7.2265 Y4.9851
G01 X7.0744 Y4.8650
G01 X6.9048 Y4.7714
G01 X6.7221 Y4.7067
G01 X6.5313 Y4.6727
G01 X6.3375 Y4.6703
G01 X6.1459 Y4.6996
G01 X5.9617 Y4.7598
G01 X5.7898 Y4.8493
G01 X5.6349 Y4.9657
G01 X5.5010 Y5.1058
G01 X5.3918 Y5.2659
G01 X5.3102 Y5.4417
G01 X5.2584 Y5.6284
G01 X5.2378 Y5.8211
G01 X5.2490 Y6.0146
G01 X5.2916 Y6.2036
G01 X5.3645 Y6.3832
G01 X5.4657 Y6.5484
G01 X5.5267 Y6.6188
G01 X5.5349 Y6.6288
G01 X5.5427 Y6.6391
G01 X5.5534 Y6.6553
G01 X5.5598 Y6.6666
G01 X5.5658 Y6.6781
G01 X5.6007 Y6.7547
G01 X5.6057 Y6.7672
G01 X5.6101 Y6.7800
G01 X5.6154 Y6.7996
G01 X5.6193 Y6.8195
G01 X5.6217 Y6.8396
G01 X5.6224 Y6.8531
G01 X5.6225 Y6.8666
G01 X5.6219 Y6.8801
G01 X5.6207 Y6.8935
G01 X5.6097 Y6.9705
G01 X5.6074 Y6.9838
G01 X5.6028 Y7.0035
G01 X5.5967 Y7.0229
G01 X5.5919 Y7.0355
G01 X5.5864 Y7.0478
G01 X5.5771 Y7.0658
G01 X5.5702 Y7.0774
G01 X5.5626 Y7.0886
G01 X5.5503 Y7.1047
G01 X5.4995 Y7.1635
G01 X5.4862 Y7.1778
G01 X5.4768 Y7.1868
G01 X5.4669 Y7.1953
G01 X5.4567 Y7.2033
G01 X5.4461 Y7.2109
G01 X5.4351 Y7.2179
G01 X5.4181 Y7.2274
G01 X5.3964 Y7.2385
G01 X5.3830 Y7.2449
G01 X5.3216 Y7.2916
G01 X5.2755 Y7.3522
G01 X5.2467 Y7.4251
G01 X5.2420 Y7.4637
G01 X5.2420 Y7.7680
G01 X5.2480 Y7.7680
G01 X5.2480 Y7.4900
G01 X5.2483 Y7.4767
G01 X5.2493 Y7.4633
G01 X5.2509 Y7.4501
G01 X5.2532 Y7.4369
G01 X5.2562 Y7.4239
G01 X5.2597 Y7.4110
G01 X5.2662 Y7.3921
G01 X5.2713 Y7.3798
G01 X5.2770 Y7.3677
G01 X5.2867 Y7.3502
G01 X5.2938 Y7.3389
G01 X5.3056 Y7.3227
G01 X5.3185 Y7.3073
G01 X5.3324 Y7.2930
G01 X5.3474 Y7.2797
G01 X5.3634 Y7.2676
G01 X5.3802 Y7.2567
G01 X5.3918 Y7.2501
G01 X5.4098 Y7.2413
G01 X5.4284 Y7.2339
G01 X5.4475 Y7.2279
G01 X5.4669 Y7.2232
G01 X5.4867 Y7.2200
G01 X5.5067 Y7.2183
G01 X5.5200 Y7.2180
G01 X7.3200 Y7.2180
G01 X7.3333 Y7.2183
G01 X7.3533 Y7.2200
G01 X7.3731 Y7.2232
G01 X7.3925 Y7.2279
G01 X7.4053 Y7.2317
G01 X7.4179 Y7.2362
G01 X7.4363 Y7.2441
G01 X7.4482 Y7.2501
G01 X7.4598 Y7.2567
G01 X7.4766 Y7.2676
G01 X7.4926 Y7.2797
G01 X7.5027 Y7.2885
G01 X7.5123 Y7.2977
G01 X7.5260 Y7.3123
G01 X7.5344 Y7.3227
G01 X7.5424 Y7.3334
G01 X7.5533 Y7.3502
G01 X7.5599 Y7.3618
G01 X7.5687 Y7.3798
G01 X7.5738 Y7.3921
G01 X7.5803 Y7.4110
G01 X7.5854 Y7.4304
G01 X7.5891 Y7.4501
G01 X7.5913 Y7.4700
G01 X7.5920 Y7.4900
G01 X7.5920 Y7.7680
G01 X7.5980 Y7.7680
G01 X7.5980 Y7.4637
G01 X7.5933 Y7.4251
G01 X7.5645 Y7.3522
G01 X7.5184 Y7.2916
G01 X7.4561 Y7.2442
G01 X7.4371 Y7.2343
G01 X7.4260 Y7.2276
G01 X7.4153 Y7.2204
G01 X7.4049 Y7.2127
G01 X7.3489 Y7.1690
G01 X7.3334 Y7.1560
G01 X7.3189 Y7.1418
G01 X7.3055 Y7.1266
G01 X7.2972 Y7.1159
G01 X7.2895 Y7.1049
G01 X7.2789 Y7.0876
G01 X7.2726 Y7.0756
G01 X7.2669 Y7.0634
G01 X7.2595 Y7.0445
G01 X7.2339 Y6.9711
G01 X7.2301 Y6.9582
G01 X7.2269 Y6.9450
G01 X7.2233 Y6.9251
G01 X7.2213 Y6.9049
G01 X7.2208 Y6.8914
G01 X7.2209 Y6.8779
G01 X7.2224 Y6.8577
G01 X7.2254 Y6.8377
G01 X7.2282 Y6.8245
G01 X7.2446 Y6.7554
G01 X7.2482 Y6.7422
G01 X7.2523 Y6.7291
G01 X7.2572 Y6.7163
G01 X7.2627 Y6.7037
G01 X7.2688 Y6.6914
G01 X7.2755 Y6.6794
G01 X7.2866 Y6.6622
G01 X7.3037 Y6.6380
G01 X7.3170 Y6.6213
G01 X7.3763 Y6.5390
G01 X7.3885 Y6.5240
G01 X7.3973 Y6.5144
G01 X7.4065 Y6.5053
G01 X7.4161 Y6.4966
G01 X7.4261 Y6.4884
G01 X7.4875 Y6.4407
G01 X7.5043 Y6.4292
G01 X7.5219 Y6.4190
G01 X7.5340 Y6.4130
G01 X7.5465 Y6.4075
G01 X7.5591 Y6.4027
G01 X7.5721 Y6.3985
G01 X7.5918 Y6.3935
G01 X7.6510 Y6.3822
G01 X7.6701 Y6.3797
G01 X7.6828 Y6.3788
G01 X7.6956 Y6.3785
G01 X9.7113 Y6.3785
G01 X9.7242 Y6.3788
G01 X9.7436 Y6.3804
G01 X9.7627 Y6.3834
G01 X9.7817 Y6.3878
G01 X9.8560 Y6.4095
G01 X9.8685 Y6.4135
G01 X9.8867 Y6.4206
G01 X9.9044 Y6.4289
G01 X9.9215 Y6.4386
G01 X9.9378 Y6.4494
G01 X9.9482 Y6.4572
G01 X9.9631 Y6.4699
G01 X10.0077 Y6.5128
G01 X10.0211 Y6.5273
G01 X10.0294 Y6.5376
G01 X10.0355 Y6.5457
G01 X10.1691 Y6.6793
G01 X10.3237 Y6.7876
G01 X10.4947 Y6.8673
G01 X10.6770 Y6.9162
G01 X10.8650 Y6.9326
G01 X11.0530 Y6.9162
G01 X11.2353 Y6.8673
G01 X11.4063 Y6.7876
G01 X11.5609 Y6.6793
G01 X11.6943 Y6.5459
G01 X11.8026 Y6.3913
G01 X11.8823 Y6.2203
G01 X11.8838 Y6.2148
G01 X11.9312 Y6.0380
G01 X11.9476 Y5.8500
G01 X11.9312 Y5.6620
G01 X11.8823 Y5.4797
G01 X11.8026 Y5.3087
G01 X11.6943 Y5.1541
G01 X11.5609 Y5.0207
G01 X11.3972 Y4.9060
G01 X11.3817 Y4.8943
G01 X11.3718 Y4.8859
G01 X11.3578 Y4.8725
G01 X11.3448 Y4.8581
G01 X11.2964 Y4.7976
G01 X11.2882 Y4.7868
G01 X11.2770 Y4.7700
G01 X11.2702 Y4.7583
G01 X11.2640 Y4.7463
G01 X11.2584 Y4.7340
G01 X11.2535 Y4.7214
G01 X11.2491 Y4.7086
G01 X11.2438 Y4.6891
G01 X11.2411 Y4.6758
G01 X11.2383 Y4.6558
G01 X11.2310 Y4.5851
G01 X11.2297 Y4.5649
G01 X11.2296 Y4.5514
G01 X11.2302 Y4.5379
G01 X11.2324 Y4.5178
G01 X11.2347 Y4.5045
G01 X11.2376 Y4.4913
G01 X11.2412 Y4.4783
G01 X11.2455 Y4.4654
G01 X11.2530 Y4.4466
G01 X11.2588 Y4.4344
G01 X11.2908 Y4.3711
G01 X11.3004 Y4.3537
G01 X11.3075 Y4.3425
G01 X11.3151 Y4.3317
G01 X11.3232 Y4.3213
G01 X11.3319 Y4.3113
G01 X11.3410 Y4.3017
G01 X11.3505 Y4.2926
G01 X11.3751 Y4.2712
G01 X11.3859 Y4.2623
G01 X11.3972 Y4.2540
G01 X11.5609 Y4.1393
G01 X11.6945 Y4.0057
G01 X11.7086 Y3.9877
G01 X11.7172 Y3.9781
G01 X11.7263 Y3.9689
G01 X11.7358 Y3.9601
G01 X11.7457 Y3.9518
G01 X11.8011 Y3.9074
G01 X11.8169 Y3.8958
G01 X11.8334 Y3.8853
G01 X11.8506 Y3.8760
G01 X11.8625 Y3.8705
G01 X11.8746 Y3.8656
G01 X11.8931 Y3.8593
G01 X11.9120 Y3.8544
G01 X11.9727 Y3.8424
G01 X11.9858 Y3.8405
G01 X12.0055 Y3.8388
G01 X12.0187 Y3.8385
G01 X18.6013 Y3.8385
G01 X18.6207 Y3.8392
G01 X18.6400 Y3.8413
G01 X18.6527 Y3.8434
G01 X18.6654 Y3.8462
G01 X18.6779 Y3.8495
G01 X18.7460 Y3.8695
G01 X18.7585 Y3.8735
G01 X18.7767 Y3.8806
G01 X18.7944 Y3.8889
G01 X18.8059 Y3.8952
G01 X18.8170 Y3.9020
G01 X18.8330 Y3.9132
G01 X18.8433 Y3.9213
G01 X18.8531 Y3.9299
G01 X18.8977 Y3.9728
G01 X18.9111 Y3.9873
G01 X18.9194 Y3.9976
G01 X18.9255 Y4.0057
G01 X19.0591 Y4.1393
G01 X19.2228 Y4.2540
G01 X19.2383 Y4.2657
G01 X19.2530 Y4.2784
G01 X19.2622 Y4.2875
G01 X19.2752 Y4.3020
G01 X19.3236 Y4.3624
G01 X19.3318 Y4.3732
G01 X19.3394 Y4.3843
G01 X19.3498 Y4.4017
G01 X19.3560 Y4.4137
G01 X19.3616 Y4.4260
G01 X19.3688 Y4.4450
G01 X19.3745 Y4.4644
G01 X19.3776 Y4.4775
G01 X19.3800 Y4.4908
G01 X19.3817 Y4.5042
G01 X19.3890 Y4.5749
G01 X19.3901 Y4.5883
G01 X19.3905 Y4.6018
G01 X19.3902 Y4.6153
G01 X19.3885 Y4.6355
G01 X19.3853 Y4.6555
G01 X19.3806 Y4.6753
G01 X19.3745 Y4.6946
G01 X19.3670 Y4.7134
G01 X19.3612 Y4.7256
G01 X19.3261 Y4.7948
G01 X19.3196 Y4.8063
G01 X19.3125 Y4.8175
G01 X19.3009 Y4.8335
G01 X19.2881 Y4.8487
G01 X19.2743 Y4.8629
G01 X19.2449 Y4.8888
G01 X19.2341 Y4.8977
G01 X19.2228 Y4.9060
G01 X19.0591 Y5.0207
G01 X18.9255 Y5.1543
G01 X18.9114 Y5.1723
G01 X18.9028 Y5.1819
G01 X18.8937 Y5.1911
G01 X18.8842 Y5.1999
G01 X18.8743 Y5.2082
G01 X18.8189 Y5.2526
G01 X18.8085 Y5.2605
G01 X18.7922 Y5.2714
G01 X18.7809 Y5.2780
G01 X18.7694 Y5.2840
G01 X18.7515 Y5.2920
G01 X18.7331 Y5.2988
G01 X18.7206 Y5.3025
G01 X18.7016 Y5.3070
G01 X18.6473 Y5.3176
G01 X18.6277 Y5.3202
G01 X18.6145 Y5.3212
G01 X18.6013 Y5.3215
G01 X16.5883 Y5.3215
G01 X16.5754 Y5.3212
G01 X16.5625 Y5.3203
G01 X16.5496 Y5.3187
G01 X16.5369 Y5.3166
G01 X16.5179 Y5.3122
G01 X16.4436 Y5.2905
G01 X16.4307 Y5.2863
G01 X16.4180 Y5.2816
G01 X16.4056 Y5.2762
G01 X16.3875 Y5.2669
G01 X16.3701 Y5.2563
G01 X16.3536 Y5.2445
G01 X16.3431 Y5.2359
G01 X16.3330 Y5.2268
G01 X16.2905 Y5.1846
G01 X16.2816 Y5.1753
G01 X16.2732 Y5.1656
G01 X16.2652 Y5.1555
G01 X16.2577 Y5.1450
G01 X16.2469 Y5.1285
G01 X16.1165 Y4.9851
G01 X15.9644 Y4.8650
G01 X15.7948 Y4.7714
G01 X15.6121 Y4.7067
G01 X15.4213 Y4.6727
G01 X15.2275 Y4.6703
G01 X15.0359 Y4.6996
G01 X14.8517 Y4.7598
G01 X14.6798 Y4.8493
G01 X14.5249 Y4.9657
G01 X14.3910 Y5.1058
G01 X14.2818 Y5.2659
G01 X14.2002 Y5.4417
G01 X14.1484 Y5.6284
G01 X14.1278 Y5.8211
G01 X14.1390 Y6.0146
G01 X14.1816 Y6.2036
G01 X14.2545 Y6.3832
G01 X14.3557 Y6.5484
G01 X14.4167 Y6.6188
G01 X14.4249 Y6.6288
G01 X14.4327 Y6.6391
G01 X14.4399 Y6.6499
G01 X14.4498 Y6.6666
G01 X14.4558 Y6.6781
G01 X14.4907 Y6.7547
G01 X14.4957 Y6.7672
G01 X14.5001 Y6.7800
G01 X14.5038 Y6.7930
G01 X14.5069 Y6.8062
G01 X14.5103 Y6.8261
G01 X14.5121 Y6.8463
G01 X14.5125 Y6.8666
G01 X14.5119 Y6.8801
G01 X14.5107 Y6.8935
G01 X14.4997 Y6.9705
G01 X14.4974 Y6.9838
G01 X14.4928 Y7.0035
G01 X14.4867 Y7.0229
G01 X14.4819 Y7.0355
G01 X14.4764 Y7.0478
G01 X14.4704 Y7.0599
G01 X14.4637 Y7.0716
G01 X14.4526 Y7.0886
G01 X14.4403 Y7.1047
G01 X14.3895 Y7.1635
G01 X14.3762 Y7.1778
G01 X14.3668 Y7.1868
G01 X14.3569 Y7.1953
G01 X14.3467 Y7.2033
G01 X14.3361 Y7.2109
G01 X14.3251 Y7.2179
G01 X14.3081 Y7.2274
G01 X14.2864 Y7.2385
G01 X14.2730 Y7.2449
G01 X14.2116 Y7.2916
G01 X14.1655 Y7.3522
G01 X14.1367 Y7.4251
G01 X14.1320 Y7.4637
G01 X14.1320 Y7.7680
G01 X14.1380 Y7.7680
G01 X14.1380 Y7.4900
G01 X14.1383 Y7.4767
G01 X14.1393 Y7.4633
G01 X14.1409 Y7.4501
G01 X14.1432 Y7.4369
G01 X14.1462 Y7.4239
G01 X14.1497 Y7.4110
G01 X14.1562 Y7.3921
G01 X14.1613 Y7.3798
G01 X14.1670 Y7.3677
G01 X14.1733 Y7.3559
G01 X14.1838 Y7.3389
G01 X14.1956 Y7.3227
G01 X14.2085 Y7.3073
G01 X14.2177 Y7.2977
G01 X14.2323 Y7.2840
G01 X14.2480 Y7.2715
G01 X14.2645 Y7.2602
G01 X14.2818 Y7.2501
G01 X14.2998 Y7.2413
G01 X14.3184 Y7.2339
G01 X14.3375 Y7.2279
G01 X14.3569 Y7.2232
G01 X14.3767 Y7.2200
G01 X14.3967 Y7.2183
G01 X14.4100 Y7.2180
G01 X16.2100 Y7.2180
G01 X16.2233 Y7.2183
G01 X16.2433 Y7.2200
G01 X16.2631 Y7.2232
G01 X16.2825 Y7.2279
G01 X16.3016 Y7.2339
G01 X16.3141 Y7.2387
G01 X16.3263 Y7.2441
G01 X16.3382 Y7.2501
G01 X16.3555 Y7.2602
G01 X16.3666 Y7.2676
G01 X16.3773 Y7.2756
G01 X16.3927 Y7.2885
G01 X16.4023 Y7.2977
G01 X16.4160 Y7.3123
G01 X16.4244 Y7.3227
G01 X16.4324 Y7.3334
G01 X16.4398 Y7.3445
G01 X16.4499 Y7.3618
G01 X16.4587 Y7.3798
G01 X16.4638 Y7.3921
G01 X16.4703 Y7.4110
G01 X16.4754 Y7.4304
G01 X16.4791 Y7.4501
G01 X16.4813 Y7.4700
G01 X16.4820 Y7.4900
G01 X16.4820 Y7.7680
G01 X16.4880 Y7.7680
G01 X16.4880 Y7.4637
G01 X16.4833 Y7.4251
G01 X16.4545 Y7.3522
G01 X16.4084 Y7.2916
G01 X16.3461 Y7.2442
G01 X16.3271 Y7.2343
G01 X16.3160 Y7.2276
G01 X16.3053 Y7.2204
G01 X16.2949 Y7.2127
G01 X16.2389 Y7.1690
G01 X16.2234 Y7.1560
G01 X16.2089 Y7.1418
G01 X16.1955 Y7.1266
G01 X16.1872 Y7.1159
G01 X16.1795 Y7.1049
G01 X16.1723 Y7.0934
G01 X16.1626 Y7.0756
G01 X16.1569 Y7.0634
G01 X16.1495 Y7.0445
G01 X16.1239 Y6.9711
G01 X16.1201 Y6.9582
G01 X16.1169 Y6.9450
G01 X16.1133 Y6.9251
G01 X16.1113 Y6.9049
G01 X16.1108 Y6.8914
G01 X16.1109 Y6.8779
G01 X16.1124 Y6.8577
G01 X16.1154 Y6.8377
G01 X16.1182 Y6.8245
G01 X16.1346 Y6.7554
G01 X16.1382 Y6.7422
G01 X16.1423 Y6.7291
G01 X16.1472 Y6.7163
G01 X16.1527 Y6.7037
G01 X16.1620 Y6.6854
G01 X16.1691 Y6.6736
G01 X16.1766 Y6.6622
G01 X16.1937 Y6.6380
G01 X16.2070 Y6.6213
G01 X16.2663 Y6.5390
G01 X16.2785 Y6.5240
G01 X16.2873 Y6.5144
G01 X16.2965 Y6.5053
G01 X16.3061 Y6.4966
G01 X16.3161 Y6.4884
G01 X16.3775 Y6.4407
G01 X16.3943 Y6.4292
G01 X16.4119 Y6.4190
G01 X16.4240 Y6.4130
G01 X16.4365 Y6.4075
G01 X16.4491 Y6.4027
G01 X16.4621 Y6.3985
G01 X16.4818 Y6.3935
G01 X16.5410 Y6.3822
G01 X16.5537 Y6.3804
G01 X16.5665 Y6.3792
G01 X16.5856 Y6.3785
G01 X18.6013 Y6.3785
G01 X18.6142 Y6.3788
G01 X18.6336 Y6.3804
G01 X18.6527 Y6.3834
G01 X18.6717 Y6.3878
G01 X18.7460 Y6.4095
G01 X18.7585 Y6.4135
G01 X18.7767 Y6.4206
G01 X18.7944 Y6.4289
G01 X18.8115 Y6.4386
G01 X18.8278 Y6.4494
G01 X18.8433 Y6.4613
G01 X18.8531 Y6.4699
G01 X18.8977 Y6.5128
G01 X18.9111 Y6.5273
G01 X18.9194 Y6.5376
G01 X18.9255 Y6.5457
G01 X19.0591 Y6.6793
G01 X19.2137 Y6.7876
G01 X19.3847 Y6.8673
G01 X19.5670 Y6.9162
G01 X19.7550 Y6.9326
G01 X19.9430 Y6.9162
G01 X20.1253 Y6.8673
G01 X20.2963 Y6.7876
G01 X20.4509 Y6.6793
G01 X20.5843 Y6.5459
G01 X20.6926 Y6.3913
G01 X20.7723 Y6.2203
G01 X20.7738 Y6.2148
G01 X20.8212 Y6.0380
G01 X20.8376 Y5.8500
G01 X20.8212 Y5.6620
G01 X20.7723 Y5.4797
G01 X20.6926 Y5.3087
G01 X20.5843 Y5.1541
G01 X20.4509 Y5.0207
G01 X20.2872 Y4.9060
G01 X20.2767 Y4.8983
G01 X20.2618 Y4.8859
G01 X20.2478 Y4.8725
G01 X20.2348 Y4.8581
G01 X20.1864 Y4.7976
G01 X20.1782 Y4.7868
G01 X20.1706 Y4.7757
G01 X20.1635 Y4.7642
G01 X20.1570 Y4.7523
G01 X20.1484 Y4.7340
G01 X20.1435 Y4.7214
G01 X20.1391 Y4.7086
G01 X20.1338 Y4.6891
G01 X20.1311 Y4.6758
G01 X20.1283 Y4.6558
G01 X20.1210 Y4.5851
G01 X20.1197 Y4.5649
G01 X20.1196 Y4.5514
G01 X20.1202 Y4.5379
G01 X20.1224 Y4.5178
G01 X20.1247 Y4.5045
G01 X20.1276 Y4.4913
G01 X20.1312 Y4.4783
G01 X20.1355 Y4.4654
G01 X20.1430 Y4.4466
G01 X20.1488 Y4.4344
G01 X20.1808 Y4.3711
G01 X20.1904 Y4.3537
G01 X20.1975 Y4.3425
G01 X20.2051 Y4.3317
G01 X20.2132 Y4.3213
G01 X20.2219 Y4.3113
G01 X20.2310 Y4.3017
G01 X20.2405 Y4.2926
G01 X20.2651 Y4.2712
G01 X20.2759 Y4.2623
G01 X20.2872 Y4.2540
G01 X20.4509 Y4.1393
G01 X20.5845 Y4.0057
G01 X20.5986 Y3.9877
G01 X20.6072 Y3.9781
G01 X20.6163 Y3.9689
G01 X20.6258 Y3.9601
G01 X20.6357 Y3.9518
G01 X20.6911 Y3.9074
G01 X20.7069 Y3.8958
G01 X20.7234 Y3.8853
G01 X20.7406 Y3.8760
G01 X20.7585 Y3.8680
G01 X20.7707 Y3.8633
G01 X20.7831 Y3.8593
G01 X20.8020 Y3.8544
G01 X20.8627 Y3.8424
G01 X20.8823 Y3.8398
G01 X20.8955 Y3.8388
G01 X20.9087 Y3.8385
G01 X27.4913 Y3.8385
G01 X27.5107 Y3.8392
G01 X27.5300 Y3.8413
G01 X27.5427 Y3.8434
G01 X27.5554 Y3.8462
G01 X27.5679 Y3.8495
G01 X27.6360 Y3.8695
G01 X27.6485 Y3.8735
G01 X27.6667 Y3.8806
G01 X27.6844 Y3.8889
G01 X27.6959 Y3.8952
G01 X27.7070 Y3.9020
G01 X27.7230 Y3.9132
G01 X27.7333 Y3.9213
G01 X27.7431 Y3.9299
G01 X27.7877 Y3.9728
G01 X27.8011 Y3.9873
G01 X27.8094 Y3.9976
G01 X27.8155 Y4.0057
G01 X27.9491 Y4.1393
G01 X28.1128 Y4.2540
G01 X28.1283 Y4.2657
G01 X28.1430 Y4.2784
G01 X28.1522 Y4.2875
G01 X28.1652 Y4.3020
G01 X28.2136 Y4.3624
G01 X28.2218 Y4.3732
G01 X28.2294 Y4.3843
G01 X28.2398 Y4.4017
G01 X28.2460 Y4.4137
G01 X28.2516 Y4.4260
G01 X28.2588 Y4.4450
G01 X28.2645 Y4.4644
G01 X28.2676 Y4.4775
G01 X28.2700 Y4.4908
G01 X28.2717 Y4.5042
G01 X28.2790 Y4.5749
G01 X28.2801 Y4.5883
G01 X28.2805 Y4.6018
G01 X28.2802 Y4.6153
G01 X28.2785 Y4.6355
G01 X28.2753 Y4.6555
G01 X28.2706 Y4.6753
G01 X28.2645 Y4.6946
G01 X28.2570 Y4.7134
G01 X28.2512 Y4.7256
G01 X28.2161 Y4.7948
G01 X28.2061 Y4.8119
G01 X28.1988 Y4.8229
G01 X28.1909 Y4.8335
G01 X28.1781 Y4.8487
G01 X28.1643 Y4.8629
G01 X28.1349 Y4.8888
G01 X28.1241 Y4.8977
G01 X28.1128 Y4.9060
G01 X27.9491 Y5.0207
G01 X27.8155 Y5.1543
G01 X27.8014 Y5.1723
G01 X27.7928 Y5.1819
G01 X27.7837 Y5.1911
G01 X27.7742 Y5.1999
G01 X27.7643 Y5.2082
G01 X27.7089 Y5.2526
G01 X27.6985 Y5.2605
G01 X27.6822 Y5.2714
G01 X27.6652 Y5.2811
G01 X27.6475 Y5.2895
G01 X27.6354 Y5.2944
G01 X27.6231 Y5.2988
G01 X27.6106 Y5.3025
G01 X27.5916 Y5.3070
G01 X27.5373 Y5.3176
G01 X27.5177 Y5.3202
G01 X27.5045 Y5.3212
G01 X27.4913 Y5.3215
G01 X25.4783 Y5.3215
G01 X25.4654 Y5.3212
G01 X25.4525 Y5.3203
G01 X25.4396 Y5.3187
G01 X25.4269 Y5.3166
G01 X25.4079 Y5.3122
G01 X25.3336 Y5.2905
G01 X25.3207 Y5.2863
G01 X25.3080 Y5.2816
G01 X25.2956 Y5.2762
G01 X25.2775 Y5.2669
G01 X25.2601 Y5.2563
G01 X25.2436 Y5.2445
G01 X25.2331 Y5.2359
G01 X25.2230 Y5.2268
G01 X25.1805 Y5.1846
G01 X25.1716 Y5.1753
G01 X25.1632 Y5.1656
G01 X25.1552 Y5.1555
G01 X25.1477 Y5.1450
G01 X25.1369 Y5.1285
G01 X25.0065 Y4.9851
G01 X24.8544 Y4.8650
G01 X24.6848 Y4.7714
G01 X24.5021 Y4.7067
G01 X24.3113 Y4.6727
G01 X24.1175 Y4.6703
G01 X23.9259 Y4.6996
G01 X23.7417 Y4.7598
G01 X23.5698 Y4.8493
G01 X23.4149 Y4.9657
G01 X23.2810 Y5.1058
G01 X23.1718 Y5.2659
G01 X23.0902 Y5.4417
G01 X23.0384 Y5.6284
G01 X23.0178 Y5.8211
G01 X23.0290 Y6.0146
G01 X23.0716 Y6.2036
G01 X23.1445 Y6.3832
G01 X23.2457 Y6.5484
G01 X23.3067 Y6.6188
G01 X23.3149 Y6.6288
G01 X23.3227 Y6.6391
G01 X23.3299 Y6.6499
G01 X23.3398 Y6.6666
G01 X23.3458 Y6.6781
G01 X23.3807 Y6.7547
G01 X23.3857 Y6.7672
G01 X23.3901 Y6.7800
G01 X23.3938 Y6.7930
G01 X23.3969 Y6.8062
G01 X23.4003 Y6.8261
G01 X23.4021 Y6.8463
G01 X23.4025 Y6.8666
G01 X23.4019 Y6.8801
G01 X23.4007 Y6.8935
G01 X23.3897 Y6.9705
G01 X23.3860 Y6.9904
G01 X23.3828 Y7.0035
G01 X23.3767 Y7.0229
G01 X23.3719 Y7.0355
G01 X23.3664 Y7.0478
G01 X23.3571 Y7.0658
G01 X23.3502 Y7.0774
G01 X23.3426 Y7.0886
G01 X23.3303 Y7.1047
G01 X23.2795 Y7.1635
G01 X23.2662 Y7.1778
G01 X23.2568 Y7.1868
G01 X23.2469 Y7.1953
G01 X23.2367 Y7.2033
G01 X23.2261 Y7.2109
G01 X23.2151 Y7.2179
G01 X23.1981 Y7.2274
G01 X23.1764 Y7.2385
G01 X23.1630 Y7.2449
G01 X23.1016 Y7.2916
G01 X23.0555 Y7.3522
G01 X23.0267 Y7.4251
G01 X23.0220 Y7.4637
G01 X23.0220 Y7.7680
G01 X23.0280 Y7.7680
G01 X23.0280 Y7.4900
G01 X23.0283 Y7.4767
G01 X23.0293 Y7.4633
G01 X23.0309 Y7.4501
G01 X23.0332 Y7.4369
G01 X23.0362 Y7.4239
G01 X23.0397 Y7.4110
G01 X23.0462 Y7.3921
G01 X23.0513 Y7.3798
G01 X23.0570 Y7.3677
G01 X23.0633 Y7.3559
G01 X23.0738 Y7.3389
G01 X23.0856 Y7.3227
G01 X23.0985 Y7.3073
G01 X23.1124 Y7.2930
G01 X23.1223 Y7.2840
G01 X23.1380 Y7.2715
G01 X23.1545 Y7.2602
G01 X23.1718 Y7.2501
G01 X23.1898 Y7.2413
G01 X23.2084 Y7.2339
G01 X23.2275 Y7.2279
G01 X23.2469 Y7.2232
G01 X23.2667 Y7.2200
G01 X23.2867 Y7.2183
G01 X23.3000 Y7.2180
G01 X25.1000 Y7.2180
G01 X25.1133 Y7.2183
G01 X25.1333 Y7.2200
G01 X25.1531 Y7.2232
G01 X25.1725 Y7.2279
G01 X25.1916 Y7.2339
G01 X25.2041 Y7.2387
G01 X25.2163 Y7.2441
G01 X25.2282 Y7.2501
G01 X25.2455 Y7.2602
G01 X25.2566 Y7.2676
G01 X25.2673 Y7.2756
G01 X25.2827 Y7.2885
G01 X25.2923 Y7.2977
G01 X25.3060 Y7.3123
G01 X25.3144 Y7.3227
G01 X25.3224 Y7.3334
G01 X25.3298 Y7.3445
G01 X25.3399 Y7.3618
G01 X25.3487 Y7.3798
G01 X25.3538 Y7.3921
G01 X25.3603 Y7.4110
G01 X25.3654 Y7.4304
G01 X25.3691 Y7.4501
G01 X25.3713 Y7.4700
G01 X25.3720 Y7.4900
G01 X25.3720 Y7.7680
G01 X25.3780 Y7.7680
G01 X25.3780 Y7.4637
G01 X25.3733 Y7.4251
G01 X25.3445 Y7.3522
G01 X25.2984 Y7.2916
G01 X25.2361 Y7.2442
G01 X25.2171 Y7.2343
G01 X25.2060 Y7.2276
G01 X25.1953 Y7.2204
G01 X25.1849 Y7.2127
G01 X25.1289 Y7.1690
G01 X25.1134 Y7.1560
G01 X25.0989 Y7.1418
G01 X25.0855 Y7.1266
G01 X25.0772 Y7.1159
G01 X25.0658 Y7.0992
G01 X25.0589 Y7.0876
G01 X25.0526 Y7.0756
G01 X25.0469 Y7.0634
G01 X25.0395 Y7.0445
G01 X25.0139 Y6.9711
G01 X25.0084 Y6.9516
G01 X25.0055 Y6.9384
G01 X25.0033 Y6.9251
G01 X25.0013 Y6.9049
G01 X25.0008 Y6.8914
G01 X25.0009 Y6.8779
G01 X25.0024 Y6.8577
G01 X25.0054 Y6.8377
G01 X25.0082 Y6.8245
G01 X25.0246 Y6.7554
G01 X25.0282 Y6.7422
G01 X25.0323 Y6.7291
G01 X25.0372 Y6.7163
G01 X25.0427 Y6.7037
G01 X25.0520 Y6.6854
G01 X25.0591 Y6.6736
G01 X25.0666 Y6.6622
G01 X25.0837 Y6.6380
G01 X25.0970 Y6.6213
G01 X25.1563 Y6.5390
G01 X25.1685 Y6.5240
G01 X25.1773 Y6.5144
G01 X25.1865 Y6.5053
G01 X25.1961 Y6.4966
G01 X25.2061 Y6.4884
G01 X25.2675 Y6.4407
G01 X25.2843 Y6.4292
G01 X25.3019 Y6.4190
G01 X25.3140 Y6.4130
G01 X25.3265 Y6.4075
G01 X25.3391 Y6.4027
G01 X25.3521 Y6.3985
G01 X25.3718 Y6.3935
G01 X25.4310 Y6.3822
G01 X25.4437 Y6.3804
G01 X25.4565 Y6.3792
G01 X25.4756 Y6.3785
G01 X27.4913 Y6.3785
G01 X27.5042 Y6.3788
G01 X27.5236 Y6.3804
G01 X27.5427 Y6.3834
G01 X27.5617 Y6.3878
G01 X27.6360 Y6.4095
G01 X27.6485 Y6.4135
G01 X27.6667 Y6.4206
G01 X27.6844 Y6.4289
G01 X27.7015 Y6.4386
G01 X27.7178 Y6.4494
G01 X27.7333 Y6.4613
G01 X27.7431 Y6.4699
G01 X27.7877 Y6.5128
G01 X27.8011 Y6.5273
G01 X27.8094 Y6.5376
G01 X27.8155 Y6.5457
G01 X27.9491 Y6.6793
G01 X28.1037 Y6.7876
G01 X28.2747 Y6.8673
G01 X28.4570 Y6.9162
G01 X28.6450 Y6.9326
G01 X28.8330 Y6.9162
G01 X29.0153 Y6.8673
G01 X29.1863 Y6.7876
G01 X29.3409 Y6.6793
G01 X29.4743 Y6.5459
G01 X29.5826 Y6.3913
G01 X29.6623 Y6.2203
G01 X29.6638 Y6.2148
G01 X29.7112 Y6.0380
G01 X29.7276 Y5.8500
G01 X29.7112 Y5.6620
G01 X29.6623 Y5.4797
G01 X29.5826 Y5.3087
G01 X29.4743 Y5.1541
G01 X29.3409 Y5.0207
G01 X29.1772 Y4.9060
G01 X29.1667 Y4.8983
G01 X29.1518 Y4.8859
G01 X29.1378 Y4.8725
G01 X29.1248 Y4.8581
G01 X29.0764 Y4.7976
G01 X29.0682 Y4.7868
G01 X29.0606 Y4.7757
G01 X29.0535 Y4.7642
G01 X29.0470 Y4.7523
G01 X29.0384 Y4.7340
G01 X29.0335 Y4.7214
G01 X29.0291 Y4.7086
G01 X29.0238 Y4.6891
G01 X29.0211 Y4.6758
G01 X29.0183 Y4.6558
G01 X29.0110 Y4.5851
G01 X29.0097 Y4.5649
G01 X29.0096 Y4.5514
G01 X29.0102 Y4.5379
G01 X29.0124 Y4.5178
G01 X29.0147 Y4.5045
G01 X29.0176 Y4.4913
G01 X29.0212 Y4.4783
G01 X29.0255 Y4.4654
G01 X29.0330 Y4.4466
G01 X29.0388 Y4.4344
G01 X29.0708 Y4.3711
G01 X29.0804 Y4.3537
G01 X29.0875 Y4.3425
G01 X29.0951 Y4.3317
G01 X29.1032 Y4.3213
G01 X29.1119 Y4.3113
G01 X29.1210 Y4.3017
G01 X29.1305 Y4.2926
G01 X29.1551 Y4.2712
G01 X29.1659 Y4.2623
G01 X29.1772 Y4.2540
G01 X29.3409 Y4.1393
G01 X29.4745 Y4.0057
G01 X29.4886 Y3.9877
G01 X29.4972 Y3.9781
G01 X29.5063 Y3.9689
G01 X29.5158 Y3.9601
G01 X29.5257 Y3.9518
G01 X29.5811 Y3.9074
G01 X29.5969 Y3.8958
G01 X29.6078 Y3.8886
G01 X29.6191 Y3.8820
G01 X29.6365 Y3.8732
G01 X29.6546 Y3.8656
G01 X29.6731 Y3.8593
G01 X29.6920 Y3.8544
G01 X29.7527 Y3.8424
G01 X29.7658 Y3.8405
G01 X29.7855 Y3.8388
G01 X29.7987 Y3.8385
G01 X36.3813 Y3.8385
G01 X36.4007 Y3.8392
G01 X36.4200 Y3.8413
G01 X36.4327 Y3.8434
G01 X36.4454 Y3.8462
G01 X36.4579 Y3.8495
G01 X36.5260 Y3.8695
G01 X36.5385 Y3.8735
G01 X36.5567 Y3.8806
G01 X36.5744 Y3.8889
G01 X36.5859 Y3.8952
G01 X36.5970 Y3.9020
G01 X36.6130 Y3.9132
G01 X36.6233 Y3.9213
G01 X36.6331 Y3.9299
G01 X36.6777 Y3.9728
G01 X36.6911 Y3.9873
G01 X36.6994 Y3.9976
G01 X36.7055 Y4.0057
G01 X36.8391 Y4.1393
G01 X37.0028 Y4.2540
G01 X37.0183 Y4.2657
G01 X37.0330 Y4.2784
G01 X37.0422 Y4.2875
G01 X37.0552 Y4.3020
G01 X37.1036 Y4.3624
G01 X37.1118 Y4.3732
G01 X37.1194 Y4.3843
G01 X37.1298 Y4.4017
G01 X37.1360 Y4.4137
G01 X37.1416 Y4.4260
G01 X37.1488 Y4.4450
G01 X37.1545 Y4.4644
G01 X37.1576 Y4.4775
G01 X37.1600 Y4.4908
G01 X37.1617 Y4.5042
G01 X37.1690 Y4.5749
G01 X37.1701 Y4.5883
G01 X37.1705 Y4.6018
G01 X37.1702 Y4.6153
G01 X37.1685 Y4.6355
G01 X37.1653 Y4.6555
G01 X37.1606 Y4.6753
G01 X37.1545 Y4.6946
G01 X37.1470 Y4.7134
G01 X37.1412 Y4.7256
G01 X37.1061 Y4.7948
G01 X37.0961 Y4.8119
G01 X37.0888 Y4.8229
G01 X37.0809 Y4.8335
G01 X37.0681 Y4.8487
G01 X37.0543 Y4.8629
G01 X37.0249 Y4.8888
G01 X37.0141 Y4.8977
G01 X37.0028 Y4.9060
G01 X36.8391 Y5.0207
G01 X36.7055 Y5.1543
G01 X36.6914 Y5.1723
G01 X36.6828 Y5.1819
G01 X36.6737 Y5.1911
G01 X36.6642 Y5.1999
G01 X36.6543 Y5.2082
G01 X36.5989 Y5.2526
G01 X36.5885 Y5.2605
G01 X36.5722 Y5.2714
G01 X36.5609 Y5.2780
G01 X36.5494 Y5.2840
G01 X36.5315 Y5.2920
G01 X36.5131 Y5.2988
G01 X36.4943 Y5.3041
G01 X36.4816 Y5.3070
G01 X36.4273 Y5.3176
G01 X36.4077 Y5.3202
G01 X36.3945 Y5.3212
G01 X36.3813 Y5.3215
G01 X34.3683 Y5.3215
G01 X34.3554 Y5.3212
G01 X34.3425 Y5.3203
G01 X34.3296 Y5.3187
G01 X34.3169 Y5.3166
G01 X34.2979 Y5.3122
G01 X34.2236 Y5.2905
G01 X34.2107 Y5.2863
G01 X34.1980 Y5.2816
G01 X34.1795 Y5.2732
G01 X34.1675 Y5.2669
G01 X34.1501 Y5.2563
G01 X34.1336 Y5.2445
G01 X34.1231 Y5.2359
G01 X34.1130 Y5.2268
G01 X34.0705 Y5.1846
G01 X34.0616 Y5.1753
G01 X34.0532 Y5.1656
G01 X34.0452 Y5.1555
G01 X34.0377 Y5.1450
G01 X34.0269 Y5.1285
G01 X33.8965 Y4.9851
G01 X33.7444 Y4.8650
G01 X33.5748 Y4.7714
G01 X33.3921 Y4.7067
G01 X33.2013 Y4.6727
G01 X33.0075 Y4.6703
G01 X32.8159 Y4.6996
G01 X32.6317 Y4.7598
G01 X32.4598 Y4.8493
G01 X32.3049 Y4.9657
G01 X32.1710 Y5.1058
G01 X32.0618 Y5.2659
G01 X31.9802 Y5.4417
G01 X31.9284 Y5.6284
G01 X31.9078 Y5.8211
G01 X31.9190 Y6.0146
G01 X31.9616 Y6.2036
G01 X32.0345 Y6.3832
G01 X32.1357 Y6.5484
G01 X32.1967 Y6.6188
G01 X32.2049 Y6.6288
G01 X32.2127 Y6.6391
G01 X32.2199 Y6.6499
G01 X32.2298 Y6.6666
G01 X32.2358 Y6.6781
G01 X32.2707 Y6.7547
G01 X32.2757 Y6.7672
G01 X32.2801 Y6.7800
G01 X32.2838 Y6.7930
G01 X32.2869 Y6.8062
G01 X32.2903 Y6.8261
G01 X32.2921 Y6.8463
G01 X32.2925 Y6.8666
G01 X32.2919 Y6.8801
G01 X32.2907 Y6.8935
G01 X32.2797 Y6.9705
G01 X32.2760 Y6.9904
G01 X32.2728 Y7.0035
G01 X32.2667 Y7.0229
G01 X32.2619 Y7.0355
G01 X32.2564 Y7.0478
G01 X32.2471 Y7.0658
G01 X32.2402 Y7.0774
G01 X32.2326 Y7.0886
G01 X32.2203 Y7.1047
G01 X32.1695 Y7.1635
G01 X32.1562 Y7.1778
G01 X32.1468 Y7.1868
G01 X32.1369 Y7.1953
G01 X32.1267 Y7.2033
G01 X32.1161 Y7.2109
G01 X32.1051 Y7.2179
G01 X32.0881 Y7.2274
G01 X32.0664 Y7.2385
G01 X32.0530 Y7.2449
G01 X31.9916 Y7.2916
G01 X31.9455 Y7.3522
G01 X31.9167 Y7.4251
G01 X31.9120 Y7.4637
G01 X31.9120 Y7.7680
G01 X31.9180 Y7.7680
G01 X31.9180 Y7.4900
G01 X31.9183 Y7.4767
G01 X31.9193 Y7.4633
G01 X31.9209 Y7.4501
G01 X31.9232 Y7.4369
G01 X31.9262 Y7.4239
G01 X31.9297 Y7.4110
G01 X31.9362 Y7.3921
G01 X31.9413 Y7.3798
G01 X31.9470 Y7.3677
G01 X31.9533 Y7.3559
G01 X31.9638 Y7.3389
G01 X31.9756 Y7.3227
G01 X31.9885 Y7.3073
G01 X32.0024 Y7.2930
G01 X32.0123 Y7.2840
G01 X32.0280 Y7.2715
G01 X32.0445 Y7.2602
G01 X32.0618 Y7.2501
G01 X32.0798 Y7.2413
G01 X32.0984 Y7.2339
G01 X32.1175 Y7.2279
G01 X32.1369 Y7.2232
G01 X32.1567 Y7.2200
G01 X32.1767 Y7.2183
G01 X32.1900 Y7.2180
G01 X33.9900 Y7.2180
G01 X34.0033 Y7.2183
G01 X34.0233 Y7.2200
G01 X34.0431 Y7.2232
G01 X34.0625 Y7.2279
G01 X34.0816 Y7.2339
G01 X34.0941 Y7.2387
G01 X34.1063 Y7.2441
G01 X34.1182 Y7.2501
G01 X34.1355 Y7.2602
G01 X34.1466 Y7.2676
G01 X34.1573 Y7.2756
G01 X34.1727 Y7.2885
G01 X34.1823 Y7.2977
G01 X34.1960 Y7.3123
G01 X34.2044 Y7.3227
G01 X34.2124 Y7.3334
G01 X34.2198 Y7.3445
G01 X34.2299 Y7.3618
G01 X34.2387 Y7.3798
G01 X34.2438 Y7.3921
G01 X34.2503 Y7.4110
G01 X34.2554 Y7.4304
G01 X34.2591 Y7.4501
G01 X34.2613 Y7.4700
G01 X34.2620 Y7.4900
G01 X34.2620 Y7.7680
G01 X34.2680 Y7.7680
G01 X34.2680 Y7.4637
G01 X34.2633 Y7.4251
G01 X34.2345 Y7.3522
G01 X34.1884 Y7.2916
G01 X34.1261 Y7.2442
G01 X34.1071 Y7.2343
G01 X34.0960 Y7.2276
G01 X34.0853 Y7.2204
G01 X34.0749 Y7.2127
G01 X34.0189 Y7.1690
G01 X34.0034 Y7.1560
G01 X33.9889 Y7.1418
G01 X33.9755 Y7.1266
G01 X33.9672 Y7.1159
G01 X33.9558 Y7.0992
G01 X33.9489 Y7.0876
G01 X33.9426 Y7.0756
G01 X33.9369 Y7.0634
G01 X33.9295 Y7.0445
G01 X33.9039 Y6.9711
G01 X33.8984 Y6.9516
G01 X33.8955 Y6.9384
G01 X33.8933 Y6.9251
G01 X33.8913 Y6.9049
G01 X33.8908 Y6.8914
G01 X33.8909 Y6.8779
G01 X33.8924 Y6.8577
G01 X33.8954 Y6.8377
G01 X33.8982 Y6.8245
G01 X33.9146 Y6.7554
G01 X33.9182 Y6.7422
G01 X33.9223 Y6.7291
G01 X33.9272 Y6.7163
G01 X33.9327 Y6.7037
G01 X33.9420 Y6.6854
G01 X33.9491 Y6.6736
G01 X33.9566 Y6.6622
G01 X33.9737 Y6.6380
G01 X33.9870 Y6.6213
G01 X34.0463 Y6.5390
G01 X34.0585 Y6.5240
G01 X34.0673 Y6.5144
G01 X34.0765 Y6.5053
G01 X34.0861 Y6.4966
G01 X34.0961 Y6.4884
G01 X34.1575 Y6.4407
G01 X34.1743 Y6.4292
G01 X34.1919 Y6.4190
G01 X34.2040 Y6.4130
G01 X34.2165 Y6.4075
G01 X34.2291 Y6.4027
G01 X34.2421 Y6.3985
G01 X34.2618 Y6.3935
G01 X34.3210 Y6.3822
G01 X34.3337 Y6.3804
G01 X34.3465 Y6.3792
G01 X34.3656 Y6.3785
G01 X36.3813 Y6.3785
G01 X36.3942 Y6.3788
G01 X36.4136 Y6.3804
G01 X36.4327 Y6.3834
G01 X36.4517 Y6.3878
G01 X36.5260 Y6.4095
G01 X36.5385 Y6.4135
G01 X36.5567 Y6.4206
G01 X36.5744 Y6.4289
G01 X36.5915 Y6.4386
G01 X36.6078 Y6.4494
G01 X36.6182 Y6.4572
G01 X36.6331 Y6.4699
G01 X36.6777 Y6.5128
G01 X36.6911 Y6.5273
G01 X36.6994 Y6.5376
G01 X36.7055 Y6.5457
G01 X36.8391 Y6.6793
G01 X36.9937 Y6.7876
G01 X37.1647 Y6.8673
G01 X37.3470 Y6.9162
G01 X37.5350 Y6.9326
G01 X37.7230 Y6.9162
G01 X37.9053 Y6.8673
G01 X38.0763 Y6.7876
G01 X38.2309 Y6.6793
G01 X38.3643 Y6.5459
G01 X38.4726 Y6.3913
G01 X38.5523 Y6.2203
G01 X38.5538 Y6.2148
G01 X38.6012 Y6.0380
G01 X38.6176 Y5.8500
G01 X38.6012 Y5.6620
G01 X38.5523 Y5.4797
G01 X38.4726 Y5.3087
G01 X38.3643 Y5.1541
G01 X38.2309 Y5.0207
G01 X38.0672 Y4.9060
G01 X38.0567 Y4.8983
G01 X38.0418 Y4.8859
G01 X38.0278 Y4.8725
G01 X38.0148 Y4.8581
G01 X37.9664 Y4.7976
G01 X37.9582 Y4.7868
G01 X37.9470 Y4.7700
G01 X37.9402 Y4.7583
G01 X37.9340 Y4.7463
G01 X37.9284 Y4.7340
G01 X37.9212 Y4.7150
G01 X37.9172 Y4.7021
G01 X37.9138 Y4.6891
G01 X37.9111 Y4.6758
G01 X37.9083 Y4.6558
G01 X37.9010 Y4.5851
G01 X37.8997 Y4.5649
G01 X37.8998 Y4.5447
G01 X37.9008 Y4.5312
G01 X37.9024 Y4.5178
G01 X37.9047 Y4.5045
G01 X37.9094 Y4.4847
G01 X37.9133 Y4.4718
G01 X37.9178 Y4.4591
G01 X37.9230 Y4.4466
G01 X37.9288 Y4.4344
G01 X37.9608 Y4.3711
G01 X37.9671 Y4.3594
G01 X37.9739 Y4.3481
G01 X37.9812 Y4.3371
G01 X37.9932 Y4.3213
G01 X38.0063 Y4.3065
G01 X38.0157 Y4.2971
G01 X38.0255 Y4.2882
G01 X38.0504 Y4.2667
G01 X38.0615 Y4.2581
G01 X38.2309 Y4.1393
G01 X38.3645 Y4.0057
G01 X38.3786 Y3.9877
G01 X38.3872 Y3.9781
G01 X38.3963 Y3.9689
G01 X38.4058 Y3.9601
G01 X38.4157 Y3.9518
G01 X38.4711 Y3.9074
G01 X38.4869 Y3.8958
G01 X38.4978 Y3.8886
G01 X38.5091 Y3.8820
G01 X38.5265 Y3.8732
G01 X38.5446 Y3.8656
G01 X38.5631 Y3.8593
G01 X38.5820 Y3.8544
G01 X38.6362 Y3.8436
G01 X38.6492 Y3.8414
G01 X38.6689 Y3.8392
G01 X38.6887 Y3.8385
G01 X45.2713 Y3.8385
G01 X45.2907 Y3.8392
G01 X45.3100 Y3.8413
G01 X45.3227 Y3.8434
G01 X45.3354 Y3.8462
G01 X45.3479 Y3.8495
G01 X45.4160 Y3.8695
G01 X45.4285 Y3.8735
G01 X45.4467 Y3.8806
G01 X45.4644 Y3.8889
G01 X45.4759 Y3.8952
G01 X45.4870 Y3.9020
G01 X45.5030 Y3.9132
G01 X45.5133 Y3.9213
G01 X45.5231 Y3.9299
G01 X45.5677 Y3.9728
G01 X45.5811 Y3.9873
G01 X45.5894 Y3.9976
G01 X45.5955 Y4.0057
G01 X45.7291 Y4.1393
G01 X45.8928 Y4.2540
G01 X45.9083 Y4.2657
G01 X45.9230 Y4.2784
G01 X45.9322 Y4.2875
G01 X45.9452 Y4.3020
G01 X45.9936 Y4.3624
G01 X46.0018 Y4.3732
G01 X46.0094 Y4.3843
G01 X46.0198 Y4.4017
G01 X46.0260 Y4.4137
G01 X46.0316 Y4.4260
G01 X46.0388 Y4.4450
G01 X46.0445 Y4.4644
G01 X46.0476 Y4.4775
G01 X46.0500 Y4.4908
G01 X46.0517 Y4.5042
G01 X46.0590 Y4.5749
G01 X46.0601 Y4.5883
G01 X46.0605 Y4.6018
G01 X46.0602 Y4.6153
G01 X46.0585 Y4.6355
G01 X46.0553 Y4.6555
G01 X46.0506 Y4.6753
G01 X46.0445 Y4.6946
G01 X46.0370 Y4.7134
G01 X46.0312 Y4.7256
G01 X45.9961 Y4.7948
G01 X45.9896 Y4.8063
G01 X45.9825 Y4.8175
G01 X45.9709 Y4.8335
G01 X45.9581 Y4.8487
G01 X45.9443 Y4.8629
G01 X45.9149 Y4.8888
G01 X45.9041 Y4.8977
G01 X45.8928 Y4.9060
G01 X45.7291 Y5.0207
G01 X45.5955 Y5.1543
G01 X45.5814 Y5.1723
G01 X45.5728 Y5.1819
G01 X45.5637 Y5.1911
G01 X45.5542 Y5.1999
G01 X45.5443 Y5.2082
G01 X45.4889 Y5.2526
G01 X45.4785 Y5.2605
G01 X45.4622 Y5.2714
G01 X45.4509 Y5.2780
G01 X45.4394 Y5.2840
G01 X45.4215 Y5.2920
G01 X45.4031 Y5.2988
G01 X45.3843 Y5.3041
G01 X45.3716 Y5.3070
G01 X45.3173 Y5.3176
G01 X45.2977 Y5.3202
G01 X45.2845 Y5.3212
G01 X45.2713 Y5.3215
G01 X43.2583 Y5.3215
G01 X43.2454 Y5.3212
G01 X43.2325 Y5.3203
G01 X43.2196 Y5.3187
G01 X43.2069 Y5.3166
G01 X43.1879 Y5.3122
G01 X43.1136 Y5.2905
G01 X43.1007 Y5.2863
G01 X43.0880 Y5.2816
G01 X43.0695 Y5.2732
G01 X43.0575 Y5.2669
G01 X43.0401 Y5.2563
G01 X43.0236 Y5.2445
G01 X43.0131 Y5.2359
G01 X43.0030 Y5.2268
G01 X42.9605 Y5.1846
G01 X42.9516 Y5.1753
G01 X42.9432 Y5.1656
G01 X42.9352 Y5.1555
G01 X42.9277 Y5.1450
G01 X42.9169 Y5.1285
G01 X42.7865 Y4.9851
G01 X42.6344 Y4.8650
G01 X42.4648 Y4.7714
G01 X42.2821 Y4.7067
G01 X42.0913 Y4.6727
G01 X41.8975 Y4.6703
G01 X41.7059 Y4.6996
G01 X41.5217 Y4.7598
G01 X41.3498 Y4.8493
G01 X41.1949 Y4.9657
G01 X41.0610 Y5.1058
G01 X40.9518 Y5.2659
G01 X40.8702 Y5.4417
G01 X40.8184 Y5.6284
G01 X40.7978 Y5.8211
G01 X40.8090 Y6.0146
G01 X40.8516 Y6.2036
G01 X40.9245 Y6.3832
G01 X41.0257 Y6.5484
G01 X41.0867 Y6.6188
G01 X41.0949 Y6.6288
G01 X41.1027 Y6.6391
G01 X41.1099 Y6.6499
G01 X41.1167 Y6.6609
G01 X41.1258 Y6.6781
G01 X41.1607 Y6.7547
G01 X41.1657 Y6.7672
G01 X41.1701 Y6.7800
G01 X41.1754 Y6.7996
G01 X41.1793 Y6.8195
G01 X41.1817 Y6.8396
G01 X41.1824 Y6.8531
G01 X41.1825 Y6.8666
G01 X41.1819 Y6.8801
G01 X41.1807 Y6.8935
G01 X41.1697 Y6.9705
G01 X41.1660 Y6.9904
G01 X41.1628 Y7.0035
G01 X41.1567 Y7.0229
G01 X41.1519 Y7.0355
G01 X41.1464 Y7.0478
G01 X41.1371 Y7.0658
G01 X41.1302 Y7.0774
G01 X41.1226 Y7.0886
G01 X41.1103 Y7.1047
G01 X41.0595 Y7.1635
G01 X41.0462 Y7.1778
G01 X41.0368 Y7.1868
G01 X41.0269 Y7.1953
G01 X41.0167 Y7.2033
G01 X41.0061 Y7.2109
G01 X40.9951 Y7.2179
G01 X40.9781 Y7.2274
G01 X40.9564 Y7.2385
G01 X40.9430 Y7.2449
G01 X40.8816 Y7.2916
G01 X40.8355 Y7.3522
G01 X40.8067 Y7.4251
G01 X40.8020 Y7.4637
G01 X40.8020 Y7.7680
G01 X40.8080 Y7.7680
G01 X40.8080 Y7.4900
G01 X40.8083 Y7.4767
G01 X40.8093 Y7.4633
G01 X40.8109 Y7.4501
G01 X40.8132 Y7.4369
G01 X40.8162 Y7.4239
G01 X40.8197 Y7.4110
G01 X40.8262 Y7.3921
G01 X40.8313 Y7.3798
G01 X40.8370 Y7.3677
G01 X40.8433 Y7.3559
G01 X40.8538 Y7.3389
G01 X40.8656 Y7.3227
G01 X40.8785 Y7.3073
G01 X40.8877 Y7.2977
G01 X40.9023 Y7.2840
G01 X40.9180 Y7.2715
G01 X40.9345 Y7.2602
G01 X40.9518 Y7.2501
G01 X40.9698 Y7.2413
G01 X40.9884 Y7.2339
G01 X41.0075 Y7.2279
G01 X41.0269 Y7.2232
G01 X41.0467 Y7.2200
G01 X41.0667 Y7.2183
G01 X41.0800 Y7.2180
G01 X42.8800 Y7.2180
G01 X42.8933 Y7.2183
G01 X42.9133 Y7.2200
G01 X42.9331 Y7.2232
G01 X42.9525 Y7.2279
G01 X42.9716 Y7.2339
G01 X42.9841 Y7.2387
G01 X42.9963 Y7.2441
G01 X43.0082 Y7.2501
G01 X43.0255 Y7.2602
G01 X43.0366 Y7.2676
G01 X43.0473 Y7.2756
G01 X43.0627 Y7.2885
G01 X43.0723 Y7.2977
G01 X43.0860 Y7.3123
G01 X43.0944 Y7.3227
G01 X43.1024 Y7.3334
G01 X43.1098 Y7.3445
G01 X43.1199 Y7.3618
G01 X43.1287 Y7.3798
G01 X43.1338 Y7.3921
G01 X43.1403 Y7.4110
G01 X43.1454 Y7.4304
G01 X43.1491 Y7.4501
G01 X43.1513 Y7.4700
G01 X43.1520 Y7.4900
G01 X43.1520 Y7.7680
G01 X43.1580 Y7.7680
G01 X43.1580 Y7.4637
G01 X43.1533 Y7.4251
G01 X43.1245 Y7.3522
G01 X43.0784 Y7.2916
G01 X43.0161 Y7.2442
G01 X42.9971 Y7.2343
G01 X42.9860 Y7.2276
G01 X42.9753 Y7.2204
G01 X42.9649 Y7.2127
G01 X42.9089 Y7.1690
G01 X42.8934 Y7.1560
G01 X42.8789 Y7.1418
G01 X42.8655 Y7.1266
G01 X42.8572 Y7.1159
G01 X42.8458 Y7.0992
G01 X42.8389 Y7.0876
G01 X42.8326 Y7.0756
G01 X42.8269 Y7.0634
G01 X42.8195 Y7.0445
G01 X42.7939 Y6.9711
G01 X42.7884 Y6.9516
G01 X42.7855 Y6.9384
G01 X42.7833 Y6.9251
G01 X42.7813 Y6.9049
G01 X42.7808 Y6.8914
G01 X42.7809 Y6.8779
G01 X42.7824 Y6.8577
G01 X42.7854 Y6.8377
G01 X42.7882 Y6.8245
G01 X42.8046 Y6.7554
G01 X42.8082 Y6.7422
G01 X42.8123 Y6.7291
G01 X42.8172 Y6.7163
G01 X42.8227 Y6.7037
G01 X42.8320 Y6.6854
G01 X42.8391 Y6.6736
G01 X42.8466 Y6.6622
G01 X42.8637 Y6.6380
G01 X42.8770 Y6.6213
G01 X42.9363 Y6.5390
G01 X42.9485 Y6.5240
G01 X42.9573 Y6.5144
G01 X42.9665 Y6.5053
G01 X42.9761 Y6.4966
G01 X42.9861 Y6.4884
G01 X43.0475 Y6.4407
G01 X43.0643 Y6.4292
G01 X43.0819 Y6.4190
G01 X43.0940 Y6.4130
G01 X43.1065 Y6.4075
G01 X43.1191 Y6.4027
G01 X43.1321 Y6.3985
G01 X43.1518 Y6.3935
G01 X43.2110 Y6.3822
G01 X43.2237 Y6.3804
G01 X43.2365 Y6.3792
G01 X43.2556 Y6.3785
G01 X45.2713 Y6.3785
G01 X45.2842 Y6.3788
G01 X45.3036 Y6.3804
G01 X45.3227 Y6.3834
G01 X45.3417 Y6.3878
G01 X45.4160 Y6.4095
G01 X45.4285 Y6.4135
G01 X45.4467 Y6.4206
G01 X45.4644 Y6.4289
G01 X45.4815 Y6.4386
G01 X45.4978 Y6.4494
G01 X45.5082 Y6.4572
G01 X45.5231 Y6.4699
G01 X45.5677 Y6.5128
G01 X45.5811 Y6.5273
G01 X45.5894 Y6.5376
G01 X45.5955 Y6.5457
G01 X45.7291 Y6.6793
G01 X45.8837 Y6.7876
G01 X46.0547 Y6.8673
G01 X46.2370 Y6.9162
G01 X46.4250 Y6.9326
G01 X46.6130 Y6.9162
G01 X46.7953 Y6.8673
G01 X46.9663 Y6.7876
G01 X47.1209 Y6.6793
G01 X47.2543 Y6.5459
G01 X47.3626 Y6.3913
G01 X47.4423 Y6.2203
G01 X47.4438 Y6.2148
G01 X47.4912 Y6.0380
G01 X47.5076 Y5.8500
G01 X47.4912 Y5.6620
G01 X47.4423 Y5.4797
G01 X47.3626 Y5.3087
G01 X47.2543 Y5.1541
G01 X47.1209 Y5.0207
G01 X46.9572 Y4.9060
G01 X46.9467 Y4.8983
G01 X46.9318 Y4.8859
G01 X46.9178 Y4.8725
G01 X46.9048 Y4.8581
G01 X46.8564 Y4.7976
G01 X46.8482 Y4.7868
G01 X46.8370 Y4.7700
G01 X46.8302 Y4.7583
G01 X46.8240 Y4.7463
G01 X46.8184 Y4.7340
G01 X46.8112 Y4.7150
G01 X46.8072 Y4.7021
G01 X46.8038 Y4.6891
G01 X46.8011 Y4.6758
G01 X46.7983 Y4.6558
G01 X46.7910 Y4.5851
G01 X46.7897 Y4.5649
G01 X46.7898 Y4.5447
G01 X46.7908 Y4.5312
G01 X46.7924 Y4.5178
G01 X46.7947 Y4.5045
G01 X46.7994 Y4.4847
G01 X46.8033 Y4.4718
G01 X46.8078 Y4.4591
G01 X46.8130 Y4.4466
G01 X46.8188 Y4.4344
G01 X46.8508 Y4.3711
G01 X46.8571 Y4.3594
G01 X46.8639 Y4.3481
G01 X46.8712 Y4.3371
G01 X46.8832 Y4.3213
G01 X46.8963 Y4.3065
G01 X46.9057 Y4.2971
G01 X46.9155 Y4.2882
G01 X46.9404 Y4.2667
G01 X46.9515 Y4.2581
G01 X47.1209 Y4.1393
G01 X47.2545 Y4.0057
G01 X47.2686 Y3.9877
G01 X47.2772 Y3.9781
G01 X47.2863 Y3.9689
G01 X47.2958 Y3.9601
G01 X47.3057 Y3.9518
G01 X47.3611 Y3.9074
G01 X47.3769 Y3.8958
G01 X47.3934 Y3.8853
G01 X47.4048 Y3.8789
G01 X47.4165 Y3.8732
G01 X47.4346 Y3.8656
G01 X47.4531 Y3.8593
G01 X47.4720 Y3.8544
G01 X47.5262 Y3.8436
G01 X47.5392 Y3.8414
G01 X47.5589 Y3.8392
G01 X47.5787 Y3.8385
G01 X54.1613 Y3.8385
G01 X54.1807 Y3.8392
G01 X54.2000 Y3.8413
G01 X54.2127 Y3.8434
G01 X54.2254 Y3.8462
G01 X54.2379 Y3.8495
G01 X54.3060 Y3.8695
G01 X54.3185 Y3.8735
G01 X54.3367 Y3.8806
G01 X54.3544 Y3.8889
G01 X54.3659 Y3.8952
G01 X54.3770 Y3.9020
G01 X54.3930 Y3.9132
G01 X54.4033 Y3.9213
G01 X54.4131 Y3.9299
G01 X54.4577 Y3.9728
G01 X54.4711 Y3.9873
G01 X54.4794 Y3.9976
G01 X54.4855 Y4.0057
G01 X54.6191 Y4.1393
G01 X54.7828 Y4.2540
G01 X54.7983 Y4.2657
G01 X54.8130 Y4.2784
G01 X54.8266 Y4.2922
G01 X54.8352 Y4.3020
G01 X54.8836 Y4.3624
G01 X54.8918 Y4.3732
G01 X54.8994 Y4.3843
G01 X54.9098 Y4.4017
G01 X54.9188 Y4.4199
G01 X54.9241 Y4.4323
G01 X54.9288 Y4.4450
G01 X54.9328 Y4.4579
G01 X54.9362 Y4.4709
G01 X54.9400 Y4.4908
G01 X54.9417 Y4.5042
G01 X54.9490 Y4.5749
G01 X54.9501 Y4.5883
G01 X54.9505 Y4.6018
G01 X54.9502 Y4.6153
G01 X54.9485 Y4.6355
G01 X54.9453 Y4.6555
G01 X54.9406 Y4.6753
G01 X54.9345 Y4.6946
G01 X54.9270 Y4.7134
G01 X54.9212 Y4.7256
G01 X54.8861 Y4.7948
G01 X54.8796 Y4.8063
G01 X54.8725 Y4.8175
G01 X54.8609 Y4.8335
G01 X54.8481 Y4.8487
G01 X54.8343 Y4.8629
G01 X54.8049 Y4.8888
G01 X54.7941 Y4.8977
G01 X54.7828 Y4.9060
G01 X54.6191 Y5.0207
G01 X54.4855 Y5.1543
G01 X54.4714 Y5.1723
G01 X54.4628 Y5.1819
G01 X54.4537 Y5.1911
G01 X54.4442 Y5.1999
G01 X54.4343 Y5.2082
G01 X54.3789 Y5.2526
G01 X54.3685 Y5.2605
G01 X54.3522 Y5.2714
G01 X54.3409 Y5.2780
G01 X54.3294 Y5.2840
G01 X54.3115 Y5.2920
G01 X54.2931 Y5.2988
G01 X54.2743 Y5.3041
G01 X54.2616 Y5.3070
G01 X54.2073 Y5.3176
G01 X54.1877 Y5.3202
G01 X54.1745 Y5.3212
G01 X54.1613 Y5.3215
G01 X52.1483 Y5.3215
G01 X52.1354 Y5.3212
G01 X52.1225 Y5.3203
G01 X52.1096 Y5.3187
G01 X52.0969 Y5.3166
G01 X52.0779 Y5.3122
G01 X52.0036 Y5.2905
G01 X51.9907 Y5.2863
G01 X51.9780 Y5.2816
G01 X51.9595 Y5.2732
G01 X51.9475 Y5.2669
G01 X51.9301 Y5.2563
G01 X51.9136 Y5.2445
G01 X51.9031 Y5.2359
G01 X51.8930 Y5.2268
G01 X51.8505 Y5.1846
G01 X51.8416 Y5.1753
G01 X51.8332 Y5.1656
G01 X51.8252 Y5.1555
G01 X51.8177 Y5.1450
G01 X51.8069 Y5.1285
G01 X51.6765 Y4.9851
G01 X51.5244 Y4.8650
G01 X51.3548 Y4.7714
G01 X51.1721 Y4.7067
G01 X50.9813 Y4.6727
G01 X50.7875 Y4.6703
G01 X50.5959 Y4.6996
G01 X50.4117 Y4.7598
G01 X50.2398 Y4.8493
G01 X50.0849 Y4.9657
G01 X49.9510 Y5.1058
G01 X49.8418 Y5.2659
G01 X49.7602 Y5.4417
G01 X49.7084 Y5.6284
G01 X49.6878 Y5.8211
G01 X49.6990 Y6.0146
G01 X49.7416 Y6.2036
G01 X49.8145 Y6.3832
G01 X49.9157 Y6.5484
G01 X49.9767 Y6.6188
G01 X49.9849 Y6.6288
G01 X49.9927 Y6.6391
G01 X49.9999 Y6.6499
G01 X50.0067 Y6.6609
G01 X50.0158 Y6.6781
G01 X50.0507 Y6.7547
G01 X50.0557 Y6.7672
G01 X50.0601 Y6.7800
G01 X50.0654 Y6.7996
G01 X50.0693 Y6.8195
G01 X50.0717 Y6.8396
G01 X50.0724 Y6.8531
G01 X50.0725 Y6.8666
G01 X50.0719 Y6.8801
G01 X50.0707 Y6.8935
G01 X50.0597 Y6.9705
G01 X50.0560 Y6.9904
G01 X50.0528 Y7.0035
G01 X50.0467 Y7.0229
G01 X50.0419 Y7.0355
G01 X50.0364 Y7.0478
G01 X50.0271 Y7.0658
G01 X50.0202 Y7.0774
G01 X50.0126 Y7.0886
G01 X50.0003 Y7.1047
G01 X49.9495 Y7.1635
G01 X49.9362 Y7.1778
G01 X49.9268 Y7.1868
G01 X49.9169 Y7.1953
G01 X49.9067 Y7.2033
G01 X49.8961 Y7.2109
G01 X49.8851 Y7.2179
G01 X49.8681 Y7.2274
G01 X49.8464 Y7.2385
G01 X49.8330 Y7.2449
G01 X49.7716 Y7.2916
G01 X49.7255 Y7.3522
G01 X49.6967 Y7.4251
G01 X49.6920 Y7.4637
G01 X49.6920 Y7.7680
G01 X49.6980 Y7.7680
G01 X49.6980 Y7.4900
G01 X49.6983 Y7.4767
G01 X49.6993 Y7.4633
G01 X49.7009 Y7.4501
G01 X49.7032 Y7.4369
G01 X49.7062 Y7.4239
G01 X49.7097 Y7.4110
G01 X49.7162 Y7.3921
G01 X49.7213 Y7.3798
G01 X49.7270 Y7.3677
G01 X49.7333 Y7.3559
G01 X49.7438 Y7.3389
G01 X49.7556 Y7.3227
G01 X49.7685 Y7.3073
G01 X49.7824 Y7.2930
G01 X49.7923 Y7.2840
G01 X49.8080 Y7.2715
G01 X49.8245 Y7.2602
G01 X49.8418 Y7.2501
G01 X49.8598 Y7.2413
G01 X49.8784 Y7.2339
G01 X49.8975 Y7.2279
G01 X49.9169 Y7.2232
G01 X49.9367 Y7.2200
G01 X49.9567 Y7.2183
G01 X49.9700 Y7.2180
G01 X51.7700 Y7.2180
G01 X51.7833 Y7.2183
G01 X51.8033 Y7.2200
G01 X51.8231 Y7.2232
G01 X51.8425 Y7.2279
G01 X51.8616 Y7.2339
G01 X51.8741 Y7.2387
G01 X51.8863 Y7.2441
G01 X51.8982 Y7.2501
G01 X51.9155 Y7.2602
G01 X51.9266 Y7.2676
G01 X51.9373 Y7.2756
G01 X51.9527 Y7.2885
G01 X51.9623 Y7.2977
G01 X51.9760 Y7.3123
G01 X51.9844 Y7.3227
G01 X51.9924 Y7.3334
G01 X51.9998 Y7.3445
G01 X52.0099 Y7.3618
G01 X52.0187 Y7.3798
G01 X52.0238 Y7.3921
G01 X52.0303 Y7.4110
G01 X52.0354 Y7.4304
G01 X52.0391 Y7.4501
G01 X52.0413 Y7.4700
G01 X52.0420 Y7.4900
G01 X52.0420 Y7.7680
G01 X52.0480 Y7.7680
G01 X52.0480 Y7.4637
G01 X52.0433 Y7.4251
G01 X52.0145 Y7.3522
G01 X51.9684 Y7.2916
G01 X51.9061 Y7.2442
G01 X51.8871 Y7.2343
G01 X51.8760 Y7.2276
G01 X51.8653 Y7.2204
G01 X51.8549 Y7.2127
G01 X51.7989 Y7.1690
G01 X51.7884 Y7.1605
G01 X51.7736 Y7.1467
G01 X51.7599 Y7.1318
G01 X51.7472 Y7.1159
G01 X51.7358 Y7.0992
G01 X51.7289 Y7.0876
G01 X51.7226 Y7.0756
G01 X51.7169 Y7.0634
G01 X51.7095 Y7.0445
G01 X51.6839 Y6.9711
G01 X51.6801 Y6.9582
G01 X51.6769 Y6.9450
G01 X51.6733 Y6.9251
G01 X51.6713 Y6.9049
G01 X51.6708 Y6.8914
G01 X51.6709 Y6.8779
G01 X51.6724 Y6.8577
G01 X51.6754 Y6.8377
G01 X51.6782 Y6.8245
G01 X51.6946 Y6.7554
G01 X51.6982 Y6.7422
G01 X51.7023 Y6.7291
G01 X51.7072 Y6.7163
G01 X51.7127 Y6.7037
G01 X51.7188 Y6.6914
G01 X51.7255 Y6.6794
G01 X51.7366 Y6.6622
G01 X51.7537 Y6.6380
G01 X51.7670 Y6.6213
G01 X51.8263 Y6.5390
G01 X51.8385 Y6.5240
G01 X51.8473 Y6.5144
G01 X51.8565 Y6.5053
G01 X51.8661 Y6.4966
G01 X51.8761 Y6.4884
G01 X51.9375 Y6.4407
G01 X51.9543 Y6.4292
G01 X51.9719 Y6.4190
G01 X51.9840 Y6.4130
G01 X51.9965 Y6.4075
G01 X52.0091 Y6.4027
G01 X52.0221 Y6.3985
G01 X52.0418 Y6.3935
G01 X52.1010 Y6.3822
G01 X52.1137 Y6.3804
G01 X52.1265 Y6.3792
G01 X52.1456 Y6.3785
G01 X54.1613 Y6.3785
G01 X54.1742 Y6.3788
G01 X54.1936 Y6.3804
G01 X54.2127 Y6.3834
G01 X54.2317 Y6.3878
G01 X54.3060 Y6.4095
G01 X54.3185 Y6.4135
G01 X54.3367 Y6.4206
G01 X54.3544 Y6.4289
G01 X54.3715 Y6.4386
G01 X54.3878 Y6.4494
G01 X54.3982 Y6.4572
G01 X54.4131 Y6.4699
G01 X54.4577 Y6.5128
G01 X54.4711 Y6.5273
G01 X54.4794 Y6.5376
G01 X54.4855 Y6.5457
G01 X54.6191 Y6.6793
G01 X54.7737 Y6.7876
G01 X54.9447 Y6.8673
G01 X55.1270 Y6.9162
G01 X55.3150 Y6.9326
G01 X55.5030 Y6.9162
G01 X55.6853 Y6.8673
G01 X55.8563 Y6.7876
G01 X56.0109 Y6.6793
G01 X56.1443 Y6.5459
G01 X56.2526 Y6.3913
G01 X56.3323 Y6.2203
G01 X56.3338 Y6.2148
G01 X56.3812 Y6.0380
G01 X56.3976 Y5.8500
G01 X56.3812 Y5.6620
G01 X56.3323 Y5.4797
G01 X56.2526 Y5.3087
G01 X56.1443 Y5.1541
G01 X56.0109 Y5.0207
G01 X55.8472 Y4.9060
G01 X55.8367 Y4.8983
G01 X55.8218 Y4.8859
G01 X55.8078 Y4.8725
G01 X55.7948 Y4.8581
G01 X55.7464 Y4.7976
G01 X55.7382 Y4.7868
G01 X55.7270 Y4.7700
G01 X55.7202 Y4.7583
G01 X55.7140 Y4.7463
G01 X55.7084 Y4.7340
G01 X55.7012 Y4.7150
G01 X55.6972 Y4.7021
G01 X55.6938 Y4.6891
G01 X55.6911 Y4.6758
G01 X55.6883 Y4.6558
G01 X55.6810 Y4.5851
G01 X55.6797 Y4.5649
G01 X55.6798 Y4.5447
G01 X55.6808 Y4.5312
G01 X55.6824 Y4.5178
G01 X55.6847 Y4.5045
G01 X55.6894 Y4.4847
G01 X55.6933 Y4.4718
G01 X55.6978 Y4.4591
G01 X55.7030 Y4.4466
G01 X55.7088 Y4.4344
G01 X55.7408 Y4.3711
G01 X55.7471 Y4.3594
G01 X55.7539 Y4.3481
G01 X55.7612 Y4.3371
G01 X55.7732 Y4.3213
G01 X55.7863 Y4.3065
G01 X55.7957 Y4.2971
G01 X55.8055 Y4.2882
G01 X55.8304 Y4.2667
G01 X55.8415 Y4.2581
G01 X56.0109 Y4.1393
G01 X56.1445 Y4.0057
G01 X56.1586 Y3.9877
G01 X56.1672 Y3.9781
G01 X56.1763 Y3.9689
G01 X56.1858 Y3.9601
G01 X56.1957 Y3.9518
G01 X56.2511 Y3.9074
G01 X56.2669 Y3.8958
G01 X56.2834 Y3.8853
G01 X56.3006 Y3.8760
G01 X56.3185 Y3.8680
G01 X56.3369 Y3.8612
G01 X56.3494 Y3.8575
G01 X56.3684 Y3.8530
G01 X56.4227 Y3.8424
G01 X56.4423 Y3.8398
G01 X56.4555 Y3.8388
G01 X56.4687 Y3.8385
G01 X63.0513 Y3.8385
G01 X63.0707 Y3.8392
G01 X63.0900 Y3.8413
G01 X63.1027 Y3.8434
G01 X63.1154 Y3.8462
G01 X63.1279 Y3.8495
G01 X63.1960 Y3.8695
G01 X63.2085 Y3.8735
G01 X63.2267 Y3.8806
G01 X63.2444 Y3.8889
G01 X63.2559 Y3.8952
G01 X63.2670 Y3.9020
G01 X63.2830 Y3.9132
G01 X63.2933 Y3.9213
G01 X63.3031 Y3.9299
G01 X63.3477 Y3.9728
G01 X63.3611 Y3.9873
G01 X63.3694 Y3.9976
G01 X63.3755 Y4.0057
G01 X63.5091 Y4.1393
G01 X63.6728 Y4.2540
G01 X63.6883 Y4.2657
G01 X63.7030 Y4.2784
G01 X63.7166 Y4.2922
G01 X63.7252 Y4.3020
G01 X63.7736 Y4.3624
G01 X63.7818 Y4.3732
G01 X63.7894 Y4.3843
G01 X63.7998 Y4.4017
G01 X63.8088 Y4.4199
G01 X63.8141 Y4.4323
G01 X63.8188 Y4.4450
G01 X63.8228 Y4.4579
G01 X63.8262 Y4.4709
G01 X63.8300 Y4.4908
G01 X63.8317 Y4.5042
G01 X63.8390 Y4.5749
G01 X63.8401 Y4.5883
G01 X63.8405 Y4.6018
G01 X63.8402 Y4.6153
G01 X63.8385 Y4.6355
G01 X63.8353 Y4.6555
G01 X63.8306 Y4.6753
G01 X63.8245 Y4.6946
G01 X63.8170 Y4.7134
G01 X63.8112 Y4.7256
G01 X63.7761 Y4.7948
G01 X63.7696 Y4.8063
G01 X63.7625 Y4.8175
G01 X63.7509 Y4.8335
G01 X63.7381 Y4.8487
G01 X63.7243 Y4.8629
G01 X63.6949 Y4.8888
G01 X63.6841 Y4.8977
G01 X63.6728 Y4.9060
G01 X63.5091 Y5.0207
G01 X63.3755 Y5.1543
G01 X63.3614 Y5.1723
G01 X63.3528 Y5.1819
G01 X63.3437 Y5.1911
G01 X63.3342 Y5.1999
G01 X63.3243 Y5.2082
G01 X63.2689 Y5.2526
G01 X63.2585 Y5.2605
G01 X63.2422 Y5.2714
G01 X63.2309 Y5.2780
G01 X63.2194 Y5.2840
G01 X63.2015 Y5.2920
G01 X63.1831 Y5.2988
G01 X63.1643 Y5.3041
G01 X63.1516 Y5.3070
G01 X63.0973 Y5.3176
G01 X63.0777 Y5.3202
G01 X63.0645 Y5.3212
G01 X63.0513 Y5.3215
G01 X61.0383 Y5.3215
G01 X61.0254 Y5.3212
G01 X61.0125 Y5.3203
G01 X60.9996 Y5.3187
G01 X60.9869 Y5.3166
G01 X60.9679 Y5.3122
G01 X60.8936 Y5.2905
G01 X60.8807 Y5.2863
G01 X60.8680 Y5.2816
G01 X60.8495 Y5.2732
G01 X60.8375 Y5.2669
G01 X60.8201 Y5.2563
G01 X60.8036 Y5.2445
G01 X60.7931 Y5.2359
G01 X60.7830 Y5.2268
G01 X60.7405 Y5.1846
G01 X60.7316 Y5.1753
G01 X60.7232 Y5.1656
G01 X60.7152 Y5.1555
G01 X60.7077 Y5.1450
G01 X60.6969 Y5.1285
G01 X60.5665 Y4.9851
G01 X60.4144 Y4.8650
G01 X60.2448 Y4.7714
G01 X60.0621 Y4.7067
G01 X59.8713 Y4.6727
G01 X59.6775 Y4.6703
G01 X59.4859 Y4.6996
G01 X59.3017 Y4.7598
G01 X59.1298 Y4.8493
G01 X58.9749 Y4.9657
G01 X58.8410 Y5.1058
G01 X58.7318 Y5.2659
G01 X58.6502 Y5.4417
G01 X58.5984 Y5.6284
G01 X58.5778 Y5.8211
G01 X58.5890 Y6.0146
G01 X58.6316 Y6.2036
G01 X58.7045 Y6.3832
G01 X58.8057 Y6.5484
G01 X58.8667 Y6.6188
G01 X58.8749 Y6.6288
G01 X58.8827 Y6.6391
G01 X58.8899 Y6.6499
G01 X58.8967 Y6.6609
G01 X58.9058 Y6.6781
G01 X58.9407 Y6.7547
G01 X58.9457 Y6.7672
G01 X58.9501 Y6.7800
G01 X58.9554 Y6.7996
G01 X58.9593 Y6.8195
G01 X58.9617 Y6.8396
G01 X58.9624 Y6.8531
G01 X58.9625 Y6.8666
G01 X58.9619 Y6.8801
G01 X58.9607 Y6.8935
G01 X58.9497 Y6.9705
G01 X58.9460 Y6.9904
G01 X58.9428 Y7.0035
G01 X58.9367 Y7.0229
G01 X58.9319 Y7.0355
G01 X58.9264 Y7.0478
G01 X58.9171 Y7.0658
G01 X58.9102 Y7.0774
G01 X58.9026 Y7.0886
G01 X58.8903 Y7.1047
G01 X58.8395 Y7.1635
G01 X58.8262 Y7.1778
G01 X58.8168 Y7.1868
G01 X58.8069 Y7.1953
G01 X58.7967 Y7.2033
G01 X58.7861 Y7.2109
G01 X58.7751 Y7.2179
G01 X58.7581 Y7.2274
G01 X58.7364 Y7.2385
G01 X58.7230 Y7.2449
G01 X58.6616 Y7.2916
G01 X58.6155 Y7.3522
G01 X58.5867 Y7.4251
G01 X58.5820 Y7.4637
G01 X58.5820 Y7.7680
G01 X58.5880 Y7.7680
G01 X58.5880 Y7.4900
G01 X58.5883 Y7.4767
G01 X58.5893 Y7.4633
G01 X58.5909 Y7.4501
G01 X58.5932 Y7.4369
G01 X58.5962 Y7.4239
G01 X58.5997 Y7.4110
G01 X58.6062 Y7.3921
G01 X58.6113 Y7.3798
G01 X58.6170 Y7.3677
G01 X58.6233 Y7.3559
G01 X58.6338 Y7.3389
G01 X58.6456 Y7.3227
G01 X58.6585 Y7.3073
G01 X58.6677 Y7.2977
G01 X58.6823 Y7.2840
G01 X58.6980 Y7.2715
G01 X58.7145 Y7.2602
G01 X58.7318 Y7.2501
G01 X58.7498 Y7.2413
G01 X58.7684 Y7.2339
G01 X58.7875 Y7.2279
G01 X58.8069 Y7.2232
G01 X58.8267 Y7.2200
G01 X58.8467 Y7.2183
G01 X58.8600 Y7.2180
G01 X60.6600 Y7.2180
G01 X60.6733 Y7.2183
G01 X60.6933 Y7.2200
G01 X60.7131 Y7.2232
G01 X60.7325 Y7.2279
G01 X60.7516 Y7.2339
G01 X60.7641 Y7.2387
G01 X60.7763 Y7.2441
G01 X60.7882 Y7.2501
G01 X60.8055 Y7.2602
G01 X60.8166 Y7.2676
G01 X60.8273 Y7.2756
G01 X60.8427 Y7.2885
G01 X60.8523 Y7.2977
G01 X60.8660 Y7.3123
G01 X60.8744 Y7.3227
G01 X60.8824 Y7.3334
G01 X60.8898 Y7.3445
G01 X60.8999 Y7.3618
G01 X60.9087 Y7.3798
G01 X60.9138 Y7.3921
G01 X60.9203 Y7.4110
G01 X60.9254 Y7.4304
G01 X60.9291 Y7.4501
G01 X60.9313 Y7.4700
G01 X60.9320 Y7.4900
G01 X60.9320 Y7.7680
G01 X60.9380 Y7.7680
G01 X60.9380 Y7.4637
G01 X60.9333 Y7.4251
G01 X60.9045 Y7.3522
G01 X60.8584 Y7.2916
G01 X60.7961 Y7.2442
G01 X60.7771 Y7.2343
G01 X60.7660 Y7.2276
G01 X60.7553 Y7.2204
G01 X60.7449 Y7.2127
G01 X60.6889 Y7.1690
G01 X60.6784 Y7.1605
G01 X60.6636 Y7.1467
G01 X60.6499 Y7.1318
G01 X60.6372 Y7.1159
G01 X60.6258 Y7.0992
G01 X60.6189 Y7.0876
G01 X60.6126 Y7.0756
G01 X60.6069 Y7.0634
G01 X60.5995 Y7.0445
G01 X60.5739 Y6.9711
G01 X60.5701 Y6.9582
G01 X60.5669 Y6.9450
G01 X60.5633 Y6.9251
G01 X60.5613 Y6.9049
G01 X60.5608 Y6.8914
G01 X60.5609 Y6.8779
G01 X60.5624 Y6.8577
G01 X60.5654 Y6.8377
G01 X60.5682 Y6.8245
G01 X60.5846 Y6.7554
G01 X60.5882 Y6.7422
G01 X60.5923 Y6.7291
G01 X60.5972 Y6.7163
G01 X60.6027 Y6.7037
G01 X60.6088 Y6.6914
G01 X60.6155 Y6.6794
G01 X60.6266 Y6.6622
G01 X60.6437 Y6.6380
G01 X60.6570 Y6.6213
G01 X60.7163 Y6.5390
G01 X60.7285 Y6.5240
G01 X60.7373 Y6.5144
G01 X60.7465 Y6.5053
G01 X60.7561 Y6.4966
G01 X60.7661 Y6.4884
G01 X60.8275 Y6.4407
G01 X60.8443 Y6.4292
G01 X60.8619 Y6.4190
G01 X60.8740 Y6.4130
G01 X60.8865 Y6.4075
G01 X60.8991 Y6.4027
G01 X60.9121 Y6.3985
G01 X60.9318 Y6.3935
G01 X60.9910 Y6.3822
G01 X61.0037 Y6.3804
G01 X61.0165 Y6.3792
G01 X61.0356 Y6.3785
G01 X63.0513 Y6.3785
G01 X63.0642 Y6.3788
G01 X63.0836 Y6.3804
G01 X63.1027 Y6.3834
G01 X63.1217 Y6.3878
G01 X63.1960 Y6.4095
G01 X63.2085 Y6.4135
G01 X63.2267 Y6.4206
G01 X63.2444 Y6.4289
G01 X63.2615 Y6.4386
G01 X63.2778 Y6.4494
G01 X63.2882 Y6.4572
G01 X63.3031 Y6.4699
G01 X63.3477 Y6.5128
G01 X63.3611 Y6.5273
G01 X63.3694 Y6.5376
G01 X63.3755 Y6.5457
G01 X63.5091 Y6.6793
G01 X63.6637 Y6.7876
G01 X63.8347 Y6.8673
G01 X64.0170 Y6.9162
G01 X64.2050 Y6.9326
G01 X64.3930 Y6.9162
G01 X64.5753 Y6.8673
G01 X64.7463 Y6.7876
G01 X64.9009 Y6.6793
G01 X65.0343 Y6.5459
G01 X65.1426 Y6.3913
G01 X65.2223 Y6.2203
G01 X65.2238 Y6.2148
G01 X65.2712 Y6.0380
G01 X65.2876 Y5.8500
G01 X65.2712 Y5.6620
G01 X65.2223 Y5.4797
G01 X65.1426 Y5.3087
G01 X65.0343 Y5.1541
G01 X64.9009 Y5.0207
G01 X64.7372 Y4.9060
G01 X64.7267 Y4.8983
G01 X64.7118 Y4.8859
G01 X64.6978 Y4.8725
G01 X64.6848 Y4.8581
G01 X64.6364 Y4.7976
G01 X64.6282 Y4.7868
G01 X64.6170 Y4.7700
G01 X64.6102 Y4.7583
G01 X64.6040 Y4.7463
G01 X64.5984 Y4.7340
G01 X64.5912 Y4.7150
G01 X64.5872 Y4.7021
G01 X64.5838 Y4.6891
G01 X64.5811 Y4.6758
G01 X64.5783 Y4.6558
G01 X64.5710 Y4.5851
G01 X64.5697 Y4.5649
G01 X64.5696 Y4.5514
G01 X64.5702 Y4.5379
G01 X64.5715 Y4.5245
G01 X64.5747 Y4.5045
G01 X64.5776 Y4.4913
G01 X64.5812 Y4.4783
G01 X64.5878 Y4.4591
G01 X64.5930 Y4.4466
G01 X64.5988 Y4.4344
G01 X64.6308 Y4.3711
G01 X64.6371 Y4.3594
G01 X64.6439 Y4.3481
G01 X64.6512 Y4.3371
G01 X64.6632 Y4.3213
G01 X64.6719 Y4.3113
G01 X64.6810 Y4.3017
G01 X64.6955 Y4.2882
G01 X64.7204 Y4.2667
G01 X64.7315 Y4.2581
G01 X64.9009 Y4.1393
G01 X65.0345 Y4.0057
G01 X65.0486 Y3.9877
G01 X65.0572 Y3.9781
G01 X65.0663 Y3.9689
G01 X65.0758 Y3.9601
G01 X65.0857 Y3.9518
G01 X65.1411 Y3.9074
G01 X65.1515 Y3.8995
G01 X65.1678 Y3.8886
G01 X65.1848 Y3.8789
G01 X65.2025 Y3.8705
G01 X65.2207 Y3.8633
G01 X65.2394 Y3.8575
G01 X65.2520 Y3.8544
G01 X65.3062 Y3.8436
G01 X65.3258 Y3.8405
G01 X65.3455 Y3.8388
G01 X65.3587 Y3.8385
G01 X71.9413 Y3.8385
G01 X71.9607 Y3.8392
G01 X71.9800 Y3.8413
G01 X71.9927 Y3.8434
G01 X72.0054 Y3.8462
G01 X72.0179 Y3.8495
G01 X72.0860 Y3.8695
G01 X72.0985 Y3.8735
G01 X72.1167 Y3.8806
G01 X72.1344 Y3.8889
G01 X72.1459 Y3.8952
G01 X72.1570 Y3.9020
G01 X72.1730 Y3.9132
G01 X72.1833 Y3.9213
G01 X72.1931 Y3.9299
G01 X72.2377 Y3.9728
G01 X72.2511 Y3.9873
G01 X72.2594 Y3.9976
G01 X72.2655 Y4.0057
G01 X72.3991 Y4.1393
G01 X72.5628 Y4.2540
G01 X72.5783 Y4.2657
G01 X72.5930 Y4.2784
G01 X72.6066 Y4.2922
G01 X72.6152 Y4.3020
G01 X72.6636 Y4.3624
G01 X72.6718 Y4.3732
G01 X72.6794 Y4.3843
G01 X72.6898 Y4.4017
G01 X72.6988 Y4.4199
G01 X72.7041 Y4.4323
G01 X72.7088 Y4.4450
G01 X72.7128 Y4.4579
G01 X72.7162 Y4.4709
G01 X72.7200 Y4.4908
G01 X72.7217 Y4.5042
G01 X72.7290 Y4.5749
G01 X72.7301 Y4.5883
G01 X72.7305 Y4.6018
G01 X72.7302 Y4.6153
G01 X72.7285 Y4.6355
G01 X72.7253 Y4.6555
G01 X72.7206 Y4.6753
G01 X72.7145 Y4.6946
G01 X72.7070 Y4.7134
G01 X72.7012 Y4.7256
G01 X72.6661 Y4.7948
G01 X72.6596 Y4.8063
G01 X72.6525 Y4.8175
G01 X72.6409 Y4.8335
G01 X72.6281 Y4.8487
G01 X72.6143 Y4.8629
G01 X72.5849 Y4.8888
G01 X72.5741 Y4.8977
G01 X72.5628 Y4.9060
G01 X72.3991 Y5.0207
G01 X72.2655 Y5.1543
G01 X72.2514 Y5.1723
G01 X72.2428 Y5.1819
G01 X72.2337 Y5.1911
G01 X72.2242 Y5.1999
G01 X72.2143 Y5.2082
G01 X72.1589 Y5.2526
G01 X72.1485 Y5.2605
G01 X72.1322 Y5.2714
G01 X72.1209 Y5.2780
G01 X72.1094 Y5.2840
G01 X72.0915 Y5.2920
G01 X72.0731 Y5.2988
G01 X72.0543 Y5.3041
G01 X72.0416 Y5.3070
G01 X71.9873 Y5.3176
G01 X71.9677 Y5.3202
G01 X71.9545 Y5.3212
G01 X71.9413 Y5.3215
G01 X69.9283 Y5.3215
G01 X69.9154 Y5.3212
G01 X69.9025 Y5.3203
G01 X69.8896 Y5.3187
G01 X69.8769 Y5.3166
G01 X69.8579 Y5.3122
G01 X69.7836 Y5.2905
G01 X69.7707 Y5.2863
G01 X69.7580 Y5.2816
G01 X69.7395 Y5.2732
G01 X69.7275 Y5.2669
G01 X69.7101 Y5.2563
G01 X69.6936 Y5.2445
G01 X69.6831 Y5.2359
G01 X69.6730 Y5.2268
G01 X69.6305 Y5.1846
G01 X69.6216 Y5.1753
G01 X69.6132 Y5.1656
G01 X69.6052 Y5.1555
G01 X69.5977 Y5.1450
G01 X69.5869 Y5.1285
G01 X69.4565 Y4.9851
G01 X69.3044 Y4.8650
G01 X69.1348 Y4.7714
G01 X68.9521 Y4.7067
G01 X68.7613 Y4.6727
G01 X68.5675 Y4.6703
G01 X68.3759 Y4.6996
G01 X68.1917 Y4.7598
G01 X68.0198 Y4.8493
G01 X67.8649 Y4.9657
G01 X67.7310 Y5.1058
G01 X67.6218 Y5.2659
G01 X67.5402 Y5.4417
G01 X67.4884 Y5.6284
G01 X67.4678 Y5.8211
G01 X67.4790 Y6.0146
G01 X67.5216 Y6.2036
G01 X67.5945 Y6.3832
G01 X67.6957 Y6.5484
G01 X67.7567 Y6.6188
G01 X67.7649 Y6.6288
G01 X67.7727 Y6.6391
G01 X67.7799 Y6.6499
G01 X67.7898 Y6.6666
G01 X67.7958 Y6.6781
G01 X67.8307 Y6.7547
G01 X67.8357 Y6.7672
G01 X67.8401 Y6.7800
G01 X67.8454 Y6.7996
G01 X67.8493 Y6.8195
G01 X67.8517 Y6.8396
G01 X67.8524 Y6.8531
G01 X67.8525 Y6.8666
G01 X67.8519 Y6.8801
G01 X67.8507 Y6.8935
G01 X67.8397 Y6.9705
G01 X67.8360 Y6.9904
G01 X67.8328 Y7.0035
G01 X67.8289 Y7.0165
G01 X67.8244 Y7.0292
G01 X67.8164 Y7.0478
G01 X67.8071 Y7.0658
G01 X67.8002 Y7.0774
G01 X67.7926 Y7.0886
G01 X67.7803 Y7.1047
G01 X67.7295 Y7.1635
G01 X67.7162 Y7.1778
G01 X67.7068 Y7.1868
G01 X67.6969 Y7.1953
G01 X67.6867 Y7.2033
G01 X67.6761 Y7.2109
G01 X67.6651 Y7.2179
G01 X67.6481 Y7.2274
G01 X67.6264 Y7.2385
G01 X67.6130 Y7.2449
G01 X67.5516 Y7.2916
G01 X67.5055 Y7.3522
G01 X67.4767 Y7.4251
G01 X67.4720 Y7.4637
G01 X67.4720 Y7.7680
G01 X67.4780 Y7.7680
G01 X67.4780 Y7.4900
G01 X67.4783 Y7.4767
G01 X67.4793 Y7.4633
G01 X67.4809 Y7.4501
G01 X67.4832 Y7.4369
G01 X67.4862 Y7.4239
G01 X67.4897 Y7.4110
G01 X67.4962 Y7.3921
G01 X67.5013 Y7.3798
G01 X67.5070 Y7.3677
G01 X67.5133 Y7.3559
G01 X67.5238 Y7.3389
G01 X67.5356 Y7.3227
G01 X67.5485 Y7.3073
G01 X67.5624 Y7.2930
G01 X67.5723 Y7.2840
G01 X67.5880 Y7.2715
G01 X67.6045 Y7.2602
G01 X67.6218 Y7.2501
G01 X67.6398 Y7.2413
G01 X67.6584 Y7.2339
G01 X67.6775 Y7.2279
G01 X67.6969 Y7.2232
G01 X67.7167 Y7.2200
G01 X67.7367 Y7.2183
G01 X67.7500 Y7.2180
G01 X69.5500 Y7.2180
G01 X69.5633 Y7.2183
G01 X69.5833 Y7.2200
G01 X69.6031 Y7.2232
G01 X69.6225 Y7.2279
G01 X69.6416 Y7.2339
G01 X69.6541 Y7.2387
G01 X69.6663 Y7.2441
G01 X69.6782 Y7.2501
G01 X69.6955 Y7.2602
G01 X69.7066 Y7.2676
G01 X69.7173 Y7.2756
G01 X69.7327 Y7.2885
G01 X69.7423 Y7.2977
G01 X69.7560 Y7.3123
G01 X69.7644 Y7.3227
G01 X69.7724 Y7.3334
G01 X69.7798 Y7.3445
G01 X69.7899 Y7.3618
G01 X69.7987 Y7.3798
G01 X69.8038 Y7.3921
G01 X69.8103 Y7.4110
G01 X69.8154 Y7.4304
G01 X69.8191 Y7.4501
G01 X69.8213 Y7.4700
G01 X69.8220 Y7.4900
G01 X69.8220 Y7.7680
G01 X69.8280 Y7.7680
G01 X69.8280 Y7.4637
G01 X69.8233 Y7.4251
G01 X69.7945 Y7.3522
G01 X69.7484 Y7.2916
G01 X69.6861 Y7.2442
G01 X69.6671 Y7.2343
G01 X69.6560 Y7.2276
G01 X69.6453 Y7.2204
G01 X69.6349 Y7.2127
G01 X69.5789 Y7.1690
G01 X69.5684 Y7.1605
G01 X69.5536 Y7.1467
G01 X69.5399 Y7.1318
G01 X69.5272 Y7.1159
G01 X69.5158 Y7.0992
G01 X69.5089 Y7.0876
G01 X69.5026 Y7.0756
G01 X69.4969 Y7.0634
G01 X69.4895 Y7.0445
G01 X69.4639 Y6.9711
G01 X69.4601 Y6.9582
G01 X69.4569 Y6.9450
G01 X69.4533 Y6.9251
G01 X69.4513 Y6.9049
G01 X69.4508 Y6.8914
G01 X69.4509 Y6.8779
G01 X69.4524 Y6.8577
G01 X69.4554 Y6.8377
G01 X69.4582 Y6.8245
G01 X69.4746 Y6.7554
G01 X69.4782 Y6.7422
G01 X69.4823 Y6.7291
G01 X69.4872 Y6.7163
G01 X69.4927 Y6.7037
G01 X69.4988 Y6.6914
G01 X69.5055 Y6.6794
G01 X69.5166 Y6.6622
G01 X69.5337 Y6.6380
G01 X69.5470 Y6.6213
G01 X69.6063 Y6.5390
G01 X69.6185 Y6.5240
G01 X69.6273 Y6.5144
G01 X69.6365 Y6.5053
G01 X69.6461 Y6.4966
G01 X69.6561 Y6.4884
G01 X69.7175 Y6.4407
G01 X69.7343 Y6.4292
G01 X69.7519 Y6.4190
G01 X69.7640 Y6.4130
G01 X69.7765 Y6.4075
G01 X69.7891 Y6.4027
G01 X69.8021 Y6.3985
G01 X69.8218 Y6.3935
G01 X69.8810 Y6.3822
G01 X69.8937 Y6.3804
G01 X69.9065 Y6.3792
G01 X69.9256 Y6.3785
G01 X71.9413 Y6.3785
G01 X71.9542 Y6.3788
G01 X71.9736 Y6.3804
G01 X71.9927 Y6.3834
G01 X72.0117 Y6.3878
G01 X72.0860 Y6.4095
G01 X72.0985 Y6.4135
G01 X72.1167 Y6.4206
G01 X72.1344 Y6.4289
G01 X72.1515 Y6.4386
G01 X72.1678 Y6.4494
G01 X72.1782 Y6.4572
G01 X72.1931 Y6.4699
G01 X72.2377 Y6.5128
G01 X72.2511 Y6.5273
G01 X72.2594 Y6.5376
G01 X72.2655 Y6.5457
G01 X72.3991 Y6.6793
G01 X72.5537 Y6.7876
G01 X72.7247 Y6.8673
G01 X72.9070 Y6.9162
G01 X73.0950 Y6.9326
G01 X73.2830 Y6.9162
G01 X73.4653 Y6.8673
G01 X73.6363 Y6.7876
G01 X73.7909 Y6.6793
G01 X73.9243 Y6.5459
G01 X74.0326 Y6.3913
G01 X74.1123 Y6.2203
G01 X74.1138 Y6.2148
G01 X74.1612 Y6.0380
G01 X74.1776 Y5.8500
G01 X74.1612 Y5.6620
G01 X74.1123 Y5.4797
G01 X74.0326 Y5.3087
G01 X73.9243 Y5.1541
G01 X73.7909 Y5.0207
G01 X73.6272 Y4.9060
G01 X73.6167 Y4.8983
G01 X73.6018 Y4.8859
G01 X73.5878 Y4.8725
G01 X73.5748 Y4.8581
G01 X73.5264 Y4.7976
G01 X73.5182 Y4.7868
G01 X73.5070 Y4.7700
G01 X73.5002 Y4.7583
G01 X73.4940 Y4.7463
G01 X73.4884 Y4.7340
G01 X73.4812 Y4.7150
G01 X73.4772 Y4.7021
G01 X73.4738 Y4.6891
G01 X73.4711 Y4.6758
G01 X73.4683 Y4.6558
G01 X73.4610 Y4.5851
G01 X73.4597 Y4.5649
G01 X73.4596 Y4.5514
G01 X73.4602 Y4.5379
G01 X73.4615 Y4.5245
G01 X73.4647 Y4.5045
G01 X73.4676 Y4.4913
G01 X73.4712 Y4.4783
G01 X73.4755 Y4.4654
G01 X73.4803 Y4.4528
G01 X73.4888 Y4.4344
G01 X73.5239 Y4.3652
G01 X73.5339 Y4.3481
G01 X73.5412 Y4.3371
G01 X73.5491 Y4.3265
G01 X73.5575 Y4.3163
G01 X73.5663 Y4.3065
G01 X73.5805 Y4.2926
G01 X73.6104 Y4.2667
G01 X73.6215 Y4.2581
G01 X73.7909 Y4.1393
G01 X73.9245 Y4.0057
G01 X73.9386 Y3.9877
G01 X73.9472 Y3.9781
G01 X73.9563 Y3.9689
G01 X73.9658 Y3.9601
G01 X73.9757 Y3.9518
G01 X74.0311 Y3.9074
G01 X74.0415 Y3.8995
G01 X74.0578 Y3.8886
G01 X74.0748 Y3.8789
G01 X74.0925 Y3.8705
G01 X74.1107 Y3.8633
G01 X74.1231 Y3.8593
G01 X74.1420 Y3.8544
G01 X74.2027 Y3.8424
G01 X74.2158 Y3.8405
G01 X74.2289 Y3.8392
G01 X74.2487 Y3.8385
G01 X80.8313 Y3.8385
G01 X80.8507 Y3.8392
G01 X80.8700 Y3.8413
G01 X80.8827 Y3.8434
G01 X80.8954 Y3.8462
G01 X80.9079 Y3.8495
G01 X80.9760 Y3.8695
G01 X80.9885 Y3.8735
G01 X81.0067 Y3.8806
G01 X81.0186 Y3.8860
G01 X81.0302 Y3.8920
G01 X81.0470 Y3.9020
G01 X81.0630 Y3.9132
G01 X81.0733 Y3.9213
G01 X81.0831 Y3.9299
G01 X81.1277 Y3.9728
G01 X81.1411 Y3.9873
G01 X81.1494 Y3.9976
G01 X81.1555 Y4.0057
G01 X81.2891 Y4.1393
G01 X81.4528 Y4.2540
G01 X81.4683 Y4.2657
G01 X81.4830 Y4.2784
G01 X81.4966 Y4.2922
G01 X81.5052 Y4.3020
G01 X81.5536 Y4.3624
G01 X81.5657 Y4.3787
G01 X81.5730 Y4.3900
G01 X81.5798 Y4.4017
G01 X81.5860 Y4.4137
G01 X81.5916 Y4.4260
G01 X81.5988 Y4.4450
G01 X81.6028 Y4.4579
G01 X81.6062 Y4.4709
G01 X81.6100 Y4.4908
G01 X81.6117 Y4.5042
G01 X81.6190 Y4.5749
G01 X81.6201 Y4.5883
G01 X81.6205 Y4.6018
G01 X81.6202 Y4.6153
G01 X81.6185 Y4.6355
G01 X81.6153 Y4.6555
G01 X81.6106 Y4.6753
G01 X81.6045 Y4.6946
G01 X81.5970 Y4.7134
G01 X81.5912 Y4.7256
G01 X81.5561 Y4.7948
G01 X81.5496 Y4.8063
G01 X81.5425 Y4.8175
G01 X81.5309 Y4.8335
G01 X81.5181 Y4.8487
G01 X81.5043 Y4.8629
G01 X81.4749 Y4.8888
G01 X81.4641 Y4.8977
G01 X81.4528 Y4.9060
G01 X81.2891 Y5.0207
G01 X81.1555 Y5.1543
G01 X81.1414 Y5.1723
G01 X81.1328 Y5.1819
G01 X81.1237 Y5.1911
G01 X81.1142 Y5.1999
G01 X81.1043 Y5.2082
G01 X81.0489 Y5.2526
G01 X81.0385 Y5.2605
G01 X81.0222 Y5.2714
G01 X81.0052 Y5.2811
G01 X80.9875 Y5.2895
G01 X80.9754 Y5.2944
G01 X80.9631 Y5.2988
G01 X80.9506 Y5.3025
G01 X80.9316 Y5.3070
G01 X80.8773 Y5.3176
G01 X80.8577 Y5.3202
G01 X80.8445 Y5.3212
G01 X80.8313 Y5.3215
G01 X78.8183 Y5.3215
G01 X78.8054 Y5.3212
G01 X78.7925 Y5.3203
G01 X78.7796 Y5.3187
G01 X78.7669 Y5.3166
G01 X78.7479 Y5.3122
G01 X78.6736 Y5.2905
G01 X78.6607 Y5.2863
G01 X78.6480 Y5.2816
G01 X78.6356 Y5.2762
G01 X78.6175 Y5.2669
G01 X78.6001 Y5.2563
G01 X78.5836 Y5.2445
G01 X78.5731 Y5.2359
G01 X78.5630 Y5.2268
G01 X78.5205 Y5.1846
G01 X78.5116 Y5.1753
G01 X78.5032 Y5.1656
G01 X78.4952 Y5.1555
G01 X78.4877 Y5.1450
G01 X78.4769 Y5.1285
G01 X78.3465 Y4.9851
G01 X78.1944 Y4.8650
G01 X78.0248 Y4.7714
G01 X77.8421 Y4.7067
G01 X77.6513 Y4.6727
G01 X77.4575 Y4.6703
G01 X77.2659 Y4.6996
G01 X77.0817 Y4.7598
G01 X76.9098 Y4.8493
G01 X76.7549 Y4.9657
G01 X76.6210 Y5.1058
G01 X76.5118 Y5.2659
G01 X76.4302 Y5.4417
G01 X76.3784 Y5.6284
G01 X76.3578 Y5.8211
G01 X76.3690 Y6.0146
G01 X76.4116 Y6.2036
G01 X76.4845 Y6.3832
G01 X76.5857 Y6.5484
G01 X76.6467 Y6.6188
G01 X76.6549 Y6.6288
G01 X76.6664 Y6.6445
G01 X76.6734 Y6.6553
G01 X76.6798 Y6.6666
G01 X76.6858 Y6.6781
G01 X76.7207 Y6.7547
G01 X76.7257 Y6.7672
G01 X76.7301 Y6.7800
G01 X76.7354 Y6.7996
G01 X76.7382 Y6.8128
G01 X76.7403 Y6.8261
G01 X76.7421 Y6.8463
G01 X76.7425 Y6.8666
G01 X76.7419 Y6.8801
G01 X76.7407 Y6.8935
G01 X76.7297 Y6.9705
G01 X76.7274 Y6.9838
G01 X76.7228 Y7.0035
G01 X76.7167 Y7.0229
G01 X76.7119 Y7.0355
G01 X76.7064 Y7.0478
G01 X76.7004 Y7.0599
G01 X76.6937 Y7.0716
G01 X76.6826 Y7.0886
G01 X76.6703 Y7.1047
G01 X76.6195 Y7.1635
G01 X76.6107 Y7.1732
G01 X76.5968 Y7.1868
G01 X76.5869 Y7.1953
G01 X76.5767 Y7.2033
G01 X76.5661 Y7.2109
G01 X76.5551 Y7.2179
G01 X76.5381 Y7.2274
G01 X76.5164 Y7.2385
G01 X76.5030 Y7.2449
G01 X76.4416 Y7.2916
G01 X76.3955 Y7.3522
G01 X76.3667 Y7.4251
G01 X76.3620 Y7.4637
G01 X76.3620 Y7.7680
G01 X76.3680 Y7.7680
G01 X76.3680 Y7.4900
G01 X76.3683 Y7.4767
G01 X76.3693 Y7.4633
G01 X76.3709 Y7.4501
G01 X76.3732 Y7.4369
G01 X76.3779 Y7.4175
G01 X76.3817 Y7.4047
G01 X76.3862 Y7.3921
G01 X76.3913 Y7.3798
G01 X76.3970 Y7.3677
G01 X76.4067 Y7.3502
G01 X76.4176 Y7.3334
G01 X76.4256 Y7.3227
G01 X76.4385 Y7.3073
G01 X76.4524 Y7.2930
G01 X76.4674 Y7.2797
G01 X76.4834 Y7.2676
G01 X76.5002 Y7.2567
G01 X76.5177 Y7.2470
G01 X76.5359 Y7.2387
G01 X76.5484 Y7.2339
G01 X76.5675 Y7.2279
G01 X76.5804 Y7.2246
G01 X76.6001 Y7.2209
G01 X76.6200 Y7.2187
G01 X76.6400 Y7.2180
G01 X78.4400 Y7.2180
G01 X78.4533 Y7.2183
G01 X78.4733 Y7.2200
G01 X78.4931 Y7.2232
G01 X78.5125 Y7.2279
G01 X78.5253 Y7.2317
G01 X78.5441 Y7.2387
G01 X78.5563 Y7.2441
G01 X78.5741 Y7.2533
G01 X78.5855 Y7.2602
G01 X78.6020 Y7.2715
G01 X78.6126 Y7.2797
G01 X78.6227 Y7.2885
G01 X78.6323 Y7.2977
G01 X78.6460 Y7.3123
G01 X78.6544 Y7.3227
G01 X78.6662 Y7.3389
G01 X78.6733 Y7.3502
G01 X78.6799 Y7.3618
G01 X78.6859 Y7.3737
G01 X78.6938 Y7.3921
G01 X78.7003 Y7.4110
G01 X78.7054 Y7.4304
G01 X78.7091 Y7.4501
G01 X78.7113 Y7.4700
G01 X78.7120 Y7.4900
G01 X78.7120 Y7.7680
G01 X78.7180 Y7.7680
G01 X78.7180 Y7.4637
G01 X78.7133 Y7.4251
G01 X78.6845 Y7.3522
G01 X78.6384 Y7.2916
G01 X78.5761 Y7.2442
G01 X78.5571 Y7.2343
G01 X78.5460 Y7.2276
G01 X78.5353 Y7.2204
G01 X78.5249 Y7.2127
G01 X78.4689 Y7.1690
G01 X78.4584 Y7.1605
G01 X78.4436 Y7.1467
G01 X78.4299 Y7.1318
G01 X78.4172 Y7.1159
G01 X78.4095 Y7.1049
G01 X78.4023 Y7.0934
G01 X78.3926 Y7.0756
G01 X78.3869 Y7.0634
G01 X78.3795 Y7.0445
G01 X78.3539 Y6.9711
G01 X78.3484 Y6.9516
G01 X78.3455 Y6.9384
G01 X78.3433 Y6.9251
G01 X78.3413 Y6.9049
G01 X78.3408 Y6.8914
G01 X78.3409 Y6.8779
G01 X78.3424 Y6.8577
G01 X78.3454 Y6.8377
G01 X78.3482 Y6.8245
G01 X78.3646 Y6.7554
G01 X78.3682 Y6.7422
G01 X78.3723 Y6.7291
G01 X78.3772 Y6.7163
G01 X78.3827 Y6.7037
G01 X78.3888 Y6.6914
G01 X78.3955 Y6.6794
G01 X78.4066 Y6.6622
G01 X78.4237 Y6.6380
G01 X78.4370 Y6.6213
G01 X78.4963 Y6.5390
G01 X78.5085 Y6.5240
G01 X78.5173 Y6.5144
G01 X78.5265 Y6.5053
G01 X78.5361 Y6.4966
G01 X78.5461 Y6.4884
G01 X78.6075 Y6.4407
G01 X78.6243 Y6.4292
G01 X78.6419 Y6.4190
G01 X78.6540 Y6.4130
G01 X78.6665 Y6.4075
G01 X78.6791 Y6.4027
G01 X78.6921 Y6.3985
G01 X78.7118 Y6.3935
G01 X78.7710 Y6.3822
G01 X78.7901 Y6.3797
G01 X78.8028 Y6.3788
G01 X78.8156 Y6.3785
G01 X80.8313 Y6.3785
G01 X80.8442 Y6.3788
G01 X80.8636 Y6.3804
G01 X80.8827 Y6.3834
G01 X80.9017 Y6.3878
G01 X80.9760 Y6.4095
G01 X80.9885 Y6.4135
G01 X81.0067 Y6.4206
G01 X81.0244 Y6.4289
G01 X81.0415 Y6.4386
G01 X81.0578 Y6.4494
G01 X81.0682 Y6.4572
G01 X81.0831 Y6.4699
G01 X81.1277 Y6.5128
G01 X81.1411 Y6.5273
G01 X81.1494 Y6.5376
G01 X81.1555 Y6.5457
G01 X81.2891 Y6.6793
G01 X81.4437 Y6.7876
G01 X81.6147 Y6.8673
G01 X81.7970 Y6.9162
G01 X81.9850 Y6.9326
G01 X82.1730 Y6.9162
G01 X82.3553 Y6.8673
G01 X82.5263 Y6.7876
G01 X82.6809 Y6.6793
G01 X82.8143 Y6.5459
G01 X82.9226 Y6.3913
G01 X83.0023 Y6.2203
G01 X83.0038 Y6.2148
G01 X83.0512 Y6.0380
G01 X83.0676 Y5.8500
G01 X83.0512 Y5.6620
G01 X83.0023 Y5.4797
G01 X82.9226 Y5.3087
G01 X82.8143 Y5.1541
G01 X82.6809 Y5.0207
G01 X82.5172 Y4.9060
G01 X82.5067 Y4.8983
G01 X82.4918 Y4.8859
G01 X82.4778 Y4.8725
G01 X82.4648 Y4.8581
G01 X82.4164 Y4.7976
G01 X82.4082 Y4.7868
G01 X82.4006 Y4.7757
G01 X82.3902 Y4.7583
G01 X82.3840 Y4.7463
G01 X82.3784 Y4.7340
G01 X82.3735 Y4.7214
G01 X82.3691 Y4.7086
G01 X82.3655 Y4.6956
G01 X82.3624 Y4.6825
G01 X82.3600 Y4.6692
G01 X82.3583 Y4.6558
G01 X82.3510 Y4.5851
G01 X82.3499 Y4.5717
G01 X82.3496 Y4.5514
G01 X82.3502 Y4.5379
G01 X82.3515 Y4.5245
G01 X82.3535 Y4.5111
G01 X82.3561 Y4.4979
G01 X82.3612 Y4.4783
G01 X82.3655 Y4.4654
G01 X82.3703 Y4.4528
G01 X82.3788 Y4.4344
G01 X82.4108 Y4.3711
G01 X82.4171 Y4.3594
G01 X82.4239 Y4.3481
G01 X82.4351 Y4.3317
G01 X82.4475 Y4.3163
G01 X82.4610 Y4.3017
G01 X82.4705 Y4.2926
G01 X82.4951 Y4.2712
G01 X82.5115 Y4.2581
G01 X82.6809 Y4.1393
G01 X82.8145 Y4.0057
G01 X82.8286 Y3.9877
G01 X82.8372 Y3.9781
G01 X82.8463 Y3.9689
G01 X82.8607 Y3.9559
G01 X82.9211 Y3.9074
G01 X82.9315 Y3.8995
G01 X82.9423 Y3.8921
G01 X82.9534 Y3.8853
G01 X82.9648 Y3.8789
G01 X82.9765 Y3.8732
G01 X82.9946 Y3.8656
G01 X83.0069 Y3.8612
G01 X83.0194 Y3.8575
G01 X83.0384 Y3.8530
G01 X83.0862 Y3.8436
G01 X83.0992 Y3.8414
G01 X83.1189 Y3.8392
G01 X83.1387 Y3.8385
G01 X89.7213 Y3.8385
G01 X89.7407 Y3.8392
G01 X89.7600 Y3.8413
G01 X89.7791 Y3.8447
G01 X89.7979 Y3.8495
G01 X89.8660 Y3.8695
G01 X89.8846 Y3.8757
G01 X89.8967 Y3.8806
G01 X89.9086 Y3.8860
G01 X89.9202 Y3.8920
G01 X89.9315 Y3.8986
G01 X89.9424 Y3.9056
G01 X89.9530 Y3.9132
G01 X89.9682 Y3.9256
G01 X90.0130 Y3.9681
G01 X90.0223 Y3.9775
G01 X90.0311 Y3.9873
G01 X90.0394 Y3.9976
G01 X90.0455 Y4.0057
G01 X90.1791 Y4.1393
G01 X90.3428 Y4.2540
G01 X90.3583 Y4.2657
G01 X90.3682 Y4.2741
G01 X90.3822 Y4.2875
G01 X90.3952 Y4.3020
G01 X90.4436 Y4.3624
G01 X90.4518 Y4.3732
G01 X90.4594 Y4.3843
G01 X90.4665 Y4.3958
G01 X90.4730 Y4.4077
G01 X90.4816 Y4.4260
G01 X90.4865 Y4.4386
G01 X90.4909 Y4.4514
G01 X90.4945 Y4.4644
G01 X90.4976 Y4.4775
G01 X90.5009 Y4.4975
G01 X90.5090 Y4.5749
G01 X90.5101 Y4.5883
G01 X90.5105 Y4.6018
G01 X90.5098 Y4.6221
G01 X90.5085 Y4.6355
G01 X90.5065 Y4.6489
G01 X90.5039 Y4.6621
G01 X90.5006 Y4.6753
G01 X90.4945 Y4.6946
G01 X90.4897 Y4.7072
G01 X90.4842 Y4.7195
G01 X90.4492 Y4.7889
G01 X90.4396 Y4.8063
G01 X90.4288 Y4.8229
G01 X90.4209 Y4.8335
G01 X90.4081 Y4.8487
G01 X90.3990 Y4.8583
G01 X90.3895 Y4.8674
G01 X90.3649 Y4.8888
G01 X90.3485 Y4.9019
G01 X90.1791 Y5.0207
G01 X90.0455 Y5.1543
G01 X90.0314 Y5.1723
G01 X90.0183 Y5.1866
G01 X90.0042 Y5.1999
G01 X89.9943 Y5.2082
G01 X89.9337 Y5.2566
G01 X89.9231 Y5.2642
G01 X89.9122 Y5.2714
G01 X89.8952 Y5.2811
G01 X89.8835 Y5.2868
G01 X89.8654 Y5.2944
G01 X89.8469 Y5.3007
G01 X89.8280 Y5.3056
G01 X89.7673 Y5.3176
G01 X89.7477 Y5.3202
G01 X89.7345 Y5.3212
G01 X89.7213 Y5.3215
G01 X87.7083 Y5.3215
G01 X87.6954 Y5.3212
G01 X87.6825 Y5.3203
G01 X87.6632 Y5.3177
G01 X87.6442 Y5.3138
G01 X87.6317 Y5.3105
G01 X87.5636 Y5.2905
G01 X87.5443 Y5.2840
G01 X87.5318 Y5.2789
G01 X87.5134 Y5.2701
G01 X87.4958 Y5.2600
G01 X87.4790 Y5.2486
G01 X87.4683 Y5.2403
G01 X87.4530 Y5.2268
G01 X87.4105 Y5.1846
G01 X87.4016 Y5.1753
G01 X87.3932 Y5.1656
G01 X87.3852 Y5.1555
G01 X87.3777 Y5.1450
G01 X87.3669 Y5.1285
G01 X87.2365 Y4.9851
G01 X87.0844 Y4.8650
G01 X86.9148 Y4.7714
G01 X86.7321 Y4.7067
G01 X86.5413 Y4.6727
G01 X86.3475 Y4.6703
G01 X86.1559 Y4.6996
G01 X85.9717 Y4.7598
G01 X85.7998 Y4.8493
G01 X85.6449 Y4.9657
G01 X85.5110 Y5.1058
G01 X85.4018 Y5.2659
G01 X85.3202 Y5.4417
G01 X85.2684 Y5.6284
G01 X85.2478 Y5.8211
G01 X85.2590 Y6.0146
G01 X85.3016 Y6.2036
G01 X85.3745 Y6.3832
G01 X85.4757 Y6.5484
G01 X85.5367 Y6.6188
G01 X85.5449 Y6.6288
G01 X85.5527 Y6.6391
G01 X85.5599 Y6.6499
G01 X85.5667 Y6.6609
G01 X85.5729 Y6.6723
G01 X85.5785 Y6.6839
G01 X85.6107 Y6.7547
G01 X85.6180 Y6.7736
G01 X85.6220 Y6.7865
G01 X85.6254 Y6.7996
G01 X85.6282 Y6.8128
G01 X85.6311 Y6.8328
G01 X85.6321 Y6.8463
G01 X85.6326 Y6.8598
G01 X85.6319 Y6.8801
G01 X85.6298 Y6.9002
G01 X85.6186 Y6.9772
G01 X85.6160 Y6.9904
G01 X85.6109 Y7.0100
G01 X85.6044 Y7.0292
G01 X85.5992 Y7.0417
G01 X85.5935 Y7.0539
G01 X85.5871 Y7.0658
G01 X85.5802 Y7.0774
G01 X85.5687 Y7.0941
G01 X85.5560 Y7.1099
G01 X85.5052 Y7.1684
G01 X85.4915 Y7.1824
G01 X85.4769 Y7.1953
G01 X85.4614 Y7.2071
G01 X85.4451 Y7.2179
G01 X85.4281 Y7.2274
G01 X85.4064 Y7.2385
G01 X85.3930 Y7.2449
G01 X85.3316 Y7.2916
G01 X85.2855 Y7.3522
G01 X85.2567 Y7.4251
G01 X85.2520 Y7.4637
G01 X85.2520 Y7.7680
G01 X85.2580 Y7.7680
G01 X85.2580 Y7.4900
G01 X85.2583 Y7.4767
G01 X85.2593 Y7.4633
G01 X85.2609 Y7.4501
G01 X85.2632 Y7.4369
G01 X85.2679 Y7.4175
G01 X85.2717 Y7.4047
G01 X85.2762 Y7.3921
G01 X85.2813 Y7.3798
G01 X85.2870 Y7.3677
G01 X85.2967 Y7.3502
G01 X85.3076 Y7.3334
G01 X85.3156 Y7.3227
G01 X85.3285 Y7.3073
G01 X85.3424 Y7.2930
G01 X85.3574 Y7.2797
G01 X85.3734 Y7.2676
G01 X85.3902 Y7.2567
G01 X85.4077 Y7.2470
G01 X85.4259 Y7.2387
G01 X85.4384 Y7.2339
G01 X85.4575 Y7.2279
G01 X85.4704 Y7.2246
G01 X85.4901 Y7.2209
G01 X85.5100 Y7.2187
G01 X85.5300 Y7.2180
G01 X87.3300 Y7.2180
G01 X87.3433 Y7.2183
G01 X87.3633 Y7.2200
G01 X87.3831 Y7.2232
G01 X87.4025 Y7.2279
G01 X87.4153 Y7.2317
G01 X87.4341 Y7.2387
G01 X87.4463 Y7.2441
G01 X87.4641 Y7.2533
G01 X87.4755 Y7.2602
G01 X87.4920 Y7.2715
G01 X87.5026 Y7.2797
G01 X87.5127 Y7.2885
G01 X87.5223 Y7.2977
G01 X87.5360 Y7.3123
G01 X87.5444 Y7.3227
G01 X87.5562 Y7.3389
G01 X87.5633 Y7.3502
G01 X87.5699 Y7.3618
G01 X87.5759 Y7.3737
G01 X87.5838 Y7.3921
G01 X87.5903 Y7.4110
G01 X87.5954 Y7.4304
G01 X87.5991 Y7.4501
G01 X87.6013 Y7.4700
G01 X87.6020 Y7.4900
G01 X87.6020 Y7.7680
G01 X87.6080 Y7.7680
G01 X87.6080 Y7.4637
G01 X87.6033 Y7.4251
G01 X87.5745 Y7.3522
G01 X87.5284 Y7.2916
G01 X87.4661 Y7.2442
G01 X87.4471 Y7.2343
G01 X87.4360 Y7.2276
G01 X87.4253 Y7.2204
G01 X87.4149 Y7.2127
G01 X87.3589 Y7.1690
G01 X87.3434 Y7.1560
G01 X87.3289 Y7.1418
G01 X87.3155 Y7.1266
G01 X87.3072 Y7.1159
G01 X87.2958 Y7.0992
G01 X87.2889 Y7.0876
G01 X87.2826 Y7.0756
G01 X87.2769 Y7.0634
G01 X87.2695 Y7.0445
G01 X87.2460 Y6.9775
G01 X87.2401 Y6.9582
G01 X87.2369 Y6.9450
G01 X87.2344 Y6.9318
G01 X87.2318 Y6.9117
G01 X87.2308 Y6.8914
G01 X87.2309 Y6.8779
G01 X87.2317 Y6.8644
G01 X87.2332 Y6.8510
G01 X87.2354 Y6.8377
G01 X87.2382 Y6.8245
G01 X87.2546 Y6.7554
G01 X87.2602 Y6.7356
G01 X87.2647 Y6.7226
G01 X87.2698 Y6.7099
G01 X87.2756 Y6.6975
G01 X87.2820 Y6.6854
G01 X87.2928 Y6.6678
G01 X87.3137 Y6.6380
G01 X87.3270 Y6.6213
G01 X87.3824 Y6.5442
G01 X87.3902 Y6.5339
G01 X87.3985 Y6.5240
G01 X87.4073 Y6.5144
G01 X87.4165 Y6.5053
G01 X87.4261 Y6.4966
G01 X87.4361 Y6.4884
G01 X87.4921 Y6.4448
G01 X87.5030 Y6.4367
G01 X87.5143 Y6.4292
G01 X87.5319 Y6.4190
G01 X87.5502 Y6.4102
G01 X87.5691 Y6.4027
G01 X87.5886 Y6.3967
G01 X87.6084 Y6.3921
G01 X87.6610 Y6.3822
G01 X87.6737 Y6.3804
G01 X87.6865 Y6.3792
G01 X87.7056 Y6.3785
G01 X89.7213 Y6.3785
G01 X89.7342 Y6.3788
G01 X89.7471 Y6.3797
G01 X89.7600 Y6.3813
G01 X89.7727 Y6.3834
G01 X89.7917 Y6.3878
G01 X89.8660 Y6.4095
G01 X89.8785 Y6.4135
G01 X89.8967 Y6.4206
G01 X89.9144 Y6.4289
G01 X89.9315 Y6.4386
G01 X89.9424 Y6.4456
G01 X89.9582 Y6.4572
G01 X89.9682 Y6.4656
G01 X89.9779 Y6.4744
G01 X90.0177 Y6.5128
G01 X90.0311 Y6.5273
G01 X90.0394 Y6.5376
G01 X90.0455 Y6.5457
G01 X90.1791 Y6.6793
G01 X90.3337 Y6.7876
G01 X90.5047 Y6.8673
G01 X90.6870 Y6.9162
G01 X90.8750 Y6.9326
G01 X91.0630 Y6.9162
G01 X91.2453 Y6.8673
G01 X91.4163 Y6.7876
G01 X91.5709 Y6.6793
G01 X91.7043 Y6.5459
G01 X91.8126 Y6.3913
G01 X91.8923 Y6.2203
G01 X91.8938 Y6.2148
G01 X91.9412 Y6.0380
G01 X91.9576 Y5.8500
G01 X91.9412 Y5.6620
G01 X91.8923 Y5.4797
G01 X91.8126 Y5.3087
G01 X91.7043 Y5.1541
G01 X91.5709 Y5.0207
G01 X91.4019 Y4.9022
G01 X91.3867 Y4.8902
G01 X91.3724 Y4.8771
G01 X91.3634 Y4.8678
G01 X91.3548 Y4.8581
G01 X91.3064 Y4.7976
G01 X91.2982 Y4.7868
G01 X91.2906 Y4.7757
G01 X91.2802 Y4.7583
G01 X91.2740 Y4.7463
G01 X91.2684 Y4.7340
G01 X91.2612 Y4.7150
G01 X91.2555 Y4.6956
G01 X91.2511 Y4.6758
G01 X91.2491 Y4.6625
G01 X91.2410 Y4.5851
G01 X91.2399 Y4.5717
G01 X91.2395 Y4.5582
G01 X91.2398 Y4.5447
G01 X91.2408 Y4.5312
G01 X91.2424 Y4.5178
G01 X91.2461 Y4.4979
G01 X91.2512 Y4.4783
G01 X91.2555 Y4.4654
G01 X91.2630 Y4.4466
G01 X91.2688 Y4.4344
G01 X91.3039 Y4.3652
G01 X91.3139 Y4.3481
G01 X91.3251 Y4.3317
G01 X91.3375 Y4.3163
G01 X91.3510 Y4.3017
G01 X91.3655 Y4.2882
G01 X91.3959 Y4.2623
G01 X91.4072 Y4.2540
G01 X91.5709 Y4.1393
G01 X91.7045 Y4.0057
G01 X91.7186 Y3.9877
G01 X91.7317 Y3.9734
G01 X91.7410 Y3.9644
G01 X91.7557 Y3.9518
G01 X91.8163 Y3.9034
G01 X91.8269 Y3.8958
G01 X91.8434 Y3.8853
G01 X91.8606 Y3.8760
G01 X91.8785 Y3.8680
G01 X91.8907 Y3.8633
G01 X91.9031 Y3.8593
G01 X91.9220 Y3.8544
G01 X91.9762 Y3.8436
G01 X91.9892 Y3.8414
G01 X92.0089 Y3.8392
G01 X92.0287 Y3.8385
G01 X93.5462 Y3.8385
G01 X93.5592 Y3.8388
G01 X93.5721 Y3.8397
G01 X93.5849 Y3.8413
G01 X93.5977 Y3.8434
G01 X93.6166 Y3.8478
G01 X93.6910 Y3.8695
G01 X93.7100 Y3.8759
G01 X93.7285 Y3.8836
G01 X93.7463 Y3.8927
G01 X93.7634 Y3.9030
G01 X93.7744 Y3.9106
G01 X93.7850 Y3.9187
G01 X93.8116 Y3.9403
G01 X93.8277 Y3.9551
G01 X94.5498 Y4.6772
G01 X94.5939 Y4.7222
G01 X94.6156 Y4.7366
G01 X94.6315 Y4.7481
G01 X94.6466 Y4.7601
G01 X94.6564 Y4.7649
G01 X94.6771 Y4.7764
G01 X94.6935 Y4.7864
G01 X94.7179 Y4.7957
G01 X94.7360 Y4.8034
G01 X94.7533 Y4.8117
G01 X94.7720 Y4.8165
G01 X94.7946 Y4.8233
G01 X94.8049 Y4.8269
G01 X94.8308 Y4.8306
G01 X94.8501 Y4.8341
G01 X94.8689 Y4.8383
G01 X95.0071 Y4.8388
G01 X95.0198 Y4.8385
G01 X98.2227 Y4.8386
G01 X98.2356 Y4.8392
G01 X98.2549 Y4.8413
G01 X98.2677 Y4.8434
G01 X98.2804 Y4.8462
G01 X98.2929 Y4.8495
G01 X98.3674 Y4.8715
G01 X98.3800 Y4.8759
G01 X98.3924 Y4.8809
G01 X98.4045 Y4.8865
G01 X98.4163 Y4.8927
G01 X98.4278 Y4.8994
G01 X98.4390 Y4.9067
G01 X98.4498 Y4.9146
G01 X98.4760 Y4.9356
G01 X98.4871 Y4.9451
G01 X98.4977 Y4.9551
G01 X100.1095 Y6.5670
G01 X100.1182 Y6.5766
G01 X100.1303 Y6.5917
G01 X100.1414 Y6.6076
G01 X100.1482 Y6.6187
G01 X100.1853 Y6.6866
G01 X100.1915 Y6.6985
G01 X100.1995 Y6.7168
G01 X100.2041 Y6.7294
G01 X100.2081 Y6.7421
G01 X100.2129 Y6.7615
G01 X100.2163 Y6.7813
G01 X100.2206 Y6.8219
G01 X100.2215 Y6.8438
G01 X100.2215 Y11.3262
G01 X100.2208 Y11.3456
G01 X100.2196 Y11.3585
G01 X100.2177 Y11.3713
G01 X100.2138 Y11.3904
G01 X100.2105 Y11.4029
G01 X100.1905 Y11.4710
G01 X100.1864 Y11.4837
G01 X100.1817 Y11.4962
G01 X100.1764 Y11.5085
G01 X100.1705 Y11.5204
G01 X100.1640 Y11.5321
G01 X100.1570 Y11.5434
G01 X100.1454 Y11.5598
G01 X100.1197 Y11.5916
G01 X100.1049 Y11.6077
G01 X100.0233 Y11.6893
G01 X100.0139 Y11.6982
G01 X100.0042 Y11.7067
G01 X99.9940 Y11.7147
G01 X99.9834 Y11.7222
G01 X99.9670 Y11.7325
G01 X99.8990 Y11.7697
G01 X99.8870 Y11.7759
G01 X99.8747 Y11.7814
G01 X99.8558 Y11.7886
G01 X99.8363 Y11.7944
G01 X99.8165 Y11.7987
G01 X99.7965 Y11.8015
G01 X99.7830 Y11.8026
G01 X99.7628 Y11.8029
G01 X99.7493 Y11.8023
G01 X99.6784 Y11.7972
G01 X99.6650 Y11.7959
G01 X99.6516 Y11.7939
G01 X99.6384 Y11.7913
G01 X99.6253 Y11.7880
G01 X99.6124 Y11.7841
G01 X99.5934 Y11.7770
G01 X99.5810 Y11.7715
G01 X99.5631 Y11.7622
G01 X99.5459 Y11.7515
G01 X99.5349 Y11.7436
G01 X99.4727 Y11.6970
G01 X99.4624 Y11.6885
G01 X99.4500 Y11.6770
G01 X99.2188 Y11.6770
G01 X99.1748 Y11.7504
G01 X99.1676 Y11.7617
G01 X99.1599 Y11.7726
G01 X99.1015 Y11.8514
G01 X99.0933 Y11.8619
G01 X99.0845 Y11.8721
G01 X99.0186 Y11.9448
G01 X99.0094 Y11.9544
G01 X98.9998 Y11.9636
G01 X98.9271 Y12.0295
G01 X98.9169 Y12.0383
G01 X98.9064 Y12.0465
G01 X98.8276 Y12.1049
G01 X98.8167 Y12.1126
G01 X98.8054 Y12.1198
G01 X98.7212 Y12.1702
G01 X98.7096 Y12.1768
G01 X98.6977 Y12.1828
G01 X98.6090 Y12.2248
G01 X98.5968 Y12.2302
G01 X98.5843 Y12.2350
G01 X98.4820 Y12.2714
G01 X98.4820 Y12.3046
G01 X98.5197 Y12.3066
G01 X98.5331 Y12.3082
G01 X98.5464 Y12.3105
G01 X98.5596 Y12.3134
G01 X98.5726 Y12.3170
G01 X98.5855 Y12.3212
G01 X98.5981 Y12.3261
G01 X98.6165 Y12.3345
G01 X98.6284 Y12.3409
G01 X98.6400 Y12.3478
G01 X98.6512 Y12.3554
G01 X98.7091 Y12.3964
G01 X98.7252 Y12.4087
G01 X98.7354 Y12.4175
G01 X98.7499 Y12.4318
G01 X98.7589 Y12.4418
G01 X98.7674 Y12.4523
G01 X98.7792 Y12.4688
G01 X98.7863 Y12.4803
G01 X98.7929 Y12.4921
G01 X98.7989 Y12.5042
G01 X98.8042 Y12.5166
G01 X98.8308 Y12.5824
G01 X98.8377 Y12.6015
G01 X98.8415 Y12.6144
G01 X98.8459 Y12.6342
G01 X98.8489 Y12.6542
G01 X98.8504 Y12.6744
G01 X98.8504 Y12.6947
G01 X98.8495 Y12.7082
G01 X98.8480 Y12.7216
G01 X98.8458 Y12.7349
G01 X98.8312 Y12.8112
G01 X98.8263 Y12.8306
G01 X98.8200 Y12.8496
G01 X98.8150 Y12.8620
G01 X98.8063 Y12.8801
G01 X98.7999 Y12.8917
G01 X98.7928 Y12.9031
G01 X98.7622 Y12.9457
G01 X98.7490 Y12.9624
G01 X98.7346 Y12.9780
G01 X97.4928 Y14.2198
G01 X97.4478 Y14.2639
G01 X97.4373 Y14.2800
G01 X97.4260 Y14.2960
G01 X97.4099 Y14.3166
G01 X97.4011 Y14.3337
G01 X97.3894 Y14.3543
G01 X97.3836 Y14.3635
G01 X97.3769 Y14.3816
G01 X97.3694 Y14.3997
G01 X97.3583 Y14.4233
G01 X97.3535 Y14.4420
G01 X97.3467 Y14.4646
G01 X97.3431 Y14.4749
G01 X97.3394 Y14.5008
G01 X97.3359 Y14.5201
G01 X97.3317 Y14.5389
G01 X97.3312 Y14.6771
G01 X97.3315 Y14.6898
G01 X97.3315 Y14.7967
G01 X97.3308 Y14.8161
G01 X97.3296 Y14.8290
G01 X97.3266 Y14.8481
G01 X97.3222 Y14.8671
G01 X97.2985 Y14.9478
G01 X97.2942 Y14.9603
G01 X97.2892 Y14.9726
G01 X97.2837 Y14.9846
G01 X97.2775 Y14.9964
G01 X97.2708 Y15.0079
G01 X97.2636 Y15.0190
G01 X97.2517 Y15.0349
G01 X97.2387 Y15.0500
G01 X97.2036 Y15.0876
G01 X97.1885 Y15.1019
G01 X97.1779 Y15.1107
G01 X97.1082 Y15.1632
G01 X96.9800 Y15.2974
G01 X96.9692 Y15.3131
G01 X96.9573 Y15.3284
G01 X96.9443 Y15.3429
G01 X96.9304 Y15.3564
G01 X96.9206 Y15.3649
G01 X96.8605 Y15.4140
G01 X96.8499 Y15.4219
G01 X96.8389 Y15.4292
G01 X96.8218 Y15.4392
G01 X96.8040 Y15.4480
G01 X96.7856 Y15.4554
G01 X96.7667 Y15.4614
G01 X96.7474 Y15.4661
G01 X96.6982 Y15.4761
G01 X96.6848 Y15.4784
G01 X96.6645 Y15.4807
G01 X96.6441 Y15.4815
G01 X94.5687 Y15.4815
G01 X94.5493 Y15.4808
G01 X94.5300 Y15.4787
G01 X94.5109 Y15.4753
G01 X94.4983 Y15.4722
G01 X94.4240 Y15.4505
G01 X94.4054 Y15.4443
G01 X94.3873 Y15.4368
G01 X94.3698 Y15.4280
G01 X94.3530 Y15.4180
G01 X94.3422 Y15.4106
G01 X94.3267 Y15.3987
G01 X94.3169 Y15.3901
G01 X94.2723 Y15.3472
G01 X94.2589 Y15.3327
G01 X94.2506 Y15.3224
G01 X94.2445 Y15.3143
G01 X94.1109 Y15.1807
G01 X93.9419 Y15.0622
G01 X93.9267 Y15.0502
G01 X93.9170 Y15.0416
G01 X93.9078 Y15.0325
G01 X93.8948 Y15.0181
G01 X93.8464 Y14.9576
G01 X93.8382 Y14.9468
G01 X93.8306 Y14.9357
G01 X93.8202 Y14.9183
G01 X93.8140 Y14.9063
G01 X93.8084 Y14.8940
G01 X93.8012 Y14.8750
G01 X93.7955 Y14.8556
G01 X93.7911 Y14.8358
G01 X93.7883 Y14.8158
G01 X93.7804 Y14.7384
G01 X93.7797 Y14.7249
G01 X93.7796 Y14.7114
G01 X93.7802 Y14.6979
G01 X93.7815 Y14.6845
G01 X93.7847 Y14.6645
G01 X93.7876 Y14.6513
G01 X93.7912 Y14.6383
G01 X93.7978 Y14.6191
G01 X93.8030 Y14.6066
G01 X93.8088 Y14.5944
G01 X93.8408 Y14.5311
G01 X93.8471 Y14.5194
G01 X93.8575 Y14.5025
G01 X93.8651 Y14.4917
G01 X93.8732 Y14.4813
G01 X93.8819 Y14.4713
G01 X93.8910 Y14.4617
G01 X93.9005 Y14.4526
G01 X93.9304 Y14.4267
G01 X93.9415 Y14.4181
G01 X94.1109 Y14.2993
G01 X94.2443 Y14.1659
G01 X94.3526 Y14.0113
G01 X94.4323 Y13.8403
G01 X94.4812 Y13.6580
G01 X94.4976 Y13.4700
G01 X94.4812 Y13.2820
G01 X94.4323 Y13.0997
G01 X94.3526 Y12.9287
G01 X94.2443 Y12.7741
G01 X94.1109 Y12.6407
G01 X93.9563 Y12.5324
G01 X93.7853 Y12.4527
G01 X93.6030 Y12.4038
G01 X93.4150 Y12.3874
G01 X93.2270 Y12.4038
G01 X93.0447 Y12.4527
G01 X92.8737 Y12.5324
G01 X92.7191 Y12.6407
G01 X92.5855 Y12.7743
G01 X92.5756 Y12.7873
G01 X92.5672 Y12.7971
G01 X92.5583 Y12.8066
G01 X92.5490 Y12.8156
G01 X92.5343 Y12.8282
G01 X92.4789 Y12.8726
G01 X92.4685 Y12.8805
G01 X92.4577 Y12.8879
G01 X92.4409 Y12.8980
G01 X92.4294 Y12.9040
G01 X92.4115 Y12.9120
G01 X92.3931 Y12.9188
G01 X92.3806 Y12.9225
G01 X92.3680 Y12.9256
G01 X92.3138 Y12.9364
G01 X92.2942 Y12.9395
G01 X92.2745 Y12.9412
G01 X92.2613 Y12.9415
G01 X90.2419 Y12.9414
G01 X90.2225 Y12.9403
G01 X90.2032 Y12.9377
G01 X90.1842 Y12.9338
G01 X90.1717 Y12.9305
G01 X90.1036 Y12.9105
G01 X90.0907 Y12.9063
G01 X90.0780 Y12.9016
G01 X90.0656 Y12.8962
G01 X90.0534 Y12.8901
G01 X90.0416 Y12.8835
G01 X90.0301 Y12.8763
G01 X90.0190 Y12.8686
G01 X90.0083 Y12.8603
G01 X89.9980 Y12.8514
G01 X89.9882 Y12.8421
G01 X89.9416 Y12.7953
G01 X89.9332 Y12.7856
G01 X89.9252 Y12.7755
G01 X89.9177 Y12.7650
G01 X89.9069 Y12.7485
G01 X89.8703 Y12.7083
G01 X89.8578 Y12.6934
G01 X89.8463 Y12.6778
G01 X89.8393 Y12.6669
G01 X89.8329 Y12.6557
G01 X89.8269 Y12.6442
G01 X89.7930 Y12.5742
G01 X89.7877 Y12.5618
G01 X89.7809 Y12.5427
G01 X89.7772 Y12.5297
G01 X89.7741 Y12.5166
G01 X89.7717 Y12.5033
G01 X89.7700 Y12.4899
G01 X89.7686 Y12.4697
G01 X89.7685 Y12.4561
G01 X89.7691 Y12.4426
G01 X89.7704 Y12.4292
G01 X89.7797 Y12.3520
G01 X89.7819 Y12.3387
G01 X89.7865 Y12.3190
G01 X89.7904 Y12.3060
G01 X89.7950 Y12.2933
G01 X89.8001 Y12.2808
G01 X89.8059 Y12.2686
G01 X89.8123 Y12.2567
G01 X89.8192 Y12.2451
G01 X89.8307 Y12.2284
G01 X89.8390 Y12.2178
G01 X89.8886 Y12.1579
G01 X89.8976 Y12.1480
G01 X89.9120 Y12.1340
G01 X89.9275 Y12.1210
G01 X89.9383 Y12.1131
G01 X89.9495 Y12.1057
G01 X89.9669 Y12.0956
G01 X89.9912 Y12.0828
G01 X90.0069 Y12.0752
G01 X90.0684 Y12.0284
G01 X90.1145 Y11.9678
G01 X90.1433 Y11.8949
G01 X90.1480 Y11.8563
G01 X90.1480 Y11.5520
G01 X90.1420 Y11.5520
G01 X90.1420 Y11.8300
G01 X90.1417 Y11.8433
G01 X90.1407 Y11.8567
G01 X90.1391 Y11.8699
G01 X90.1368 Y11.8831
G01 X90.1321 Y11.9025
G01 X90.1283 Y11.9153
G01 X90.1238 Y11.9279
G01 X90.1187 Y11.9402
G01 X90.1130 Y11.9523
G01 X90.1033 Y11.9698
G01 X90.0924 Y11.9866
G01 X90.0844 Y11.9973
G01 X90.0715 Y12.0127
G01 X90.0576 Y12.0270
G01 X90.0426 Y12.0403
G01 X90.0266 Y12.0524
G01 X90.0098 Y12.0633
G01 X89.9923 Y12.0730
G01 X89.9741 Y12.0813
G01 X89.9616 Y12.0861
G01 X89.9425 Y12.0921
G01 X89.9296 Y12.0954
G01 X89.9099 Y12.0991
G01 X89.8900 Y12.1013
G01 X89.8700 Y12.1020
G01 X88.0700 Y12.1020
G01 X88.0567 Y12.1017
G01 X88.0367 Y12.1000
G01 X88.0169 Y12.0968
G01 X87.9975 Y12.0921
G01 X87.9847 Y12.0883
G01 X87.9659 Y12.0813
G01 X87.9537 Y12.0759
G01 X87.9359 Y12.0667
G01 X87.9245 Y12.0598
G01 X87.9080 Y12.0485
G01 X87.8974 Y12.0403
G01 X87.8873 Y12.0315
G01 X87.8777 Y12.0223
G01 X87.8640 Y12.0077
G01 X87.8556 Y11.9973
G01 X87.8438 Y11.9811
G01 X87.8367 Y11.9698
G01 X87.8301 Y11.9582
G01 X87.8241 Y11.9463
G01 X87.8162 Y11.9279
G01 X87.8097 Y11.9090
G01 X87.8046 Y11.8896
G01 X87.8009 Y11.8699
G01 X87.7987 Y11.8500
G01 X87.7980 Y11.8300
G01 X87.7980 Y11.5520
G01 X87.7920 Y11.5520
G01 X87.7920 Y11.8563
G01 X87.7967 Y11.8949
G01 X87.8255 Y11.9678
G01 X87.8716 Y12.0284
G01 X87.9334 Y12.0754
G01 X87.9496 Y12.0834
G01 X87.9608 Y12.0899
G01 X87.9717 Y12.0968
G01 X87.9875 Y12.1082
G01 X88.0434 Y12.1519
G01 X88.0539 Y12.1605
G01 X88.0639 Y12.1695
G01 X88.0734 Y12.1791
G01 X88.0825 Y12.1891
G01 X88.0910 Y12.1996
G01 X88.0990 Y12.2105
G01 X88.1065 Y12.2217
G01 X88.1166 Y12.2393
G01 X88.1254 Y12.2575
G01 X88.1328 Y12.2764
G01 X88.1563 Y12.3434
G01 X88.1623 Y12.3627
G01 X88.1655 Y12.3759
G01 X88.1680 Y12.3891
G01 X88.1699 Y12.4025
G01 X88.1714 Y12.4227
G01 X88.1716 Y12.4362
G01 X88.1706 Y12.4565
G01 X88.1681 Y12.4766
G01 X88.1657 Y12.4899
G01 X88.1477 Y12.5655
G01 X88.1444 Y12.5781
G01 X88.1383 Y12.5967
G01 X88.1308 Y12.6147
G01 X88.1252 Y12.6265
G01 X88.1190 Y12.6379
G01 X88.1122 Y12.6490
G01 X88.1049 Y12.6598
G01 X88.0828 Y12.6896
G01 X88.0747 Y12.7000
G01 X88.0660 Y12.7099
G01 X88.0510 Y12.7258
G01 X87.9418 Y12.8859
G01 X87.8602 Y13.0617
G01 X87.8084 Y13.2484
G01 X87.7878 Y13.4411
